lrplugin/MindfulLensFilmEngine.lrplugin/profiles/modular/color_systems/fuji_consumer/6.ML_Natura1600.xmp
<x:xmpmeta xmlns:x="adobe:ns:meta/" x:xmptk="Adobe XMP Core 7.0-c000 1.000000, 0000/00/00-00:00:00        ">
 <rdf:RDF xmlns:rdf="http://www.w3.org/1999/02/22-rdf-syntax-ns#">
  <rdf:Description rdf:about=""
    xmlns:crs="http://ns.adobe.com/camera-raw-settings/1.0/"
   crs:PresetType="Normal"
   crs:Cluster=""
   crs:UUID="867CF3F85E064461820BAB66287F05E6"
   crs:SupportsAmount2="True"
   crs:SupportsAmount="True"
   crs:SupportsColor="True"
   crs:SupportsMonochrome="True"
   crs:SupportsHighDynamicRange="True"
   crs:SupportsNormalDynamicRange="True"
   crs:SupportsSceneReferred="True"
   crs:SupportsOutputReferred="True"
   crs:RequiresRGBTables="False"
   crs:ShowInPresets="True"
   crs:ShowInQuickActions="False"
   crs:CameraModelRestriction=""
   crs:Copyright=""
   crs:ContactInfo=""
   crs:Version="18.2.2"
   crs:ProcessVersion="11.0"
   crs:WhiteBalance="Custom"
   crs:Temperature="4750"
   crs:Tint="-5"
   crs:Exposure2012="+0.10"
   crs:Contrast2012="-4"
   crs:Highlights2012="-50"
   crs:Shadows2012="+38"
   crs:Whites2012="-22"
   crs:Blacks2012="-9"
   crs:Texture="+9"
   crs:Clarity2012="+4"
   crs:Dehaze="0"
   crs:Vibrance="-10"
   crs:Saturation="+4"
   crs:HueAdjustmentRed="+2"
   crs:HueAdjustmentOrange="-2"
   crs:HueAdjustmentYellow="-6"
   crs:HueAdjustmentGreen="-10"
   crs:HueAdjustmentAqua="-6"
   crs:HueAdjustmentBlue="-4"
   crs:SaturationAdjustmentRed="+4"
   crs:SaturationAdjustmentOrange="-7"
   crs:SaturationAdjustmentYellow="-9"
   crs:SaturationAdjustmentGreen="0"
   crs:SaturationAdjustmentAqua="+7"
   crs:SaturationAdjustmentBlue="+9"
   crs:LuminanceAdjustmentRed="0"
   crs:LuminanceAdjustmentOrange="+1"
   crs:LuminanceAdjustmentYellow="-2"
   crs:LuminanceAdjustmentGreen="-9"
   crs:LuminanceAdjustmentAqua="-7"
   crs:LuminanceAdjustmentBlue="-12"
   crs:ColorGradeMidtoneHue="32"
   crs:ColorGradeMidtoneSat="2"
   crs:ColorGradeBlending="45"
   crs:GrainAmount="45"
   crs:GrainSize="33"
   crs:GrainFrequency="82"
   crs:RedHue="+4"
   crs:RedSaturation="+2"
   crs:GreenHue="-11"
   crs:GreenSaturation="0"
   crs:BlueHue="-14"
   crs:BlueSaturation="+9"
   crs:ToneCurveName2012="Custom"
   crs:HasSettings="True">
   <crs:Name>
    <rdf:Alt>
     <rdf:li xml:lang="x-default">6.ML_Natura1600</rdf:li>
    </rdf:Alt>
   </crs:Name>
   <crs:ShortName>
    <rdf:Alt>
     <rdf:li xml:lang="x-default"/>
    </rdf:Alt>
   </crs:ShortName>
   <crs:SortName>
    <rdf:Alt>
     <rdf:li xml:lang="x-default"/>
    </rdf:Alt>
   </crs:SortName>
   <crs:Group>
    <rdf:Alt>
     <rdf:li xml:lang="x-default">[01] The Foundation</rdf:li>
    </rdf:Alt>
   </crs:Group>
   <crs:Description>
    <rdf:Alt>
     <rdf:li xml:lang="x-default"/>
    </rdf:Alt>
   </crs:Description>
   <crs:ToneCurvePV2012>
    <rdf:Seq>
     <rdf:li>0, 8</rdf:li>
     <rdf:li>32, 26</rdf:li>
     <rdf:li>64, 58</rdf:li>
     <rdf:li>128, 130</rdf:li>
     <rdf:li>192, 208</rdf:li>
     <rdf:li>224, 220</rdf:li>
     <rdf:li>255, 238</rdf:li>
    </rdf:Seq>
   </crs:ToneCurvePV2012>
   <crs:ToneCurvePV2012Red>
    <rdf:Seq>
     <rdf:li>0, 6</rdf:li>
     <rdf:li>128, 130</rdf:li>
     <rdf:li>255, 250</rdf:li>
    </rdf:Seq>
   </crs:ToneCurvePV2012Red>
   <crs:ToneCurvePV2012Green>
    <rdf:Seq>
     <rdf:li>0, 0</rdf:li>
     <rdf:li>128, 126</rdf:li>
     <rdf:li>255, 244</rdf:li>
    </rdf:Seq>
   </crs:ToneCurvePV2012Green>
   <crs:ToneCurvePV2012Blue>
    <rdf:Seq>
     <rdf:li>0, 4</rdf:li>
     <rdf:li>128, 120</rdf:li>
     <rdf:li>255, 232</rdf:li>
    </rdf:Seq>
   </crs:ToneCurvePV2012Blue>
  </rdf:Description>
 </rdf:RDF>
</x:xmpmeta>
