lrplugin/MindfulLensFilmEngine.lrplugin/profiles/modular/color_systems/portra/[02] Indoor Balance.xmp
<x:xmpmeta xmlns:x="adobe:ns:meta/">
 <rdf:RDF xmlns:rdf="http://www.w3.org/1999/02/22-rdf-syntax-ns#">
  <rdf:Description crs:Group="MindfulLens" rdf:about=""
    xmlns:crs="http://ns.adobe.com/camera-raw-settings/1.0/"
    crs:PresetType="Normal"
    crs:Cluster=""
    crs:UUID="PORTRA-SCENE-PORTRA---Soft-Golden"
    crs:Version="16.0"
    crs:ProcessVersion="11.0"
    crs:HasSettings="True"
    crs:Temperature="5550"
    crs:Highlights2012="-35"
    crs:LuminanceAdjustmentOrange="15" crs:Name="[02] Indoor Balance">
   <crs:Name>[02] Indoor Balance</crs:Name>
   <crs:Group>MindfulLens</crs:Group>
  </rdf:Description>
 </rdf:RDF>
</x:xmpmeta>
