lrplugin/MindfulLensFilmEngine.lrplugin/profiles/modular/color_systems/fuji/[01] Astia 100F.xmp
<x:xmpmeta xmlns:x="adobe:ns:meta/" x:xmptk="Adobe XMP Core 7.0-c000 1.000000, 0000/00/00-00:00:00        ">
 <rdf:RDF xmlns:rdf="http://www.w3.org/1999/02/22-rdf-syntax-ns#">
  <rdf:Description crs:Group="MindfulLens" rdf:about=""
    xmlns:crs="http://ns.adobe.com/camera-raw-settings/1.0/"
   crs:PresetType="Normal"
   crs:Cluster=""
   crs:UUID="A66349E532935E9D88324018F81C863F"
   crs:SupportsAmount2="True"
   crs:SupportsAmount="True"
   crs:SupportsColor="True"
   crs:SupportsMonochrome="True"
   crs:SupportsHighDynamicRange="True"
   crs:SupportsNormalDynamicRange="True"
   crs:SupportsSceneReferred="True"
   crs:SupportsOutputReferred="True"
   crs:RequiresRGBTables="False"
   crs:ShowInPresets="True"
   crs:ShowInQuickActions="False"
   crs:CameraModelRestriction=""
   crs:Copyright=""
   crs:ContactInfo=""
   crs:Version="18.2.2"
   crs:ProcessVersion="11.0"
   crs:WhiteBalance="Custom"
   crs:Temperature="5400"
   crs:Tint="-2"
   crs:Contrast2012="-5"
   crs:Highlights2012="-20"
   crs:Shadows2012="+20"
   crs:Whites2012="-5"
   crs:Blacks2012="-5"
   crs:Clarity2012="-5"
   crs:Dehaze="-2"
   crs:Vibrance="+6"
   crs:Saturation="-4"
   crs:HueAdjustmentRed="0"
   crs:HueAdjustmentOrange="+2"
   crs:HueAdjustmentYellow="+6"
   crs:HueAdjustmentGreen="+6"
   crs:HueAdjustmentAqua="0"
   crs:HueAdjustmentBlue="0"
   crs:SaturationAdjustmentRed="-4"
   crs:SaturationAdjustmentOrange="-6"
   crs:SaturationAdjustmentYellow="-6"
   crs:SaturationAdjustmentGreen="-8"
   crs:SaturationAdjustmentAqua="0"
   crs:SaturationAdjustmentBlue="-6"
   crs:LuminanceAdjustmentRed="+6"
   crs:LuminanceAdjustmentOrange="+10"
   crs:LuminanceAdjustmentYellow="0"
   crs:LuminanceAdjustmentGreen="0"
   crs:LuminanceAdjustmentAqua="0"
   crs:LuminanceAdjustmentBlue="+4"
   crs:ColorGradeShadowsHue="210"
   crs:ColorGradeShadowsSat="3"
   crs:ColorGradeMidtoneHue="30"
   crs:ColorGradeMidtoneSat="3"
   crs:ColorGradeHighlightsHue="40"
   crs:ColorGradeHighlightsSat="4"
   crs:ColorGradeBlending="45"
   crs:ColorGradeBalance="-3"
   crs:RedHue="+2"
   crs:RedSaturation="0"
   crs:GreenHue="-5"
   crs:GreenSaturation="0"
   crs:BlueHue="-10"
   crs:BlueSaturation="+4"
   crs:GrainAmount="8"
   crs:GrainSize="10"
   crs:GrainFrequency="20"
   crs:ToneCurveName2012="Custom"
   crs:HasSettings="True" crs:Name="[01] Astia 100F">
   <crs:Name>[01] Astia 100F</crs:Name>
   <crs:Group>MindfulLens</crs:Group>
   <crs:ShortName>
    <rdf:Alt>
     <rdf:li xml:lang="x-default"/>
    </rdf:Alt>
   </crs:ShortName>
   <crs:SortName>
    <rdf:Alt>
     <rdf:li xml:lang="x-default"/>
    </rdf:Alt>
   </crs:SortName>
   <crs:Description>
    <rdf:Alt>
     <rdf:li xml:lang="x-default"/>
    </rdf:Alt>
   </crs:Description>
   <crs:ToneCurvePV2012>
    <rdf:Seq>
     <rdf:li>0, 8</rdf:li>
     <rdf:li>32, 30</rdf:li>
     <rdf:li>64, 62</rdf:li>
     <rdf:li>128, 136</rdf:li>
     <rdf:li>192, 204</rdf:li>
     <rdf:li>224, 216</rdf:li>
     <rdf:li>255, 240</rdf:li>
    </rdf:Seq>
   </crs:ToneCurvePV2012>
  </rdf:Description>
 </rdf:RDF>
</x:xmpmeta>
