lrplugin/MindfulLensFilmEngine.lrplugin/profiles/modular/color_systems/fuji/[02] Shadow Open.xmp
<x:xmpmeta xmlns:x="adobe:ns:meta/">
 <rdf:RDF xmlns:rdf="http://www.w3.org/1999/02/22-rdf-syntax-ns#">
  <rdf:Description crs:Group="MindfulLens" rdf:about=""
    xmlns:crs="http://ns.adobe.com/camera-raw-settings/1.0/"
    crs:PresetType="Normal"
    crs:Cluster=""
    crs:UUID="53F6A4E409B15BF5B2E0A01F6FA8CA1E"
    crs:Version="16.0"
    crs:ProcessVersion="11.0"
    crs:HasSettings="True"
    crs:Exposure2012="-0.20"
    crs:Shadows2012="+40" crs:Name="[02] Shadow Open">
   <crs:Name>[02] Shadow Open</crs:Name>
   <crs:Group>MindfulLens</crs:Group>
  </rdf:Description>
 </rdf:RDF>
</x:xmpmeta>
