lrplugin/MindfulLensFilmEngine.lrplugin/profiles/modular/color_systems/fuji/[03] Soft.xmp
<x:xmpmeta xmlns:x="adobe:ns:meta/">
 <rdf:RDF xmlns:rdf="http://www.w3.org/1999/02/22-rdf-syntax-ns#">
  <rdf:Description crs:Group="MindfulLens" rdf:about=""
    xmlns:crs="http://ns.adobe.com/camera-raw-settings/1.0/"
    crs:PresetType="Normal"
    crs:Cluster=""
    crs:UUID="96CCE98937B55FA0AB61F56AF622BC6B"
    crs:Version="16.0"
    crs:ProcessVersion="11.0"
    crs:HasSettings="True"
    crs:Contrast2012="+13"
    crs:Blacks2012="-15" crs:Name="[03] Soft">
   <crs:Name>[03] Soft</crs:Name>
   <crs:Group>MindfulLens</crs:Group>
  </rdf:Description>
 </rdf:RDF>
</x:xmpmeta>
