lrplugin/MindfulLensFilmEngine.lrplugin/profiles/modular/color_systems/fuji/[03] Film Fade.xmp
<x:xmpmeta xmlns:x="adobe:ns:meta/">
 <rdf:RDF xmlns:rdf="http://www.w3.org/1999/02/22-rdf-syntax-ns#">
  <rdf:Description crs:Group="MindfulLens" rdf:about=""
    xmlns:crs="http://ns.adobe.com/camera-raw-settings/1.0/"
    crs:PresetType="Normal"
    crs:Cluster=""
    crs:UUID="0900CFBB79935D2F82630D30480595F9"
    crs:Version="16.0"
    crs:ProcessVersion="11.0"
    crs:HasSettings="True"
    crs:Contrast2012="+5"
    crs:Saturation="0" crs:Name="[03] Film Fade">
   <crs:Name>[03] Film Fade</crs:Name>
   <crs:Group>MindfulLens</crs:Group>
  </rdf:Description>
 </rdf:RDF>
</x:xmpmeta>
