lrplugin/MindfulLensFilmEngine.lrplugin/profiles/luts/acidnom.cube
# Generated from ColorChecker fit
LUT_3D_SIZE 33
DOMAIN_MIN 0.0 0.0 0.0
DOMAIN_MAX 1.0 1.0 1.0
0.085265 0.072143 0.000000
0.088827 0.085630 0.000000
0.094351 0.099376 0.000000
0.102331 0.113737 0.000000
0.113164 0.129002 0.000000
0.127143 0.145398 0.000000
0.144460 0.163090 0.011446
0.165204 0.182177 0.039366
0.189363 0.202696 0.065162
0.216826 0.224619 0.088846
0.247375 0.247856 0.110472
0.280696 0.272252 0.130128
0.316368 0.297590 0.147940
0.353872 0.323588 0.164072
0.392586 0.349901 0.178724
0.431786 0.376122 0.192133
0.470648 0.401777 0.204575
0.508244 0.426331 0.216361
0.543545 0.449185 0.227841
0.575421 0.469677 0.239400
0.602640 0.487079 0.251463
0.623869 0.500603 0.264490
0.637671 0.509394 0.278978
0.642510 0.512536 0.295463
0.636746 0.509048 0.314517
0.618640 0.497887 0.336749
0.586348 0.477944 0.362805
0.537928 0.448048 0.393370
0.471333 0.406965 0.429164
0.384416 0.353396 0.470945
0.274928 0.285980 0.519508
0.140518 0.203291 0.575686
0.000000 0.103839 0.640348
0.169674 0.119737 0.000000
0.172438 0.130836 0.000000
0.177206 0.142241 0.000000
0.184480 0.154319 0.000000
0.194660 0.167371 0.000000
0.208044 0.181637 0.000000
0.224829 0.197291 0.019288
0.245111 0.214446 0.048937
0.268883 0.233149 0.076474
0.296036 0.253385 0.101895
0.326361 0.275075 0.125233
0.359545 0.298077 0.146561
0.395176 0.322185 0.165987
0.432738 0.347128 0.183655
0.471615 0.372573 0.199749
0.511087 0.398125 0.214489
0.550336 0.423322 0.228131
0.588438 0.447640 0.240970
0.624371 0.470493 0.253336
0.657009 0.491229 0.265600
0.685125 0.509134 0.278165
0.707390 0.523429 0.291476
0.722375 0.533273 0.306012
0.728546 0.537761 0.322289
0.724271 0.535924 0.340864
0.707814 0.526729 0.362326
0.677337 0.509080 0.387306
0.630903 0.481819 0.416468
0.566469 0.443722 0.450516
0.481895 0.393503 0.490189
0.374935 0.329811 0.536266
0.243246 0.251233 0.589561
0.084378 0.156291 0.650925
0.242647 0.168323 0.000000
0.244594 0.176981 0.000000
0.248571 0.185985 0.000000
0.255082 0.195713 0.000000
0.264535 0.206478 0.000000
0.277231 0.218531 0.000000
0.293374 0.232060 0.023047
0.313064 0.247187 0.054566
0.336298 0.263973 0.083972
0.362975 0.282413 0.111243
0.392888 0.302441 0.136397
0.425732 0.323926 0.159486
0.461097 0.346673 0.180601
0.498475 0.370425 0.199869
0.537253 0.394859 0.217456
0.576718 0.419592 0.233564
0.616054 0.444174 0.248431
0.654346 0.468093 0.262334
0.690575 0.490774 0.275587
0.723620 0.511578 0.288540
0.752259 0.529800 0.301581
0.775170 0.544676 0.315136
0.790926 0.555375 0.329666
0.798001 0.561003 0.345671
0.794767 0.560604 0.363687
0.779492 0.553157 0.384289
0.750345 0.537578 0.408087
0.705391 0.512719 0.435729
0.642597 0.477369 0.467900
0.559824 0.430252 0.505323
0.454833 0.370032 0.548758
0.325284 0.295304 0.599000
0.168735 0.204605 0.656885
0.304612 0.217849 0.000000
0.305733 0.224025 0.000000
0.308888 0.230580 0.000000
0.314590 0.237903 0.000000
0.323249 0.246320 0.000000
0.335173 0.256093 0.000000
0.350570 0.267421 0.023142
0.369545 0.280439 0.056686
0.392102 0.295218 0.088104
0.418142 0.311768 0.117357
0.447466 0.330031 0.144442
0.479771 0.349890 0.169396
0.514656 0.371161 0.192291
0.551615 0.393598 0.213238
0.590041 0.416892 0.232383
0.629227 0.440669 0.249911
0.668362 0.464493 0.266042
0.706534 0.487862 0.281036
0.742730 0.510214 0.295188
0.775836 0.530920 0.308832
0.804634 0.549289 0.322337
0.827806 0.564568 0.336111
0.843932 0.575936 0.350597
0.851489 0.582514 0.366278
0.848855 0.583355 0.383673
0.834304 0.577450 0.403337
0.806009 0.563728 0.425863
0.762041 0.541052 0.451882
0.700371 0.508222 0.482062
0.618865 0.463976 0.517106
0.515291 0.406986 0.557756
0.387313 0.335864 0.604792
0.232494 0.249154 0.659030
0.356032 0.268226 0.000000
0.356325 0.271893 0.000000
0.358639 0.275965 0.000000
0.363492 0.280842 0.000000
0.371299 0.286863 0.000000
0.382375 0.294301 0.000000
0.396930 0.303366 0.019978
0.415077 0.314207 0.055718
0.436823 0.326905 0.089305
0.462075 0.341481 0.120683
0.490639 0.357890 0.149832
0.522218 0.376027 0.176770
0.556415 0.395719 0.201552
0.592728 0.416732 0.224270
0.630558 0.438769 0.245053
0.669201 0.461467 0.264067
0.707852 0.484402 0.281518
0.745603 0.507084 0.297644
0.781448 0.528962 0.312724
0.814276 0.549420 0.327074
0.842876 0.567779 0.341045
0.865933 0.583295 0.355027
0.882034 0.595162 0.369447
0.889661 0.602510 0.384768
0.887195 0.604406 0.401492
0.872918 0.599851 0.420156
0.845006 0.587787 0.441336
0.801536 0.567088 0.465644
0.740483 0.536566 0.493731
0.659721 0.494970 0.526282
0.557019 0.440986 0.564022
0.430049 0.373234 0.607712
0.276378 0.290273 0.658151
0.397409 0.319329 0.000000
0.396879 0.320474 0.000000
0.398339 0.322042 0.000000
0.402312 0.324446 0.000000
0.409218 0.328036 0.000000
0.419376 0.333097 0.000000
0.433004 0.339852 0.013945
0.450216 0.348460 0.052066
0.471026 0.359014 0.087995
0.495348 0.371548 0.121658
0.522990 0.386028 0.153017
0.553662 0.402360 0.182072
0.586971 0.420384 0.208861
0.622422 0.439876 0.233458
0.659419 0.460552 0.255974
0.697263 0.482061 0.276558
0.735155 0.503990 0.295395
0.772194 0.525862 0.312710
0.807376 0.547136 0.328761
0.839596 0.567208 0.343847
0.867648 0.585411 0.358302
0.890224 0.601014 0.372497
0.905913 0.613221 0.386841
0.913204 0.621175 0.401781
0.910484 0.623953 0.417799
0.896037 0.620570 0.435417
0.868048 0.609977 0.455190
0.824596 0.591062 0.477715
0.763663 0.562649 0.503623
0.683126 0.523497 0.533582
0.580762 0.472305 0.568300
0.454245 0.407704 0.608520
0.301149 0.328264 0.655021
0.429279 0.371003 0.000000
0.427941 0.369624 0.000000
0.428544 0.368680 0.000000
0.431614 0.368597 0.000000
0.437577 0.369735 0.000000
0.446757 0.372392 0.000000
0.459377 0.376801 0.005418
0.475557 0.383134 0.046120
0.495316 0.391496 0.084579
0.518571 0.401932 0.120700
0.545138 0.414420 0.154431
0.574730 0.428878 0.185752
0.606960 0.445156 0.214683
0.641339 0.463046 0.241281
0.677274 0.482271 0.265640
0.714073 0.502494 0.287890
0.750941 0.523313 0.308199
0.786981 0.544264 0.326772
0.821197 0.564816 0.343853
0.852488 0.584379 0.359720
0.879652 0.602295 0.374690
0.901386 0.617846 0.389117
0.916286 0.630248 0.403393
0.922845 0.638655 0.417945
0.919454 0.642157 0.433238
0.904405 0.639780 0.449776
0.875884 0.630487 0.468098
0.831979 0.613177 0.488780
0.770675 0.586686 0.512438
0.689855 0.549785 0.539722
0.587300 0.501184 0.571321
0.460691 0.439528 0.607959
0.307606 0.363396 0.650401
0.452217 0.423054 0.000000
0.450094 0.419163 0.000000
0.449842 0.415714 0.000000
0.451995 0.413142 0.000000
0.456981 0.411820 0.000000
0.465132 0.412058 0.000000
0.476673 0.414100 0.000000
0.491731 0.418129 0.038257
0.510330 0.424264 0.079446
0.532392 0.432560 0.118216
0.557738 0.443007 0.154494
0.586087 0.455534 0.188244
0.617055 0.470005 0.219468
0.650159 0.486221 0.248205
0.684812 0.503919 0.274530
0.720326 0.522772 0.298557
0.755912 0.542392 0.320436
0.790679 0.562323 0.340355
0.823633 0.582050 0.358537
0.853680 0.600991 0.375245
0.879623 0.618503 0.390778
0.900165 0.633877 0.405471
0.913906 0.646343 0.419699
0.919344 0.655065 0.433871
0.914876 0.659145 0.448434
0.898797 0.657622 0.463875
0.869301 0.649469 0.480714
0.824480 0.633598 0.499512
0.762323 0.608856 0.520863
0.680719 0.574027 0.545402
0.577454 0.527831 0.573799
0.450214 0.468925 0.606762
0.296582 0.395901 0.645036
0.466834 0.475255 0.000000
0.463956 0.468880 0.000000
0.462863 0.462944 0.000000
0.464090 0.457896 0.000000
0.468075 0.454119 0.000000
0.475151 0.451935 0.000000
0.485552 0.451602 0.000000
0.499407 0.453313 0.028837
0.516746 0.457198 0.072974
0.537496 0.463324 0.114595
0.561483 0.471694 0.153611
0.588432 0.482248 0.189968
0.617963 0.494861 0.223650
0.649599 0.509347 0.254677
0.682758 0.525454 0.283109
0.716756 0.542868 0.309040
0.750811 0.561210 0.332602
0.784035 0.580039 0.353966
0.815440 0.598849 0.373337
0.843938 0.617071 0.390961
0.868337 0.634073 0.407118
0.887343 0.649160 0.422126
0.899563 0.661570 0.436342
0.903499 0.670483 0.450156
0.897555 0.675009 0.464001
0.880029 0.674200 0.478341
0.849121 0.667042 0.493683
0.802928 0.652458 0.510566
0.739444 0.629305 0.529569
0.656564 0.596381 0.551308
0.552078 0.552416 0.576436
0.423677 0.496080 0.605643
0.268950 0.425978 0.639656
0.473777 0.527346 0.000000
0.470184 0.518525 0.000000
0.468268 0.510135 0.000000
0.468573 0.502635 0.000000
0.471539 0.496422 0.000000
0.477505 0.491829 0.000000
0.486710 0.489125 0.000000
0.499288 0.488515 0.018207
0.515275 0.490141 0.065522
0.534603 0.494082 0.110214
0.557103 0.500352 0.152174
0.582503 0.508904 0.191330
0.610431 0.519624 0.227649
0.640413 0.532336 0.261135
0.671873 0.546803 0.291826
0.704134 0.562720 0.319801
0.736415 0.579721 0.345175
0.767836 0.597376 0.368099
0.797415 0.615191 0.388763
0.824066 0.632610 0.407391
0.846603 0.649012 0.424249
0.863739 0.663712 0.439636
0.874084 0.675963 0.453890
0.876147 0.684952 0.467385
0.868334 0.689807 0.480535
0.848952 0.689587 0.493787
0.816204 0.683290 0.507629
0.768192 0.669852 0.522584
0.702916 0.648143 0.539212
0.618274 0.616970 0.558112
0.512064 0.575078 0.579918
0.381981 0.521145 0.605304
0.225618 0.453789 0.634977
0.473732 0.579029 0.000000
0.469470 0.567815 0.000000
0.466761 0.557016 0.000000
0.466152 0.547104 0.000000
0.468090 0.538488 0.000000
0.472918 0.531510 0.000000
0.480881 0.526453 0.000000
0.492118 0.523534 0.006698
0.506669 0.522905 0.057438
0.524472 0.524659 0.105433
0.545362 0.528820 0.150557
0.569074 0.535352 0.192721
0.595240 0.544155 0.231872
0.623392 0.555065 0.267996
0.652958 0.567854 0.301117
0.683265 0.582230 0.331292
0.713540 0.597839 0.358620
0.742907 0.614263 0.383235
0.770387 0.631020 0.405307
0.794901 0.647564 0.425045
0.815269 0.663287 0.442694
0.830208 0.677516 0.458538
0.838333 0.689515 0.472896
0.838158 0.698484 0.486125
0.828095 0.703560 0.498619
0.806455 0.703816 0.510810
0.771446 0.698263 0.523166
0.721176 0.685845 0.536194
0.653650 0.665446 0.550435
0.566771 0.635885 0.566471
0.458342 0.595917 0.584918
0.326063 0.544234 0.606430
0.167532 0.479465 0.631700
0.467419 0.629975 0.000000
0.462543 0.616433 0.000000
0.459077 0.603285 0.000000
0.457572 0.591013 0.000000
0.458481 0.580037 0.000000
0.462153 0.570713 0.000000
0.468835 0.563335 0.000000
0.478673 0.558131 0.000000
0.491713 0.555266 0.049053
0.507896 0.554842 0.100600
0.527064 0.556898 0.149123
0.548957 0.561409 0.194515
0.573211 0.568285 0.236708
0.599362 0.577375 0.275668
0.626846 0.588462 0.311401
0.654994 0.601268 0.343948
0.683037 0.615448 0.373388
0.710105 0.630597 0.399837
0.735224 0.646244 0.423450
0.757322 0.661856 0.444416
0.775220 0.676835 0.462963
0.787643 0.690521 0.479357
0.793211 0.702189 0.493899
0.790442 0.711052 0.506928
0.777754 0.716258 0.518822
0.753462 0.716891 0.529993
0.715781 0.711974 0.540892
0.662822 0.700464 0.552008
0.592596 0.681256 0.563865
0.503012 0.653180 0.577026
0.391877 0.615003 0.592090
0.256896 0.565429 0.609694
0.095672 0.503099 0.630511
0.455596 0.679818 0.000000
0.450171 0.664028 0.000000
0.445992 0.648602 0.000000
0.443617 0.634035 0.000000
0.443504 0.620758 0.000000
0.446007 0.609140 0.000000
0.451378 0.599485 0.000000
0.459770 0.592034 0.000000
0.471230 0.586963 0.040683
0.485708 0.584387 0.096045
0.503049 0.584355 0.148217
0.522998 0.586854 0.197076
0.545197 0.591807 0.242534
0.569188 0.599074 0.284542
0.594410 0.608450 0.323085
0.620200 0.619667 0.358188
0.645795 0.632394 0.389912
0.670328 0.646237 0.418357
0.692832 0.660736 0.443656
0.712239 0.675371 0.465984
0.727377 0.689555 0.485550
0.736973 0.702640 0.502602
0.739654 0.713913 0.517423
0.733944 0.722597 0.530335
0.718264 0.727853 0.541697
0.690936 0.728778 0.551904
0.650178 0.724405 0.561390
0.594108 0.713703 0.570624
0.520741 0.695579 0.580115
0.427992 0.668874 0.590405
0.313671 0.632368 0.602078
0.175491 0.584777 0.615752
0.011059 0.524751 0.632083
0.439059 0.728159 0.000000
0.433155 0.710212 0.000000
0.428316 0.692594 0.000000
0.425106 0.675810 0.000000
0.423987 0.660305 0.000000
0.425317 0.646458 0.000000
0.429356 0.634584 0.000000
0.436259 0.624937 0.000000
0.446081 0.617705 0.032632
0.458775 0.613013 0.092086
0.474192 0.610924 0.148172
0.492082 0.611435 0.200749
0.512093 0.614482 0.249712
0.533770 0.619935 0.294992
0.556558 0.627602 0.336559
0.579801 0.637227 0.374418
0.602738 0.648490 0.408615
0.624509 0.661009 0.439228
0.644152 0.674337 0.466376
0.660603 0.687963 0.490215
0.672696 0.701314 0.510935
0.679164 0.713753 0.528767
0.678637 0.724578 0.543977
0.669645 0.733025 0.556868
0.650615 0.738266 0.567782
0.619873 0.739409 0.577097
0.575643 0.735500 0.585227
0.516048 0.725520 0.592625
0.439107 0.708387 0.599781
0.342740 0.682954 0.607222
0.224765 0.648012 0.615510
0.082896 0.602289 0.625247
0.000000 0.544448 0.637072
0.418639 0.774562 0.000000
0.412335 0.754565 0.000000
0.406898 0.734853 0.000000
0.402894 0.715945 0.000000
0.400792 0.698296 0.000000
0.400955 0.682297 0.000000
0.403647 0.668276 0.000000
0.409030 0.656497 0.000000
0.417162 0.647161 0.025187
0.428003 0.640405 0.089025
0.441408 0.636302 0.149305
0.457132 0.634862 0.205867
0.474827 0.636032 0.258587
0.494046 0.639695 0.307381
0.514238 0.645670 0.352199
0.534750 0.653713 0.393031
0.554829 0.663515 0.429901
0.573618 0.674706 0.462872
0.590162 0.686850 0.492045
0.603401 0.699450 0.517557
0.612174 0.711943 0.539582
0.615219 0.723703 0.558332
0.611171 0.734042 0.574055
0.598566 0.742206 0.587038
0.575836 0.747380 0.597603
0.541311 0.748683 0.606111
0.493221 0.745172 0.612958
0.429693 0.735840 0.618580
0.348754 0.719618 0.623449
0.248326 0.695369 0.628072
0.126233 0.661898 0.632997
0.000000 0.617943 0.638807
0.000000 0.562178 0.646121
0.395204 0.818559 0.000000
0.388589 0.796630 0.000000
0.382621 0.774937 0.000000
0.377875 0.754010 0.000000
0.374821 0.734316 0.000000
0.373831 0.716257 0.000000
0.375171 0.700173 0.000000
0.379008 0.686340 0.000000
0.385408 0.674971 0.018620
0.394333 0.666214 0.087150
0.405645 0.660154 0.151918
0.419103 0.656814 0.212746
0.434366 0.656151 0.269493
0.450990 0.658060 0.322056
0.468430 0.662372 0.370368
0.486038 0.668855 0.414401
0.503066 0.677212 0.454161
0.518663 0.687083 0.489695
0.531877 0.698047 0.521084
0.541655 0.709615 0.548448
0.546840 0.721238 0.571942
0.546176 0.732302 0.591762
0.538304 0.742129 0.608138
0.521762 0.749978 0.621338
0.494989 0.755045 0.631668
0.456321 0.756461 0.639469
0.403992 0.753296 0.645122
0.336134 0.744553 0.649043
0.250778 0.729174 0.651685
0.145854 0.706037 0.653541
0.019189 0.673956 0.655139
0.000000 0.631681 0.657043
0.000000 0.577900 0.659857
0.369660 0.859646 0.000000
0.362829 0.835918 0.000000
0.356409 0.812369 0.000000
0.350978 0.789541 0.000000
0.347013 0.767913 0.000000
0.344889 0.747899 0.000000
0.344879 0.729850 0.000000
0.347155 0.714054 0.000000
0.351787 0.700736 0.013190
0.358743 0.690055 0.086734
0.367890 0.682109 0.156299
0.378992 0.676932 0.221689
0.391713 0.674492 0.282746
0.405614 0.674697 0.339349
0.420154 0.677389 0.391413
0.434693 0.682348 0.438891
0.448485 0.689289 0.481774
0.460686 0.697864 0.520088
0.470349 0.707662 0.553898
0.476426 0.718207 0.583306
0.477764 0.728962 0.608451
0.473113 0.739324 0.629508
0.461119 0.748627 0.646691
0.440326 0.756142 0.660250
0.409176 0.761076 0.670472
0.366012 0.762573 0.677682
0.309072 0.759714 0.682242
0.236493 0.751513 0.684551
0.146313 0.736926 0.685045
0.036465 0.714840 0.684197
0.000000 0.684082 0.682518
0.000000 0.643413 0.680555
0.000000 0.591534 0.678894
0.342948 0.897286 0.000000
0.336006 0.871904 0.000000
0.329218 0.846637 0.000000
0.323169 0.822040 0.000000
0.318341 0.798603 0.000000
0.315113 0.776751 0.000000
0.313764 0.756849 0.000000
0.314471 0.739194 0.000000
0.317308 0.724024 0.009141
0.322250 0.711510 0.088035
0.329167 0.701762 0.162721
0.337830 0.694824 0.232984
0.347907 0.690678 0.298649
0.358964 0.689242 0.359577
0.370467 0.690371 0.415664
0.381778 0.693855 0.466848
0.392159 0.699422 0.513099
0.400769 0.706735 0.554427
0.406667 0.715396 0.590880
0.408809 0.724941 0.622540
0.406050 0.734842 0.649529
0.397143 0.744510 0.672005
0.380738 0.753290 0.690164
0.355386 0.760465 0.704237
0.319534 0.765255 0.714495
0.271529 0.766813 0.721245
0.209615 0.764233 0.724829
0.131934 0.756542 0.725631
0.036529 0.742705 0.724067
0.000000 0.721623 0.720594
0.000000 0.692134 0.715704
0.000000 0.653012 0.709926
0.000000 0.602967 0.703829
0.316048 0.930904 0.000000
0.309106 0.904027 0.000000
0.302044 0.877195 0.000000
0.295452 0.850974 0.000000
0.289816 0.825866 0.000000
0.285522 0.802308 0.000000
0.282853 0.780676 0.000000
0.281990 0.761281 0.000000
0.283015 0.744370 0.006701
0.285904 0.730127 0.091298
0.290536 0.718673 0.171442
0.296685 0.710064 0.246905
0.304025 0.704295 0.317491
0.312127 0.701294 0.383043
0.320460 0.700928 0.443441
0.328394 0.703000 0.498604
0.335195 0.707249 0.548484
0.340028 0.713351 0.593075
0.341956 0.720916 0.632405
0.339940 0.729495 0.666540
0.332840 0.738571 0.695583
0.319414 0.747566 0.719675
0.298319 0.755838 0.738993
0.268109 0.762682 0.753752
0.227237 0.767327 0.764203
0.174055 0.768940 0.770636
0.106811 0.766626 0.773378
0.023655 0.759424 0.772791
0.000000 0.746312 0.769276
0.000000 0.726200 0.763270
0.000000 0.697940 0.755249
0.000000 0.660316 0.745725
0.000000 0.612051 0.735247
0.289974 0.959894 0.000000
0.283153 0.931694 0.000000
0.275919 0.903462 0.000000
0.268867 0.875775 0.000000
0.262488 0.849148 0.000000
0.257173 0.824029 0.000000
0.253210 0.800805 0.000000
0.250786 0.779799 0.000000
0.249987 0.761271 0.006085
0.250796 0.745416 0.096750
0.253094 0.732366 0.182708
0.256663 0.722191 0.263709
0.261180 0.714894 0.339543
0.266222 0.710419 0.410035
0.271264 0.708642 0.475046
0.275680 0.709377 0.534476
0.278741 0.712377 0.588262
0.279617 0.717328 0.636379
0.277377 0.723854 0.678836
0.270987 0.731515 0.715683
0.259311 0.739808 0.747004
0.241114 0.748165 0.772923
0.215056 0.755957 0.793599
0.179698 0.762488 0.809228
0.133496 0.767003 0.820046
0.074809 0.768679 0.826323
0.001889 0.766631 0.828368
0.000000 0.759913 0.826526
0.000000 0.747510 0.821181
0.000000 0.728349 0.812751
0.000000 0.701290 0.801695
0.000000 0.665131 0.788506
0.000000 0.618605 0.773716
0.265779 0.983614 0.000000
0.259207 0.954277 0.000000
0.251911 0.924823 0.000000
0.244490 0.895842 0.000000
0.237440 0.867859 0.000000
0.231158 0.841337 0.000000
0.225936 0.816672 0.000000
0.221968 0.794201 0.000000
0.219343 0.774193 0.007492
0.218049 0.756856 0.104606
0.217975 0.742334 0.196745
0.218904 0.730708 0.283642
0.220522 0.721995 0.365066
0.222408 0.716147 0.440826
0.224045 0.713054 0.510766
0.224809 0.712543 0.574768
0.223979 0.714376 0.632751
0.220728 0.718252 0.684671
0.214131 0.723806 0.730520
0.203158 0.730611 0.770331
0.186681 0.738175 0.804170
0.163466 0.745943 0.832141
0.132182 0.753295 0.854388
0.091392 0.759550 0.871089
0.039559 0.763961 0.882460
0.000000 0.765719 0.888756
0.000000 0.763952 0.890266
0.000000 0.757723 0.887318
0.000000 0.746031 0.880278
0.000000 0.727813 0.869547
0.000000 0.701941 0.855565
0.000000 0.667225 0.838808
0.000000 0.622411 0.819790
0.244552 1.000000 0.000000
0.238366 0.971111 0.000000
0.231126 0.940627 0.000000
0.223434 0.910537 0.000000
0.215795 0.881378 0.000000
0.208607 0.853623 0.000000
0.202170 0.827682 0.000000
0.196681 0.803901 0.000000
0.192236 0.782564 0.011107
0.188827 0.763889 0.115066
0.186348 0.748033 0.213769
0.184589 0.735086 0.306931
0.183237 0.725078 0.394303
0.181881 0.717974 0.475676
0.180005 0.713675 0.550877
0.176994 0.712020 0.619769
0.172127 0.712781 0.682253
0.164587 0.715671 0.738268
0.153452 0.720336 0.787790
0.137697 0.726360 0.830831
0.116199 0.733263 0.867441
0.087731 0.740502 0.897707
0.050963 0.747469 0.921753
0.004467 0.753494 0.939740
0.000000 0.757843 0.951867
0.000000 0.759718 0.958370
0.000000 0.758257 0.959521
0.000000 0.752537 0.955631
0.000000 0.741569 0.947047
0.000000 0.724300 0.934152
0.000000 0.699615 0.917369
0.000000 0.666336 0.897156
0.000000 0.623219 0.874010
0.227419 1.000000 0.000000
0.221764 0.981499 0.000000
0.214705 0.950190 0.000000
0.206851 0.919189 0.000000
0.198710 0.889045 0.000000
0.190687 0.860242 0.000000
0.183086 0.833202 0.000000
0.176109 0.808283 0.000000
0.169858 0.785781 0.017099
0.164329 0.765925 0.128315
0.159422 0.748883 0.233980
0.154931 0.734759 0.333791
0.150551 0.723594 0.427483
0.145872 0.715363 0.514828
0.140386 0.709981 0.595635
0.133480 0.707296 0.669750
0.124443 0.707095 0.737057
0.112460 0.709100 0.797476
0.096613 0.712971 0.850964
0.075885 0.718302 0.897517
0.049156 0.724626 0.937167
0.015204 0.731410 0.969982
0.000000 0.738060 0.996070
0.000000 0.743916 1.000000
0.000000 0.748256 1.000000
0.000000 0.750294 1.000000
0.000000 0.749181 1.000000
0.000000 0.744004 1.000000
0.000000 0.733785 1.000000
0.000000 0.717485 1.000000
0.000000 0.694000 0.987603
0.000000 0.662162 0.964061
0.000000 0.620741 0.936899
0.215542 1.000000 0.000000
0.210571 0.984709 0.000000
0.203827 0.952794 0.000000
0.195927 0.921093 0.000000
0.187381 0.890168 0.000000
0.178601 0.860514 0.000000
0.169895 0.832567 0.000000
0.161472 0.806694 0.000000
0.153436 0.783203 0.025626
0.145791 0.762336 0.144523
0.138441 0.744273 0.257562
0.131185 0.729128 0.364423
0.123722 0.716954 0.464821
0.115649 0.707740 0.558512
0.106462 0.701409 0.645286
0.095555 0.697825 0.724973
0.082219 0.696784 0.797436
0.065646 0.698020 0.862580
0.044923 0.701205 0.920345
0.019038 0.705944 0.970706
0.000000 0.711783 1.000000
0.000000 0.718201 1.000000
0.000000 0.724614 1.000000
0.000000 0.730375 1.000000
0.000000 0.734774 1.000000
0.000000 0.737036 1.000000
0.000000 0.736323 1.000000
0.000000 0.731735 1.000000
0.000000 0.722306 1.000000
0.000000 0.707007 1.000000
0.000000 0.684747 1.000000
0.000000 0.654371 1.000000
0.000000 0.614658 1.000000
0.210121 1.000000 0.000000
0.205994 0.979974 0.000000
0.199709 0.947683 0.000000
0.191885 0.915508 0.000000
0.183040 0.884019 0.000000
0.173589 0.853727 0.000000
0.163846 0.825075 0.000000
0.154024 0.798446 0.000000
0.144235 0.774157 0.036826
0.134485 0.752462 0.163845
0.124684 0.733554 0.284686
0.114637 0.717558 0.399010
0.104047 0.704539 0.506517
0.092518 0.694497 0.606942
0.079548 0.687368 0.700060
0.064539 0.683026 0.785680
0.046785 0.681280 0.863651
0.025484 0.681875 0.933857
0.000000 0.684496 0.996221
0.000000 0.688759 1.000000
0.000000 0.694221 1.000000
0.000000 0.700373 1.000000
0.000000 0.706644 1.000000
0.000000 0.712397 1.000000
0.000000 0.716935 1.000000
0.000000 0.719494 1.000000
0.000000 0.719249 1.000000
0.000000 0.715309 1.000000
0.000000 0.706723 1.000000
0.000000 0.692472 1.000000
0.000000 0.671476 1.000000
0.000000 0.642593 1.000000
0.000000 0.604614 1.000000
0.212392 0.998272 0.000000
0.209279 0.966491 0.000000
0.203602 0.934070 0.000000
0.195987 0.901658 0.000000
0.186955 0.869838 0.000000
0.176927 0.839130 0.000000
0.166224 0.809992 0.000000
0.155061 0.782817 0.000000
0.143556 0.757933 0.050827
0.131721 0.735608 0.186423
0.119471 0.716045 0.315507
0.106615 0.699381 0.437725
0.092862 0.685693 0.552755
0.077820 0.674992 0.660318
0.060995 0.667227 0.760169
0.041790 0.662283 0.852101
0.019508 0.659980 0.935943
0.000000 0.660078 1.000000
0.000000 0.662268 1.000000
0.000000 0.666183 1.000000
0.000000 0.671390 1.000000
0.000000 0.677391 1.000000
0.000000 0.683626 1.000000
0.000000 0.689473 1.000000
0.000000 0.694243 1.000000
0.000000 0.697187 1.000000
0.000000 0.697488 1.000000
0.000000 0.694271 1.000000
0.000000 0.686593 1.000000
0.000000 0.673449 1.000000
0.000000 0.653771 1.000000
0.000000 0.626426 1.000000
0.000000 0.590219 1.000000
0.223627 0.974952 0.000000
0.221705 0.943425 0.000000
0.216796 0.911132 0.000000
0.209529 0.878735 0.000000
0.200432 0.846827 0.000000
0.189931 0.815942 0.000000
0.178350 0.786548 0.000000
0.165911 0.759050 0.000000
0.152737 0.733790 0.067739
0.138845 0.711044 0.212382
0.124154 0.691028 0.350167
0.108480 0.673893 0.480721
0.091536 0.659725 0.603707
0.072935 0.648549 0.718826
0.052188 0.640323 0.825816
0.028703 0.634946 0.924452
0.001789 0.632249 1.000000
0.000000 0.632003 1.000000
0.000000 0.633912 1.000000
0.000000 0.637620 1.000000
0.000000 0.642706 1.000000
0.000000 0.648683 1.000000
0.000000 0.655005 1.000000
0.000000 0.661058 1.000000
0.000000 0.666168 1.000000
0.000000 0.669595 1.000000
0.000000 0.670538 1.000000
