lrplugin/MindfulLensFilmEngine.lrplugin/profiles/luts/acidnom.cube
# Generated from ColorChecker fit
LUT_3D_SIZE 9
DOMAIN_MIN 0.0 0.0 0.0
DOMAIN_MAX 1.0 1.0 1.0
0.085265 0.072143 0.000000
0.113164 0.129002 0.000000
0.189363 0.202696 0.065162
0.316368 0.297590 0.147940
0.470648 0.401777 0.204575
0.602640 0.487079 0.251463
0.636746 0.509048 0.314517
0.471333 0.406965 0.429164
0.000000 0.103839 0.640348
0.356032 0.268226 0.000000
0.371299 0.286863 0.000000
0.436823 0.326905 0.089305
0.556415 0.395719 0.201552
0.707852 0.484402 0.281518
0.842876 0.567779 0.341045
0.887195 0.604406 0.401492
0.740483 0.536566 0.493731
0.276378 0.290273 0.658151
0.466834 0.475255 0.000000
0.468075 0.454119 0.000000
0.516746 0.457198 0.072974
0.617963 0.494861 0.223650
0.750811 0.561210 0.332602
0.868337 0.634073 0.407118
0.897555 0.675009 0.464001
0.739444 0.629305 0.529569
0.268950 0.425978 0.639656
0.455596 0.679818 0.000000
0.443504 0.620758 0.000000
0.471230 0.586963 0.040683
0.545197 0.591807 0.242534
0.645795 0.632394 0.389912
0.727377 0.689555 0.485550
0.718264 0.727853 0.541697
0.520741 0.695579 0.580115
0.011059 0.524751 0.632083
0.369660 0.859646 0.000000
0.347013 0.767913 0.000000
0.351787 0.700736 0.013190
0.391713 0.674492 0.282746
0.448485 0.689289 0.481774
0.477764 0.728962 0.608451
0.409176 0.761076 0.670472
0.146313 0.736926 0.685045
0.000000 0.591534 0.678894
0.265779 0.983614 0.000000
0.237440 0.867859 0.000000
0.219343 0.774193 0.007492
0.220522 0.721995 0.365066
0.223979 0.714376 0.632751
0.186681 0.738175 0.804170
0.039559 0.763961 0.882460
0.000000 0.746031 0.880278
0.000000 0.622411 0.819790
0.210121 1.000000 0.000000
0.183040 0.884019 0.000000
0.144235 0.774157 0.036826
0.104047 0.704539 0.506517
0.046785 0.681280 0.863651
0.000000 0.694221 1.000000
0.000000 0.716935 1.000000
0.000000 0.706723 1.000000
0.000000 0.604614 1.000000
0.278268 0.895197 0.000000
0.261478 0.770959 0.000000
0.206216 0.658595 0.110671
0.124128 0.583493 0.720360
0.000829 0.554770 1.000000
0.000000 0.565271 1.000000
0.000000 0.591571 1.000000
0.000000 0.593975 1.000000
0.000000 0.516516 1.000000
0.555214 0.576284 0.000000
0.559837 0.474388 0.000000
0.494453 0.376620 0.234746
0.372016 0.311370 1.000000
0.179446 0.290761 1.000000
0.000000 0.310639 1.000000
0.000000 0.350585 1.000000
0.000000 0.373905 1.000000
0.000000 0.327636 1.000000
0.032896 0.013192 0.014362
0.000000 0.054302 0.089429
0.000000 0.108697 0.138551
0.041291 0.182163 0.164555
0.140525 0.264214 0.179785
0.244413 0.328095 0.206099
0.287761 0.330780 0.274871
0.179344 0.212970 0.426991
0.000000 0.000000 0.712863
0.284048 0.190295 0.006429
0.227871 0.189817 0.109748
0.220910 0.208367 0.188904
0.277382 0.254733 0.242170
0.385472 0.321434 0.277335
0.507330 0.384718 0.311702
0.579068 0.404560 0.372092
0.510769 0.324668 0.494838
0.186477 0.072476 0.725790
0.373280 0.378893 0.000000
0.306755 0.337612 0.084997
0.289858 0.319342 0.206261
0.338112 0.335874 0.295557
0.441008 0.382732 0.356118
0.562001 0.439166 0.400695
0.638512 0.468155 0.451551
0.581927 0.416410 0.540466
0.277598 0.214368 0.708735
0.341040 0.563748 0.000000
0.266556 0.485850 0.033577
0.237328 0.433187 0.212807
0.270184 0.420554 0.350684
0.355922 0.446477 0.445887
0.459303 0.493210 0.506612
0.519053 0.526736 0.550568
0.447865 0.496767 0.604979
0.132397 0.336747 0.706587
0.237189 0.720769 0.000000
0.159221 0.613842 0.000000
0.117352 0.532614 0.226966
0.129717 0.494884 0.429760
0.188418 0.502182 0.572636
0.259523 0.539763 0.659233
0.283065 0.576617 0.702706
0.173043 0.565457 0.725725
0.000000 0.442730 0.760475
0.121002 0.817009 0.000000
0.046111 0.692041 0.000000
0.000000 0.591477 0.263404
0.000000 0.536121 0.551236
0.006112 0.530503 0.758597
0.032364 0.562886 0.884574
0.002337 0.605259 0.937765
0.000000 0.613341 0.936287
0.000000 0.526581 0.907769
0.061167 0.810664 0.000000
0.000000 0.682045 0.000000
0.000000 0.574776 0.333028
0.000000 0.512664 0.729801
0.000000 0.503244 1.000000
0.000000 0.537780 1.000000
0.000000 0.591266 1.000000
0.000000 0.622424 1.000000
0.000000 0.573706 1.000000
0.135787 0.651077 0.000000
0.095071 0.536597 0.000000
0.034276 0.438655 0.442984
0.000000 0.384060 0.976386
0.000000 0.383350 1.000000
0.000000 0.430794 1.000000
0.000000 0.504387 1.000000
0.000000 0.565857 1.000000
0.000000 0.560657 1.000000
0.432378 0.278732 0.000000
0.426932 0.199585 0.000000
0.373112 0.130403 0.596660
0.294279 0.100998 1.000000
0.187759 0.124914 1.000000
0.024845 0.199420 1.000000
0.000000 0.305517 1.000000
0.000000 0.407934 1.000000
0.000000 0.455130 1.000000
0.108738 0.032280 0.154127
0.014623 0.065088 0.169307
0.000000 0.106721 0.158947
0.000000 0.164387 0.131338
0.000000 0.229022 0.104285
0.046313 0.275294 0.105106
0.077610 0.261597 0.170639
0.000000 0.130055 0.347232
0.000000 0.000000 0.690753
0.353001 0.198116 0.174423
0.246843 0.184278 0.218258
0.179633 0.186182 0.237147
0.175997 0.214038 0.234824
0.234525 0.261787 0.224540
0.327773 0.307097 0.229059
0.402264 0.311368 0.280663
0.378485 0.219728 0.421147
0.150887 0.000000 0.701822
0.431976 0.374778 0.142529
0.315775 0.317417 0.230206
0.242173 0.280954 0.290223
0.237102 0.278603 0.321760
0.300458 0.307309 0.333513
0.406104 0.347743 0.343692
0.501868 0.364307 0.380022
0.509542 0.305134 0.479746
0.324886 0.102082 0.689619
0.388633 0.545206 0.070731
0.266474 0.450845 0.221219
0.185781 0.380779 0.338028
0.173792 0.351226 0.415783
0.231709 0.362133 0.458625
0.334701 0.397176 0.480209
0.431901 0.423761 0.503706
0.446409 0.393022 0.561802
0.275289 0.239822 0.696699
0.275351 0.683487 0.000000
0.153407 0.562049 0.203607
0.067011 0.466544 0.396656
0.044706 0.416195 0.536771
0.089002 0.413950 0.623538
0.176373 0.446489 0.666056
0.257259 0.484222 0.682943
0.256065 0.481286 0.702329
0.071163 0.375547 0.761862
0.153928 0.754848 0.000000
0.040455 0.619659 0.185919
0.000000 0.510282 0.478441
0.000000 0.448943 0.700842
0.000000 0.441594 0.848153
0.003344 0.477918 0.924920
0.052251 0.531327 0.945204
0.014906 0.558963 0.932581
0.000000 0.501696 0.920145
0.095573 0.715664 0.000000
0.000913 0.583451 0.172947
0.000000 0.475170 0.591958
0.000000 0.416048 0.920355
0.000000 0.415043 1.000000
0.000000 0.464842 1.000000
0.000000 0.541858 1.000000
0.000000 0.606237 1.000000
0.000000 0.601853 1.000000
0.180908 0.513454 0.000000
0.117489 0.404344 0.165722
0.043159 0.315527 0.742022
0.000000 0.275233 1.000000
0.000000 0.295422 1.000000
0.000000 0.371785 1.000000
0.000000 0.483740 1.000000
0.000000 0.594435 1.000000
0.000000 0.650747 1.000000
0.499970 0.086880 0.000000
0.482306 0.024403 0.161515
0.428676 0.000000 0.929688
0.372846 0.000000 1.000000
0.322550 0.034999 1.000000
0.259487 0.154418 1.000000
0.139321 0.316045 1.000000
0.000000 0.486028 1.000000
0.000000 0.614250 1.000000
0.267976 0.103956 0.230674
0.155025 0.137260 0.201819
0.049856 0.174020 0.143791
0.000000 0.222867 0.070342
0.000000 0.276160 0.004738
0.000000 0.309986 0.000000
0.000000 0.284162 0.037704
0.000000 0.142235 0.230384
0.000000 0.000000 0.619125
0.518163 0.267564 0.276224
0.388404 0.247475 0.276658
0.278101 0.238932 0.247323
0.222286 0.253568 0.197415
0.229955 0.286746 0.145644
0.284073 0.317557 0.120239
0.341568 0.308821 0.158939
0.333334 0.207088 0.309003
0.164231 0.000000 0.627204
0.598281 0.440115 0.278238
0.455411 0.372091 0.322954
0.338886 0.321943 0.333998
0.285046 0.304309 0.316010
0.304192 0.317553 0.283147
0.380596 0.343771 0.259081
0.472491 0.348784 0.276999
0.512078 0.282148 0.379603
0.405521 0.077143 0.619112
0.553818 0.602725 0.246669
0.403619 0.495626 0.354443
0.281871 0.410975 0.421336
0.226219 0.366411 0.447432
0.248273 0.363303 0.442335
0.333607 0.386750 0.425160
0.441763 0.405577 0.424541
0.506246 0.372341 0.478625
0.434529 0.223328 0.635074
0.439677 0.727658 0.187710
0.290017 0.593745 0.381104
0.166130 0.485091 0.523099
0.106966 0.422340 0.609228
0.125441 0.409863 0.644538
0.208436 0.435762 0.643591
0.316798 0.471867 0.630464
0.385340 0.473737 0.638750
0.322839 0.380662 0.711558
0.320173 0.778319 0.103797
0.181007 0.633254 0.409153
0.060150 0.514501 0.649290
0.000000 0.445706 0.815184
0.008355 0.434245 0.907327
0.079827 0.471221 0.935726
0.174428 0.531469 0.919905
0.228275 0.573552 0.888902
0.151454 0.539762 0.881270
0.269039 0.709258 0.000000
0.152404 0.572105 0.441051
0.041831 0.460557 0.806151
0.000000 0.401263 1.000000
0.000000 0.404603 1.000000
0.031938 0.464683 1.000000
0.100894 0.559342 1.000000
0.123380 0.650145 1.000000
0.010786 0.682388 1.000000
0.369416 0.466172 0.000000
0.289438 0.359396 0.475497
0.198489 0.275758 0.996168
0.139440 0.244911 1.000000
0.129124 0.280238 1.000000
0.158340 0.378850 1.000000
0.191855 0.521588 1.000000
0.168397 0.673020 1.000000
0.000665 0.781446 1.000000
0.713862 0.000000 0.000000
0.686751 0.000000 0.507432
0.626853 0.000000 1.000000
0.578344 0.000000 1.000000
0.559364 0.011596 1.000000
0.562019 0.167568 1.000000
0.552379 0.375454 1.000000
0.470482 0.602826 1.000000
0.230330 0.800986 1.000000
0.455441 0.192763 0.255869
0.358329 0.236712 0.203442
0.237039 0.277842 0.114170
0.135705 0.326205 0.007264
0.072425 0.375579 0.000000
0.039264 0.403476 0.000000
0.002251 0.371133 0.000000
0.000000 0.223519 0.120587
0.000000 0.000000 0.546733
0.724452 0.364511 0.319549
0.602393 0.346629 0.297276
0.471070 0.335190 0.236371
0.375923 0.343250 0.151491
0.336357 0.367592 0.066808
0.345740 0.388729 0.016010
0.371410 0.370903 0.042301
0.354666 0.262086 0.198399
0.210775 0.000000 0.546538
0.817197 0.542102 0.348739
0.675585 0.470184 0.371419
0.534839 0.412213 0.350373
0.441704 0.384247 0.295704
0.416890 0.386074 0.227029
0.455075 0.401209 0.173482
0.524898 0.396899 0.173710
0.568969 0.324117 0.275879
0.503858 0.117568 0.537666
0.781685 0.704831 0.351061
0.628000 0.590073 0.437276
0.480525 0.495007 0.471366
0.387312 0.438694 0.458878
0.370378 0.423924 0.414875
0.425705 0.437217 0.363936
0.523240 0.448822 0.340154
0.606897 0.412717 0.387139
0.594555 0.266609 0.558014
0.675340 0.823137 0.330377
0.519146 0.680137 0.502494
0.369723 0.560814 0.610779
0.276428 0.487232 0.656226
0.262585 0.465185 0.649344
0.325481 0.484197 0.610154
0.436371 0.517519 0.568198
0.540474 0.522133 0.562528
0.556974 0.438749 0.641714
0.564998 0.858602 0.286790
0.417946 0.705359 0.570958
0.273440 0.578019 0.776284
0.182146 0.501649 0.899205
0.168690 0.485047 0.945674
0.231669 0.520738 0.931161
0.343642 0.584980 0.880649
0.451134 0.637755 0.828638
0.474636 0.622780 0.819143
0.526911 0.763955 0.216643
0.402736 0.621870 0.642798
0.272100 0.506153 0.971792
0.186972 0.444876 1.000000
0.173287 0.449841 1.000000
0.230947 0.516576 1.000000
0.333816 0.624340 1.000000
0.429727 0.736123 1.000000
0.440476 0.798640 1.000000
0.646744 0.483068 0.112520
0.561267 0.376941 0.714380
0.455537 0.295890 1.000000
0.382828 0.270990 1.000000
0.370382 0.317045 1.000000
0.419406 0.432587 1.000000
0.505071 0.599880 1.000000
0.576515 0.784915 1.000000
0.556842 0.937411 1.000000
1.000000 0.000000 0.000000
0.990702 0.000000 0.778314
0.923000 0.000000 1.000000
0.871049 0.000000 1.000000
0.863395 0.035281 1.000000
0.902553 0.220796 1.000000
0.964999 0.467024 1.000000
1.000000 0.742957 1.000000
0.935497 1.000000 1.000000
0.605613 0.253235 0.245224
0.563930 0.319334 0.194301
0.456885 0.375428 0.094819
0.339019 0.432991 0.000000
0.238838 0.487225 0.000000
0.158812 0.517060 0.000000
0.075378 0.485159 0.000000
0.000000 0.337910 0.065633
0.000000 0.005433 0.525977
0.906432 0.444818 0.315759
0.828291 0.438956 0.296085
0.702942 0.433527 0.224875
0.586230 0.443005 0.122247
0.507968 0.465597 0.017836
0.471932 0.483238 0.000000
0.455865 0.461592 0.000000
0.411475 0.350051 0.132972
0.264434 0.081738 0.508073
1.000000 0.637930 0.361243
0.915866 0.570240 0.387423
0.774518 0.511659 0.355783
0.656482 0.479666 0.281887
0.592876 0.475471 0.190815
0.588783 0.484012 0.117161
0.623252 0.473956 0.105035
0.649296 0.397700 0.208062
0.593895 0.191368 0.489382
1.000000 0.810042 0.386968
0.879270 0.694057 0.477389
0.726314 0.594098 0.500401
0.606562 0.530649 0.467013
0.552435 0.507923 0.397750
0.570323 0.513859 0.322651
0.640581 0.520131 0.281271
0.717530 0.482136 0.322681
0.729454 0.339005 0.505466
0.917162 0.929770 0.394463
0.780532 0.782424 0.571299
0.622447 0.656263 0.667829
0.502670 0.574774 0.690510
0.454930 0.545172 0.655309
0.486924 0.558402 0.587713
0.580311 0.589139 0.522721
0.690719 0.595785 0.504849
0.747738 0.520473 0.588128
0.823309 0.956873 0.381500
0.691097 0.798502 0.670706
0.536444 0.664716 0.863406
0.420420 0.582003 0.961499
0.378062 0.560584 0.976399
0.418370 0.594406 0.929038
0.524312 0.661148 0.849860
0.652819 0.722215 0.778826
0.734790 0.722743 0.765413
0.804183 0.842258 0.342090
0.691821 0.696598 0.773408
0.551248 0.577164 1.000000
0.444842 0.513446 1.000000
0.408944 0.518669 1.000000
0.453862 0.589783 1.000000
0.563868 0.707470 1.000000
0.697202 0.836139 1.000000
0.786066 0.923929 1.000000
0.947970 0.527971 0.266485
0.872975 0.422162 0.873440
0.759216 0.342458 1.000000
0.670377 0.321356 1.000000
0.644104 0.375081 1.000000
0.692011 0.503588 1.000000
0.799679 0.690562 1.000000
0.926650 0.903416 1.000000
1.000000 1.000000 1.000000
1.000000 0.000000 0.141180
1.000000 0.000000 0.961080
1.000000 0.000000 1.000000
1.000000 0.000000 1.000000
1.000000 0.076619 1.000000
1.000000 0.286021 1.000000
1.000000 0.564025 1.000000
1.000000 0.881047 1.000000
1.000000 1.000000 1.000000
0.642616 0.229901 0.217902
0.700872 0.331005 0.198169
0.643357 0.414011 0.114123
0.535018 0.491813 0.000000
0.414768 0.561035 0.000000
0.295484 0.602031 0.000000
0.164009 0.578884 0.000000
0.000000 0.439404 0.116960
0.000000 0.115133 0.612906
0.988313 0.454343 0.279865
0.995227 0.471667 0.292706
0.907763 0.482502 0.237067
0.792172 0.502746 0.138527
0.688674 0.532028 0.032184
0.611453 0.553703 0.000000
0.548657 0.534858 0.000000
0.462402 0.426307 0.160010
0.288768 0.162595 0.563709
1.000000 0.674784 0.326612
1.000000 0.620796 0.386437
0.992056 0.570170 0.370308
0.868432 0.541807 0.299251
0.776121 0.538339 0.203807
0.730611 0.546125 0.124032
0.721359 0.535255 0.109497
0.711787 0.459546 0.219287
0.639279 0.256546 0.522006
1.000000 0.866871 0.361099
1.000000 0.757441 0.486103
0.953459 0.659465 0.524373
0.823106 0.594847 0.492382
0.738500 0.569221 0.416113
0.716437 0.571951 0.331070
0.747680 0.576129 0.282267
0.796956 0.538577 0.324238
0.802956 0.399845 0.521028
1.000000 0.997397 0.382527
1.000000 0.851798 0.594687
0.858608 0.723983 0.706030
0.724914 0.638862 0.728469
0.646619 0.605072 0.683437
0.641824 0.614980 0.601879
0.702598 0.644681 0.524258
0.794973 0.654001 0.500549
0.858949 0.586493 0.590247
1.000000 1.000000 0.386334
0.929933 0.865203 0.711414
0.783551 0.728463 0.918285
0.651992 0.641993 1.000000
0.580698 0.617434 1.000000
0.589077 0.650155 0.950820
0.670503 0.719255 0.853612
0.792316 0.787564 0.770150
0.895820 0.801638 0.755374
1.000000 0.896660 0.364201
0.949216 0.750139 0.831748
0.813753 0.628789 1.000000
0.691889 0.563526 1.000000
0.630372 0.568993 1.000000
0.649916 0.643564 1.000000
0.745202 0.769341 1.000000
0.884875 0.912156 1.000000
1.000000 1.000000 1.000000
1.000000 0.554705 0.304048
1.000000 0.450235 0.947393
1.000000 0.371990 1.000000
0.941567 0.353890 1.000000
0.894689 0.413580 1.000000
0.925475 0.552439 1.000000
1.000000 0.755571 1.000000
1.000000 0.991813 1.000000
1.000000 1.000000 1.000000
1.000000 0.000000 0.190037
1.000000 0.000000 1.000000
1.000000 0.000000 1.000000
1.000000 0.000000 1.000000
1.000000 0.096171 1.000000
1.000000 0.325157 1.000000
1.000000 0.629725 1.000000
1.000000 0.981713 1.000000
1.000000 1.000000 1.000000
0.480219 0.057285 0.196710
0.687844 0.207602 0.242464
0.720062 0.330818 0.204111
0.652227 0.441249 0.117247
0.533659 0.536943 0.026985
0.387643 0.599673 0.000000
0.211427 0.594944 0.064288
0.000000 0.471989 0.329652
0.000000 0.163771 0.867216
0.883951 0.328937 0.230527
1.000000 0.381963 0.310408
1.000000 0.420671 0.300827
0.922362 0.462382 0.232822
0.812006 0.508144 0.146953
0.702752 0.542737 0.093290
0.593154 0.534667 0.131421
0.455735 0.436172 0.330448
0.236983 0.183217 0.768990
1.000000 0.589841 0.259351
1.000000 0.560382 0.387578
1.000000 0.527629 0.417678
1.000000 0.511906 0.376137
0.900240 0.517265 0.298958
0.819094 0.531489 0.231658
0.762676 0.526087 0.229269
0.704813 0.456301 0.356340
0.593300 0.261100 0.686933
1.000000 0.813823 0.283811
1.000000 0.720085 0.478384
1.000000 0.632319 0.562860
0.965728 0.573850 0.559171
0.862275 0.551735 0.498765
0.802669 0.556760 0.422603
0.788077 0.563437 0.381165
0.793634 0.530011 0.434442
0.768439 0.398455 0.651943
1.000000 0.965852 0.300774
1.000000 0.829444 0.583477
1.000000 0.706513 0.740808
0.872031 0.623388 0.790143
0.771439 0.590129 0.758376
0.728889 0.600525 0.681913
0.746857 0.632093 0.606679
0.801782 0.646080 0.588110
0.844069 0.587462 0.691162
1.000000 1.000000 0.303347
1.000000 0.847974 0.699750
0.938799 0.713127 0.952198
0.805816 0.626838 1.000000
0.710472 0.602167 1.000000
0.682582 0.635906 1.000000
0.725927 0.708577 0.921624
0.818254 0.784431 0.836942
0.911273 0.811445 0.827969
1.000000 0.869653 0.280880
1.000000 0.726334 0.820334
0.983737 0.606224 1.000000
0.857153 0.541661 1.000000
0.771530 0.548710 1.000000
0.757988 0.627167 1.000000
0.821615 0.760556 1.000000
0.941463 0.916130 1.000000
1.000000 1.000000 1.000000
1.000000 0.507086 0.218961
1.000000 0.406328 0.934605
1.000000 0.331007 1.000000
1.000000 0.316464 1.000000
1.000000 0.381768 1.000000
1.000000 0.529716 1.000000
1.000000 0.746838 1.000000
1.000000 1.000000 1.000000
1.000000 1.000000 1.000000
1.000000 0.000000 0.099421
1.000000 0.000000 1.000000
1.000000 0.000000 1.000000
1.000000 0.000000 1.000000
1.000000 0.044492 1.000000
1.000000 0.290109 1.000000
1.000000 0.617380 1.000000
1.000000 0.999567 1.000000
1.000000 1.000000 1.000000
0.021839 0.000000 0.208106
0.433180 0.000000 0.358254
0.600254 0.053069 0.400461
0.608819 0.209873 0.375785
0.518604 0.344872 0.334800
0.363299 0.441262 0.337592
0.150562 0.465969 0.453767
0.000000 0.369648 0.762442
0.000000 0.086684 1.000000
0.496848 0.000000 0.190048
0.816960 0.097039 0.376109
0.920674 0.176582 0.447682
0.895057 0.251811 0.441270
0.801141 0.325198 0.402892
0.673925 0.382943 0.388081
0.522371 0.394975 0.461885
0.329408 0.314954 0.698868
0.051930 0.080266 1.000000
0.756661 0.310272 0.177617
0.997724 0.317521 0.413614
1.000000 0.313911 0.525270
0.988287 0.321189 0.544533
0.888498 0.344829 0.512866
0.782413 0.374035 0.481248
0.680300 0.381739 0.510173
0.566395 0.324603 0.669651
0.398898 0.143018 1.000000
0.859371 0.579397 0.169108
1.000000 0.511839 0.472848
1.000000 0.443862 0.639087
0.952859 0.400214 0.695219
0.847110 0.389373 0.678152
0.757284 0.403545 0.634310
0.694957 0.418668 0.619633
0.645669 0.394405 0.699574
0.568927 0.274152 0.949103
0.872484 0.764961 0.159058
1.000000 0.646542 0.552132
0.966688 0.536383 0.791239
0.862535 0.462235 0.899218
0.752824 0.435580 0.908423
0.676472 0.451627 0.860724
0.646360 0.489316 0.807503
0.649334 0.511317 0.809662
0.646208 0.464025 0.937614
0.872920 0.821256 0.138243
0.970775 0.679322 0.646025
0.915868 0.552568 0.980069
0.800493 0.471748 1.000000
0.690904 0.451346 1.000000
0.627324 0.489577 1.000000
0.623942 0.568383 1.000000
0.668910 0.653437 1.000000
0.724346 0.694138 1.000000
0.947013 0.693717 0.093680
1.000000 0.559016 0.745329
0.974966 0.444654 1.000000
0.859321 0.384390 1.000000
0.756024 0.395712 1.000000
0.706602 0.479837 1.000000
0.726551 0.621711 1.000000
0.805327 0.790009 1.000000
0.906358 0.937136 1.000000
1.000000 0.318924 0.008627
1.000000 0.225604 0.837086
1.000000 0.156024 1.000000
1.000000 0.146947 1.000000
1.000000 0.218863 1.000000
1.000000 0.375994 1.000000
1.000000 0.606287 1.000000
1.000000 0.881423 1.000000
1.000000 1.000000 1.000000
1.000000 0.000000 0.000000
1.000000 0.000000 0.904578
1.000000 0.000000 1.000000
1.000000 0.000000 1.000000
1.000000 0.000000 1.000000
1.000000 0.122777 1.000000
1.000000 0.470244 1.000000
1.000000 0.879212 1.000000
1.000000 1.000000 1.000000
