lrplugin/MindfulLensFilmEngine.lrplugin/profiles/luts/acidnom.cube
# Generated from ColorChecker fit
LUT_3D_SIZE 5
DOMAIN_MIN 0.0 0.0 0.0
DOMAIN_MAX 1.0 1.0 1.0
0.085265 0.072143 0.000000
0.189363 0.202696 0.065162
0.470648 0.401777 0.204575
0.636746 0.509048 0.314517
0.000000 0.103839 0.640348
0.466834 0.475255 0.000000
0.516746 0.457198 0.072974
0.750811 0.561210 0.332602
0.897555 0.675009 0.464001
0.268950 0.425978 0.639656
0.369660 0.859646 0.000000
0.351787 0.700736 0.013190
0.448485 0.689289 0.481774
0.409176 0.761076 0.670472
0.000000 0.591534 0.678894
0.210121 1.000000 0.000000
0.144235 0.774157 0.036826
0.046785 0.681280 0.863651
0.000000 0.716935 1.000000
0.000000 0.604614 1.000000
0.555214 0.576284 0.000000
0.494453 0.376620 0.234746
0.179446 0.290761 1.000000
0.000000 0.350585 1.000000
0.000000 0.327636 1.000000
0.108738 0.032280 0.154127
0.000000 0.106721 0.158947
0.000000 0.229022 0.104285
0.077610 0.261597 0.170639
0.000000 0.000000 0.690753
0.431976 0.374778 0.142529
0.242173 0.280954 0.290223
0.300458 0.307309 0.333513
0.501868 0.364307 0.380022
0.324886 0.102082 0.689619
0.275351 0.683487 0.000000
0.067011 0.466544 0.396656
0.089002 0.413950 0.623538
0.257259 0.484222 0.682943
0.071163 0.375547 0.761862
0.095573 0.715664 0.000000
0.000000 0.475170 0.591958
0.000000 0.415043 1.000000
0.000000 0.541858 1.000000
0.000000 0.601853 1.000000
0.499970 0.086880 0.000000
0.428676 0.000000 0.929688
0.322550 0.034999 1.000000
0.139321 0.316045 1.000000
0.000000 0.614250 1.000000
0.455441 0.192763 0.255869
0.237039 0.277842 0.114170
0.072425 0.375579 0.000000
0.002251 0.371133 0.000000
0.000000 0.000000 0.546733
0.817197 0.542102 0.348739
0.534839 0.412213 0.350373
0.416890 0.386074 0.227029
0.524898 0.396899 0.173710
0.503858 0.117568 0.537666
0.675340 0.823137 0.330377
0.369723 0.560814 0.610779
0.262585 0.465185 0.649344
0.436371 0.517519 0.568198
0.556974 0.438749 0.641714
0.526911 0.763955 0.216643
0.272100 0.506153 0.971792
0.173287 0.449841 1.000000
0.333816 0.624340 1.000000
0.440476 0.798640 1.000000
1.000000 0.000000 0.000000
0.923000 0.000000 1.000000
0.863395 0.035281 1.000000
0.964999 0.467024 1.000000
0.935497 1.000000 1.000000
0.642616 0.229901 0.217902
0.643357 0.414011 0.114123
0.414768 0.561035 0.000000
0.164009 0.578884 0.000000
0.000000 0.115133 0.612906
1.000000 0.674784 0.326612
0.992056 0.570170 0.370308
0.776121 0.538339 0.203807
0.721359 0.535255 0.109497
0.639279 0.256546 0.522006
1.000000 0.997397 0.382527
0.858608 0.723983 0.706030
0.646619 0.605072 0.683437
0.702598 0.644681 0.524258
0.858949 0.586493 0.590247
1.000000 0.896660 0.364201
0.813753 0.628789 1.000000
0.630372 0.568993 1.000000
0.745202 0.769341 1.000000
1.000000 1.000000 1.000000
1.000000 0.000000 0.190037
1.000000 0.000000 1.000000
1.000000 0.096171 1.000000
1.000000 0.629725 1.000000
1.000000 1.000000 1.000000
0.021839 0.000000 0.208106
0.600254 0.053069 0.400461
0.518604 0.344872 0.334800
0.150562 0.465969 0.453767
0.000000 0.086684 1.000000
0.756661 0.310272 0.177617
1.000000 0.313911 0.525270
0.888498 0.344829 0.512866
0.680300 0.381739 0.510173
0.398898 0.143018 1.000000
0.872484 0.764961 0.159058
0.966688 0.536383 0.791239
0.752824 0.435580 0.908423
0.646360 0.489316 0.807503
0.646208 0.464025 0.937614
0.947013 0.693717 0.093680
0.974966 0.444654 1.000000
0.756024 0.395712 1.000000
0.726551 0.621711 1.000000
0.906358 0.937136 1.000000
1.000000 0.000000 0.000000
1.000000 0.000000 1.000000
1.000000 0.000000 1.000000
1.000000 0.470244 1.000000
1.000000 1.000000 1.000000
