lrplugin/MindfulLensFilmEngine.lrplugin/profiles/luts/acros_x.cube
# Generated from ColorChecker fit
LUT_3D_SIZE 9
DOMAIN_MIN 0.0 0.0 0.0
DOMAIN_MAX 1.0 1.0 1.0
0.266572 0.434651 0.744290
0.235329 0.329198 0.531307
0.227186 0.282771 0.434571
0.235522 0.272845 0.403659
0.255071 0.282698 0.402001
0.281920 0.301412 0.406886
0.313514 0.323871 0.409455
0.348654 0.350764 0.414705
0.387492 0.388582 0.441492
0.235329 0.329198 0.531307
0.216853 0.257496 0.386007
0.219044 0.236344 0.337836
0.235619 0.244669 0.339835
0.261651 0.267198 0.358899
0.293568 0.294465 0.375780
0.329151 0.322805 0.385084
0.367541 0.354358 0.395272
0.409230 0.397066 0.428661
0.227186 0.282771 0.434571
0.219044 0.236344 0.337836
0.229361 0.232960 0.321422
0.252195 0.252993 0.341834
0.282955 0.282625 0.369431
0.318409 0.313839 0.388428
0.356678 0.344421 0.396896
0.397240 0.377961 0.406759
0.440928 0.423852 0.443798
0.235522 0.272845 0.403659
0.235619 0.244669 0.339835
0.252195 0.252993 0.341834
0.279643 0.279646 0.369624
0.313716 0.312257 0.397028
0.351516 0.344262 0.411726
0.391506 0.374896 0.415250
0.433502 0.409202 0.422991
0.478674 0.458024 0.464191
0.255071 0.282698 0.402001
0.261651 0.267198 0.358899
0.282955 0.282625 0.369431
0.313716 0.312257 0.397028
0.350021 0.345176 0.418978
0.389317 0.376266 0.426423
0.430402 0.406216 0.424361
0.473431 0.441517 0.431645
0.519914 0.494466 0.480982
0.281920 0.301412 0.406886
0.293568 0.294465 0.375780
0.318409 0.313839 0.388428
0.351516 0.344262 0.411726
0.389317 0.376266 0.426423
0.429594 0.406187 0.427127
0.471486 0.436166 0.422299
0.515487 0.474143 0.434255
0.563446 0.533866 0.499168
0.313514 0.323871 0.409455
0.329151 0.322805 0.385084
0.356678 0.344421 0.396896
0.391506 0.374896 0.415250
0.430402 0.406216 0.424361
0.471486 0.436166 0.422299
0.514238 0.468336 0.420989
0.559488 0.512120 0.446211
0.609426 0.582716 0.537603
0.348654 0.350764 0.414705
0.367541 0.354358 0.395272
0.397240 0.377961 0.406759
0.433502 0.409202 0.422991
0.473431 0.441517 0.431645
0.515487 0.474143 0.434255
0.559488 0.512120 0.446211
0.606605 0.566294 0.496758
0.659363 0.653312 0.628994
0.387492 0.388582 0.441492
0.409230 0.397066 0.428661
0.440928 0.423852 0.443798
0.478674 0.458024 0.464191
0.519914 0.494466 0.480982
0.563446 0.533866 0.499168
0.609426 0.582716 0.537603
0.659363 0.653312 0.628994
0.716124 0.763752 0.819905
0.235329 0.329198 0.531307
0.216853 0.257496 0.386007
0.219044 0.236344 0.337836
0.235619 0.244669 0.339835
0.261651 0.267198 0.358899
0.293568 0.294465 0.375780
0.329151 0.322805 0.385084
0.367541 0.354358 0.395272
0.409230 0.397066 0.428661
0.216853 0.257496 0.386007
0.209870 0.215065 0.298252
0.221235 0.215193 0.289665
0.245002 0.238255 0.316749
0.276584 0.270433 0.349863
0.312747 0.303708 0.373224
0.351611 0.335867 0.384899
0.392656 0.370501 0.396816
0.436712 0.417004 0.434754
0.219044 0.236344 0.337836
0.221235 0.215193 0.289665
0.239679 0.229575 0.305008
0.268770 0.261318 0.343833
0.304259 0.298052 0.379963
0.343250 0.333213 0.401077
0.384205 0.366036 0.408708
0.426940 0.401563 0.418246
0.472625 0.450639 0.458936
0.235619 0.244669 0.339835
0.245002 0.238255 0.316749
0.268770 0.261318 0.343833
0.301656 0.297135 0.384518
0.339748 0.334787 0.416093
0.380491 0.369160 0.429699
0.422684 0.400942 0.430333
0.466482 0.436625 0.436850
0.513396 0.488504 0.481956
0.261651 0.267198 0.358899
0.276584 0.270433 0.349863
0.304259 0.298052 0.379963
0.339748 0.334787 0.416093
0.379478 0.371169 0.439005
0.421233 0.403533 0.443305
0.464152 0.434019 0.437454
0.508727 0.470570 0.443769
0.556808 0.526933 0.498422
0.293568 0.294465 0.375780
0.312747 0.303708 0.373224
0.343250 0.333213 0.401077
0.380491 0.369160 0.429699
0.421233 0.403533 0.443305
0.463601 0.434118 0.439964
0.507070 0.464506 0.431603
0.552474 0.504089 0.444001
0.602000 0.568066 0.516795
0.329151 0.322805 0.385084
0.351611 0.335867 0.384899
0.384205 0.366036 0.408708
0.422684 0.400942 0.430333
0.464152 0.434019 0.437454
0.507070 0.464506 0.431603
0.551255 0.497442 0.428170
0.597878 0.543673 0.456399
0.649465 0.619846 0.559391
0.367541 0.354358 0.395272
0.392656 0.370501 0.396816
0.426940 0.401563 0.418246
0.466482 0.436625 0.436850
0.508727 0.470570 0.443769
0.552474 0.504089 0.444001
0.597878 0.543673 0.456399
0.646449 0.601617 0.513672
0.701052 0.696020 0.662382
0.409230 0.397066 0.428661
0.436712 0.417004 0.434754
0.472625 0.450639 0.458936
0.513396 0.488504 0.481956
0.556808 0.526933 0.498422
0.602000 0.568066 0.516795
0.649465 0.619846 0.559391
0.701052 0.696020 0.662382
0.759966 0.816136 0.875797
0.227186 0.282771 0.434571
0.219044 0.236344 0.337836
0.229361 0.232960 0.321422
0.252195 0.252993 0.341834
0.282955 0.282625 0.369431
0.318409 0.313839 0.388428
0.356678 0.344421 0.396896
0.397240 0.377961 0.406759
0.440928 0.423852 0.443798
0.219044 0.236344 0.337836
0.221235 0.215193 0.289665
0.239679 0.229575 0.305008
0.268770 0.261318 0.343833
0.304259 0.298052 0.379963
0.343250 0.333213 0.401077
0.384205 0.366036 0.408708
0.426940 0.401563 0.418246
0.472625 0.450639 0.458936
0.229361 0.232960 0.321422
0.239679 0.229575 0.305008
0.264268 0.255183 0.337609
0.297862 0.293061 0.382658
0.336549 0.332291 0.417440
0.377774 0.367758 0.433100
0.420337 0.400151 0.434633
0.464392 0.435961 0.440894
0.511450 0.487483 0.484590
0.252195 0.252993 0.341834
0.268770 0.261318 0.343833
0.297862 0.293061 0.382658
0.334541 0.332951 0.425204
0.375236 0.371522 0.452223
0.417731 0.405107 0.458321
0.461162 0.435848 0.451959
0.506025 0.471686 0.455453
0.554167 0.526368 0.504977
0.282955 0.282625 0.369431
0.304259 0.298052 0.379963
0.336549 0.332291 0.417440
0.375236 0.371522 0.452223
0.417088 0.407727 0.468526
0.460225 0.438693 0.464419
0.504125 0.468011 0.451826
0.549621 0.505074 0.456530
0.598900 0.565079 0.518166
0.318409 0.313839 0.388428
0.343250 0.333213 0.401077
0.377774 0.367758 0.433100
0.417731 0.405107 0.458321
0.460225 0.438693 0.464419
0.503718 0.467753 0.452927
0.548025 0.497329 0.439234
0.594319 0.538265 0.452586
0.645125 0.607208 0.536081
0.356678 0.344421 0.396896
0.384205 0.366036 0.408708
0.420337 0.400151 0.434633
0.461162 0.435848 0.451959
0.504125 0.468011 0.451826
0.548025 0.497329 0.439234
0.593017 0.530294 0.433035
0.640612 0.579200 0.465937
0.693675 0.662148 0.584505
0.397240 0.377961 0.406759
0.426940 0.401563 0.418246
0.464392 0.435961 0.440894
0.506025 0.471686 0.455453
0.549621 0.505074 0.456530
0.594319 0.538265 0.452586
0.640612 0.579200 0.465937
0.690350 0.641627 0.532757
0.746738 0.745096 0.703072
0.440928 0.423852 0.443798
0.472625 0.450639 0.458936
0.511450 0.487483 0.484590
0.554167 0.526368 0.504977
0.598900 0.565079 0.518166
0.645125 0.607208 0.536081
0.693675 0.662148 0.584505
0.746738 0.745096 0.703072
0.807857 0.877052 0.945274
0.235522 0.272845 0.403659
0.235619 0.244669 0.339835
0.252195 0.252993 0.341834
0.279643 0.279646 0.369624
0.313716 0.312257 0.397028
0.351516 0.344262 0.411726
0.391506 0.374896 0.415250
0.433502 0.409202 0.422991
0.478674 0.458024 0.464191
0.235619 0.244669 0.339835
0.245002 0.238255 0.316749
0.268770 0.261318 0.343833
0.301656 0.297135 0.384518
0.339748 0.334787 0.416093
0.380491 0.369160 0.429699
0.422684 0.400942 0.430333
0.466482 0.436625 0.436850
0.513396 0.488504 0.481956
0.252195 0.252993 0.341834
0.268770 0.261318 0.343833
0.297862 0.293061 0.382658
0.334541 0.332951 0.425204
0.375236 0.371522 0.452223
0.417731 0.405107 0.458321
0.461162 0.435848 0.451959
0.506025 0.471686 0.455453
0.554167 0.526368 0.504977
0.279643 0.279646 0.369624
0.301656 0.297135 0.384518
0.334541 0.332951 0.425204
0.373711 0.373276 0.462040
0.415932 0.410092 0.479242
0.459326 0.441185 0.474879
0.503369 0.470147 0.460877
0.548896 0.506370 0.463016
0.598093 0.565051 0.520932
0.313716 0.312257 0.397028
0.339748 0.334787 0.416093
0.375236 0.371522 0.452223
0.415932 0.410092 0.479242
0.458939 0.443932 0.484829
0.502719 0.472279 0.470516
0.547088 0.500174 0.451694
0.593217 0.538462 0.457607
0.643633 0.603791 0.531354
0.351516 0.344262 0.411726
0.380491 0.369160 0.429699
0.417731 0.405107 0.458321
0.459326 0.441185 0.474879
0.502719 0.472279 0.470516
0.546711 0.499076 0.450229
0.591457 0.528069 0.432872
0.638466 0.571554 0.451152
0.690604 0.647628 0.551633
0.391506 0.374896 0.415250
0.422684 0.400942 0.430333
0.461162 0.435848 0.451959
0.503369 0.470147 0.460877
0.547088 0.500174 0.451694
0.591457 0.528069 0.432872
0.636969 0.561775 0.426727
0.685475 0.615038 0.469432
0.740177 0.707408 0.611014
0.433502 0.409202 0.422991
0.466482 0.436625 0.436850
0.506025 0.471686 0.455453
0.548896 0.506370 0.463016
0.593217 0.538462 0.457607
0.638466 0.571554 0.451152
0.685475 0.615038 0.469432
0.736432 0.684113 0.552083
0.794880 0.799778 0.752596
0.478674 0.458024 0.464191
0.513396 0.488504 0.481956
0.554167 0.526368 0.504977
0.598093 0.565051 0.520932
0.643633 0.603791 0.531354
0.690604 0.647628 0.551633
0.740177 0.707408 0.611014
0.794880 0.799778 0.752596
0.858594 0.947189 1.000000
0.255071 0.282698 0.402001
0.261651 0.267198 0.358899
0.282955 0.282625 0.369431
0.313716 0.312257 0.397028
0.350021 0.345176 0.418978
0.389317 0.376266 0.426423
0.430402 0.406216 0.424361
0.473431 0.441517 0.431645
0.519914 0.494466 0.480982
0.261651 0.267198 0.358899
0.276584 0.270433 0.349863
0.304259 0.298052 0.379963
0.339748 0.334787 0.416093
0.379478 0.371169 0.439005
0.421233 0.403533 0.443305
0.464152 0.434019 0.437454
0.508727 0.470570 0.443769
0.556808 0.526933 0.498422
0.282955 0.282625 0.369431
0.304259 0.298052 0.379963
0.336549 0.332291 0.417440
0.375236 0.371522 0.452223
0.417088 0.407727 0.468526
0.460225 0.438693 0.464419
0.504125 0.468011 0.451826
0.549621 0.505074 0.456530
0.598900 0.565079 0.518166
0.313716 0.312257 0.397028
0.339748 0.334787 0.416093
0.375236 0.371522 0.452223
0.415932 0.410092 0.479242
0.458939 0.443932 0.484829
0.502719 0.472279 0.470516
0.547088 0.500174 0.451694
0.593217 0.538462 0.457607
0.643633 0.603791 0.531354
0.350021 0.345176 0.418978
0.379478 0.371169 0.439005
0.417088 0.407727 0.468526
0.458939 0.443932 0.484829
0.502476 0.474668 0.479055
0.546499 0.500626 0.456204
0.591162 0.528295 0.435127
0.637976 0.569972 0.448533
0.689806 0.643756 0.542985
0.389317 0.376266 0.426423
0.421233 0.403533 0.443305
0.460225 0.438693 0.464419
0.502719 0.472279 0.470516
0.546499 0.500626 0.456204
0.590703 0.525874 0.429943
0.635825 0.555965 0.414050
0.683714 0.604646 0.444697
0.737575 0.691466 0.571913
0.430402 0.406216 0.424361
0.464152 0.434019 0.437454
0.504125 0.468011 0.451826
0.547088 0.500174 0.451694
0.591162 0.528295 0.435127
0.635825 0.555965 0.414050
0.681910 0.592576 0.414244
0.731603 0.653327 0.475345
0.788450 0.759217 0.650844
0.473431 0.441517 0.431645
0.508727 0.470570 0.443769
0.549621 0.505074 0.456530
0.593217 0.538462 0.457607
0.637976 0.569972 0.448533
0.683714 0.604646 0.444697
0.731603 0.653327 0.475345
0.784170 0.732663 0.583575
0.845296 0.865106 0.826343
0.519914 0.494466 0.480982
0.556808 0.526933 0.498422
0.598900 0.565079 0.518166
0.643633 0.603791 0.531354
0.689806 0.643756 0.542985
0.737575 0.691466 0.571913
0.788450 0.759217 0.650844
0.845296 0.865106 0.826343
0.912335 1.000000 1.000000
0.281920 0.301412 0.406886
0.293568 0.294465 0.375780
0.318409 0.313839 0.388428
0.351516 0.344262 0.411726
0.389317 0.376266 0.426423
0.429594 0.406187 0.427127
0.471486 0.436166 0.422299
0.515487 0.474143 0.434255
0.563446 0.533866 0.499168
0.293568 0.294465 0.375780
0.312747 0.303708 0.373224
0.343250 0.333213 0.401077
0.380491 0.369160 0.429699
0.421233 0.403533 0.443305
0.463601 0.434118 0.439964
0.507070 0.464506 0.431603
0.552474 0.504089 0.444001
0.602000 0.568066 0.516795
0.318409 0.313839 0.388428
0.343250 0.333213 0.401077
0.377774 0.367758 0.433100
0.417731 0.405107 0.458321
0.460225 0.438693 0.464419
0.503718 0.467753 0.452927
0.548025 0.497329 0.439234
0.594319 0.538265 0.452586
0.645125 0.607208 0.536081
0.351516 0.344262 0.411726
0.380491 0.369160 0.429699
0.417731 0.405107 0.458321
0.459326 0.441185 0.474879
0.502719 0.472279 0.470516
0.546711 0.499076 0.450229
0.591457 0.528069 0.432872
0.638466 0.571554 0.451152
0.690604 0.647628 0.551633
0.389317 0.376266 0.426423
0.421233 0.403533 0.443305
0.460225 0.438693 0.464419
0.502719 0.472279 0.470516
0.546499 0.500626 0.456204
0.590703 0.525874 0.429943
0.635825 0.555965 0.414050
0.683714 0.604646 0.444697
0.737575 0.691466 0.571913
0.429594 0.406187 0.427127
0.463601 0.434118 0.439964
0.503718 0.467753 0.452927
0.546711 0.499076 0.450229
0.590703 0.525874 0.429943
0.635171 0.551736 0.403992
0.680947 0.586056 0.398157
0.730220 0.644032 0.452075
0.786532 0.746663 0.619236
0.471486 0.436166 0.422299
0.507070 0.464506 0.431603
0.548025 0.497329 0.439234
0.591457 0.528069 0.432872
0.635825 0.555965 0.414050
0.680947 0.586056 0.398157
0.727994 0.629188 0.414438
0.779493 0.702007 0.505992
0.839325 0.826967 0.729775
0.515487 0.474143 0.434255
0.552474 0.504089 0.444001
0.594319 0.538265 0.452586
0.638466 0.571554 0.451152
0.683714 0.604646 0.444697
0.730220 0.644032 0.452075
0.779493 0.702007 0.505992
0.834398 0.796672 0.653014
0.899157 0.951927 0.953558
0.563446 0.533866 0.499168
0.602000 0.568066 0.516795
0.645125 0.607208 0.536081
0.690604 0.647628 0.551633
0.737575 0.691466 0.571913
0.786532 0.746663 0.619236
0.839325 0.826967 0.729775
0.899157 0.951927 0.953558
0.970588 1.000000 1.000000
0.313514 0.323871 0.409455
0.329151 0.322805 0.385084
0.356678 0.344421 0.396896
0.391506 0.374896 0.415250
0.430402 0.406216 0.424361
0.471486 0.436166 0.422299
0.514238 0.468336 0.420989
0.559488 0.512120 0.446211
0.609426 0.582716 0.537603
0.329151 0.322805 0.385084
0.351611 0.335867 0.384899
0.384205 0.366036 0.408708
0.422684 0.400942 0.430333
0.464152 0.434019 0.437454
0.507070 0.464506 0.431603
0.551255 0.497442 0.428170
0.597878 0.543673 0.456399
0.649465 0.619846 0.559391
0.356678 0.344421 0.396896
0.384205 0.366036 0.408708
0.420337 0.400151 0.434633
0.461162 0.435848 0.451959
0.504125 0.468011 0.451826
0.548025 0.497329 0.439234
0.593017 0.530294 0.433035
0.640612 0.579200 0.465937
0.693675 0.662148 0.584505
0.391506 0.374896 0.415250
0.422684 0.400942 0.430333
0.461162 0.435848 0.451959
0.503369 0.470147 0.460877
0.547088 0.500174 0.451694
0.591457 0.528069 0.432872
0.636969 0.561775 0.426727
0.685475 0.615038 0.469432
0.740177 0.707408 0.611014
0.430402 0.406216 0.424361
0.464152 0.434019 0.437454
0.504125 0.468011 0.451826
0.547088 0.500174 0.451694
0.591162 0.528295 0.435127
0.635825 0.555965 0.414050
0.681910 0.592576 0.414244
0.731603 0.653327 0.475345
0.788450 0.759217 0.650844
0.471486 0.436166 0.422299
0.507070 0.464506 0.431603
0.548025 0.497329 0.439234
0.591457 0.528069 0.432872
0.635825 0.555965 0.414050
0.680947 0.586056 0.398157
0.727994 0.629188 0.414438
0.779493 0.702007 0.505992
0.839325 0.826967 0.729775
0.514238 0.468336 0.420989
0.551255 0.497442 0.428170
0.593017 0.530294 0.433035
0.636969 0.561775 0.426727
0.681910 0.592576 0.414244
0.727994 0.629188 0.414438
0.776733 0.683905 0.460018
0.830991 0.774827 0.597547
0.894990 0.925857 0.887444
0.559488 0.512120 0.446211
0.597878 0.543673 0.456399
0.640612 0.579200 0.465937
0.685475 0.615038 0.469432
0.731603 0.653327 0.475345
0.779493 0.702007 0.505992
0.830991 0.774827 0.597547
0.889303 0.891336 0.800035
0.958989 1.000000 1.000000
0.609426 0.582716 0.537603
0.649465 0.619846 0.559391
0.693675 0.662148 0.584505
0.740177 0.707408 0.611014
0.788450 0.759217 0.650844
0.839325 0.826967 0.729775
0.894990 0.925857 0.887444
0.958989 1.000000 1.000000
1.000000 1.000000 1.000000
0.348654 0.350764 0.414705
0.367541 0.354358 0.395272
0.397240 0.377961 0.406759
0.433502 0.409202 0.422991
0.473431 0.441517 0.431645
0.515487 0.474143 0.434255
0.559488 0.512120 0.446211
0.606605 0.566294 0.496758
0.659363 0.653312 0.628994
0.367541 0.354358 0.395272
0.392656 0.370501 0.396816
0.426940 0.401563 0.418246
0.466482 0.436625 0.436850
0.508727 0.470570 0.443769
0.552474 0.504089 0.444001
0.597878 0.543673 0.456399
0.646449 0.601617 0.513672
0.701052 0.696020 0.662383
0.397240 0.377961 0.406759
0.426940 0.401563 0.418246
0.464392 0.435961 0.440894
0.506025 0.471686 0.455453
0.549621 0.505074 0.456530
0.594319 0.538265 0.452586
0.640612 0.579200 0.465937
0.690350 0.641627 0.532757
0.746738 0.745096 0.703072
0.433502 0.409202 0.422991
0.466482 0.436625 0.436850
0.506025 0.471686 0.455453
0.548896 0.506370 0.463016
0.593217 0.538462 0.457607
0.638466 0.571554 0.451152
0.685475 0.615038 0.469432
0.736432 0.684113 0.552083
0.794880 0.799778 0.752596
0.473431 0.441517 0.431645
0.508727 0.470570 0.443769
0.549621 0.505074 0.456530
0.593217 0.538462 0.457607
0.637976 0.569972 0.448533
0.683714 0.604646 0.444697
0.731603 0.653327 0.475345
0.784170 0.732663 0.583575
0.845296 0.865106 0.826343
0.515487 0.474143 0.434255
0.552474 0.504089 0.444001
0.594319 0.538265 0.452586
0.638466 0.571554 0.451152
0.683714 0.604646 0.444697
0.730220 0.644032 0.452075
0.779493 0.702007 0.505992
0.834398 0.796672 0.653014
0.899157 0.951927 0.953558
0.559488 0.512120 0.446211
0.597878 0.543673 0.456399
0.640612 0.579200 0.465937
0.685475 0.615038 0.469432
0.731603 0.653327 0.475345
0.779493 0.702007 0.505992
0.830991 0.774827 0.597547
0.889303 0.891336 0.800035
0.958989 1.000000 1.000000
0.606605 0.566294 0.496758
0.646449 0.601617 0.513672
0.690350 0.641627 0.532757
0.736432 0.684113 0.552083
0.784170 0.732663 0.583575
0.834398 0.796672 0.653014
0.889303 0.891336 0.800035
0.952429 1.000000 1.000000
1.000000 1.000000 1.000000
0.659363 0.653312 0.628994
0.701052 0.696020 0.662383
0.746738 0.745096 0.703072
0.794880 0.799778 0.752596
0.845296 0.865106 0.826343
0.899157 0.951927 0.953558
0.958989 1.000000 1.000000
1.000000 1.000000 1.000000
1.000000 1.000000 1.000000
0.387492 0.388582 0.441492
0.409230 0.397066 0.428661
0.440928 0.423852 0.443798
0.478674 0.458024 0.464191
0.519914 0.494466 0.480982
0.563446 0.533866 0.499168
0.609426 0.582716 0.537603
0.659363 0.653312 0.628994
0.716124 0.763752 0.819905
0.409230 0.397066 0.428661
0.436712 0.417004 0.434754
0.472625 0.450639 0.458936
0.513396 0.488504 0.481956
0.556808 0.526933 0.498422
0.602000 0.568066 0.516795
0.649465 0.619846 0.559391
0.701052 0.696020 0.662383
0.759966 0.816136 0.875797
0.440928 0.423852 0.443798
0.472625 0.450639 0.458936
0.511450 0.487483 0.484590
0.554167 0.526368 0.504977
0.598900 0.565079 0.518166
0.645125 0.607208 0.536081
0.693675 0.662148 0.584505
0.746738 0.745096 0.703072
0.807857 0.877052 0.945274
0.478674 0.458024 0.464191
0.513396 0.488504 0.481956
0.554167 0.526368 0.504977
0.598093 0.565051 0.520932
0.643633 0.603791 0.531354
0.690604 0.647628 0.551633
0.740177 0.707408 0.611014
0.794880 0.799778 0.752596
0.858594 0.947189 1.000000
0.519914 0.494466 0.480982
0.556808 0.526933 0.498422
0.598900 0.565079 0.518166
0.643633 0.603791 0.531354
0.689806 0.643756 0.542985
0.737575 0.691466 0.571913
0.788450 0.759217 0.650844
0.845296 0.865106 0.826343
0.912335 1.000000 1.000000
0.563446 0.533866 0.499168
0.602000 0.568066 0.516795
0.645125 0.607208 0.536081
0.690604 0.647628 0.551633
0.737575 0.691466 0.571913
0.786532 0.746663 0.619236
0.839325 0.826967 0.729775
0.899157 0.951927 0.953558
0.970588 1.000000 1.000000
0.609426 0.582716 0.537603
0.649465 0.619846 0.559391
0.693675 0.662148 0.584505
0.740177 0.707408 0.611014
0.788450 0.759217 0.650844
0.839325 0.826967 0.729775
0.894990 0.925857 0.887444
0.958989 1.000000 1.000000
1.000000 1.000000 1.000000
0.659363 0.653312 0.628994
0.701052 0.696020 0.662382
0.746738 0.745096 0.703072
0.794880 0.799778 0.752596
0.845296 0.865106 0.826343
0.899157 0.951927 0.953558
0.958989 1.000000 1.000000
1.000000 1.000000 1.000000
1.000000 1.000000 1.000000
0.716124 0.763752 0.819905
0.759966 0.816136 0.875797
0.807857 0.877052 0.945274
0.858594 0.947189 1.000000
0.912335 1.000000 1.000000
0.970588 1.000000 1.000000
1.000000 1.000000 1.000000
1.000000 1.000000 1.000000
1.000000 1.000000 1.000000
