lrplugin/MindfulLensFilmEngine.lrplugin/profiles/luts/acros_xr.cube
# Generated from ColorChecker fit
LUT_3D_SIZE 33
DOMAIN_MIN 0.0 0.0 0.0
DOMAIN_MAX 1.0 1.0 1.0
0.291563 0.164496 0.387035
0.279068 0.169130 0.399218
0.268539 0.174834 0.409810
0.259825 0.181419 0.418934
0.252781 0.188707 0.426710
0.247272 0.196535 0.433250
0.243168 0.204754 0.438666
0.240345 0.213225 0.443064
0.238690 0.221826 0.446546
0.238093 0.230448 0.449209
0.238454 0.238993 0.451148
0.239678 0.247378 0.452451
0.241680 0.255534 0.453203
0.244378 0.263404 0.453487
0.247701 0.270946 0.453379
0.251583 0.278129 0.452951
0.255965 0.284938 0.452272
0.260796 0.291369 0.451408
0.266033 0.297433 0.450417
0.271638 0.303155 0.449356
0.277582 0.308570 0.448278
0.283841 0.313731 0.447229
0.290399 0.318701 0.446254
0.297250 0.323558 0.445391
0.304390 0.328392 0.444677
0.311825 0.333307 0.444141
0.319570 0.338422 0.443812
0.327642 0.343867 0.443712
0.336070 0.349787 0.443859
0.344888 0.356339 0.444269
0.354137 0.363694 0.444950
0.363865 0.372038 0.445910
0.374128 0.381567 0.447149
0.279068 0.169130 0.399218
0.267582 0.174332 0.410584
0.258010 0.180539 0.420402
0.250203 0.187564 0.428793
0.244019 0.195233 0.435874
0.239323 0.203387 0.441758
0.235987 0.211878 0.446556
0.233891 0.220574 0.450372
0.232922 0.229354 0.453307
0.232971 0.238113 0.455458
0.233941 0.246755 0.456918
0.235739 0.255203 0.457774
0.238281 0.263389 0.458111
0.241487 0.271261 0.458009
0.245288 0.278778 0.457545
0.249619 0.285915 0.456789
0.254425 0.292658 0.455809
0.259654 0.299009 0.454670
0.265267 0.304981 0.453429
0.271226 0.310601 0.452142
0.277504 0.315909 0.450860
0.284079 0.320961 0.449630
0.290939 0.325824 0.448493
0.298076 0.330577 0.447490
0.305491 0.335316 0.446653
0.313190 0.340148 0.446013
0.321190 0.345194 0.445596
0.329510 0.350588 0.445424
0.338182 0.356478 0.445513
0.347239 0.363025 0.445878
0.356726 0.370404 0.446527
0.366692 0.378802 0.447466
0.377195 0.388420 0.448695
0.268539 0.174834 0.409810
0.258010 0.180539 0.420402
0.249345 0.187185 0.429486
0.242396 0.194589 0.437183
0.237023 0.202580 0.443609
0.233094 0.211003 0.448877
0.230482 0.219713 0.453095
0.229068 0.228581 0.456366
0.228740 0.237490 0.458792
0.229394 0.246337 0.460466
0.230933 0.255032 0.461482
0.233265 0.263499 0.461926
0.236308 0.271674 0.461882
0.239985 0.279508 0.461428
0.244228 0.286965 0.460640
0.248974 0.294021 0.459588
0.254169 0.300667 0.458338
0.259764 0.306907 0.456954
0.265720 0.312758 0.455493
0.272003 0.318251 0.454009
0.278586 0.323430 0.452552
0.285451 0.328352 0.451168
0.292585 0.333088 0.449898
0.299984 0.337722 0.448780
0.307649 0.342351 0.447846
0.315589 0.347088 0.447127
0.323822 0.352054 0.446646
0.332370 0.357390 0.446424
0.341265 0.363245 0.446479
0.350544 0.369784 0.446821
0.360251 0.377184 0.447460
0.370439 0.385638 0.448399
0.381168 0.395350 0.449639
0.259825 0.181419 0.418934
0.250203 0.187564 0.428793
0.242396 0.194589 0.437183
0.236258 0.202314 0.444226
0.231651 0.210572 0.450035
0.228443 0.219210 0.454724
0.226510 0.228088 0.458399
0.225736 0.237079 0.461162
0.226009 0.246071 0.463113
0.227227 0.254962 0.464347
0.229295 0.263667 0.464953
0.232124 0.272113 0.465019
0.235631 0.280239 0.464626
0.239744 0.288000 0.463853
0.244394 0.295362 0.462772
0.249522 0.302307 0.461455
0.255074 0.308827 0.459966
0.261005 0.314930 0.458366
0.267275 0.320636 0.456713
0.273853 0.325980 0.455060
0.280715 0.331009 0.453456
0.287843 0.335783 0.451945
0.295227 0.340377 0.450567
0.302863 0.344879 0.449360
0.310756 0.349388 0.448354
0.318916 0.354019 0.447579
0.327362 0.358901 0.447057
0.336119 0.364173 0.446809
0.345220 0.369991 0.446850
0.354703 0.376522 0.447192
0.364616 0.383947 0.447841
0.375012 0.392461 0.448800
0.385953 0.402273 0.450068
0.252781 0.188707 0.426710
0.244019 0.195233 0.435874
0.237023 0.202580 0.443609
0.231651 0.210572 0.450035
0.227765 0.219045 0.455267
0.225235 0.227848 0.459413
0.223940 0.236846 0.462580
0.223764 0.245915 0.464871
0.224598 0.254945 0.466383
0.226343 0.263840 0.467209
0.228902 0.272516 0.467440
0.232191 0.280904 0.467160
0.236129 0.288948 0.466450
0.240643 0.296603 0.465388
0.245669 0.303841 0.464046
0.251147 0.310646 0.462493
0.257026 0.317015 0.460793
0.263263 0.322957 0.459007
0.269820 0.328498 0.457190
0.276667 0.333674 0.455395
0.283782 0.338536 0.453670
0.291149 0.343149 0.452057
0.298759 0.347589 0.450597
0.306611 0.351947 0.449324
0.314711 0.356329 0.448270
0.323072 0.360850 0.447462
0.331713 0.365643 0.446922
0.340662 0.370852 0.446669
0.349952 0.376633 0.446718
0.359625 0.383160 0.447078
0.369730 0.390616 0.447756
0.380322 0.399198 0.448754
0.391464 0.409119 0.450069
0.247272 0.196535 0.433250
0.239323 0.203387 0.441758
0.233094 0.211003 0.448877
0.228443 0.219210 0.454724
0.225235 0.227848 0.459413
0.223343 0.236771 0.463052
0.222645 0.245844 0.465748
0.223028 0.254949 0.467600
0.224386 0.263978 0.468706
0.226619 0.272838 0.469158
0.229636 0.281450 0.469045
0.233350 0.289747 0.468451
0.237685 0.297676 0.467456
0.242569 0.305197 0.466135
0.247939 0.312285 0.464561
0.253738 0.318926 0.462801
0.259916 0.325121 0.460919
0.266432 0.330883 0.458973
0.273249 0.336240 0.457019
0.280341 0.341233 0.455108
0.287685 0.345915 0.453287
0.295268 0.350355 0.451597
0.303084 0.354632 0.450078
0.311132 0.358842 0.448764
0.319421 0.363091 0.447684
0.327964 0.367500 0.446864
0.336783 0.372205 0.446327
0.345908 0.377352 0.446090
0.355374 0.383102 0.446166
0.365225 0.389631 0.446564
0.375510 0.397126 0.447290
0.386287 0.405789 0.448344
0.397620 0.415833 0.449723
0.243168 0.204754 0.438666
0.235987 0.211878 0.446556
0.230482 0.219713 0.453095
0.226510 0.228088 0.458399
0.223940 0.236846 0.462580
0.222645 0.245844 0.465748
0.222506 0.254952 0.468005
0.223411 0.264053 0.469453
0.225257 0.273045 0.470185
0.227944 0.281836 0.470295
0.231384 0.290351 0.469870
0.235492 0.298528 0.468992
0.240192 0.306315 0.467740
0.245416 0.313676 0.466190
0.251101 0.320590 0.464413
0.257193 0.327046 0.462474
0.263643 0.333048 0.460436
0.270412 0.338614 0.458357
0.277466 0.343773 0.456292
0.284779 0.348571 0.454290
0.292331 0.353063 0.452397
0.300110 0.357322 0.450654
0.308111 0.361432 0.449099
0.316337 0.365489 0.447764
0.324797 0.369604 0.446680
0.333507 0.373903 0.445870
0.342490 0.378523 0.445356
0.351778 0.383614 0.445154
0.361407 0.389341 0.445276
0.371424 0.395883 0.445730
0.381879 0.403430 0.446521
0.392833 0.412186 0.447648
0.404350 0.422371 0.449107
0.240345 0.213225 0.443064
0.233891 0.220574 0.450372
0.229068 0.228581 0.456366
0.225736 0.237079 0.461162
0.223764 0.245915 0.464871
0.223028 0.254949 0.467600
0.223411 0.264053 0.469453
0.224804 0.273116 0.470527
0.227102 0.282036 0.470918
0.230211 0.290728 0.470717
0.234041 0.299118 0.470009
0.238512 0.307146 0.468876
0.243548 0.314767 0.467398
0.249083 0.321947 0.465647
0.255056 0.328667 0.463693
0.261415 0.334920 0.461601
0.268113 0.340714 0.459434
0.275112 0.346070 0.457248
0.282380 0.351020 0.455096
0.289893 0.355614 0.453027
0.297632 0.359910 0.451085
0.305588 0.363984 0.449311
0.313758 0.367924 0.447742
0.322145 0.371828 0.446409
0.330761 0.375813 0.445341
0.339623 0.380006 0.444560
0.348757 0.384547 0.444088
0.358196 0.389592 0.443939
0.367979 0.395308 0.444124
0.378152 0.401875 0.444652
0.388769 0.409490 0.445524
0.399892 0.418358 0.446739
0.411588 0.428703 0.448293
0.238690 0.221826 0.446546
0.232922 0.229354 0.453307
0.228740 0.237490 0.458792
0.226009 0.246071 0.463113
0.224598 0.254945 0.466383
0.224386 0.263978 0.468706
0.225257 0.273045 0.470185
0.227102 0.282036 0.470918
0.229821 0.290855 0.470998
0.233319 0.299419 0.470515
0.237510 0.307658 0.469554
0.242315 0.315516 0.468196
0.247659 0.322950 0.466518
0.253479 0.329929 0.464592
0.259715 0.336439 0.462488
0.266317 0.342475 0.460270
0.273240 0.348049 0.457999
0.280447 0.353185 0.455729
0.287908 0.357919 0.453513
0.295601 0.362303 0.451400
0.303510 0.366400 0.449432
0.311626 0.370288 0.447649
0.319948 0.374058 0.446086
0.328481 0.377815 0.444775
0.337240 0.381674 0.443742
0.346242 0.385769 0.443010
0.355516 0.390242 0.442597
0.365096 0.395253 0.442519
0.375023 0.400971 0.442785
0.385345 0.407582 0.443401
0.396118 0.415283 0.444370
0.407404 0.424286 0.445688
0.419275 0.434815 0.447350
0.238093 0.230448 0.449209
0.232971 0.238113 0.455458
0.229394 0.246337 0.460466
0.227227 0.254962 0.464347
0.226343 0.263840 0.467209
0.226619 0.272838 0.469158
0.227944 0.281836 0.470295
0.230211 0.290728 0.470717
0.233319 0.299419 0.470515
0.237178 0.307831 0.469779
0.241702 0.315897 0.468593
0.246813 0.323565 0.467036
0.252440 0.330793 0.465185
0.258519 0.337557 0.463112
0.264995 0.343843 0.460883
0.271817 0.349651 0.458563
0.278943 0.354996 0.456210
0.286338 0.359905 0.453881
0.293974 0.364419 0.451624
0.301829 0.368591 0.449489
0.309891 0.372489 0.447515
0.318151 0.376194 0.445744
0.326611 0.379800 0.444207
0.335279 0.383414 0.442936
0.344168 0.387158 0.441957
0.353300 0.391166 0.441291
0.362704 0.395585 0.440955
0.372417 0.400577 0.440964
0.382481 0.406316 0.441325
0.392946 0.412990 0.442045
0.403870 0.420800 0.443125
0.415317 0.429961 0.444560
0.427360 0.440701 0.446343
0.238454 0.238993 0.451148
0.233941 0.246755 0.456918
0.230933 0.255032 0.461482
0.229295 0.263667 0.464953
0.228902 0.272516 0.467440
0.229636 0.281450 0.469045
0.231384 0.290351 0.469870
0.234041 0.299118 0.470009
0.237510 0.307658 0.469554
0.241702 0.315897 0.468593
0.246531 0.323772 0.467208
0.251923 0.331232 0.465479
0.257809 0.338241 0.463481
0.264125 0.344776 0.461285
0.270818 0.350829 0.458956
0.277840 0.356402 0.456557
0.285150 0.361513 0.454147
0.292714 0.366192 0.451779
0.300508 0.370484 0.449503
0.308510 0.374446 0.447366
0.316710 0.378148 0.445408
0.325101 0.381675 0.443666
0.333687 0.385125 0.442175
0.342477 0.388608 0.440963
0.351487 0.392248 0.440054
0.360740 0.396184 0.439471
0.370267 0.400566 0.439228
0.380106 0.405558 0.439338
0.390302 0.411339 0.439810
0.400906 0.418100 0.440648
0.411978 0.426045 0.441851
0.423585 0.435393 0.443415
0.435799 0.446374 0.445332
0.239678 0.247378 0.452451
0.235739 0.255203 0.457774
0.233265 0.263499 0.461926
0.232124 0.272113 0.465019
0.232191 0.280904 0.467160
0.233350 0.289747 0.468451
0.235492 0.298528 0.468992
0.238512 0.307146 0.468876
0.242315 0.315516 0.468196
0.246813 0.323565 0.467036
0.251923 0.331232 0.465479
0.257573 0.338471 0.463604
0.263694 0.345250 0.461483
0.270226 0.351549 0.459187
0.277116 0.357361 0.456781
0.284319 0.362694 0.454326
0.291795 0.367569 0.451880
0.299513 0.372019 0.449496
0.307448 0.376091 0.447221
0.315583 0.379848 0.445102
0.323908 0.383361 0.443178
0.332419 0.386720 0.441485
0.341120 0.390024 0.440057
0.350023 0.393389 0.438920
0.359145 0.396942 0.438099
0.368512 0.400823 0.437613
0.378156 0.405188 0.437478
0.388117 0.410203 0.437705
0.398442 0.416051 0.438300
0.409183 0.422926 0.439269
0.420402 0.431036 0.440608
0.432168 0.440601 0.442312
0.444554 0.451857 0.444372
0.241680 0.255534 0.453203
0.238281 0.263389 0.458111
0.236308 0.271674 0.461882
0.235631 0.280239 0.464626
0.236129 0.288948 0.466450
0.237685 0.297676 0.467456
0.240192 0.306315 0.467740
0.243548 0.314767 0.467398
0.247659 0.322950 0.466518
0.252440 0.330793 0.465185
0.257809 0.338241 0.463481
0.263694 0.345250 0.461483
0.270030 0.351791 0.459264
0.276758 0.357848 0.456891
0.283827 0.363417 0.454430
0.291194 0.368509 0.451941
0.298820 0.373149 0.449480
0.306677 0.377373 0.447098
0.314741 0.381232 0.444844
0.322996 0.384790 0.442761
0.331435 0.388125 0.440889
0.340055 0.391328 0.439263
0.348863 0.394502 0.437914
0.357871 0.397765 0.436869
0.367100 0.401249 0.436150
0.376575 0.405098 0.435777
0.386332 0.409469 0.435763
0.396412 0.414534 0.436119
0.406863 0.420476 0.436852
0.417741 0.427495 0.437962
0.429108 0.435801 0.439448
0.441035 0.445619 0.441303
0.453598 0.457188 0.443517
0.244378 0.263404 0.453487
0.241487 0.271261 0.458009
0.239985 0.279508 0.461428
0.239744 0.288000 0.463853
0.240643 0.296603 0.465388
0.242569 0.305197 0.466135
0.245416 0.313676 0.466190
0.249083 0.321947 0.465647
0.253479 0.329929 0.464592
0.258519 0.337557 0.463112
0.264125 0.344776 0.461285
0.270226 0.351549 0.459187
0.276758 0.357848 0.456891
0.283665 0.363660 0.454464
0.290897 0.368986 0.451969
0.298412 0.373840 0.449466
0.306174 0.378249 0.447009
0.314156 0.382254 0.444650
0.322337 0.385909 0.442435
0.330702 0.389280 0.440406
0.339246 0.392450 0.438603
0.347967 0.395513 0.437060
0.356875 0.398575 0.435805
0.365982 0.401757 0.434866
0.375312 0.405195 0.434264
0.384893 0.409035 0.434017
0.394761 0.413440 0.434138
0.404959 0.418583 0.434636
0.415537 0.424652 0.435516
0.426553 0.431848 0.436779
0.438070 0.440387 0.438422
0.450161 0.450496 0.440437
0.462905 0.462416 0.442813
0.247701 0.270946 0.453379
0.245288 0.278778 0.457545
0.244228 0.286965 0.460640
0.244394 0.295362 0.462772
0.245669 0.303841 0.464046
0.247939 0.312285 0.464561
0.251101 0.320590 0.464413
0.255056 0.328667 0.463693
0.259715 0.336439 0.462488
0.264995 0.343843 0.460883
0.270818 0.350829 0.458956
0.277116 0.357361 0.456781
0.283827 0.363417 0.454430
0.290897 0.368986 0.451969
0.298277 0.374072 0.449460
0.305927 0.378694 0.446962
0.313813 0.382880 0.444529
0.321910 0.386676 0.442210
0.330197 0.390139 0.440051
0.338664 0.393339 0.438094
0.347304 0.396361 0.436376
0.356120 0.399302 0.434930
0.365122 0.402273 0.433785
0.374325 0.405398 0.432966
0.383754 0.408816 0.432494
0.393438 0.412676 0.432385
0.403416 0.417144 0.432652
0.413733 0.422398 0.433302
0.424440 0.428628 0.434340
0.435596 0.436039 0.435766
0.447269 0.444849 0.437575
0.459530 0.455290 0.439759
0.472461 0.467607 0.442304
0.251583 0.278129 0.452951
0.249619 0.285915 0.456789
0.248974 0.294021 0.459588
0.249522 0.302307 0.461455
0.251147 0.310646 0.462493
0.253738 0.318926 0.462801
0.257193 0.327046 0.462474
0.261415 0.334920 0.461601
0.266317 0.342475 0.460270
0.271817 0.349651 0.458563
0.277840 0.356402 0.456557
0.284319 0.362694 0.454326
0.291194 0.368509 0.451941
0.298412 0.373840 0.449466
0.305927 0.378694 0.446962
0.313700 0.383092 0.444488
0.321699 0.387067 0.442096
0.329901 0.390668 0.439834
0.338287 0.393954 0.437747
0.346848 0.397001 0.435877
0.355579 0.399895 0.434258
0.364486 0.402737 0.432924
0.373578 0.405642 0.431902
0.382875 0.408737 0.431217
0.392401 0.412163 0.430886
0.402190 0.416075 0.430927
0.412279 0.420640 0.431351
0.422717 0.426040 0.432164
0.433556 0.432469 0.433369
0.444858 0.440135 0.434966
0.456691 0.449260 0.436949
0.469130 0.460078 0.439308
0.482257 0.472837 0.442030
0.255965 0.284938 0.452272
0.254425 0.292658 0.455809
0.254169 0.300667 0.458338
0.255074 0.308827 0.459966
0.257026 0.317015 0.460793
0.259916 0.325121 0.460919
0.263643 0.333048 0.460436
0.268113 0.340714 0.459434
0.273240 0.348049 0.457999
0.278943 0.354996 0.456210
0.285150 0.361513 0.454147
0.291795 0.367569 0.451880
0.298820 0.373149 0.449480
0.306174 0.378249 0.447009
0.313813 0.382880 0.444529
0.321699 0.387067 0.442096
0.329804 0.390846 0.439761
0.338103 0.394268 0.437572
0.346581 0.397398 0.435573
0.355231 0.400312 0.433804
0.364049 0.403101 0.432299
0.373043 0.405871 0.431090
0.382225 0.408737 0.430204
0.391615 0.411832 0.429662
0.401239 0.415300 0.429485
0.411133 0.419298 0.429686
0.421337 0.423997 0.430276
0.431900 0.429583 0.431261
0.442878 0.436252 0.432642
0.454332 0.444217 0.434418
0.466334 0.453702 0.436582
0.478959 0.464945 0.439123
0.492292 0.478197 0.442026
0.260796 0.291369 0.451408
0.259654 0.299009 0.454670
0.259764 0.306907 0.456954
0.261005 0.314930 0.458366
0.263263 0.322957 0.459007
0.266432 0.330883 0.458973
0.270412 0.338614 0.458357
0.275112 0.346070 0.457248
0.280447 0.353185 0.455729
0.286338 0.359905 0.453881
0.292714 0.366192 0.451779
0.299513 0.372019 0.449496
0.306677 0.377373 0.447098
0.314156 0.382254 0.444650
0.321910 0.386676 0.442210
0.329901 0.390668 0.439834
0.338103 0.394268 0.437572
0.346494 0.397532 0.435471
0.355060 0.400527 0.433575
0.363795 0.403334 0.431920
0.372698 0.406046 0.430541
0.381778 0.408771 0.429470
0.391049 0.411631 0.428730
0.400533 0.414759 0.428344
0.410259 0.418304 0.428330
0.420262 0.422426 0.428701
0.430585 0.427300 0.429466
0.441280 0.433114 0.430630
0.452403 0.440069 0.432194
0.464018 0.448380 0.434155
0.476198 0.458274 0.436505
0.489020 0.469993 0.439233
0.502571 0.483793 0.442323
0.266033 0.297433 0.450417
0.265267 0.304981 0.453429
0.265720 0.312758 0.455493
0.267275 0.320636 0.456713
0.269820 0.328498 0.457190
0.273249 0.336240 0.457019
0.277466 0.343773 0.456292
0.282380 0.351020 0.455096
0.287908 0.357919 0.453513
0.293974 0.364419 0.451624
0.300508 0.370484 0.449503
0.307448 0.376091 0.447221
0.314741 0.381232 0.444844
0.322337 0.385909 0.442435
0.330197 0.390139 0.440051
0.338287 0.393954 0.437747
0.346581 0.397398 0.435573
0.355060 0.400527 0.433575
0.363711 0.403413 0.431793
0.372529 0.406140 0.430265
0.381517 0.408805 0.429025
0.390684 0.411519 0.428101
0.400047 0.414407 0.427519
0.409628 0.417606 0.427298
0.419459 0.421267 0.427456
0.429576 0.425555 0.428005
0.440026 0.430647 0.428952
0.450860 0.436735 0.430303
0.462137 0.444023 0.432056
0.473923 0.452730 0.434208
0.486292 0.463086 0.436750
0.499325 0.475337 0.439669
0.513108 0.489740 0.442948
0.271638 0.303155 0.449356
0.271226 0.310601 0.452142
0.272003 0.318251 0.454009
0.273853 0.325980 0.455060
0.276667 0.333674 0.455395
0.280341 0.341233 0.455108
0.284779 0.348571 0.454290
0.289893 0.355614 0.453027
0.295601 0.362303 0.451400
0.301829 0.368591 0.449489
0.308510 0.374446 0.447366
0.315583 0.379848 0.445102
0.322996 0.384790 0.442761
0.330702 0.389280 0.440406
0.338664 0.393339 0.438094
0.346848 0.397001 0.435877
0.355231 0.400312 0.433804
0.363795 0.403334 0.431920
0.372529 0.406140 0.430265
0.381432 0.408819 0.428876
0.390506 0.411470 0.427785
0.399762 0.414209 0.427019
0.409219 0.417163 0.426603
0.418903 0.420472 0.426556
0.428844 0.424292 0.426894
0.439084 0.428791 0.427628
0.449669 0.434148 0.428765
0.460651 0.440559 0.430307
0.472093 0.448233 0.432255
0.484063 0.457389 0.434602
0.496634 0.468263 0.437339
0.509891 0.481103 0.440452
0.523921 0.496171 0.443924
0.277582 0.308570 0.448278
0.277504 0.315909 0.450860
0.278586 0.323430 0.452552
0.280715 0.331009 0.453456
0.283782 0.338536 0.453670
0.287685 0.345915 0.453287
0.292331 0.353063 0.452397
0.297632 0.359910 0.451085
0.303510 0.366400 0.449432
0.309891 0.372489 0.447515
0.316710 0.378148 0.445408
0.323908 0.383361 0.443178
0.331435 0.388125 0.440889
0.339246 0.392450 0.438603
0.347304 0.396361 0.436376
0.355579 0.399895 0.434258
0.364049 0.403101 0.432299
0.372698 0.406046 0.430541
0.381517 0.408805 0.429025
0.390506 0.411470 0.427785
0.399668 0.414145 0.426852
0.409019 0.416948 0.426254
0.418576 0.420009 0.426012
0.428368 0.423473 0.426147
0.438429 0.427498 0.426671
0.448800 0.432255 0.427596
0.459529 0.437928 0.428928
0.470672 0.444715 0.430668
0.482292 0.452828 0.432814
0.494458 0.462491 0.435360
0.507247 0.473942 0.438294
0.520744 0.487434 0.441604
0.535039 0.503229 0.445269
0.283841 0.313731 0.447229
0.284079 0.320961 0.449630
0.285451 0.328352 0.451168
0.287843 0.335783 0.451945
0.291149 0.343149 0.452057
0.295268 0.350355 0.451597
0.300110 0.357322 0.450654
0.305588 0.363984 0.449311
0.311626 0.370288 0.447649
0.318151 0.376194 0.445744
0.325101 0.381675 0.443666
0.332419 0.386720 0.441485
0.340055 0.391328 0.439263
0.347967 0.395513 0.437060
0.356120 0.399302 0.434930
0.364486 0.402737 0.432924
0.373043 0.405871 0.431090
0.381778 0.408771 0.429470
0.390684 0.411519 0.428101
0.399762 0.414209 0.427019
0.409019 0.416948 0.426254
0.418469 0.419857 0.425830
0.428134 0.423070 0.425771
0.438043 0.426736 0.426093
0.448233 0.431015 0.426811
0.458745 0.436081 0.427932
0.469631 0.442124 0.429463
0.480948 0.449343 0.431403
0.492759 0.457954 0.433751
0.505138 0.468184 0.436498
0.518162 0.480275 0.439632
0.531917 0.494482 0.443139
0.546496 0.511073 0.446997
0.290399 0.318701 0.446254
0.290939 0.325824 0.448493
0.292585 0.333088 0.449898
0.295227 0.340377 0.450567
0.298759 0.347589 0.450597
0.303084 0.354632 0.450078
0.308111 0.361432 0.449099
0.313758 0.367923 0.447742
0.319948 0.374058 0.446086
0.326611 0.379800 0.444207
0.333687 0.385125 0.442175
0.341120 0.390024 0.440057
0.348863 0.394502 0.437914
0.356875 0.398575 0.435805
0.365122 0.402273 0.433785
0.373578 0.405642 0.431902
0.382225 0.408737 0.430204
0.391049 0.411631 0.428730
0.400047 0.414407 0.427519
0.409219 0.417163 0.426603
0.418576 0.420009 0.426012
0.428134 0.423070 0.425771
0.437916 0.426484 0.425900
0.447953 0.430401 0.426416
0.458282 0.434987 0.427330
0.468949 0.440418 0.428652
0.480005 0.446887 0.430386
0.491511 0.454597 0.432530
0.503530 0.463768 0.435081
0.516138 0.474629 0.438030
0.529415 0.487426 0.441365
0.543448 0.502417 0.445069
0.558332 0.519873 0.449120
0.297250 0.323558 0.445391
0.298076 0.330577 0.447490
0.299984 0.337722 0.448780
0.302863 0.344879 0.449360
0.306611 0.351947 0.449324
0.311132 0.358842 0.448764
0.316337 0.365489 0.447764
0.322145 0.371828 0.446409
0.328481 0.377815 0.444775
0.335279 0.383414 0.442936
0.342477 0.388608 0.440963
0.350023 0.393389 0.438920
0.357871 0.397765 0.436869
0.365982 0.401757 0.434866
0.374325 0.405398 0.432966
0.382875 0.408737 0.431217
0.391615 0.411832 0.429662
0.400533 0.414759 0.428344
0.409628 0.417606 0.427298
0.418903 0.420472 0.426556
0.428368 0.423473 0.426147
0.438043 0.426736 0.426093
0.447953 0.430401 0.426416
0.458129 0.434624 0.427129
0.468611 0.439573 0.428245
0.479447 0.445427 0.429771
0.490690 0.452382 0.431709
0.502400 0.460647 0.434059
0.514646 0.470441 0.436814
0.527503 0.482000 0.439966
0.541053 0.495572 0.443501
0.555385 0.511419 0.447400
0.570596 0.529815 0.451642
0.304390 0.328392 0.444677
0.305491 0.335316 0.446653
0.307649 0.342351 0.447846
0.310756 0.349388 0.448354
0.314711 0.356329 0.448270
0.319421 0.363091 0.447684
0.324797 0.369604 0.446680
0.330761 0.375813 0.445341
0.337240 0.381674 0.443742
0.344168 0.387158 0.441957
0.351487 0.392248 0.440054
0.359145 0.396942 0.438099
0.367100 0.401249 0.436150
0.375312 0.405195 0.434264
0.383754 0.408816 0.432494
0.392401 0.412163 0.430886
0.401239 0.415300 0.429485
0.410259 0.418304 0.428330
0.419459 0.421267 0.427456
0.428844 0.424292 0.426894
0.438429 0.427498 0.426671
0.448233 0.431015 0.426811
0.458282 0.434987 0.427330
0.468611 0.439573 0.428245
0.479262 0.444943 0.429565
0.490283 0.451281 0.431296
0.501729 0.458787 0.433441
0.513663 0.467671 0.435996
0.526155 0.478158 0.438956
0.539281 0.490486 0.442310
0.553126 0.504905 0.446043
0.567781 0.521682 0.450137
0.583344 0.541095 0.454567
0.311825 0.333307 0.444141
0.313190 0.340148 0.446013
0.315589 0.347088 0.447127
0.318916 0.354019 0.447579
0.323072 0.360850 0.447462
0.327964 0.367500 0.446864
0.333507 0.373903 0.445870
0.339623 0.380006 0.444560
0.346242 0.385769 0.443010
0.353300 0.391166 0.441291
0.360740 0.396184 0.439471
0.368512 0.400823 0.437613
0.376575 0.405098 0.435777
0.384893 0.409035 0.434017
0.393438 0.412676 0.432385
0.402190 0.416075 0.430927
0.411133 0.419298 0.429686
0.420262 0.422426 0.428701
0.429576 0.425555 0.428005
0.439084 0.428791 0.427628
0.448800 0.432255 0.427596
0.458745 0.436081 0.427932
0.468949 0.440418 0.428652
0.479447 0.445427 0.429771
0.490283 0.451281 0.431296
0.501506 0.458170 0.433234
0.513175 0.466293 0.435585
0.525353 0.475866 0.438346
0.538112 0.487117 0.441509
0.551531 0.500287 0.445064
0.565695 0.515630 0.448993
0.580698 0.533416 0.453277
0.596639 0.553925 0.457892
0.319570 0.338422 0.443812
0.321190 0.345194 0.445596
0.323822 0.352054 0.446646
0.327362 0.358901 0.447057
0.331713 0.365643 0.446922
0.336783 0.372205 0.446327
0.342490 0.378523 0.445356
0.348757 0.384547 0.444088
0.355516 0.390242 0.442597
0.362704 0.395585 0.440955
0.370267 0.400566 0.439228
0.378156 0.405188 0.437478
0.386332 0.409469 0.435763
0.394761 0.413440 0.434138
0.403416 0.417144 0.432652
0.412279 0.420640 0.431351
0.421337 0.423997 0.430276
0.430585 0.427300 0.429466
0.440026 0.430647 0.428952
0.449669 0.434148 0.428765
0.459529 0.437928 0.428928
0.469631 0.442124 0.429463
0.480005 0.446887 0.430386
0.490690 0.452382 0.431709
0.501729 0.458787 0.433441
0.513175 0.466293 0.435585
0.525087 0.475104 0.438142
