lrplugin/MindfulLensFilmEngine.lrplugin/profiles/luts/acros_xr.cube
# Generated from ColorChecker fit
LUT_3D_SIZE 5
DOMAIN_MIN 0.0 0.0 0.0
DOMAIN_MAX 1.0 1.0 1.0
0.291563 0.164496 0.387035
0.238690 0.221826 0.446546
0.255965 0.284938 0.452272
0.304390 0.328392 0.444677
0.374128 0.381567 0.447149
0.238690 0.221826 0.446546
0.229821 0.290855 0.470998
0.273240 0.348049 0.457999
0.337240 0.381674 0.443742
0.419275 0.434815 0.447350
0.255965 0.284938 0.452272
0.273240 0.348049 0.457999
0.329804 0.390846 0.439761
0.401239 0.415300 0.429485
0.492292 0.478197 0.442026
0.304390 0.328392 0.444677
0.337240 0.381674 0.443742
0.401239 0.415300 0.429485
0.479262 0.444943 0.429565
0.583344 0.541095 0.454567
0.374128 0.381567 0.447149
0.419275 0.434815 0.447350
0.492292 0.478197 0.442026
0.583344 0.541095 0.454567
0.711759 0.707703 0.491290
0.238690 0.221826 0.446546
0.229821 0.290855 0.470998
0.273240 0.348049 0.457999
0.337240 0.381674 0.443742
0.419275 0.434815 0.447350
0.229821 0.290855 0.470998
0.254811 0.360490 0.469269
0.316659 0.405243 0.444999
0.390949 0.427084 0.430114
0.482426 0.482801 0.439468
0.273240 0.348049 0.457999
0.316659 0.405243 0.444999
0.386367 0.433643 0.421523
0.465239 0.448925 0.415229
0.565309 0.521580 0.436702
0.337240 0.381674 0.443742
0.390949 0.427084 0.430114
0.465239 0.448925 0.415229
0.550274 0.476577 0.422477
0.665379 0.594235 0.458176
0.419275 0.434815 0.447350
0.482426 0.482801 0.439468
0.565309 0.521580 0.436702
0.665379 0.594235 0.458176
0.809253 0.798666 0.505937
0.255965 0.284938 0.452272
0.273240 0.348049 0.457999
0.329804 0.390846 0.439761
0.401239 0.415300 0.429485
0.492292 0.478197 0.442026
0.273240 0.348049 0.457999
0.316659 0.405243 0.444999
0.386367 0.433643 0.421523
0.465239 0.448925 0.415229
0.565309 0.521580 0.436702
0.329804 0.390846 0.439761
0.386367 0.433643 0.421523
0.461082 0.448304 0.403451
0.544110 0.464207 0.408935
0.654780 0.565548 0.444292
0.401239 0.415300 0.429485
0.465239 0.448925 0.415229
0.544110 0.464207 0.408935
0.635308 0.504228 0.429725
0.765450 0.666890 0.479649
0.492292 0.478197 0.442026
0.565309 0.521580 0.436702
0.654780 0.565548 0.444292
0.765450 0.666890 0.479649
0.931225 0.937210 0.540555
0.304390 0.328392 0.444677
0.337240 0.381674 0.443742
0.401239 0.415300 0.429485
0.479262 0.444943 0.429565
0.583344 0.541095 0.454567
0.337240 0.381674 0.443742
0.390949 0.427084 0.430114
0.465239 0.448925 0.415229
0.550274 0.476577 0.422477
0.665379 0.594235 0.458176
0.401239 0.415300 0.429485
0.465239 0.448925 0.415229
0.544110 0.464207 0.408935
0.635308 0.504228 0.429725
0.765450 0.666890 0.479649
0.479262 0.444943 0.429565
0.550274 0.476577 0.422477
0.635308 0.504228 0.429725
0.739112 0.584685 0.466163
0.895591 0.829552 0.529573
0.583344 0.541095 0.454567
0.665379 0.594235 0.458176
0.765450 0.666890 0.479649
0.895591 0.829552 0.529573
1.000000 1.000000 0.601460
0.374128 0.381567 0.447149
0.419275 0.434815 0.447350
0.492292 0.478197 0.442026
0.583344 0.541095 0.454567
0.711759 0.707703 0.491290
0.419275 0.434815 0.447350
0.482426 0.482801 0.439468
0.565309 0.521580 0.436702
0.665379 0.594235 0.458176
0.809253 0.798666 0.505937
0.492292 0.478197 0.442026
0.565309 0.521580 0.436702
0.654780 0.565548 0.444292
0.765450 0.666890 0.479649
0.931225 0.937210 0.540555
0.583344 0.541095 0.454567
0.665379 0.594235 0.458176
0.765450 0.666890 0.479649
0.895591 0.829552 0.529573
1.000000 1.000000 0.601460
0.711759 0.707703 0.491290
0.809253 0.798666 0.505937
0.931225 0.937210 0.540555
1.000000 1.000000 0.601460
1.000000 1.000000 0.677898
