lrplugin/MindfulLensFilmEngine.lrplugin/profiles/luts/acros_xy.cube
# Generated from ColorChecker fit
LUT_3D_SIZE 33
DOMAIN_MIN 0.0 0.0 0.0
DOMAIN_MAX 1.0 1.0 1.0
0.385065 0.146987 0.648356
0.361240 0.148520 0.615031
0.340605 0.151431 0.586586
0.322921 0.155519 0.562505
0.307958 0.160598 0.542301
0.295497 0.166496 0.525515
0.285330 0.173051 0.511717
0.277259 0.180117 0.500504
0.271096 0.187562 0.491503
0.266663 0.195264 0.484369
0.263795 0.203118 0.478784
0.262333 0.211029 0.474461
0.262132 0.218918 0.471140
0.263057 0.226718 0.468589
0.264981 0.234375 0.466604
0.267790 0.241850 0.465011
0.271379 0.249114 0.463664
0.275654 0.256156 0.462444
0.280530 0.262974 0.461262
0.285936 0.269581 0.460058
0.291806 0.276004 0.458797
0.298089 0.282282 0.457477
0.304743 0.288469 0.456120
0.311735 0.294630 0.454780
0.319043 0.300845 0.453537
0.326658 0.307208 0.452500
0.334577 0.313823 0.451809
0.342811 0.320811 0.451627
0.351380 0.328304 0.452151
0.360313 0.336449 0.453603
0.369652 0.345404 0.456234
0.379449 0.355343 0.460324
0.389763 0.366452 0.466181
0.361240 0.148520 0.615031
0.339051 0.150776 0.584234
0.319970 0.154341 0.558141
0.303761 0.159018 0.536242
0.290197 0.164624 0.518058
0.279061 0.170989 0.503136
0.270148 0.177957 0.491054
0.263262 0.185383 0.481416
0.258218 0.193139 0.473856
0.254841 0.201107 0.468036
0.252967 0.209184 0.463646
0.252442 0.217280 0.460404
0.253123 0.225318 0.458059
0.254875 0.233234 0.456385
0.257577 0.240979 0.455186
0.261115 0.248516 0.454295
0.265388 0.255821 0.453573
0.270305 0.262883 0.452907
0.275783 0.269706 0.452217
0.281752 0.276306 0.451448
0.288152 0.282713 0.450574
0.294932 0.288970 0.449599
0.302052 0.295133 0.448553
0.309484 0.301271 0.447495
0.317209 0.307468 0.446515
0.325217 0.313820 0.445728
0.333511 0.320435 0.445280
0.342102 0.327437 0.445342
0.351014 0.334963 0.446118
0.360280 0.343161 0.447837
0.369943 0.352193 0.450758
0.380056 0.362237 0.455167
0.390683 0.373482 0.461380
0.340605 0.151431 0.586586
0.319970 0.154341 0.558141
0.302364 0.158494 0.534227
0.287552 0.163695 0.514343
0.275310 0.169766 0.498016
0.265425 0.176539 0.484801
0.257692 0.183861 0.474282
0.251920 0.191592 0.466071
0.247926 0.199605 0.459808
0.245537 0.207788 0.455164
0.244592 0.216039 0.451834
0.244939 0.224273 0.449545
0.246438 0.232415 0.448051
0.248957 0.240406 0.447135
0.252377 0.248199 0.446607
0.256588 0.255760 0.446307
0.261490 0.263069 0.446103
0.266994 0.270119 0.445892
0.273021 0.276916 0.445597
0.279504 0.283481 0.445172
0.286384 0.289845 0.444598
0.293614 0.296056 0.443886
0.301156 0.302173 0.443073
0.308985 0.308268 0.442227
0.317083 0.314428 0.441441
0.325445 0.320753 0.440841
0.334075 0.327356 0.440577
0.342988 0.334361 0.440831
0.352209 0.341910 0.441810
0.361773 0.350154 0.443752
0.371727 0.359259 0.446923
0.382127 0.369406 0.451616
0.393040 0.380786 0.458154
0.322921 0.155519 0.562505
0.303761 0.159018 0.536242
0.287552 0.163695 0.514343
0.274061 0.169360 0.496314
0.263068 0.175836 0.481689
0.254361 0.182960 0.470030
0.247739 0.190582 0.460928
0.243013 0.198566 0.454003
0.240001 0.206787 0.448901
0.238535 0.215136 0.445300
0.238455 0.223517 0.442904
0.239613 0.231845 0.441445
0.241870 0.240051 0.440685
0.245098 0.248078 0.440414
0.249180 0.255881 0.440449
0.254007 0.263432 0.440637
0.259485 0.270713 0.440854
0.265525 0.277721 0.441002
0.272052 0.284464 0.441014
0.279001 0.290967 0.440849
0.286315 0.297266 0.440496
0.293951 0.303409 0.439972
0.301872 0.309461 0.439322
0.310057 0.315497 0.438621
0.318489 0.321606 0.437970
0.327167 0.327892 0.437500
0.336098 0.334471 0.437370
0.345297 0.341472 0.437768
0.354795 0.349038 0.438908
0.364628 0.357325 0.441037
0.374845 0.366503 0.444426
0.385505 0.376753 0.449376
0.396678 0.388272 0.456217
0.307958 0.160598 0.542301
0.290197 0.164624 0.518058
0.275310 0.169766 0.498016
0.263068 0.175836 0.481689
0.253252 0.182663 0.468617
0.245654 0.190084 0.458371
0.240075 0.197956 0.450548
0.236327 0.206142 0.444774
0.234234 0.214525 0.440705
0.233628 0.222997 0.438023
0.234353 0.231464 0.436440
0.236262 0.239846 0.435696
0.239220 0.248078 0.435560
0.243101 0.256104 0.435828
0.247791 0.263886 0.436325
0.253184 0.271396 0.436906
0.259186 0.278620 0.437451
0.265714 0.285558 0.437873
0.272694 0.292224 0.438109
0.280063 0.298643 0.438126
0.287768 0.304855 0.437921
0.295767 0.310914 0.437518
0.304028 0.316884 0.436969
0.312530 0.322847 0.436354
0.321260 0.328895 0.435784
0.330220 0.335133 0.435396
0.339417 0.341682 0.435355
0.348873 0.348674 0.435858
0.358617 0.356255 0.437126
0.368690 0.364585 0.439411
0.379144 0.373836 0.442993
0.390040 0.384194 0.448179
0.401450 0.395859 0.455307
0.295497 0.166496 0.525515
0.279061 0.170989 0.503136
0.265425 0.176539 0.484801
0.254361 0.182960 0.470030
0.245654 0.190084 0.458371
0.239097 0.197754 0.449401
0.234496 0.205827 0.442724
0.231664 0.214171 0.437976
0.230427 0.222672 0.434816
0.230622 0.231225 0.432936
0.232093 0.239740 0.432054
0.234697 0.248140 0.431917
0.238301 0.256363 0.432301
0.242782 0.264357 0.433010
0.248028 0.272086 0.433875
0.253937 0.279527 0.434759
0.260416 0.286668 0.435550
0.267386 0.293514 0.436165
0.274774 0.300080 0.436550
0.282521 0.306397 0.436680
0.290576 0.312506 0.436558
0.298899 0.318465 0.436215
0.307462 0.324343 0.435710
0.316245 0.330223 0.435131
0.325240 0.336200 0.434595
0.334448 0.342386 0.434247
0.343882 0.348901 0.434259
0.353564 0.355882 0.434835
0.363528 0.363480 0.436202
0.373817 0.371856 0.438621
0.384484 0.381186 0.442377
0.395593 0.391660 0.447787
0.407220 0.403480 0.455194
0.285330 0.173051 0.511717
0.270148 0.177957 0.491054
0.257692 0.183861 0.474282
0.247739 0.190582 0.460928
0.240075 0.197956 0.450548
0.234496 0.205827 0.442724
0.230809 0.214056 0.437071
0.228832 0.222516 0.433227
0.228393 0.231094 0.430862
0.229330 0.239691 0.429673
0.231492 0.248218 0.429386
0.234737 0.256603 0.429755
0.238935 0.264785 0.430564
0.243966 0.272718 0.431622
0.249720 0.280369 0.432769
0.256097 0.287716 0.433874
0.263009 0.294753 0.434832
0.270376 0.301486 0.435568
0.278131 0.307935 0.436035
0.286215 0.314133 0.436215
0.294582 0.320126 0.436118
0.303193 0.325975 0.435781
0.312022 0.331751 0.435271
0.321054 0.337540 0.434684
0.330281 0.343443 0.434143
0.339709 0.349573 0.433801
0.349351 0.356055 0.433836
0.359234 0.363028 0.434459
0.369393 0.370646 0.435906
0.379874 0.379074 0.438443
0.390733 0.388493 0.442363
0.402037 0.399093 0.447990
0.413863 0.411082 0.455673
0.277259 0.180117 0.500504
0.263262 0.185383 0.481416
0.251920 0.191592 0.466071
0.243013 0.198566 0.454003
0.236327 0.206142 0.444774
0.231664 0.214171 0.437976
0.228832 0.222516 0.433227
0.227652 0.231053 0.430175
0.227954 0.239673 0.428496
0.229579 0.248278 0.427896
0.232378 0.256785 0.428106
0.236213 0.265124 0.428887
0.240956 0.273239 0.430031
0.246488 0.281085 0.431354
0.252704 0.288633 0.432704
0.259505 0.295866 0.433955
0.266806 0.302779 0.435010
0.274530 0.309383 0.435802
0.282612 0.315700 0.436291
0.290997 0.321768 0.436464
0.299639 0.327635 0.436340
0.308504 0.333365 0.435963
0.317568 0.339033 0.435407
0.326818 0.344729 0.434775
0.336249 0.350557 0.434197
0.345868 0.356632 0.433833
0.355694 0.363083 0.433868
0.365754 0.370054 0.434521
0.376087 0.377700 0.436033
0.386740 0.386191 0.438680
0.397772 0.395709 0.442760
0.409254 0.406451 0.448605
0.421264 0.418625 0.456571
0.271096 0.187562 0.491503
0.258218 0.193139 0.473856
0.247926 0.199605 0.459808
0.240001 0.206787 0.448901
0.234234 0.214525 0.440705
0.230427 0.222672 0.434816
0.228393 0.231094 0.430862
0.227954 0.239673 0.428496
0.228943 0.248300 0.427404
0.231204 0.256883 0.427295
0.234590 0.265341 0.427910
0.238966 0.273608 0.429018
0.244206 0.281631 0.430415
0.250195 0.289368 0.431926
0.256828 0.296793 0.433405
0.264012 0.303893 0.434735
0.271662 0.310667 0.435825
0.279705 0.317128 0.436614
0.288078 0.323303 0.437070
0.296728 0.329231 0.437189
0.305613 0.334965 0.436994
0.314701 0.340572 0.436537
0.323969 0.346130 0.435901
0.333409 0.351733 0.435194
0.343017 0.357487 0.434554
0.352805 0.363511 0.434146
0.362791 0.369939 0.434167
0.373007 0.376916 0.434838
0.383493 0.384601 0.436410
0.394301 0.393168 0.439165
0.405491 0.402802 0.443409
0.417137 0.413702 0.449479
0.429319 0.426082 0.457741
0.266663 0.195264 0.484369
0.254841 0.201107 0.468036
0.245537 0.207788 0.455164
0.238535 0.215136 0.445300
0.233628 0.222997 0.438023
0.230622 0.231225 0.432936
0.229330 0.239691 0.429673
0.229579 0.248278 0.427896
0.231204 0.256883 0.427295
0.234051 0.265416 0.427589
0.237976 0.273800 0.428525
0.242847 0.281971 0.429879
0.248540 0.289880 0.431455
0.254943 0.297489 0.433084
0.261953 0.304775 0.434627
0.269480 0.311728 0.435975
0.277442 0.318351 0.437043
0.285768 0.324659 0.437779
0.294398 0.330683 0.438156
0.303281 0.336466 0.438178
0.312377 0.342064 0.437875
0.321659 0.347546 0.437308
0.331105 0.352995 0.436563
0.340709 0.358508 0.435758
0.350471 0.364194 0.435038
0.360405 0.370176 0.434575
0.370532 0.376589 0.434571
0.380885 0.383584 0.435257
0.391508 0.391323 0.436890
0.402456 0.399982 0.439758
0.413791 0.409750 0.444176
0.425588 0.420830 0.450487
0.437933 0.433438 0.459065
0.263795 0.203118 0.478784
0.252967 0.209184 0.463646
0.244592 0.216039 0.451834
0.238455 0.223517 0.442904
0.234353 0.231464 0.436440
0.232093 0.239740 0.432054
0.231492 0.248218 0.429386
0.232378 0.256785 0.428106
0.234590 0.265341 0.427910
0.237976 0.273800 0.428525
0.242396 0.282087 0.429706
0.247717 0.290143 0.431233
0.253821 0.297920 0.432919
0.260598 0.305386 0.434603
0.267947 0.312519 0.436153
0.275781 0.319314 0.437464
0.284020 0.325776 0.438463
0.292595 0.331925 0.439101
0.301450 0.337794 0.439360
0.310537 0.343429 0.439251
0.319817 0.348890 0.438810
0.329266 0.354250 0.438106
0.338866 0.359595 0.437233
0.348611 0.365024 0.436315
0.358507 0.370651 0.435503
0.368567 0.376601 0.434978
0.378816 0.383014 0.434949
0.389291 0.390042 0.435653
0.400038 0.397852 0.437355
0.411112 0.406623 0.440349
0.422581 0.416548 0.444958
0.434522 0.427832 0.451533
0.447022 0.440694 0.460453
0.262333 0.211029 0.474461
0.252442 0.217280 0.460404
0.244939 0.224273 0.449545
0.239613 0.231845 0.441445
0.236262 0.239846 0.435696
0.234697 0.248140 0.431917
0.234737 0.256603 0.429755
0.236213 0.265124 0.428887
0.238966 0.273608 0.429018
0.242847 0.281971 0.429879
0.247717 0.290143 0.431233
0.253449 0.298066 0.432869
0.259925 0.305698 0.434605
0.267038 0.313007 0.436288
0.274691 0.319978 0.437793
0.282797 0.326607 0.439022
0.291280 0.332902 0.439909
0.300075 0.338888 0.440412
0.309126 0.344601 0.440521
0.318389 0.350090 0.440253
0.327829 0.355417 0.439652
0.337421 0.360661 0.438793
0.347152 0.365909 0.437778
0.357019 0.371264 0.436738
0.367029 0.376844 0.435831
0.377199 0.382776 0.435245
0.387556 0.389205 0.435197
0.398140 0.396286 0.435929
0.408998 0.404188 0.437715
0.420190 0.413094 0.440856
0.431785 0.423200 0.445681
0.443862 0.434716 0.452548
0.456512 0.447863 0.461844
0.262132 0.218918 0.471140
0.253123 0.225318 0.458059
0.246438 0.232415 0.448051
0.241870 0.240051 0.440685
0.239220 0.248078 0.435560
0.238301 0.256363 0.432301
0.238935 0.264785 0.430564
0.240956 0.273239 0.430031
0.244206 0.281631 0.430415
0.248540 0.289880 0.431455
0.253821 0.297920 0.432919
0.259925 0.305698 0.434605
0.266737 0.313172 0.436338
0.274151 0.320317 0.437971
0.282073 0.327118 0.439386
0.290421 0.333576 0.440495
0.299119 0.339703 0.441235
0.308105 0.345526 0.441574
0.317326 0.351085 0.441507
0.326741 0.356431 0.441059
0.336316 0.361632 0.440283
0.346032 0.366768 0.439259
0.355875 0.371930 0.438096
0.365846 0.377225 0.436932
0.375954 0.382773 0.435933
0.386220 0.388706 0.435295
0.396673 0.395170 0.435239
0.407354 0.402325 0.436017
0.418315 0.410344 0.437909
0.429617 0.419412 0.441223
0.441332 0.429728 0.446296
0.453543 0.441506 0.453493
0.466342 0.454972 0.463206
0.263057 0.226718 0.468589
0.254875 0.233234 0.456385
0.248957 0.240406 0.447135
0.245098 0.248078 0.440414
0.243101 0.256104 0.435828
0.242782 0.264357 0.433010
0.243966 0.272718 0.431622
0.246488 0.281085 0.431354
0.250195 0.289368 0.431926
0.254943 0.297489 0.433084
0.260598 0.305386 0.434603
0.267038 0.313007 0.436288
0.274151 0.320317 0.437971
0.281834 0.327291 0.439513
0.289996 0.333920 0.440802
0.298555 0.340206 0.441757
0.307441 0.346166 0.442323
0.316593 0.351829 0.442474
0.325962 0.357238 0.442214
0.335506 0.362450 0.441574
0.345197 0.367535 0.440613
0.355017 0.372574 0.439420
0.364955 0.377664 0.438110
0.375015 0.382916 0.436828
0.385209 0.388450 0.435748
0.395559 0.394405 0.435072
0.406097 0.400928 0.435029
0.416869 0.408183 0.435877
0.427926 0.416345 0.437905
0.439334 0.425605 0.441427
0.451167 0.436164 0.446786
0.463509 0.448239 0.454355
0.476457 0.462059 0.464534
0.264981 0.234375 0.466604
0.257577 0.240979 0.455186
0.252377 0.248199 0.446607
0.249180 0.255881 0.440449
0.247791 0.263886 0.436325
0.248028 0.272086 0.433875
0.249720 0.280369 0.432769
0.252704 0.288633 0.432704
0.256828 0.296793 0.433405
0.261953 0.304775 0.434627
0.267947 0.312519 0.436153
0.274691 0.319978 0.437793
0.282073 0.327118 0.439386
0.289996 0.333920 0.440802
0.298369 0.340376 0.441935
0.307115 0.346492 0.442711
0.316164 0.352289 0.443083
0.325459 0.357798 0.443032
0.334953 0.363068 0.442568
0.344608 0.368156 0.441729
0.354397 0.373137 0.440582
0.364305 0.378096 0.439222
0.374325 0.383132 0.437773
0.384462 0.388360 0.436386
0.394730 0.393903 0.435243
0.405155 0.399903 0.434551
0.415773 0.406512 0.434548
0.426628 0.413895 0.435499
0.437778 0.422233 0.437698
0.449290 0.431717 0.441468
0.461240 0.442555 0.447160
0.473716 0.454964 0.455152
0.486816 0.469178 0.465853
0.267790 0.241850 0.465011
0.261115 0.248516 0.454295
0.256588 0.255760 0.446307
0.254007 0.263432 0.440637
0.253184 0.271396 0.436906
0.253937 0.279527 0.434759
0.256097 0.287716 0.433874
0.259505 0.295866 0.433955
0.264012 0.303893 0.434735
0.269480 0.311728 0.435975
0.275781 0.319314 0.437464
0.282797 0.326607 0.439022
0.290421 0.333576 0.440495
0.298555 0.340206 0.441757
0.307115 0.346492 0.442711
0.316023 0.352444 0.443291
0.325213 0.358085 0.443455
0.334632 0.363452 0.443192
0.344232 0.368593 0.442520
0.353981 0.373573 0.441483
0.363854 0.378466 0.440156
0.373837 0.383363 0.438641
0.383927 0.388367 0.437067
0.394130 0.393593 0.435596
0.404465 0.399171 0.434413
0.414959 0.405244 0.433735
0.425651 0.411968 0.433805
0.436587 0.419512 0.434898
0.447829 0.428059 0.437312
0.459445 0.437805 0.441379
0.471515 0.448959 0.447456
0.484128 0.461743 0.455930
0.497387 0.476394 0.467214
0.271379 0.249114 0.463664
0.265388 0.255821 0.453573
0.261490 0.263069 0.446103
0.259485 0.270713 0.440854
0.259186 0.278620 0.437451
0.260416 0.286668 0.435550
0.263009 0.294753 0.434832
0.266806 0.302779 0.435010
0.271662 0.310667 0.435825
0.277442 0.318351 0.437043
0.284020 0.325776 0.438463
0.291280 0.332902 0.439909
0.299119 0.339703 0.441235
0.307441 0.346166 0.442323
0.316164 0.352289 0.443083
0.325213 0.358085 0.443455
0.334526 0.363582 0.443405
0.344050 0.368818 0.442929
0.353742 0.373847 0.442052
0.363571 0.378735 0.440826
0.373514 0.383561 0.439331
0.383562 0.388419 0.437678
0.393712 0.393414 0.436003
0.403976 0.398666 0.434473
0.414372 0.404307 0.433283
0.424931 0.410484 0.432655
0.435694 0.417357 0.432840
0.446712 0.425097 0.434120
0.458047 0.433890 0.436801
0.469771 0.443937 0.441220
0.481965 0.455450 0.447742
0.494723 0.468654 0.456761
0.508147 0.483789 0.468699
0.275654 0.256156 0.462444
0.270305 0.262883 0.452907
0.266994 0.270119 0.445892
0.265525 0.277721 0.441002
0.265714 0.285558 0.437873
0.267386 0.293514 0.436165
0.270376 0.301486 0.435568
0.274530 0.309383 0.435802
0.279705 0.317128 0.436614
0.285768 0.324659 0.437779
0.292595 0.331925 0.439101
0.300075 0.338888 0.440412
0.308105 0.345526 0.441574
0.316593 0.351829 0.442474
0.325459 0.357798 0.443032
0.334632 0.363452 0.443192
0.344050 0.368818 0.442929
0.353664 0.373941 0.442247
0.363434 0.378876 0.441175
0.373331 0.383693 0.439774
0.383336 0.388476 0.438132
0.393440 0.393319 0.436365
0.403645 0.398333 0.434618
0.413963 0.403640 0.433064
0.424418 0.409377 0.431905
0.435041 0.415693 0.431370
0.445877 0.422750 0.431719
0.456979 0.430724 0.433239
0.468411 0.439806 0.436243
0.480247 0.450197 0.441077
0.492574 0.462114 0.448113
0.505485 0.475785 0.457749
0.519087 0.491453 0.470417
0.280530 0.262974 0.461262
0.275783 0.269706 0.452217
0.273021 0.276916 0.445597
0.272052 0.284464 0.441014
0.272694 0.292224 0.438109
0.274774 0.300080 0.436550
0.278131 0.307935 0.436035
0.282612 0.315700 0.436291
0.288078 0.323303 0.437070
0.294398 0.330683 0.438156
0.301450 0.337794 0.439360
0.309126 0.344601 0.440521
0.317326 0.351085 0.441507
0.325962 0.357238 0.442214
0.334953 0.363068 0.442568
0.344232 0.368593 0.442520
0.353742 0.373847 0.442052
0.363434 0.378876 0.441175
0.373272 0.383740 0.439926
0.383228 0.388511 0.438373
0.393287 0.393275 0.436610
0.403442 0.398133 0.434761
0.413698 0.403197 0.432978
0.424069 0.408593 0.431442
0.434582 0.414460 0.430360
0.445271 0.420952 0.429970
0.456182 0.428234 0.430538
0.467373 0.436485 0.432357
0.478908 0.445899 0.435750
0.490867 0.456681 0.441068
0.503335 0.469050 0.448691
0.516412 0.483240 0.459024
0.530205 0.499495 0.472506
0.285936 0.269581 0.460058
0.281752 0.276306 0.451448
0.279504 0.283481 0.445172
0.279001 0.290967 0.440849
0.280063 0.298643 0.438126
0.282521 0.306397 0.436680
0.286215 0.314133 0.436215
0.290997 0.321768 0.436464
0.296728 0.329231 0.437189
0.303281 0.336466 0.438178
0.310537 0.343429 0.439251
0.318389 0.350090 0.440253
0.326741 0.356431 0.441059
0.335506 0.362450 0.441574
0.344608 0.368156 0.441729
0.353981 0.373573 0.441483
0.363571 0.378735 0.440826
0.373331 0.383693 0.439774
0.383228 0.388511 0.438373
0.393237 0.393263 0.436697
0.403345 0.398040 0.434848
0.413549 0.402945 0.432956
0.423854 0.408093 0.431180
0.434280 0.413614 0.429709
0.444853 0.419650 0.428757
0.455611 0.426359 0.428569
0.466604 0.433909 0.429418
0.477891 0.442482 0.431605
0.489539 0.452276 0.435459
0.501631 0.463498 0.441338
0.514254 0.476372 0.449629
0.527511 0.491134 0.460745
0.541511 0.508032 0.475131
0.291806 0.276004 0.458797
0.288152 0.282713 0.450574
0.286384 0.289845 0.444598
0.286315 0.297266 0.440496
0.287768 0.304855 0.437921
0.290576 0.312506 0.436558
0.294582 0.320126 0.436118
0.299639 0.327635 0.436340
0.305613 0.334965 0.436994
0.312377 0.342064 0.437875
0.319817 0.348890 0.438810
0.327829 0.355417 0.439652
0.336316 0.361632 0.440283
0.345197 0.367535 0.440613
0.354397 0.373137 0.440582
0.363854 0.378466 0.440156
0.373514 0.383561 0.439331
0.383336 0.388476 0.438132
0.393287 0.393275 0.436610
0.403345 0.398040 0.434848
0.413501 0.402863 0.432953
0.423752 0.407849 0.431064
0.434109 0.413119 0.429346
0.444591 0.418805 0.427996
0.455230 0.425053 0.427234
0.466065 0.432023 0.427313
0.477148 0.439887 0.428513
0.488540 0.448831 0.431142
0.500314 0.459055 0.435535
0.512551 0.470771 0.442059
0.525345 0.484205 0.451107
0.538799 0.499597 0.463100
0.553025 0.517198 0.478488
0.298089 0.282282 0.457477
0.294932 0.288970 0.449599
0.293614 0.296056 0.443886
0.293951 0.303409 0.439972
0.295767 0.310914 0.437518
0.298899 0.318465 0.436215
0.303193 0.325975 0.435781
0.308504 0.333365 0.435963
0.314701 0.340572 0.436537
0.321659 0.347546 0.437308
0.329266 0.354250 0.438106
0.337421 0.360661 0.438793
0.346032 0.366768 0.439259
0.355017 0.372574 0.439420
0.364305 0.378096 0.439222
0.373837 0.383363 0.438641
0.383562 0.388419 0.437678
0.393440 0.393319 0.436365
0.403442 0.398133 0.434761
0.413549 0.402945 0.432956
0.423752 0.407849 0.431064
0.434054 0.412956 0.429230
0.444466 0.418389 0.427629
0.455011 0.424283 0.426462
0.465722 0.430787 0.425958
0.476643 0.438066 0.426376
0.487827 0.446294 0.428003
0.499338 0.455661 0.431155
0.511251 0.466370 0.436174
0.523651 0.478636 0.443434
0.536633 0.492689 0.453334
0.550303 0.508771 0.466303
0.564777 0.527139 0.482800
0.304743 0.288469 0.456120
0.302052 0.295133 0.448553
0.301156 0.302173 0.443073
0.301872 0.309461 0.439322
0.304028 0.316884 0.436969
0.307462 0.324343 0.435710
0.312022 0.331751 0.435271
0.317568 0.339033 0.435407
0.323969 0.346130 0.435901
0.331105 0.352995 0.436563
0.338866 0.359595 0.437233
0.347152 0.365909 0.437778
0.355875 0.371930 0.438096
0.364955 0.377664 0.438110
0.374325 0.383132 0.437773
0.383927 0.388367 0.437067
0.393712 0.393414 0.436003
0.403645 0.398333 0.434618
0.413698 0.403197 0.432978
0.423854 0.408093 0.431180
0.434109 0.413119 0.429346
0.444466 0.418389 0.427629
0.454940 0.424028 0.426209
0.465556 0.430177 0.425294
0.476350 0.436987 0.425122
0.487368 0.444625 0.425958
0.498667 0.453271 0.428097
0.510312 0.463116 0.431860
0.522382 0.474367 0.437598
0.534963 0.487243 0.445691
0.548154 0.501977 0.456547
0.562063 0.518814 0.470600
0.576808 0.538014 0.488317
0.311735 0.294630 0.454780
0.309484 0.301271 0.447495
0.308985 0.308268 0.442227
0.310057 0.315497 0.438621
0.312530 0.322847 0.436354
0.316245 0.330223 0.435131
0.321054 0.337540 0.434684
0.326818 0.344729 0.434775
0.333409 0.351733 0.435194
0.340709 0.358508 0.435758
0.348611 0.365024 0.436315
0.357019 0.371264 0.436738
0.365846 0.377225 0.436932
0.375015 0.382916 0.436828
0.384462 0.388360 0.436386
0.394130 0.393593 0.435596
0.403976 0.398666 0.434473
0.413963 0.403640 0.433064
0.424069 0.408593 0.431442
0.434280 0.413614 0.429709
0.444591 0.418805 0.427996
0.455011 0.424283 0.426462
0.465556 0.430177 0.425294
0.476255 0.436630 0.424709
0.487145 0.443797 0.424950
0.498275 0.451850 0.426290
0.509704 0.460969 0.429031
0.521501 0.471351 0.433501
0.533747 0.483205 0.440059
0.546531 0.496754 0.449091
0.559954 0.512234 0.461011
0.574126 0.529894 0.476264
0.589170 0.549996 0.495319
0.319043 0.300845 0.453537
0.317209 0.307468 0.446515
0.317083 0.314428 0.441441
0.318489 0.321606 0.437970
0.321260 0.328895 0.435784
0.325240 0.336200 0.434595
0.330281 0.343443 0.434143
0.336249 0.350557 0.434197
0.343017 0.357487 0.434554
0.350471 0.364194 0.435038
0.358507 0.370651 0.435503
0.367029 0.376844 0.435831
0.375954 0.382773 0.435933
0.385209 0.388450 0.435748
0.394730 0.393903 0.435243
0.404465 0.399171 0.434413
0.414372 0.404307 0.433283
0.424418 0.409377 0.431905
0.434582 0.414460 0.430360
0.444853 0.419650 0.428757
0.455230 0.425053 0.427234
0.465722 0.430787 0.425958
0.476350 0.436987 0.425122
0.487145 0.443797 0.424950
0.498146 0.451378 0.425693
0.509405 0.459902 0.427631
0.520984 0.469554 0.431071
0.532954 0.480535 0.436352
0.545398 0.493057 0.443836
0.558409 0.507346 0.453919
0.572089 0.523640 0.467022
0.586552 0.542193 0.483594
0.601923 0.563270 0.504115
0.326658 0.307208 0.452500
0.325217 0.313820 0.445728
0.325445 0.320753 0.440841
0.327167 0.327892 0.437500
0.330220 0.335133 0.435396
0.334448 0.342386 0.434247
0.339709 0.349573 0.433801
0.345868 0.356632 0.433833
0.352805 0.363511 0.434146
0.360405 0.370176 0.434575
0.368567 0.376601 0.434978
0.377199 0.382776 0.435245
0.386220 0.388706 0.435295
0.395559 0.394405 0.435072
0.405155 0.399903 0.434551
0.414959 0.405244 0.433735
0.424931 0.410484 0.432655
0.435041 0.415693 0.431370
0.445271 0.420952 0.429970
0.455611 0.426359 0.428569
0.466065 0.432023 0.427313
0.476643 0.438066 0.426376
0.487368 0.444625 0.425958
0.498275 0.451850 0.426290
0.509405 0.459902 0.427631
0.520813 0.468958 0.430266
0.532562 0.479207 0.434512
0.544728 0.490852 0.440712
0.557396 0.504109 0.449238
0.570659 0.519207 0.460491
0.584626 0.536388 0.474900
0.599410 0.555908 0.492921
0.615140 0.578037 0.515042
0.334577 0.313823 0.451809
0.333511 0.320435 0.445280
0.334075 0.327356 0.440577
0.336098 0.334471 0.437370
0.339417 0.341682 0.435355
0.343882 0.348901 0.434259
0.349351 0.356055 0.433836
0.355694 0.363083 0.433868
0.362791 0.369939 0.434167
0.370532 0.376589 0.434571
0.378816 0.383014 0.434949
0.387556 0.389205 0.435197
0.396673 0.395170 0.435239
0.406097 0.400928 0.435029
0.415773 0.406512 0.434548
0.425651 0.411968 0.433805
0.435694 0.417357 0.432840
0.445877 0.422750 0.431719
0.456182 0.428234 0.430538
0.466604 0.433909 0.429418
0.477148 0.439887 0.428513
0.487827 0.446294 0.428003
0.498667 0.453271 0.428097
0.509704 0.460969 0.429031
0.520984 0.469554 0.431071
0.532562 0.479207 0.434512
0.544507 0.490119 0.439675
