lrplugin/MindfulLensFilmEngine.lrplugin/profiles/luts/acros_xr.cube
# Generated from ColorChecker fit
LUT_3D_SIZE 9
DOMAIN_MIN 0.0 0.0 0.0
DOMAIN_MAX 1.0 1.0 1.0
0.291563 0.164496 0.387035
0.252781 0.188707 0.426710
0.238690 0.221826 0.446546
0.241680 0.255534 0.453203
0.255965 0.284938 0.452272
0.277582 0.308570 0.448278
0.304390 0.328392 0.444677
0.336070 0.349787 0.443859
0.374128 0.381567 0.447149
0.252781 0.188707 0.426710
0.227765 0.219045 0.455267
0.224598 0.254945 0.466383
0.236129 0.288948 0.466450
0.257026 0.317015 0.460793
0.283782 0.338536 0.453670
0.314711 0.356329 0.448270
0.349952 0.376633 0.446718
0.391464 0.409119 0.450069
0.238690 0.221826 0.446546
0.224598 0.254945 0.466383
0.229821 0.290855 0.470998
0.247659 0.322950 0.466518
0.273240 0.348049 0.457999
0.303510 0.366400 0.449432
0.337240 0.381674 0.443742
0.375023 0.400971 0.442785
0.419275 0.434815 0.447350
0.241680 0.255534 0.453203
0.236129 0.288948 0.466450
0.247659 0.322950 0.466518
0.270030 0.351791 0.459264
0.298820 0.373149 0.449480
0.331435 0.388125 0.440889
0.367100 0.401249 0.436150
0.406863 0.420476 0.436852
0.453598 0.457188 0.443517
0.255965 0.284938 0.452272
0.257026 0.317015 0.460793
0.273240 0.348049 0.457999
0.298820 0.373149 0.449480
0.329804 0.390846 0.439761
0.364049 0.403101 0.432299
0.401239 0.415300 0.429485
0.442878 0.436252 0.432642
0.492292 0.478197 0.442026
0.277582 0.308570 0.448278
0.283782 0.338536 0.453670
0.303510 0.366400 0.449432
0.331435 0.388125 0.440889
0.364049 0.403101 0.432299
0.399668 0.414145 0.426852
0.438429 0.427498 0.426671
0.482292 0.452828 0.432814
0.535039 0.503229 0.445269
0.304390 0.328392 0.444677
0.314711 0.356329 0.448270
0.337240 0.381674 0.443742
0.367100 0.401249 0.436150
0.401239 0.415300 0.429485
0.438429 0.427498 0.426671
0.479262 0.444943 0.429565
0.526155 0.478158 0.438956
0.583344 0.541095 0.454567
0.336070 0.349787 0.443859
0.349952 0.376633 0.446718
0.375023 0.400971 0.442785
0.406863 0.420476 0.436852
0.442878 0.436252 0.432642
0.482292 0.452828 0.432814
0.526155 0.478158 0.438956
0.577337 0.523623 0.451592
0.640534 0.604032 0.470178
0.374128 0.381567 0.447149
0.391464 0.409119 0.450069
0.419275 0.434815 0.447350
0.453598 0.457188 0.443517
0.492292 0.478197 0.442026
0.535039 0.503229 0.445269
0.583344 0.541095 0.454567
0.640534 0.604032 0.470178
0.711759 0.707703 0.491290
0.252781 0.188707 0.426710
0.227765 0.219045 0.455267
0.224598 0.254945 0.466383
0.236129 0.288948 0.466450
0.257026 0.317015 0.460793
0.283782 0.338536 0.453670
0.314711 0.356329 0.448270
0.349952 0.376633 0.446718
0.391464 0.409119 0.450069
0.227765 0.219045 0.455267
0.215017 0.253693 0.473949
0.221432 0.290846 0.477499
0.240311 0.323899 0.472042
0.266780 0.349671 0.462636
0.297786 0.368409 0.453271
0.332101 0.383785 0.446871
0.370316 0.402898 0.445293
0.414849 0.436272 0.449327
0.224598 0.254945 0.466383
0.221432 0.290846 0.477499
0.235043 0.326765 0.475614
0.259190 0.356952 0.466585
0.289454 0.379084 0.455204
0.323237 0.394264 0.445194
0.359768 0.407020 0.439214
0.400093 0.425309 0.438852
0.447085 0.460510 0.444631
0.236129 0.288948 0.466450
0.240311 0.323899 0.472042
0.259190 0.356952 0.466585
0.286980 0.383213 0.455670
0.319717 0.401216 0.443823
0.355261 0.412919 0.434499
0.393294 0.423710 0.430090
0.435319 0.442398 0.431918
0.484664 0.481222 0.440241
0.257026 0.317015 0.460793
0.266780 0.349671 0.462636
0.289454 0.379084 0.455204
0.319717 0.401216 0.443823
0.354063 0.415457 0.432750
0.390805 0.424623 0.425176
0.430082 0.434957 0.423224
0.473853 0.456125 0.427950
0.525901 0.501223 0.439345
0.283782 0.338536 0.453670
0.297786 0.368409 0.453271
0.323237 0.394263 0.445194
0.355261 0.412919 0.434499
0.390805 0.424623 0.425176
0.428640 0.433047 0.420148
0.469359 0.445290 0.421272
0.515377 0.471877 0.429338
0.570933 0.526757 0.444068
0.314711 0.356329 0.448270
0.332101 0.383785 0.446871
0.359768 0.407020 0.439214
0.393294 0.423710 0.430090
0.430082 0.434957 0.423224
0.469359 0.445290 0.421272
0.512172 0.462665 0.425824
0.561395 0.498463 0.437404
0.621721 0.567490 0.455467
0.349952 0.376633 0.446718
0.370316 0.402898 0.445293
0.400093 0.425309 0.438852
0.435319 0.442398 0.431918
0.473853 0.456125 0.427950
0.515377 0.471877 0.429338
0.561395 0.498463 0.437404
0.615235 0.548122 0.452405
0.682046 0.636517 0.473530
0.391464 0.409119 0.450069
0.414849 0.436272 0.449327
0.447085 0.460510 0.444631
0.484664 0.481222 0.440241
0.525901 0.501223 0.439345
0.570933 0.526757 0.444068
0.621721 0.567490 0.455467
0.682046 0.636517 0.473530
0.757515 0.750358 0.497179
0.238690 0.221826 0.446546
0.224598 0.254945 0.466383
0.229821 0.290855 0.470998
0.247659 0.322950 0.466518
0.273240 0.348049 0.457999
0.303510 0.366400 0.449432
0.337240 0.381674 0.443742
0.375023 0.400971 0.442785
0.419275 0.434815 0.447350
0.224598 0.254945 0.466383
0.221432 0.290846 0.477499
0.235043 0.326765 0.475614
0.259190 0.356952 0.466585
0.289454 0.379084 0.455204
0.323237 0.394264 0.445194
0.359768 0.407020 0.439214
0.400093 0.425309 0.438852
0.447085 0.460510 0.444631
0.229821 0.290855 0.470998
0.235043 0.326765 0.475614
0.254811 0.360490 0.469269
0.283337 0.387139 0.457556
0.316659 0.405243 0.444999
0.352636 0.416763 0.435055
0.390949 0.427084 0.430114
0.433103 0.445017 0.431499
0.482426 0.482801 0.439468
0.247659 0.322950 0.466518
0.259190 0.356952 0.466585
0.283337 0.387139 0.457556
0.314770 0.409474 0.444756
0.349981 0.423348 0.432442
0.387285 0.431575 0.423804
0.426820 0.440399 0.420966
0.470545 0.459487 0.424985
0.522244 0.501933 0.435850
0.273240 0.348049 0.457999
0.289454 0.379084 0.455204
0.316659 0.405243 0.444999
0.349981 0.423348 0.432442
0.386367 0.433643 0.421523
0.424589 0.439803 0.415166
0.465239 0.448925 0.415229
0.510733 0.471534 0.422500
0.565309 0.521580 0.436702
0.303510 0.366400 0.449432
0.323237 0.394263 0.445194
0.352636 0.416763 0.435055
0.387285 0.431575 0.423804
0.424589 0.439803 0.415166
0.463774 0.445975 0.411799
0.505889 0.458047 0.415291
0.553805 0.487399 0.426167
0.612216 0.548839 0.443881
0.337240 0.381674 0.443742
0.359768 0.407020 0.439214
0.390949 0.427084 0.430114
0.426820 0.440399 0.420966
0.465239 0.448925 0.415229
0.505889 0.458047 0.415291
0.550274 0.476577 0.422477
0.601721 0.516751 0.437042
0.665379 0.594235 0.458176
0.375023 0.400971 0.442785
0.400093 0.425309 0.438852
0.433103 0.445017 0.431499
0.470545 0.459487 0.424985
0.510733 0.471534 0.422500
0.553805 0.487399 0.426167
0.601721 0.516751 0.437042
0.658263 0.572684 0.455115
0.729038 0.671719 0.479309
0.419275 0.434815 0.447350
0.447085 0.460510 0.444631
0.482426 0.482801 0.439468
0.522244 0.501933 0.435850
0.565309 0.521580 0.436702
0.612216 0.548839 0.443881
0.665379 0.594235 0.458176
0.729038 0.671719 0.479309
0.809253 0.798666 0.505937
0.241680 0.255534 0.453203
0.236129 0.288948 0.466450
0.247659 0.322950 0.466518
0.270030 0.351791 0.459264
0.298820 0.373149 0.449480
0.331435 0.388125 0.440889
0.367100 0.401249 0.436150
0.406863 0.420476 0.436852
0.453598 0.457188 0.443517
0.236129 0.288948 0.466450
0.240311 0.323899 0.472042
0.259190 0.356952 0.466585
0.286980 0.383213 0.455670
0.319717 0.401216 0.443823
0.355261 0.412919 0.434499
0.393294 0.423710 0.430090
0.435319 0.442398 0.431918
0.484664 0.481222 0.440241
0.247659 0.322950 0.466518
0.259190 0.356952 0.466585
0.283337 0.387139 0.457556
0.314770 0.409474 0.444756
0.349981 0.423348 0.432442
0.387285 0.431575 0.423804
0.426820 0.440399 0.420966
0.470545 0.459487 0.424985
0.522244 0.501933 0.435850
0.270030 0.351791 0.459264
0.286980 0.383213 0.455670
0.314770 0.409474 0.444756
0.348524 0.427395 0.431578
0.385192 0.437221 0.420127
0.423542 0.442626 0.413328
0.464169 0.450708 0.413036
0.509489 0.471991 0.420043
0.563738 0.520425 0.434069
0.298820 0.373149 0.449480
0.319717 0.401216 0.443823
0.349981 0.423348 0.432442
0.385192 0.437221 0.420127
0.422754 0.443939 0.410604
0.461893 0.448031 0.406528
0.503658 0.457451 0.409491
0.550921 0.483580 0.420014
0.608375 0.541226 0.437554
0.331435 0.388125 0.440889
0.355261 0.412919 0.434499
0.387285 0.431575 0.423804
0.423542 0.442626 0.413328
0.461893 0.448031 0.406528
0.502019 0.453175 0.405796
0.545423 0.466871 0.412453
0.595435 0.501355 0.426757
0.657202 0.572292 0.447896
0.367100 0.401249 0.436150
0.393294 0.423710 0.430090
0.426820 0.440399 0.420966
0.464169 0.450708 0.413036
0.503658 0.457451 0.409491
0.545423 0.466871 0.412453
0.591425 0.488636 0.422980
0.645446 0.535839 0.441061
0.713091 0.625002 0.465617
0.406863 0.420476 0.436852
0.435319 0.442398 0.431918
0.470545 0.459487 0.424985
0.509489 0.471991 0.420043
0.550921 0.483580 0.420014
0.595435 0.501355 0.426757
0.645446 0.535839 0.441061
0.705193 0.600984 0.462648
0.780737 0.714165 0.490174
0.453598 0.457188 0.443517
0.484664 0.481222 0.440241
0.522244 0.501933 0.435850
0.563738 0.520425 0.434069
0.608375 0.541226 0.437554
0.657202 0.572292 0.447896
0.713091 0.625002 0.465617
0.780737 0.714165 0.490174
0.866655 0.858013 0.519955
0.255965 0.284938 0.452272
0.257026 0.317015 0.460793
0.273240 0.348049 0.457999
0.298820 0.373149 0.449480
0.329804 0.390846 0.439761
0.364049 0.403101 0.432299
0.401239 0.415300 0.429485
0.442878 0.436252 0.432642
0.492292 0.478197 0.442026
0.257026 0.317015 0.460793
0.266780 0.349671 0.462636
0.289454 0.379084 0.455204
0.319717 0.401216 0.443823
0.354063 0.415457 0.432750
0.390805 0.424623 0.425176
0.430082 0.434957 0.423224
0.473853 0.456125 0.427950
0.525901 0.501223 0.439345
0.273240 0.348049 0.457999
0.289454 0.379084 0.455204
0.316659 0.405243 0.444999
0.349981 0.423348 0.432442
0.386367 0.433643 0.421523
0.424589 0.439803 0.415166
0.465239 0.448925 0.415229
0.510733 0.471534 0.422500
0.565309 0.521580 0.436702
0.298820 0.373149 0.449480
0.319717 0.401216 0.443823
0.349981 0.423348 0.432442
0.385192 0.437221 0.420127
0.422754 0.443939 0.410604
0.461893 0.448031 0.406528
0.503658 0.457451 0.409491
0.550921 0.483580 0.420014
0.608375 0.541226 0.437554
0.329804 0.390846 0.439761
0.354063 0.415457 0.432750
0.386367 0.433643 0.421523
0.422754 0.443939 0.410604
0.461082 0.448304 0.403451
0.501032 0.452122 0.402453
0.544110 0.464207 0.408935
0.593643 0.496794 0.423151
0.654780 0.565548 0.444292
0.364049 0.403101 0.432299
0.390805 0.424623 0.425176
0.424589 0.439803 0.415166
0.461893 0.448031 0.406528
0.501032 0.452122 0.402453
0.542144 0.458320 0.405063
0.587189 0.476291 0.415416
0.639949 0.519130 0.433500
0.706029 0.603357 0.458238
0.401239 0.415300 0.429485
0.430082 0.434957 0.423224
0.465239 0.448925 0.415229
0.503658 0.457451 0.409491
0.544110 0.464207 0.408935
0.587189 0.476291 0.415416
0.635308 0.504228 0.429725
0.692709 0.561969 0.451584
0.765450 0.666890 0.479649
0.442878 0.436252 0.432642
0.473853 0.456125 0.427950
0.510733 0.471534 0.422500
0.550921 0.483580 0.420014
0.593643 0.496794 0.423151
0.639949 0.519130 0.433500
0.692709 0.561969 0.451584
0.756617 0.640118 0.476859
0.838191 0.771811 0.507714
0.492292 0.478197 0.442026
0.525901 0.501223 0.439345
0.565309 0.521580 0.436702
0.608375 0.541226 0.437554
0.654780 0.565548 0.444292
0.706029 0.603357 0.458238
0.765450 0.666890 0.479649
0.838191 0.771811 0.507714
0.931225 0.937210 0.540555
0.277582 0.308570 0.448278
0.283782 0.338536 0.453670
0.303510 0.366400 0.449432
0.331435 0.388125 0.440889
0.364049 0.403101 0.432299
0.399668 0.414145 0.426852
0.438429 0.427498 0.426671
0.482292 0.452828 0.432814
0.535039 0.503229 0.445269
0.283782 0.338536 0.453670
0.297786 0.368409 0.453271
0.323237 0.394263 0.445194
0.355261 0.412919 0.434499
0.390805 0.424623 0.425176
0.428640 0.433047 0.420148
0.469359 0.445290 0.421272
0.515377 0.471877 0.429338
0.570933 0.526757 0.444068
0.303510 0.366400 0.449432
0.323237 0.394263 0.445194
0.352636 0.416763 0.435055
0.387285 0.431575 0.423804
0.424589 0.439803 0.415166
0.463774 0.445975 0.411799
0.505889 0.458047 0.415291
0.553805 0.487399 0.426167
0.612216 0.548839 0.443881
0.331435 0.388125 0.440889
0.355261 0.412919 0.434499
0.387285 0.431575 0.423804
0.423542 0.442626 0.413328
0.461893 0.448031 0.406528
0.502019 0.453175 0.405796
0.545423 0.466871 0.412453
0.595435 0.501355 0.426757
0.657202 0.572292 0.447896
0.364049 0.403101 0.432299
0.390805 0.424623 0.425176
0.424589 0.439803 0.415166
0.461893 0.448031 0.406528
0.501032 0.452122 0.402453
0.542144 0.458320 0.405063
0.587189 0.476291 0.415416
0.639949 0.519130 0.433500
0.706029 0.603357 0.458238
0.399668 0.414145 0.426852
0.428640 0.433047 0.420148
0.463774 0.445975 0.411799
0.502019 0.453175 0.405796
0.542144 0.458320 0.405063
0.584744 0.468507 0.411458
0.632233 0.494262 0.425769
0.688851 0.549535 0.447718
0.760658 0.651703 0.475963
0.438429 0.427498 0.426671
0.469359 0.445290 0.421272
0.505889 0.458047 0.415291
0.545423 0.466871 0.412453
0.587189 0.476291 0.415416
0.632233 0.494262 0.425769
0.683428 0.532165 0.444034
0.745468 0.604808 0.469668
0.824870 0.730423 0.501060
0.482292 0.452828 0.432814
0.515377 0.471877 0.429338
0.553805 0.487399 0.426167
0.595435 0.501355 0.426757
0.639949 0.519130 0.433500
0.688851 0.549535 0.447718
0.745468 0.604808 0.469668
0.814951 0.700612 0.498539
0.904272 0.856038 0.532452
0.535039 0.503229 0.445269
0.570933 0.526757 0.444068
0.612216 0.548839 0.443881
0.657202 0.572292 0.447896
0.706029 0.603357 0.458238
0.760658 0.651703 0.475963
0.824870 0.730423 0.501060
0.904272 0.856038 0.532452
1.000000 1.000000 0.567993
0.304390 0.328392 0.444677
0.314711 0.356329 0.448270
0.337240 0.381674 0.443742
0.367100 0.401249 0.436150
0.401239 0.415300 0.429485
0.438429 0.427498 0.426671
0.479262 0.444943 0.429565
0.526155 0.478158 0.438956
0.583344 0.541095 0.454567
0.314711 0.356329 0.448270
0.332101 0.383785 0.446871
0.359768 0.407020 0.439214
0.393294 0.423710 0.430090
0.430082 0.434957 0.423224
0.469359 0.445290 0.421272
0.512172 0.462665 0.425824
0.561395 0.498463 0.437404
0.621721 0.567490 0.455467
0.337240 0.381674 0.443742
0.359768 0.407020 0.439214
0.390949 0.427084 0.430114
0.426820 0.440399 0.420966
0.465239 0.448925 0.415229
0.505889 0.458047 0.415291
0.550274 0.476577 0.422477
0.601721 0.516751 0.437042
0.665379 0.594235 0.458176
0.367100 0.401249 0.436150
0.393294 0.423710 0.430090
0.426820 0.440399 0.420966
0.464169 0.450708 0.413036
0.503658 0.457451 0.409491
0.545423 0.466871 0.412453
0.591425 0.488636 0.422980
0.645446 0.535839 0.441061
0.713091 0.625002 0.465617
0.401239 0.415300 0.429485
0.430082 0.434957 0.423224
0.465239 0.448925 0.415229
0.503658 0.457451 0.409491
0.544110 0.464207 0.408935
0.587189 0.476291 0.415416
0.635308 0.504228 0.429725
0.692709 0.561969 0.451584
0.765450 0.666890 0.479649
0.438429 0.427498 0.426671
0.469359 0.445290 0.421272
0.505889 0.458047 0.415291
0.545423 0.466871 0.412453
0.587189 0.476291 0.415416
0.632233 0.494262 0.425769
0.683428 0.532165 0.444034
0.745468 0.604808 0.469668
0.824870 0.730423 0.501060
0.479262 0.444943 0.429565
0.512172 0.462665 0.425824
0.550274 0.476577 0.422477
0.591425 0.488636 0.422980
0.635308 0.504228 0.429725
0.683428 0.532165 0.444034
0.739112 0.584685 0.466163
0.807509 0.677450 0.495302
0.895591 0.829552 0.529573
0.526155 0.478158 0.438956
0.561395 0.498463 0.437404
0.601721 0.516751 0.437042
0.645446 0.535839 0.441061
0.692709 0.561969 0.451584
0.745468 0.604808 0.469668
0.807509 0.677450 0.495302
0.884434 0.796417 0.527409
0.983674 0.981653 0.563844
0.583344 0.541095 0.454567
0.621721 0.567490 0.455467
0.665379 0.594235 0.458176
0.713091 0.625002 0.465617
0.765450 0.666890 0.479649
0.824870 0.730423 0.501060
0.895591 0.829552 0.529573
0.983674 0.981653 0.563844
1.000000 1.000000 0.601460
0.336070 0.349787 0.443859
0.349952 0.376633 0.446718
0.375023 0.400971 0.442785
0.406863 0.420476 0.436852
0.442878 0.436252 0.432642
0.482292 0.452828 0.432814
0.526155 0.478158 0.438956
0.577337 0.523623 0.451592
0.640534 0.604032 0.470178
0.349952 0.376633 0.446718
0.370316 0.402898 0.445293
0.400093 0.425309 0.438852
0.435319 0.442398 0.431918
0.473853 0.456125 0.427950
0.515377 0.471877 0.429338
0.561395 0.498463 0.437404
0.615235 0.548122 0.452405
0.682046 0.636517 0.473530
0.375023 0.400971 0.442785
0.400093 0.425309 0.438852
0.433103 0.445017 0.431499
0.470545 0.459487 0.424985
0.510733 0.471534 0.422500
0.553805 0.487399 0.426167
0.601721 0.516751 0.437042
0.658263 0.572684 0.455115
0.729038 0.671719 0.479309
0.406863 0.420476 0.436852
0.435319 0.442398 0.431918
0.470545 0.459487 0.424985
0.509489 0.471991 0.420043
0.550921 0.483580 0.420014
0.595435 0.501355 0.426757
0.645446 0.535839 0.441061
0.705193 0.600984 0.462648
0.780737 0.714165 0.490174
0.442878 0.436252 0.432642
0.473853 0.456125 0.427950
0.510733 0.471534 0.422500
0.550921 0.483580 0.420014
0.593643 0.496794 0.423151
0.639949 0.519130 0.433500
0.692709 0.561969 0.451584
0.756617 0.640118 0.476859
0.838191 0.771811 0.507714
0.482292 0.452828 0.432814
0.515377 0.471877 0.429338
0.553805 0.487399 0.426167
0.595435 0.501355 0.426757
0.639949 0.519130 0.433500
0.688851 0.549535 0.447718
0.745468 0.604808 0.469668
0.814951 0.700612 0.498539
0.904272 0.856038 0.532452
0.526155 0.478158 0.438956
0.561395 0.498463 0.437404
0.601721 0.516751 0.437042
0.645446 0.535839 0.441061
0.692709 0.561969 0.451584
0.745468 0.604808 0.469668
0.807509 0.677450 0.495302
0.884434 0.796417 0.527409
0.983674 0.981653 0.563844
0.577337 0.523623 0.451592
0.615235 0.548122 0.452405
0.658263 0.572684 0.455115
0.705193 0.600984 0.462648
0.756617 0.640118 0.476859
0.814951 0.700612 0.498539
0.884434 0.796417 0.527409
0.971127 0.944908 0.562126
1.000000 1.000000 0.600278
0.640534 0.604032 0.470178
0.682046 0.636517 0.473530
0.729038 0.671719 0.479309
0.780737 0.714165 0.490174
0.838191 0.771811 0.507714
0.904272 0.856038 0.532452
0.983674 0.981653 0.563844
1.000000 1.000000 0.600278
1.000000 1.000000 0.639077
0.374128 0.381567 0.447149
0.391464 0.409119 0.450069
0.419275 0.434815 0.447350
0.453598 0.457188 0.443517
0.492292 0.478197 0.442026
0.535039 0.503229 0.445269
0.583344 0.541095 0.454567
0.640534 0.604032 0.470178
0.711759 0.707703 0.491290
0.391464 0.409119 0.450069
0.414849 0.436272 0.449327
0.447085 0.460510 0.444631
0.484664 0.481222 0.440241
0.525901 0.501223 0.439345
0.570933 0.526757 0.444068
0.621721 0.567490 0.455467
0.682046 0.636517 0.473530
0.757515 0.750358 0.497179
0.419275 0.434815 0.447350
0.447085 0.460510 0.444631
0.482426 0.482801 0.439468
0.522244 0.501933 0.435850
0.565309 0.521580 0.436702
0.612216 0.548839 0.443881
0.665379 0.594235 0.458176
0.729038 0.671719 0.479309
0.809253 0.798666 0.505937
0.453598 0.457188 0.443517
0.484664 0.481222 0.440241
0.522244 0.501933 0.435850
0.563738 0.520425 0.434069
0.608375 0.541226 0.437554
0.657202 0.572292 0.447896
0.713091 0.625002 0.465617
0.780737 0.714165 0.490174
0.866655 0.858013 0.519955
0.492292 0.478197 0.442026
0.525901 0.501223 0.439345
0.565309 0.521580 0.436702
0.608375 0.541226 0.437554
0.654780 0.565548 0.444292
0.706029 0.603357 0.458238
0.765450 0.666890 0.479649
0.838191 0.771811 0.507714
0.931225 0.937210 0.540555
0.535039 0.503229 0.445269
0.570933 0.526757 0.444068
0.612216 0.548839 0.443881
0.657202 0.572292 0.447896
0.706029 0.603357 0.458238
0.760658 0.651703 0.475963
0.824870 0.730423 0.501060
0.904272 0.856038 0.532452
1.000000 1.000000 0.567993
0.583344 0.541095 0.454567
0.621721 0.567490 0.455467
0.665379 0.594235 0.458176
0.713091 0.625002 0.465617
0.765450 0.666890 0.479649
0.824870 0.730423 0.501060
0.895591 0.829552 0.529573
0.983674 0.981653 0.563844
1.000000 1.000000 0.601460
0.640534 0.604032 0.470178
0.682046 0.636517 0.473530
0.729038 0.671719 0.479309
0.780737 0.714165 0.490174
0.838191 0.771811 0.507714
0.904272 0.856038 0.532452
0.983674 0.981653 0.563844
1.000000 1.000000 0.600278
1.000000 1.000000 0.639077
0.711759 0.707703 0.491290
0.757515 0.750358 0.497179
0.809253 0.798666 0.505937
0.866655 0.858013 0.519955
0.931225 0.937210 0.540555
1.000000 1.000000 0.567993
1.000000 1.000000 0.601460
1.000000 1.000000 0.639077
1.000000 1.000000 0.677898
