lrplugin/MindfulLensFilmEngine.lrplugin/profiles/luts/acros_xy.cube
# Generated from ColorChecker fit
LUT_3D_SIZE 9
DOMAIN_MIN 0.0 0.0 0.0
DOMAIN_MAX 1.0 1.0 1.0
0.385065 0.146987 0.648356
0.307958 0.160598 0.542301
0.271096 0.187562 0.491503
0.262132 0.218918 0.471140
0.271379 0.249114 0.463664
0.291806 0.276004 0.458797
0.319043 0.300845 0.453537
0.351380 0.328304 0.452151
0.389763 0.366452 0.466181
0.307958 0.160598 0.542301
0.253252 0.182663 0.468617
0.234234 0.214525 0.440705
0.239220 0.248078 0.435560
0.259186 0.278620 0.437451
0.287768 0.304855 0.437921
0.321260 0.328895 0.435784
0.358617 0.356255 0.437126
0.401450 0.395859 0.455307
0.271096 0.187562 0.491503
0.234234 0.214525 0.440705
0.228943 0.248300 0.427404
0.244206 0.281631 0.430415
0.271662 0.310667 0.435825
0.305613 0.334965 0.436994
0.343017 0.357487 0.434554
0.383493 0.384601 0.436410
0.429319 0.426082 0.457741
0.262132 0.218918 0.471140
0.239220 0.248078 0.435560
0.244206 0.281631 0.430415
0.266737 0.313172 0.436338
0.299119 0.339703 0.441235
0.336316 0.361632 0.440283
0.375954 0.382773 0.435933
0.418315 0.410344 0.437909
0.466342 0.454972 0.463206
0.271379 0.249114 0.463664
0.259186 0.278620 0.437451
0.271662 0.310667 0.435825
0.299119 0.339703 0.441235
0.334526 0.363582 0.443405
0.373514 0.383561 0.439331
0.414372 0.404307 0.433283
0.458047 0.433890 0.436801
0.508147 0.483789 0.468699
0.291806 0.276004 0.458797
0.287768 0.304855 0.437921
0.305613 0.334965 0.436994
0.336316 0.361632 0.440283
0.373514 0.383561 0.439331
0.413501 0.402863 0.432953
0.455230 0.425053 0.427234
0.500314 0.459055 0.435535
0.553025 0.517198 0.478488
0.319043 0.300845 0.453537
0.321260 0.328895 0.435784
0.343017 0.357487 0.434554
0.375954 0.382773 0.435933
0.414372 0.404307 0.433283
0.455230 0.425053 0.427234
0.498146 0.451378 0.425693
0.545398 0.493057 0.443836
0.601923 0.563270 0.504115
0.351380 0.328304 0.452151
0.358617 0.356255 0.437126
0.383493 0.384601 0.436410
0.418315 0.410344 0.437909
0.458047 0.433890 0.436801
0.500314 0.459055 0.435535
0.545398 0.493057 0.443836
0.596242 0.546523 0.478700
0.658448 0.633484 0.564394
0.389763 0.366452 0.466181
0.401450 0.395859 0.455307
0.429319 0.426082 0.457741
0.466342 0.454972 0.463206
0.508147 0.483789 0.468699
0.553025 0.517198 0.478488
0.601923 0.563270 0.504115
0.658448 0.633484 0.564394
0.728867 0.742721 0.685411
0.307958 0.160598 0.542301
0.253252 0.182663 0.468617
0.234234 0.214525 0.440705
0.239220 0.248078 0.435560
0.259186 0.278620 0.437451
0.287768 0.304855 0.437921
0.321260 0.328895 0.435784
0.358617 0.356255 0.437126
0.401450 0.395859 0.455307
0.253252 0.182663 0.468617
0.218559 0.211261 0.422259
0.215216 0.246387 0.412792
0.232204 0.280785 0.419031
0.261164 0.310605 0.427063
0.296397 0.335403 0.430247
0.334862 0.358141 0.429217
0.376177 0.385187 0.431877
0.422621 0.426316 0.453406
0.234234 0.214525 0.440705
0.215216 0.246387 0.412792
0.223653 0.282075 0.414103
0.249192 0.315184 0.425270
0.284138 0.342714 0.434198
0.323458 0.365075 0.436066
0.364774 0.386080 0.433324
0.408370 0.412947 0.435695
0.457188 0.456304 0.460175
0.239220 0.248078 0.435560
0.232204 0.280785 0.419031
0.249192 0.315184 0.425270
0.280495 0.345719 0.436727
0.319085 0.370245 0.443126
0.360591 0.390021 0.441464
0.403301 0.409711 0.436008
0.448164 0.437388 0.438301
0.498788 0.484528 0.467156
0.259186 0.278620 0.437451
0.261164 0.310605 0.427063
0.284138 0.342714 0.434198
0.319085 0.370245 0.443126
0.359639 0.391903 0.445389
0.402096 0.409797 0.439801
0.445409 0.429445 0.432449
0.491191 0.459769 0.436692
0.543713 0.513099 0.473163
0.287768 0.304855 0.437921
0.296397 0.335403 0.430247
0.323458 0.365075 0.436066
0.360591 0.390021 0.441464
0.402096 0.409797 0.439801
0.444934 0.427364 0.431711
0.488722 0.449092 0.425097
0.535738 0.484755 0.435138
0.590919 0.547533 0.484284
0.321260 0.328895 0.435784
0.334862 0.358141 0.429217
0.364774 0.386080 0.433324
0.403301 0.409711 0.436008
0.445409 0.429445 0.432449
0.488722 0.449092 0.425097
0.533523 0.475875 0.423675
0.582754 0.520418 0.445179
0.642018 0.596753 0.513877
0.358617 0.356255 0.437126
0.376177 0.385187 0.431877
0.408370 0.412947 0.435695
0.448164 0.437388 0.438301
0.491191 0.459769 0.436692
0.535738 0.484755 0.435138
0.582754 0.520418 0.445179
0.635846 0.578234 0.485629
0.701281 0.673088 0.582575
0.401450 0.395859 0.455307
0.422621 0.426316 0.453406
0.457188 0.456304 0.460175
0.498788 0.484528 0.467156
0.543713 0.513099 0.473163
0.590919 0.547533 0.484284
0.642018 0.596753 0.513877
0.701281 0.673088 0.582575
0.775641 0.792273 0.718283
0.271096 0.187562 0.491503
0.234234 0.214525 0.440705
0.228943 0.248300 0.427404
0.244206 0.281631 0.430415
0.271662 0.310667 0.435825
0.305613 0.334965 0.436994
0.343017 0.357487 0.434554
0.383493 0.384601 0.436410
0.429319 0.426082 0.457741
0.234234 0.214525 0.440705
0.215216 0.246387 0.412792
0.223653 0.282075 0.414103
0.249192 0.315184 0.425270
0.284138 0.342714 0.434198
0.323458 0.365075 0.436066
0.364774 0.386080 0.433324
0.408370 0.412947 0.435695
0.457188 0.456304 0.460175
0.228943 0.248300 0.427404
0.223653 0.282075 0.414103
0.242145 0.317257 0.422964
0.274731 0.348292 0.436437
0.314381 0.373034 0.444246
0.356726 0.392742 0.443387
0.400054 0.412081 0.438129
0.445313 0.439122 0.440013
0.496111 0.485342 0.467853
0.244206 0.281631 0.430415
0.249192 0.315184 0.425270
0.274731 0.348292 0.436437
0.311799 0.376255 0.448184
0.354032 0.397776 0.452055
0.397724 0.414967 0.446862
0.441828 0.433343 0.438693
0.487959 0.461829 0.440907
0.540387 0.512752 0.474137
0.271662 0.310667 0.435825
0.284138 0.342714 0.434198
0.314381 0.373034 0.444246
0.354032 0.397776 0.452055
0.397390 0.416497 0.450985
0.441415 0.432157 0.441669
0.485727 0.451127 0.432012
0.532601 0.483180 0.437191
0.586976 0.541496 0.479657
0.305613 0.334965 0.436994
0.323458 0.365075 0.436066
0.356726 0.392742 0.443387
0.397724 0.414967 0.446862
0.441415 0.432157 0.441669
0.485426 0.448128 0.430259
0.530038 0.470097 0.422354
0.578194 0.508691 0.434952
0.635496 0.577942 0.492320
0.343017 0.357487 0.434554
0.364774 0.386080 0.433324
0.400054 0.412081 0.438129
0.441828 0.433343 0.438693
0.485727 0.451127 0.432012
0.530038 0.470097 0.422354
0.575710 0.498324 0.421262
0.626350 0.547285 0.447549
0.688225 0.631865 0.527302
0.383493 0.384601 0.436410
0.408370 0.412947 0.435695
0.445313 0.439122 0.440013
0.487959 0.461829 0.440907
0.532601 0.483180 0.437191
0.578194 0.508691 0.434952
0.626350 0.547285 0.447549
0.681342 0.611291 0.495616
0.750100 0.716444 0.607055
0.429319 0.426082 0.457741
0.457188 0.456304 0.460175
0.496111 0.485342 0.467853
0.540387 0.512752 0.474137
0.586976 0.541496 0.479657
0.635496 0.577942 0.492320
0.688225 0.631865 0.527302
0.750100 0.716444 0.607055
0.828716 0.848267 0.761302
0.262132 0.218918 0.471140
0.239220 0.248078 0.435560
0.244206 0.281631 0.430415
0.266737 0.313172 0.436338
0.299119 0.339703 0.441235
0.336316 0.361632 0.440283
0.375954 0.382773 0.435933
0.418315 0.410344 0.437909
0.466342 0.454972 0.463206
0.239220 0.248078 0.435560
0.232204 0.280785 0.419031
0.249192 0.315184 0.425270
0.280495 0.345719 0.436727
0.319085 0.370245 0.443126
0.360591 0.390021 0.441464
0.403301 0.409711 0.436008
0.448164 0.437388 0.438301
0.498788 0.484528 0.467156
0.244206 0.281631 0.430415
0.249192 0.315184 0.425270
0.274731 0.348292 0.436437
0.311799 0.376255 0.448184
0.354032 0.397776 0.452055
0.397724 0.414967 0.446862
0.441828 0.433343 0.438693
0.487959 0.461829 0.440907
0.540387 0.512752 0.474137
0.266737 0.313172 0.436338
0.280495 0.345719 0.436727
0.311799 0.376255 0.448184
0.352288 0.400929 0.456797
0.396264 0.419298 0.455925
0.440686 0.434323 0.446201
0.485171 0.452373 0.435529
0.531999 0.483222 0.439088
0.586105 0.540051 0.479327
0.299119 0.339703 0.441235
0.319085 0.370245 0.443126
0.354032 0.397776 0.452055
0.396264 0.419298 0.455925
0.440748 0.435217 0.449915
0.485107 0.449348 0.436476
0.529625 0.468911 0.425331
0.577244 0.504531 0.433475
0.633565 0.570240 0.485178
0.336316 0.361632 0.440283
0.360591 0.390021 0.441464
0.397724 0.414967 0.446862
0.440686 0.434323 0.446201
0.485107 0.449348 0.436476
0.529277 0.464708 0.421957
0.574143 0.488473 0.414185
0.623312 0.532122 0.431975
0.683050 0.610537 0.501411
0.375954 0.382773 0.435933
0.403301 0.409711 0.436008
0.441828 0.433343 0.438693
0.485171 0.452373 0.435529
0.529625 0.468911 0.425331
0.574143 0.488473 0.414185
0.620337 0.519984 0.415452
0.672481 0.575771 0.449764
0.737504 0.671569 0.545024
0.418315 0.410344 0.437909
0.448164 0.437388 0.438301
0.487959 0.461829 0.440907
0.531999 0.483222 0.439088
0.577244 0.504531 0.433475
0.623312 0.532122 0.431975
0.672481 0.575771 0.449764
0.729687 0.648657 0.509293
0.802528 0.767367 0.640285
0.466342 0.454972 0.463206
0.498788 0.484528 0.467156
0.540387 0.512752 0.474137
0.586105 0.540051 0.479327
0.633565 0.570240 0.485178
0.683050 0.610537 0.501411
0.737504 0.671569 0.545024
0.802528 0.767367 0.640285
0.886382 0.915371 0.818735
0.271379 0.249114 0.463664
0.259186 0.278620 0.437451
0.271662 0.310667 0.435825
0.299119 0.339703 0.441235
0.334526 0.363582 0.443405
0.373514 0.383561 0.439331
0.414372 0.404307 0.433283
0.458047 0.433890 0.436801
0.508147 0.483789 0.468699
0.259186 0.278620 0.437451
0.261164 0.310605 0.427063
0.284138 0.342714 0.434198
0.319085 0.370245 0.443126
0.359639 0.391903 0.445389
0.402096 0.409797 0.439801
0.445409 0.429445 0.432449
0.491191 0.459769 0.436692
0.543713 0.513099 0.473163
0.271662 0.310667 0.435825
0.284138 0.342714 0.434198
0.314381 0.373034 0.444246
0.354032 0.397776 0.452055
0.397390 0.416497 0.450985
0.441415 0.432157 0.441669
0.485727 0.451127 0.432012
0.532601 0.483180 0.437191
0.586976 0.541496 0.479657
0.299119 0.339703 0.441235
0.319085 0.370245 0.443126
0.354032 0.397776 0.452055
0.396264 0.419298 0.455925
0.440748 0.435217 0.449915
0.485107 0.449348 0.436476
0.529625 0.468911 0.425331
0.577244 0.504531 0.433475
0.633565 0.570240 0.485178
0.334526 0.363582 0.443405
0.359639 0.391903 0.445389
0.397390 0.416497 0.450985
0.440748 0.435217 0.449915
0.485344 0.449323 0.439176
0.529467 0.463479 0.423037
0.574063 0.485758 0.413038
0.622742 0.527635 0.427995
0.681769 0.603996 0.493993
0.373514 0.383561 0.439331
0.402096 0.409797 0.439801
0.441415 0.432157 0.441669
0.485107 0.449348 0.436476
0.529467 0.463479 0.423037
0.573447 0.480068 0.407438
0.618660 0.508036 0.403040
0.669380 0.559713 0.430474
0.732536 0.650834 0.517645
0.414372 0.404307 0.433283
0.445409 0.429445 0.432449
0.485727 0.451127 0.432012
0.529625 0.468911 0.425331
0.574063 0.485758 0.413038
0.618660 0.508036 0.403040
0.665693 0.545520 0.410513
0.720099 0.611390 0.457908
0.789474 0.722234 0.574948
0.458047 0.433890 0.436801
0.491191 0.459769 0.436692
0.532601 0.483180 0.437191
0.577244 0.504531 0.433475
0.622742 0.527635 0.427995
0.669380 0.559713 0.430474
0.720099 0.611390 0.457908
0.780502 0.696699 0.534565
0.858849 0.833077 0.691988
0.508147 0.483789 0.468699
0.543713 0.513099 0.473163
0.586976 0.541496 0.479657
0.633565 0.570240 0.485178
0.681769 0.603996 0.493993
0.732536 0.650834 0.517645
0.789474 0.722234 0.574948
0.858849 0.833077 0.691988
0.949586 1.000000 0.902124
0.291806 0.276004 0.458797
0.287768 0.304855 0.437921
0.305613 0.334965 0.436994
0.336316 0.361632 0.440283
0.373514 0.383561 0.439331
0.413501 0.402863 0.432953
0.455230 0.425053 0.427234
0.500314 0.459055 0.435535
0.553025 0.517198 0.478488
0.287768 0.304855 0.437921
0.296397 0.335403 0.430247
0.323458 0.365075 0.436066
0.360591 0.390021 0.441464
0.402096 0.409797 0.439801
0.444934 0.427364 0.431711
0.488722 0.449092 0.425097
0.535738 0.484755 0.435138
0.590919 0.547533 0.484284
0.305613 0.334965 0.436994
0.323458 0.365075 0.436066
0.356726 0.392742 0.443387
0.397724 0.414967 0.446862
0.441415 0.432157 0.441669
0.485426 0.448128 0.430259
0.530038 0.470097 0.422354
0.578194 0.508691 0.434952
0.635496 0.577942 0.492320
0.336316 0.361632 0.440283
0.360591 0.390021 0.441464
0.397724 0.414967 0.446862
0.440686 0.434323 0.446201
0.485107 0.449348 0.436476
0.529277 0.464708 0.421957
0.574143 0.488473 0.414185
0.623312 0.532122 0.431975
0.683050 0.610537 0.501411
0.373514 0.383561 0.439331
0.402096 0.409797 0.439801
0.441415 0.432157 0.441669
0.485107 0.449348 0.436476
0.529467 0.463479 0.423037
0.573447 0.480068 0.407438
0.618660 0.508036 0.403040
0.669380 0.559713 0.430474
0.732536 0.650834 0.517645
0.413501 0.402863 0.432953
0.444934 0.427364 0.431711
0.485426 0.448128 0.430259
0.529277 0.464708 0.421957
0.573447 0.480068 0.407438
0.617553 0.500575 0.394607
0.663874 0.536004 0.398642
0.717346 0.599536 0.441992
0.785566 0.707757 0.554381
0.455230 0.425053 0.427234
0.488722 0.449092 0.425097
0.530038 0.470097 0.422355
0.574143 0.488473 0.414185
0.618660 0.508036 0.403040
0.663874 0.536004 0.398642
0.712726 0.583004 0.417986
0.770819 0.663068 0.485342
0.846412 0.793633 0.632250
0.500314 0.459055 0.435535
0.535738 0.484755 0.435138
0.578194 0.508691 0.434952
0.623312 0.532122 0.431975
0.669380 0.559713 0.430474
0.717346 0.599536 0.441992
0.770819 0.663068 0.485342
0.836063 0.765192 0.586611
0.922005 0.924198 0.779159
0.553025 0.517198 0.478488
0.590919 0.547533 0.484284
0.635496 0.577942 0.492320
0.683050 0.610537 0.501411
0.732536 0.650834 0.517645
0.785566 0.707757 0.554381
0.846412 0.793633 0.632250
0.922005 0.924198 0.779159
1.000000 1.000000 1.000000
0.319043 0.300845 0.453537
0.321260 0.328895 0.435784
0.343017 0.357487 0.434554
0.375954 0.382773 0.435933
0.414372 0.404307 0.433283
0.455230 0.425053 0.427234
0.498146 0.451378 0.425693
0.545398 0.493057 0.443836
0.601923 0.563270 0.504115
0.321260 0.328895 0.435784
0.334862 0.358141 0.429217
0.364774 0.386080 0.433324
0.403301 0.409712 0.436008
0.445409 0.429445 0.432449
0.488722 0.449092 0.425097
0.533523 0.475875 0.423675
0.582754 0.520418 0.445179
0.642018 0.596753 0.513877
0.343017 0.357487 0.434554
0.364774 0.386080 0.433324
0.400054 0.412081 0.438129
0.441828 0.433343 0.438693
0.485727 0.451127 0.432012
0.530038 0.470097 0.422355
0.575710 0.498324 0.421262
0.626350 0.547285 0.447550
0.688225 0.631865 0.527302
0.375954 0.382773 0.435933
0.403301 0.409712 0.436008
0.441828 0.433343 0.438693
0.485172 0.452373 0.435529
0.529625 0.468911 0.425331
0.574143 0.488473 0.414185
0.620337 0.519984 0.415452
0.672481 0.575771 0.449764
0.737504 0.671569 0.545024
0.414372 0.404307 0.433283
0.445409 0.429445 0.432449
0.485727 0.451127 0.432012
0.529625 0.468911 0.425331
0.574063 0.485758 0.413038
0.618660 0.508036 0.403040
0.665693 0.545520 0.410513
0.720099 0.611390 0.457908
0.789474 0.722234 0.574948
0.455230 0.425053 0.427234
0.488722 0.449092 0.425097
0.530038 0.470097 0.422355
0.574143 0.488473 0.414185
0.618660 0.508036 0.403040
0.663874 0.536004 0.398642
0.712726 0.583004 0.417986
0.770819 0.663068 0.485342
0.846412 0.793633 0.632250
0.498146 0.451378 0.425693
0.533523 0.475875 0.423675
0.575710 0.498324 0.421262
0.620337 0.519984 0.415452
0.665693 0.545520 0.410513
0.712726 0.583004 0.417986
0.765043 0.643913 0.456686
0.828911 0.743131 0.552698
0.913255 0.898947 0.739383
0.545398 0.493057 0.443836
0.582754 0.520418 0.445179
0.626350 0.547285 0.447550
0.672481 0.575771 0.449764
0.720099 0.611390 0.457908
0.770819 0.663068 0.485342
0.828911 0.743131 0.552698
0.901307 0.867316 0.687880
0.997598 1.000000 0.926067
0.601923 0.563270 0.504115
0.642018 0.596753 0.513877
0.688225 0.631865 0.527302
0.737504 0.671569 0.545024
0.789474 0.722234 0.574948
0.846412 0.793633 0.632250
0.913255 0.898947 0.739383
0.997598 1.000000 0.926067
1.000000 1.000000 1.000000
0.351380 0.328304 0.452151
0.358617 0.356255 0.437126
0.383493 0.384601 0.436410
0.418315 0.410344 0.437909
0.458047 0.433890 0.436801
0.500314 0.459055 0.435535
0.545398 0.493057 0.443836
0.596242 0.546523 0.478700
0.658448 0.633484 0.564394
0.358617 0.356255 0.437126
0.376177 0.385187 0.431877
0.408370 0.412947 0.435695
0.448164 0.437388 0.438301
0.491191 0.459769 0.436692
0.535738 0.484755 0.435138
0.582754 0.520418 0.445179
0.635846 0.578234 0.485629
0.701281 0.673088 0.582575
0.383493 0.384601 0.436410
0.408370 0.412947 0.435695
0.445313 0.439122 0.440013
0.487959 0.461829 0.440907
0.532601 0.483180 0.437191
0.578194 0.508691 0.434952
0.626350 0.547285 0.447550
0.681342 0.611291 0.495616
0.750100 0.716444 0.607055
0.418315 0.410344 0.437909
0.448164 0.437388 0.438301
0.487959 0.461829 0.440907
0.531999 0.483222 0.439088
0.577244 0.504531 0.433475
0.623312 0.532122 0.431975
0.672481 0.575771 0.449764
0.729687 0.648657 0.509293
0.802528 0.767367 0.640285
0.458047 0.433890 0.436801
0.491191 0.459769 0.436692
0.532601 0.483180 0.437191
0.577244 0.504531 0.433475
0.622742 0.527635 0.427995
0.669380 0.559713 0.430474
0.720099 0.611390 0.457908
0.780502 0.696699 0.534566
0.858849 0.833077 0.691988
0.500314 0.459055 0.435535
0.535738 0.484755 0.435138
0.578194 0.508691 0.434952
0.623312 0.532122 0.431975
0.669380 0.559713 0.430474
0.717346 0.599536 0.441992
0.770819 0.663068 0.485342
0.836063 0.765192 0.586611
0.922005 0.924198 0.779159
0.545398 0.493057 0.443836
0.582754 0.520418 0.445179
0.626350 0.547285 0.447550
0.672481 0.575771 0.449764
0.720099 0.611390 0.457908
0.770819 0.663068 0.485342
0.828911 0.743131 0.552698
0.901307 0.867316 0.687880
0.997598 1.000000 0.926067
0.596242 0.546523 0.478700
0.635846 0.578234 0.485629
0.681342 0.611291 0.495616
0.729687 0.648657 0.509293
0.780502 0.696699 0.534566
0.836063 0.765192 0.586611
0.901307 0.867316 0.687880
0.983831 1.000000 0.868096
1.000000 1.000000 1.000000
0.658448 0.633484 0.564394
0.701281 0.673088 0.582575
0.750100 0.716444 0.607055
0.802528 0.767367 0.640285
0.858849 0.833077 0.691988
0.922005 0.924198 0.779159
0.997598 1.000000 0.926067
1.000000 1.000000 1.000000
1.000000 1.000000 1.000000
0.389763 0.366452 0.466181
0.401450 0.395859 0.455307
0.429319 0.426082 0.457741
0.466342 0.454972 0.463206
0.508147 0.483789 0.468699
0.553025 0.517198 0.478488
0.601923 0.563270 0.504115
0.658448 0.633484 0.564394
0.728867 0.742721 0.685411
0.401450 0.395859 0.455307
0.422621 0.426316 0.453406
0.457188 0.456304 0.460175
0.498788 0.484528 0.467156
0.543713 0.513099 0.473163
0.590919 0.547533 0.484284
0.642018 0.596753 0.513877
0.701281 0.673088 0.582575
0.775641 0.792273 0.718283
0.429319 0.426082 0.457741
0.457188 0.456304 0.460175
0.496111 0.485342 0.467853
0.540387 0.512752 0.474137
0.586976 0.541496 0.479657
0.635496 0.577942 0.492320
0.688225 0.631865 0.527302
0.750100 0.716444 0.607055
0.828716 0.848267 0.761302
0.466342 0.454972 0.463206
0.498788 0.484528 0.467156
0.540387 0.512752 0.474137
0.586105 0.540051 0.479327
0.633565 0.570240 0.485178
0.683050 0.610537 0.501411
0.737504 0.671569 0.545024
0.802528 0.767367 0.640285
0.886382 0.915371 0.818735
0.508147 0.483789 0.468699
0.543713 0.513099 0.473163
0.586976 0.541496 0.479657
0.633565 0.570240 0.485178
0.681769 0.603996 0.493993
0.732536 0.650834 0.517645
0.789474 0.722234 0.574948
0.858849 0.833077 0.691988
0.949586 1.000000 0.902124
0.553025 0.517198 0.478488
0.590919 0.547533 0.484284
0.635496 0.577942 0.492320
0.683050 0.610537 0.501411
0.732536 0.650834 0.517645
0.785566 0.707757 0.554381
0.846412 0.793633 0.632250
0.922005 0.924198 0.779159
1.000000 1.000000 1.000000
0.601923 0.563270 0.504115
0.642018 0.596753 0.513877
0.688225 0.631865 0.527302
0.737504 0.671569 0.545024
0.789474 0.722234 0.574948
0.846412 0.793633 0.632250
0.913255 0.898947 0.739383
0.997598 1.000000 0.926067
1.000000 1.000000 1.000000
0.658448 0.633484 0.564394
0.701281 0.673088 0.582575
0.750100 0.716444 0.607055
0.802528 0.767367 0.640285
0.858849 0.833077 0.691988
0.922005 0.924198 0.779159
0.997598 1.000000 0.926067
1.000000 1.000000 1.000000
1.000000 1.000000 1.000000
0.728867 0.742721 0.685411
0.775641 0.792273 0.718283
0.828716 0.848267 0.761302
0.886382 0.915371 0.818735
0.949586 1.000000 0.902124
1.000000 1.000000 1.000000
1.000000 1.000000 1.000000
1.000000 1.000000 1.000000
1.000000 1.000000 1.000000
