lrplugin/MindfulLensFilmEngine.lrplugin/profiles/luts/acros_x.cube
# Generated from ColorChecker fit
LUT_3D_SIZE 33
DOMAIN_MIN 0.0 0.0 0.0
DOMAIN_MAX 1.0 1.0 1.0
0.266572 0.434651 0.744290
0.256183 0.401304 0.676868
0.247596 0.372912 0.619575
0.240686 0.349020 0.571381
0.235329 0.329198 0.531307
0.231409 0.313037 0.498432
0.228816 0.300150 0.471885
0.227442 0.290175 0.450852
0.227186 0.282771 0.434571
0.227954 0.277620 0.422338
0.229655 0.274427 0.413497
0.232205 0.272918 0.407453
0.235522 0.272845 0.403659
0.239534 0.273980 0.401626
0.244171 0.276118 0.400917
0.249370 0.279077 0.401152
0.255071 0.282698 0.402001
0.261222 0.286845 0.403192
0.267774 0.291403 0.404504
0.274686 0.296282 0.405772
0.281920 0.301412 0.406886
0.289444 0.306748 0.407786
0.297231 0.312266 0.408472
0.305260 0.317966 0.408993
0.313514 0.323871 0.409455
0.321984 0.330024 0.410016
0.330663 0.336493 0.410891
0.339551 0.343369 0.412347
0.348654 0.350764 0.414705
0.357981 0.358813 0.418342
0.367548 0.367675 0.423687
0.377376 0.377530 0.431224
0.387492 0.388582 0.441492
0.256183 0.401304 0.676868
0.246716 0.370512 0.614687
0.239010 0.344519 0.562282
0.232937 0.322878 0.518637
0.228378 0.305163 0.482787
0.225216 0.290970 0.453823
0.223342 0.279919 0.430888
0.222651 0.271654 0.413182
0.223044 0.265838 0.399958
0.224426 0.262160 0.390521
0.226708 0.260329 0.384234
0.229807 0.260080 0.380511
0.233644 0.261167 0.378822
0.238147 0.263369 0.378689
0.243247 0.266488 0.379690
0.248883 0.270346 0.381458
0.254997 0.274791 0.383677
0.261537 0.279691 0.386087
0.268456 0.284938 0.388483
0.275714 0.290447 0.390712
0.283275 0.296154 0.392676
0.291107 0.302020 0.394332
0.299186 0.308026 0.395691
0.307491 0.314178 0.396817
0.316007 0.320504 0.397828
0.324726 0.327054 0.398897
0.333642 0.333901 0.400252
0.342758 0.341141 0.402173
0.352078 0.348892 0.404996
0.361616 0.357295 0.409109
0.371388 0.366515 0.414957
0.381416 0.376737 0.423036
0.391728 0.388172 0.433899
0.247596 0.372912 0.619575
0.239010 0.344519 0.562282
0.232141 0.320775 0.514423
0.226865 0.301237 0.474992
0.223062 0.285484 0.443039
0.220618 0.273120 0.417669
0.219425 0.263769 0.398039
0.219380 0.257080 0.383362
0.220383 0.252724 0.372903
0.222342 0.250394 0.365984
0.225170 0.249805 0.361978
0.228784 0.250698 0.360314
0.233108 0.252832 0.360476
0.238069 0.255992 0.361999
0.243600 0.259985 0.364474
0.249642 0.264641 0.367548
0.256139 0.269811 0.370919
0.263038 0.275369 0.374341
0.270296 0.281215 0.377620
0.277873 0.287266 0.380619
0.285734 0.293467 0.383253
0.293849 0.299783 0.385493
0.302194 0.306202 0.387362
0.310752 0.312734 0.388937
0.319507 0.319412 0.390353
0.328452 0.326294 0.391794
0.337585 0.333458 0.393501
0.346908 0.341005 0.395769
0.356427 0.349060 0.398946
0.366157 0.357768 0.403436
0.376116 0.367301 0.409695
0.386327 0.377848 0.418234
0.396819 0.389627 0.429619
0.240686 0.349020 0.571381
0.232937 0.322878 0.518637
0.226865 0.301237 0.474992
0.222344 0.283659 0.439454
0.219259 0.269731 0.411087
0.217495 0.259061 0.389008
0.216946 0.251280 0.372389
0.217509 0.246041 0.360455
0.219087 0.243022 0.352486
0.221589 0.241920 0.347816
0.224928 0.242458 0.345833
0.229024 0.244380 0.345980
0.233801 0.247454 0.347751
0.239189 0.251468 0.350699
0.245122 0.256235 0.354427
0.251541 0.261591 0.358595
0.258390 0.267393 0.362914
0.265622 0.273522 0.367151
0.273192 0.279880 0.371129
0.281061 0.286393 0.374721
0.289197 0.293010 0.377857
0.297570 0.299702 0.380521
0.306159 0.306463 0.382749
0.314946 0.313308 0.384635
0.323919 0.320278 0.386322
0.333070 0.327433 0.388012
0.342399 0.334859 0.389958
0.351909 0.342662 0.392468
0.361610 0.350973 0.395904
0.371515 0.359943 0.400684
0.381644 0.369747 0.407277
0.392022 0.380585 0.416207
0.402679 0.392675 0.428055
0.235329 0.329198 0.531307
0.228378 0.305163 0.482787
0.223062 0.285484 0.443039
0.219259 0.269731 0.411087
0.216853 0.257496 0.386007
0.215731 0.248391 0.366929
0.215789 0.242054 0.353040
0.216925 0.238145 0.343577
0.219044 0.236344 0.337836
0.222055 0.236358 0.335162
0.225873 0.237912 0.334958
0.230419 0.240759 0.336679
0.235619 0.244669 0.339835
0.241403 0.249438 0.343989
0.247708 0.254886 0.348761
0.254475 0.260851 0.353823
0.261651 0.267198 0.358899
0.269189 0.273813 0.363772
0.277044 0.280605 0.368274
0.285181 0.287504 0.372296
0.293568 0.294465 0.375780
0.302177 0.301465 0.378723
0.310987 0.308503 0.381175
0.319982 0.315602 0.383242
0.329151 0.322805 0.385084
0.338490 0.330181 0.386913
0.347996 0.337820 0.388997
0.357677 0.345833 0.391658
0.367541 0.354358 0.395272
0.377605 0.363551 0.400268
0.387889 0.373594 0.407130
0.398420 0.384690 0.416397
0.409230 0.397066 0.428661
0.231409 0.313037 0.498432
0.225216 0.290970 0.453823
0.220618 0.273120 0.417669
0.217495 0.259061 0.389008
0.215731 0.248391 0.366929
0.215217 0.240729 0.350577
0.215847 0.235717 0.339150
0.217522 0.233021 0.331901
0.220148 0.232329 0.328138
0.223636 0.233349 0.327220
0.227902 0.235817 0.328563
0.232867 0.239486 0.331637
0.238460 0.244137 0.335964
0.244612 0.249569 0.341122
0.251261 0.255607 0.346743
0.258350 0.262097 0.352512
0.265826 0.268908 0.358169
0.273643 0.275932 0.363508
0.281761 0.283083 0.368378
0.290142 0.290298 0.372680
0.298757 0.297537 0.376370
0.307580 0.304782 0.379460
0.316590 0.312039 0.382013
0.325774 0.319336 0.384149
0.335121 0.326722 0.386039
0.344628 0.334271 0.387912
0.354295 0.342078 0.390048
0.364129 0.350263 0.392782
0.374141 0.358965 0.396504
0.384349 0.368349 0.401657
0.394775 0.378602 0.408738
0.405447 0.389933 0.418300
0.416396 0.402572 0.430947
0.228816 0.300150 0.471885
0.223342 0.279919 0.430888
0.219425 0.263769 0.398039
0.216946 0.251280 0.372389
0.215789 0.242054 0.353040
0.215847 0.235717 0.339150
0.217016 0.231918 0.329932
0.219197 0.230325 0.324653
0.222298 0.230634 0.322632
0.226232 0.232560 0.323243
0.230915 0.235841 0.325917
0.236272 0.240240 0.330134
0.242229 0.245540 0.335433
0.248722 0.251548 0.341404
0.255688 0.258094 0.347692
0.263072 0.265028 0.353997
0.270824 0.272227 0.360071
0.278898 0.279588 0.365723
0.287254 0.287030 0.370814
0.295857 0.294496 0.375259
0.304679 0.301953 0.379029
0.313695 0.309387 0.382147
0.322887 0.316810 0.384692
0.332240 0.324255 0.386796
0.341747 0.331778 0.388644
0.351406 0.339458 0.390479
0.361217 0.347396 0.392593
0.371190 0.355717 0.395336
0.381337 0.364567 0.399111
0.391676 0.374116 0.404375
0.402231 0.384556 0.411638
0.413031 0.396101 0.421466
0.424110 0.408989 0.434478
0.227442 0.290175 0.450852
0.222651 0.271654 0.413182
0.219380 0.257080 0.383362
0.217509 0.246041 0.360455
0.216925 0.238145 0.343577
0.217522 0.233021 0.331901
0.219197 0.230325 0.324653
0.221853 0.229733 0.321111
0.225399 0.230943 0.320610
0.229749 0.233677 0.322539
0.234821 0.237680 0.326338
0.240540 0.242719 0.331504
0.246836 0.248583 0.337589
0.253642 0.255085 0.344196
0.260901 0.262060 0.350983
0.268557 0.269366 0.357665
0.276560 0.276883 0.364006
0.284868 0.284514 0.369830
0.293440 0.292185 0.375010
0.302245 0.299844 0.379476
0.311254 0.307462 0.383212
0.320445 0.315034 0.386254
0.329799 0.322575 0.388695
0.339305 0.330125 0.390680
0.348956 0.337745 0.392409
0.358750 0.345521 0.394136
0.368692 0.353558 0.396169
0.378789 0.361987 0.398870
0.389057 0.370960 0.402657
0.399516 0.380652 0.407998
0.410189 0.391261 0.415420
0.421107 0.403008 0.425499
0.432306 0.416136 0.438871
0.227186 0.282771 0.434571
0.223044 0.265838 0.399958
0.220383 0.252724 0.372903
0.219087 0.243022 0.352486
0.219044 0.236344 0.337836
0.220148 0.232329 0.328138
0.222298 0.230634 0.322632
0.225399 0.230943 0.320610
0.229361 0.232960 0.321422
0.234099 0.236412 0.324467
0.239532 0.241049 0.329202
0.245587 0.246644 0.335136
0.252195 0.252993 0.341834
0.259291 0.259914 0.348913
0.266818 0.267247 0.356045
0.274722 0.274855 0.362958
0.282955 0.282625 0.369431
0.291475 0.290466 0.375299
0.300245 0.298309 0.380450
0.309231 0.306107 0.384828
0.318409 0.313839 0.388428
0.327756 0.321502 0.391303
0.337256 0.329120 0.393558
0.346899 0.336737 0.395351
0.356678 0.344421 0.396896
0.366595 0.352260 0.398461
0.376653 0.360370 0.400367
0.386863 0.368884 0.402989
0.397240 0.377961 0.406759
0.407807 0.387781 0.412160
0.418588 0.398549 0.419729
0.429616 0.410490 0.430060
0.440928 0.423852 0.443798
0.227954 0.277620 0.422338
0.224426 0.262160 0.390521
0.222342 0.250394 0.365984
0.221589 0.241920 0.347816
0.222055 0.236358 0.335162
0.223636 0.233349 0.327220
0.226232 0.232560 0.323243
0.229749 0.233677 0.322539
0.234099 0.236412 0.324467
0.239197 0.240496 0.328443
0.244965 0.245686 0.333936
0.251331 0.251761 0.340470
0.258227 0.258521 0.347622
0.265589 0.265789 0.355024
0.273362 0.273414 0.362361
0.281492 0.281262 0.369373
0.289935 0.289227 0.375854
0.298647 0.297223 0.381653
0.307594 0.305186 0.386670
0.316745 0.313077 0.390864
0.326074 0.320878 0.394243
0.335561 0.328593 0.396873
0.345191 0.336252 0.398873
0.354956 0.343903 0.400414
0.364850 0.351621 0.401725
0.374876 0.359501 0.403085
0.385038 0.367661 0.404831
0.395349 0.376243 0.407352
0.405827 0.385410 0.411090
0.416492 0.395350 0.416544
0.427374 0.406269 0.424265
0.438503 0.418402 0.434860
0.449920 0.432002 0.448987
0.229655 0.274427 0.413497
0.226708 0.260329 0.384234
0.225170 0.249805 0.361978
0.224928 0.242458 0.345833
0.225873 0.237912 0.334958
0.227902 0.235817 0.328563
0.230915 0.235841 0.325917
0.234821 0.237680 0.326338
0.239532 0.241049 0.329202
0.244965 0.245686 0.333936
0.251044 0.251354 0.340025
0.257697 0.257835 0.347004
0.264857 0.264938 0.354466
0.272464 0.272490 0.362053
0.280461 0.280346 0.369467
0.288798 0.288378 0.376461
0.297429 0.296484 0.382841
0.306316 0.304585 0.388469
0.315423 0.312624 0.393262
0.324720 0.320565 0.397189
0.334184 0.328397 0.400274
0.343797 0.336130 0.402595
0.353544 0.343799 0.404284
0.363417 0.351459 0.405528
0.373414 0.359188 0.406567
0.383536 0.367089 0.407695
0.393793 0.375285 0.409262
0.404196 0.383923 0.411670
0.414764 0.393173 0.415377
0.425520 0.403227 0.420892
0.436494 0.414299 0.428782
0.447720 0.426627 0.439665
0.459236 0.440471 0.454216
0.232205 0.272918 0.407453
0.229807 0.260080 0.380511
0.228784 0.250698 0.360314
0.229024 0.244380 0.345980
0.230419 0.240759 0.336679
0.232867 0.239486 0.331637
0.236272 0.240240 0.330134
0.240540 0.242719 0.331504
0.245587 0.246644 0.335136
0.251331 0.251761 0.340470
0.257697 0.257835 0.347004
0.264614 0.264658 0.354288
0.272017 0.272040 0.361927
0.279847 0.279818 0.369578
0.288049 0.287849 0.376955
0.296573 0.296013 0.383825
0.305376 0.304214 0.390008
0.314419 0.312377 0.395380
0.323669 0.320451 0.399870
0.333098 0.328406 0.403462
0.342683 0.336237 0.406193
0.352407 0.343960 0.408154
0.362257 0.351614 0.409491
0.372227 0.359260 0.410405
0.382315 0.366984 0.411148
0.392525 0.374892 0.412030
0.402866 0.383115 0.413413
0.413352 0.391804 0.415712
0.424003 0.401134 0.419399
0.434844 0.411304 0.424997
0.445904 0.422534 0.433086
0.457221 0.435066 0.444299
0.468833 0.449168 0.459321
0.235522 0.272845 0.403659
0.233644 0.261167 0.378822
0.233108 0.252832 0.360476
0.233801 0.247454 0.347751
0.235619 0.244669 0.339835
0.238460 0.244137 0.335964
0.242229 0.245540 0.335433
0.246836 0.248583 0.337589
0.252195 0.252993 0.341834
0.258227 0.258521 0.347622
0.264857 0.264938 0.354466
0.272017 0.272040 0.361927
0.279643 0.279646 0.369624
0.287677 0.287596 0.377229
0.296064 0.295753 0.384469
0.304758 0.304004 0.391124
0.313716 0.312257 0.397028
0.322899 0.320444 0.402071
0.332278 0.328519 0.406194
0.341824 0.336458 0.409396
0.351516 0.344262 0.411726
0.361339 0.351951 0.413290
0.371281 0.359571 0.414248
0.381337 0.367190 0.414812
0.391506 0.374896 0.415250
0.401795 0.382804 0.415885
0.412212 0.391049 0.417090
0.422774 0.399788 0.419298
0.433502 0.409202 0.422991
0.444422 0.419496 0.428707
0.455565 0.430894 0.437039
0.466968 0.443647 0.448634
0.478674 0.458024 0.464191
0.239534 0.273980 0.401626
0.238147 0.263369 0.378689
0.238069 0.255992 0.361999
0.239189 0.251468 0.350699
0.241403 0.249438 0.343989
0.244612 0.249569 0.341122
0.248722 0.251548 0.341404
0.253642 0.255085 0.344196
0.259291 0.259914 0.348913
0.265589 0.265789 0.355024
0.272464 0.272490 0.362053
0.279847 0.279818 0.369578
0.287677 0.287596 0.377229
0.295896 0.295670 0.384693
0.304452 0.303911 0.391709
0.313299 0.312208 0.398071
0.322395 0.320478 0.403628
0.331705 0.328657 0.408281
0.341198 0.336704 0.411987
0.350848 0.344602 0.414757
0.360636 0.352357 0.416654
0.370547 0.359995 0.417798
0.380570 0.367568 0.418361
0.390703 0.375149 0.418570
0.400945 0.382833 0.418707
0.411304 0.390738 0.419106
0.421792 0.399007 0.420157
0.432424 0.407801 0.422303
0.443223 0.417309 0.426041
0.454218 0.427740 0.431924
0.465440 0.439324 0.440558
0.476929 0.452316 0.452601
0.488727 0.466994 0.468768
0.244171 0.276118 0.400917
0.243247 0.266488 0.379690
0.243600 0.259985 0.364474
0.245122 0.256235 0.354427
0.247708 0.254886 0.348761
0.251261 0.255607 0.346743
0.255688 0.258094 0.347692
0.260901 0.262060 0.350983
0.266818 0.267247 0.356045
0.273362 0.273414 0.362361
0.280461 0.280346 0.369467
0.288049 0.287849 0.376955
0.296064 0.295753 0.384469
0.304452 0.303911 0.391709
0.313161 0.312196 0.398428
0.322146 0.320506 0.404434
0.331367 0.328762 0.409588
0.340790 0.336905 0.413805
0.350385 0.344902 0.417057
0.360128 0.352740 0.419366
0.370000 0.360431 0.420812
0.379989 0.368008 0.421525
0.390085 0.375526 0.421692
0.400286 0.383064 0.421555
0.410595 0.390725 0.421406
0.421018 0.398632 0.421596
0.431570 0.406931 0.422527
0.442268 0.415793 0.424656
0.453136 0.425409 0.428494
0.464202 0.435995 0.434605
0.475502 0.447787 0.443611
0.487075 0.461046 0.456183
0.498964 0.476054 0.473049
0.249370 0.279077 0.401152
0.248883 0.270346 0.381458
0.249642 0.264641 0.367548
0.251541 0.261591 0.358595
0.254475 0.260851 0.353823
0.258350 0.262097 0.352512
0.263072 0.265028 0.353997
0.268557 0.269366 0.357665
0.274722 0.274855 0.362958
0.281492 0.281262 0.369373
0.288798 0.288378 0.376461
0.296573 0.296013 0.383825
0.304758 0.304004 0.391124
0.313299 0.312208 0.398071
0.322146 0.320506 0.404434
0.331255 0.328800 0.410032
0.340588 0.337017 0.414742
0.350112 0.345105 0.418491
0.359798 0.353034 0.421265
0.369623 0.360799 0.423100
0.379571 0.368416 0.424087
0.389629 0.375924 0.424373
0.399791 0.383386 0.424158
0.410054 0.390884 0.423695
0.420422 0.398527 0.423292
0.430906 0.406444 0.423313
0.441518 0.414788 0.424172
0.452278 0.423734 0.426341
0.463212 0.433479 0.430344
0.474349 0.444244 0.436760
0.485726 0.456272 0.446222
0.497383 0.469830 0.459417
0.509365 0.485204 0.477085
0.255071 0.282698 0.402001
0.254997 0.274791 0.383677
0.256139 0.269811 0.370919
0.258390 0.267393 0.362914
0.261651 0.267198 0.358899
0.265826 0.268908 0.358169
0.270824 0.272227 0.360071
0.276560 0.276883 0.364006
0.282955 0.282625 0.369431
0.289935 0.289227 0.375854
0.297429 0.296484 0.382841
0.305376 0.304214 0.390008
0.313716 0.312257 0.397028
0.322395 0.320478 0.403628
0.331367 0.328762 0.409588
0.340588 0.337017 0.414742
0.350021 0.345176 0.418978
0.359635 0.353192 0.422241
0.369402 0.361043 0.424526
0.379302 0.368726 0.425886
0.389317 0.376266 0.426423
0.399438 0.383706 0.426300
0.409658 0.391114 0.425727
0.419978 0.398579 0.424974
0.430402 0.406216 0.424361
0.440941 0.414158 0.424265
0.451611 0.422565 0.425115
0.462432 0.431617 0.427396
0.473431 0.441517 0.431645
0.484639 0.452492 0.438454
0.496093 0.464791 0.448471
0.507836 0.478684 0.462395
0.519914 0.494466 0.480982
0.261222 0.286845 0.403192
0.261537 0.279691 0.386087
0.263038 0.275369 0.374341
0.265622 0.273522 0.367151
0.269189 0.273813 0.363772
0.273643 0.275932 0.363508
0.278897 0.279588 0.365723
0.284868 0.284514 0.369830
0.291475 0.290466 0.375299
0.298647 0.297223 0.381653
0.306316 0.304585 0.388469
0.314419 0.312377 0.395380
0.322899 0.320444 0.402071
0.331705 0.328657 0.408281
0.340790 0.336905 0.413805
0.350112 0.345105 0.418491
0.359635 0.353192 0.422241
0.369330 0.361127 0.425011
0.379170 0.368893 0.426812
0.389135 0.376494 0.427708
0.399211 0.383957 0.427818
0.409388 0.391334 0.427314
0.419662 0.398698 0.426424
0.430035 0.406144 0.425429
0.440511 0.413791 0.424664
0.451104 0.421779 0.424518
0.461830 0.430273 0.425435
0.472711 0.439459 0.427911
0.483776 0.449547 0.432499
0.495056 0.460767 0.439805
0.506590 0.473375 0.450489
0.518421 0.487647 0.465263
0.530599 0.503884 0.484898
0.267774 0.291403 0.404504
0.268456 0.284938 0.388483
0.270296 0.281215 0.377620
0.273192 0.279880 0.371129
0.277044 0.280605 0.368274
0.281761 0.283083 0.368378
0.287254 0.287030 0.370814
0.293440 0.292185 0.375010
0.300245 0.298309 0.380450
0.307594 0.305186 0.386670
0.315423 0.312624 0.393262
0.323669 0.320451 0.399870
0.332278 0.328519 0.406194
0.341198 0.336704 0.411987
0.350385 0.344902 0.417057
0.359798 0.353034 0.421265
0.369402 0.361043 0.424526
0.379170 0.368893 0.426812
0.389075 0.376573 0.428145
0.399100 0.384094 0.428604
0.409232 0.391489 0.428321
0.419461 0.398815 0.427482
0.429786 0.406149 0.426328
0.440208 0.413594 0.425153
0.450735 0.421273 0.424306
0.461380 0.429334 0.424190
0.472163 0.437946 0.425262
0.483105 0.447300 0.428033
0.494236 0.457612 0.433068
0.505591 0.469119 0.440987
0.517208 0.482082 0.452462
0.529133 0.496782 0.468221
0.541415 0.513526 0.489047
0.274686 0.296282 0.405772
0.275714 0.290447 0.390712
0.277873 0.287266 0.380619
0.281061 0.286393 0.374721
0.285181 0.287504 0.372296
0.290142 0.290298 0.372680
0.295857 0.294496 0.375259
0.302245 0.299844 0.379476
0.309231 0.306107 0.384828
0.316745 0.313077 0.390864
0.324720 0.320565 0.397189
0.333098 0.328406 0.403462
0.341824 0.336458 0.409396
0.350848 0.344602 0.414757
0.360128 0.352740 0.419366
0.369623 0.360799 0.423100
0.379302 0.368726 0.425886
0.389135 0.376494 0.427708
0.399100 0.384094 0.428604
0.409180 0.391545 0.428665
0.419363 0.398885 0.428037
0.429641 0.406175 0.426921
0.440014 0.413501 0.425569
0.450484 0.420969 0.424290
0.461062 0.428709 0.423447
0.471760 0.436874 0.423455
0.482600 0.445639 0.424785
0.493605 0.455201 0.427962
0.504807 0.465781 0.433564
0.516240 0.477622 0.442225
0.527945 0.490990 0.454631
0.539969 0.506173 0.471523
0.552363 0.523483 0.493696
0.281920 0.301412 0.406886
0.283275 0.296154 0.392676
0.285734 0.293467 0.383253
0.289197 0.293010 0.377857
0.293568 0.294465 0.375780
0.298757 0.297537 0.376370
0.304679 0.301952 0.379029
0.311254 0.307462 0.383212
0.318409 0.313839 0.388428
0.326074 0.320878 0.394243
0.334184 0.328397 0.400274
0.342683 0.336237 0.406193
0.351516 0.344262 0.411726
0.360636 0.352357 0.416654
0.370000 0.360431 0.420812
0.379571 0.368416 0.424087
0.389317 0.376266 0.426423
0.399211 0.383957 0.427818
0.409232 0.391489 0.428321
0.419363 0.398885 0.428037
0.429594 0.406187 0.427127
0.439920 0.413466 0.425804
0.450339 0.420809 0.424335
0.460858 0.428331 0.423041
0.471486 0.436166 0.422299
0.482240 0.444472 0.422538
0.493140 0.453431 0.424243
0.504211 0.463246 0.427951
0.515487 0.474143 0.434255
0.527004 0.486371 0.443801
0.538803 0.500200 0.457290
0.550933 0.515927 0.475476
0.563446 0.533866 0.499168
0.289444 0.306748 0.407786
0.291107 0.302020 0.394332
0.293849 0.299783 0.385493
0.297570 0.299702 0.380521
0.302177 0.301465 0.378723
0.307580 0.304782 0.379460
0.313695 0.309387 0.382147
0.320445 0.315034 0.386254
0.327756 0.321502 0.391303
0.335561 0.328593 0.396873
0.343797 0.336130 0.402595
0.352407 0.343960 0.408154
0.361339 0.351951 0.413290
0.370547 0.359995 0.417798
0.379989 0.368008 0.421525
0.389629 0.375924 0.424373
0.399438 0.383706 0.426300
0.409388 0.391334 0.427314
0.419461 0.398815 0.427482
0.429641 0.406175 0.426921
0.439920 0.413466 0.425804
0.450292 0.420759 0.424358
0.460759 0.428152 0.422865
0.471327 0.435763 0.421660
0.482009 0.443732 0.421131
0.492820 0.452224 0.421722
0.503783 0.461424 0.423931
0.514927 0.471543 0.428309
0.526283 0.482811 0.435462
0.537889 0.495484 0.446051
0.549790 0.509838 0.460788
0.562035 0.526173 0.480443
0.574676 0.544811 0.505837
0.297231 0.312266 0.408472
0.299186 0.308026 0.395691
0.302194 0.306201 0.387362
0.306159 0.306463 0.382749
0.310987 0.308503 0.381175
0.316590 0.312039 0.382013
0.322887 0.316810 0.384692
0.329799 0.322575 0.388695
0.337256 0.329120 0.393558
0.345191 0.336252 0.398873
0.353544 0.343799 0.404284
0.362257 0.351614 0.409491
0.371281 0.359571 0.414248
0.380570 0.367568 0.418361
0.390085 0.375526 0.421692
0.399791 0.383386 0.424158
0.409658 0.391114 0.425727
0.419662 0.398698 0.426424
0.429786 0.406149 0.426328
0.440014 0.413501 0.425569
0.450339 0.420809 0.424335
0.460759 0.428152 0.422865
0.471275 0.435633 0.421455
0.481896 0.443374 0.420454
0.492634 0.451522 0.420263
0.503507 0.460248 0.421341
0.514540 0.469742 0.424197
0.525760 0.480221 0.429398
0.537203 0.491921 0.437562
0.548908 0.505102 0.449363
0.560919 0.520048 0.465529
0.573287 0.537064 0.486841
0.586067 0.556477 0.514135
0.305260 0.317966 0.408993
0.307491 0.314178 0.396817
0.310752 0.312734 0.388937
0.314946 0.313308 0.384635
0.319982 0.315602 0.383242
0.325774 0.319336 0.384149
0.332240 0.324255 0.386796
0.339305 0.330125 0.390680
0.346899 0.336737 0.395351
0.354956 0.343903 0.400414
0.363417 0.351459 0.405528
0.372227 0.359260 0.410405
0.381337 0.367190 0.414812
0.390703 0.375149 0.418570
0.400286 0.383064 0.421555
0.410054 0.390884 0.423695
0.419978 0.398579 0.424974
0.430035 0.406144 0.425429
0.440208 0.413594 0.425153
0.450484 0.420969 0.424290
0.460858 0.428331 0.423041
0.471327 0.435763 0.421660
0.481896 0.443374 0.420454
0.492572 0.451292 0.419786
0.503371 0.459671 0.420073
0.514313 0.468685 0.421784
0.525421 0.478532 0.425445
0.536726 0.489433 0.431634
0.548265 0.501630 0.440984
0.560077 0.515391 0.454181
0.572209 0.531002 0.471968
0.584711 0.548775 0.495139
0.597642 0.569044 0.524544
0.313514 0.323871 0.409455
0.316007 0.320504 0.397828
0.319507 0.319412 0.390353
0.323919 0.320278 0.386322
0.329151 0.322805 0.385084
0.335121 0.326722 0.386039
0.341747 0.331778 0.388644
0.348956 0.337745 0.392409
0.356678 0.344421 0.396896
0.364850 0.351621 0.401725
0.373414 0.359188 0.406567
0.382315 0.366984 0.411148
0.391506 0.374896 0.415250
0.400945 0.382833 0.418707
0.410595 0.390725 0.421406
0.420422 0.398527 0.423292
0.430402 0.406216 0.424361
0.440511 0.413791 0.424664
0.450735 0.421273 0.424306
0.461062 0.428709 0.423447
0.471486 0.436166 0.422299
0.482009 0.443732 0.421131
0.492634 0.451522 0.420263
0.503371 0.459671 0.420073
0.514238 0.468336 0.420989
0.525254 0.477699 0.423496
0.536446 0.487963 0.428131
0.547845 0.499354 0.435487
0.559488 0.512120 0.446211
0.571418 0.526535 0.461003
0.583681 0.542890 0.480617
0.596331 0.561504 0.505863
0.609426 0.582716 0.537603
0.321984 0.330024 0.410016
0.324726 0.327054 0.398897
0.328452 0.326294 0.391794
0.333070 0.327433 0.388012
0.338490 0.330181 0.386913
0.344628 0.334271 0.387912
0.351406 0.339458 0.390479
0.358750 0.345521 0.394136
0.366595 0.352260 0.398461
0.374876 0.359501 0.403085
0.383536 0.367089 0.407695
0.392525 0.374892 0.412030
0.401795 0.382804 0.415885
0.411304 0.390738 0.419106
0.421018 0.398632 0.421596
0.430906 0.406444 0.423313
0.440941 0.414158 0.424265
0.451104 0.421779 0.424518
0.461380 0.429334 0.424190
0.471760 0.436874 0.423455
0.482240 0.444472 0.422538
0.492820 0.452224 0.421722
0.503507 0.460248 0.421341
0.514313 0.468685 0.421784
0.525254 0.477699 0.423496
0.536353 0.487476 0.426972
0.547637 0.498226 0.432766
0.559140 0.510181 0.441483
0.570900 0.523594 0.453783
0.582959 0.538744 0.470380
0.595367 0.555929 0.492042
0.608178 0.575472 0.519591
0.621450 0.597719 0.553904
0.330663 0.336493 0.410891
0.333642 0.333901 0.400252
0.337585 0.333458 0.393501
0.342399 0.334859 0.389958
0.347996 0.337820 0.388997
0.354295 0.342078 0.390048
0.361217 0.347396 0.392593
0.368692 0.353558 0.396169
0.376653 0.360370 0.400367
0.385038 0.367661 0.404831
0.393793 0.375285 0.409262
0.402866 0.383115 0.413413
0.412212 0.391049 0.417090
0.421792 0.399007 0.420157
0.431570 0.406931 0.422527
0.441518 0.414788 0.424172
0.451611 0.422565 0.425115
0.461830 0.430273 0.425435
0.472163 0.437946 0.425262
0.482600 0.445639 0.424785
0.493140 0.453431 0.424243
0.503783 0.461424 0.423931
0.514540 0.469742 0.424197
0.525421 0.478532 0.425445
0.536446 0.487963 0.428131
0.547637 0.498226 0.432766
0.559025 0.509538 0.439917
