lrplugin/MindfulLensFilmEngine.lrplugin/profiles/luts/acros_x.cube
# Generated from ColorChecker fit
LUT_3D_SIZE 5
DOMAIN_MIN 0.0 0.0 0.0
DOMAIN_MAX 1.0 1.0 1.0
0.266572 0.434651 0.744290
0.227186 0.282771 0.434571
0.255071 0.282698 0.402001
0.313514 0.323871 0.409455
0.387492 0.388582 0.441492
0.227186 0.282771 0.434571
0.229361 0.232960 0.321422
0.282955 0.282625 0.369431
0.356678 0.344421 0.396896
0.440928 0.423852 0.443798
0.255071 0.282698 0.402001
0.282955 0.282625 0.369431
0.350021 0.345176 0.418978
0.430402 0.406216 0.424361
0.519914 0.494466 0.480982
0.313514 0.323871 0.409455
0.356678 0.344421 0.396896
0.430402 0.406216 0.424361
0.514238 0.468336 0.420989
0.609426 0.582716 0.537603
0.387492 0.388582 0.441492
0.440928 0.423852 0.443798
0.519914 0.494466 0.480982
0.609426 0.582716 0.537603
0.716124 0.763752 0.819905
0.227186 0.282771 0.434571
0.229361 0.232960 0.321422
0.282955 0.282625 0.369431
0.356678 0.344421 0.396896
0.440928 0.423852 0.443798
0.229361 0.232960 0.321422
0.264268 0.255183 0.337609
0.336549 0.332291 0.417440
0.420337 0.400151 0.434633
0.511450 0.487483 0.484590
0.282955 0.282625 0.369431
0.336549 0.332291 0.417440
0.417088 0.407727 0.468526
0.504125 0.468011 0.451826
0.598900 0.565079 0.518166
0.356678 0.344421 0.396896
0.420337 0.400151 0.434633
0.504125 0.468011 0.451826
0.593017 0.530294 0.433035
0.693675 0.662148 0.584505
0.440928 0.423852 0.443798
0.511450 0.487483 0.484590
0.598900 0.565079 0.518166
0.693675 0.662148 0.584505
0.807857 0.877052 0.945274
0.255071 0.282698 0.402001
0.282955 0.282625 0.369431
0.350021 0.345176 0.418978
0.430402 0.406216 0.424361
0.519914 0.494466 0.480982
0.282955 0.282625 0.369431
0.336549 0.332291 0.417440
0.417088 0.407727 0.468526
0.504125 0.468011 0.451826
0.598900 0.565079 0.518166
0.350021 0.345176 0.418978
0.417088 0.407727 0.468526
0.502476 0.474668 0.479055
0.591162 0.528295 0.435127
0.689806 0.643756 0.542985
0.430402 0.406216 0.424361
0.504125 0.468011 0.451826
0.591162 0.528295 0.435127
0.681910 0.592576 0.414244
0.788450 0.759217 0.650844
0.519914 0.494466 0.480982
0.598900 0.565079 0.518166
0.689806 0.643756 0.542985
0.788450 0.759217 0.650844
0.912335 1.000000 1.000000
0.313514 0.323871 0.409455
0.356678 0.344421 0.396896
0.430402 0.406216 0.424361
0.514238 0.468336 0.420989
0.609426 0.582716 0.537603
0.356678 0.344421 0.396896
0.420337 0.400151 0.434633
0.504125 0.468011 0.451826
0.593017 0.530294 0.433035
0.693675 0.662148 0.584505
0.430402 0.406216 0.424361
0.504125 0.468011 0.451826
0.591162 0.528295 0.435127
0.681910 0.592576 0.414244
0.788450 0.759217 0.650844
0.514238 0.468336 0.420989
0.593017 0.530294 0.433035
0.681910 0.592576 0.414244
0.776733 0.683905 0.460018
0.894990 0.925857 0.887444
0.609426 0.582716 0.537603
0.693675 0.662148 0.584505
0.788450 0.759217 0.650844
0.894990 0.925857 0.887444
1.000000 1.000000 1.000000
0.387492 0.388582 0.441492
0.440928 0.423852 0.443798
0.519914 0.494466 0.480982
0.609426 0.582716 0.537603
0.716124 0.763752 0.819905
0.440928 0.423852 0.443798
0.511450 0.487483 0.484590
0.598900 0.565079 0.518166
0.693675 0.662148 0.584505
0.807857 0.877052 0.945274
0.519914 0.494466 0.480982
0.598900 0.565079 0.518166
0.689806 0.643756 0.542985
0.788450 0.759217 0.650844
0.912335 1.000000 1.000000
0.609426 0.582716 0.537603
0.693675 0.662148 0.584505
0.788450 0.759217 0.650844
0.894990 0.925857 0.887444
1.000000 1.000000 1.000000
0.716124 0.763752 0.819905
0.807857 0.877052 0.945274
0.912335 1.000000 1.000000
1.000000 1.000000 1.000000
1.000000 1.000000 1.000000
