lrplugin/MindfulLensFilmEngine.lrplugin/profiles/luts/acros_xy.cube
# Generated from ColorChecker fit
LUT_3D_SIZE 5
DOMAIN_MIN 0.0 0.0 0.0
DOMAIN_MAX 1.0 1.0 1.0
0.385065 0.146987 0.648356
0.271096 0.187562 0.491503
0.271379 0.249114 0.463664
0.319043 0.300845 0.453537
0.389763 0.366452 0.466181
0.271096 0.187562 0.491503
0.228943 0.248300 0.427404
0.271662 0.310667 0.435825
0.343017 0.357487 0.434554
0.429319 0.426082 0.457741
0.271379 0.249114 0.463664
0.271662 0.310667 0.435825
0.334526 0.363582 0.443405
0.414372 0.404307 0.433283
0.508147 0.483789 0.468699
0.319043 0.300845 0.453537
0.343017 0.357487 0.434554
0.414372 0.404307 0.433283
0.498146 0.451378 0.425693
0.601923 0.563270 0.504115
0.389763 0.366452 0.466181
0.429319 0.426082 0.457741
0.508147 0.483789 0.468699
0.601923 0.563270 0.504115
0.728867 0.742721 0.685411
0.271096 0.187562 0.491503
0.228943 0.248300 0.427404
0.271662 0.310667 0.435825
0.343017 0.357487 0.434554
0.429319 0.426082 0.457741
0.228943 0.248300 0.427404
0.242145 0.317257 0.422964
0.314381 0.373034 0.444246
0.400054 0.412081 0.438129
0.496111 0.485342 0.467853
0.271662 0.310667 0.435825
0.314381 0.373034 0.444246
0.397390 0.416497 0.450985
0.485727 0.451127 0.432012
0.586976 0.541496 0.479657
0.343017 0.357487 0.434554
0.400054 0.412081 0.438129
0.485727 0.451127 0.432012
0.575710 0.498324 0.421262
0.688225 0.631865 0.527302
0.429319 0.426082 0.457741
0.496111 0.485342 0.467853
0.586976 0.541496 0.479657
0.688225 0.631865 0.527302
0.828716 0.848267 0.761302
0.271379 0.249114 0.463664
0.271662 0.310667 0.435825
0.334526 0.363582 0.443405
0.414372 0.404307 0.433283
0.508147 0.483789 0.468699
0.271662 0.310667 0.435825
0.314381 0.373034 0.444246
0.397390 0.416497 0.450985
0.485727 0.451127 0.432012
0.586976 0.541496 0.479657
0.334526 0.363582 0.443405
0.397390 0.416497 0.450985
0.485344 0.449323 0.439176
0.574063 0.485758 0.413038
0.681769 0.603996 0.493993
0.414372 0.404307 0.433283
0.485727 0.451127 0.432012
0.574063 0.485758 0.413038
0.665693 0.545520 0.410513
0.789474 0.722234 0.574948
0.508147 0.483789 0.468699
0.586976 0.541496 0.479657
0.681769 0.603996 0.493993
0.789474 0.722234 0.574948
0.949586 1.000000 0.902124
0.319043 0.300845 0.453537
0.343017 0.357487 0.434554
0.414372 0.404307 0.433283
0.498146 0.451378 0.425693
0.601923 0.563270 0.504115
0.343017 0.357487 0.434554
0.400054 0.412081 0.438129
0.485727 0.451127 0.432012
0.575710 0.498324 0.421262
0.688225 0.631865 0.527302
0.414372 0.404307 0.433283
0.485727 0.451127 0.432012
0.574063 0.485758 0.413038
0.665693 0.545520 0.410513
0.789474 0.722234 0.574948
0.498146 0.451378 0.425693
0.575710 0.498324 0.421262
0.665693 0.545520 0.410513
0.765043 0.643913 0.456686
0.913255 0.898947 0.739383
0.601923 0.563270 0.504115
0.688225 0.631865 0.527302
0.789474 0.722234 0.574948
0.913255 0.898947 0.739383
1.000000 1.000000 1.000000
0.389763 0.366452 0.466181
0.429319 0.426082 0.457741
0.508147 0.483789 0.468699
0.601923 0.563270 0.504115
0.728867 0.742721 0.685411
0.429319 0.426082 0.457741
0.496111 0.485342 0.467853
0.586976 0.541496 0.479657
0.688225 0.631865 0.527302
0.828716 0.848267 0.761302
0.508147 0.483789 0.468699
0.586976 0.541496 0.479657
0.681769 0.603996 0.493993
0.789474 0.722234 0.574948
0.949586 1.000000 0.902124
0.601923 0.563270 0.504115
0.688225 0.631865 0.527302
0.789474 0.722234 0.574948
0.913255 0.898947 0.739383
1.000000 1.000000 1.000000
0.728867 0.742721 0.685411
0.828716 0.848267 0.761302
0.949586 1.000000 0.902124
1.000000 1.000000 1.000000
1.000000 1.000000 1.000000
