lrplugin/MindfulLensFilmEngine.lrplugin/profiles/luts/agfa_precisa.cube
# Generated from ColorChecker fit
LUT_3D_SIZE 5
DOMAIN_MIN 0.0 0.0 0.0
DOMAIN_MAX 1.0 1.0 1.0
0.000000 0.000000 0.015708
0.000000 0.000000 0.201183
0.146038 0.000000 0.425273
0.526908 0.000000 0.267563
0.666161 0.000000 0.000000
0.000000 0.068230 0.247716
0.002037 0.281581 0.452037
0.221793 0.482235 0.696545
0.286511 0.206382 0.547494
0.000000 0.000000 0.000000
0.000000 0.000000 0.236122
0.000000 0.397584 0.422107
0.111747 0.720761 0.661223
0.000000 0.290036 0.506397
0.000000 0.000000 0.000000
0.000000 0.000000 0.975900
0.408670 0.716668 1.000000
0.635312 1.000000 1.000000
0.109663 0.688880 1.000000
0.000000 0.000000 0.000000
1.000000 0.755801 1.000000
1.000000 1.000000 1.000000
1.000000 1.000000 1.000000
1.000000 1.000000 1.000000
0.000000 0.000000 1.000000
0.424692 0.206655 0.085081
0.175319 0.000000 0.000000
0.356012 0.000000 0.006379
0.858330 0.000000 0.063352
1.000000 0.000000 0.000000
0.412236 0.468760 0.304337
0.278948 0.301137 0.261874
0.446161 0.275211 0.465463
0.670514 0.039604 0.600812
0.498475 0.000000 0.000000
0.224978 0.441365 0.240922
0.193001 0.491889 0.237884
0.325209 0.592294 0.473466
0.243321 0.248952 0.620049
0.000000 0.000000 0.000000
0.517502 0.587619 0.883478
0.615135 0.884218 0.788036
0.733886 1.000000 0.935157
0.360557 0.702585 0.983893
0.000000 0.000000 0.220068
1.000000 1.000000 1.000000
1.000000 1.000000 1.000000
1.000000 1.000000 1.000000
1.000000 1.000000 1.000000
0.000000 0.000000 1.000000
0.669154 0.316744 0.274790
0.347421 0.000000 0.000000
0.615251 0.000000 0.000319
1.000000 0.000000 0.242305
1.000000 0.000000 0.121872
0.712492 0.630767 0.412908
0.447544 0.277672 0.293068
0.666610 0.253116 0.507866
1.000000 0.318154 0.862466
1.000000 0.000000 0.788804
0.562334 0.678851 0.213652
0.311500 0.421093 0.155518
0.432379 0.443388 0.404214
0.603160 0.364538 0.751576
0.291859 0.000000 0.616210
0.794578 0.882660 0.659337
0.558261 0.713466 0.478370
0.574606 0.771457 0.587802
0.386884 0.533184 0.766136
0.000000 0.000000 0.418651
1.000000 1.000000 1.000000
1.000000 1.000000 1.000000
1.000000 1.000000 1.000000
1.000000 1.000000 1.000000
0.000000 0.000000 1.000000
0.667293 0.124233 0.168547
0.566807 0.015399 0.002680
1.000000 0.455172 0.202319
1.000000 1.000000 0.705409
1.000000 1.000000 1.000000
0.885035 0.582902 0.354876
0.732578 0.414918 0.432824
1.000000 0.794768 0.816718
1.000000 1.000000 1.000000
1.000000 1.000000 1.000000
0.841394 0.748071 0.133499
0.566399 0.469327 0.259951
0.898447 0.733257 0.644168
1.000000 1.000000 1.000000
1.000000 1.000000 1.000000
1.000000 0.999920 0.480398
0.608560 0.568943 0.418110
0.695542 0.671099 0.576776
0.894272 0.895373 0.854354
0.594314 0.452728 0.775576
1.000000 1.000000 1.000000
1.000000 1.000000 1.000000
1.000000 1.000000 1.000000
1.000000 1.000000 1.000000
0.190081 0.000000 1.000000
0.000000 0.000000 0.000000
0.506650 0.083835 0.000000
1.000000 1.000000 0.486538
1.000000 1.000000 1.000000
1.000000 1.000000 1.000000
0.508358 0.000000 0.000000
0.880100 0.546439 0.647278
1.000000 1.000000 1.000000
1.000000 1.000000 1.000000
1.000000 1.000000 1.000000
0.713535 0.387901 0.058575
0.776630 0.550551 0.715057
1.000000 1.000000 1.000000
1.000000 1.000000 1.000000
1.000000 1.000000 1.000000
0.958788 0.758674 0.602510
0.657847 0.445005 0.968862
1.000000 1.000000 1.000000
1.000000 1.000000 1.000000
1.000000 1.000000 1.000000
1.000000 1.000000 1.000000
1.000000 0.765206 1.000000
1.000000 0.810126 1.000000
1.000000 1.000000 1.000000
1.000000 1.000000 1.000000
