lrplugin/MindfulLensFilmEngine.lrplugin/profiles/luts/agfa_precisa.cube
# Generated from ColorChecker fit
LUT_3D_SIZE 9
DOMAIN_MIN 0.0 0.0 0.0
DOMAIN_MAX 1.0 1.0 1.0
0.000000 0.000000 0.015708
0.000000 0.000000 0.091922
0.000000 0.000000 0.201183
0.000000 0.000000 0.325930
0.146038 0.000000 0.425273
0.338307 0.001788 0.434998
0.526908 0.000000 0.267563
0.658389 0.000000 0.000000
0.666161 0.000000 0.000000
0.000000 0.026746 0.195327
0.000000 0.062732 0.276929
0.008864 0.131579 0.392252
0.108397 0.219641 0.522902
0.244342 0.289644 0.627156
0.381084 0.280691 0.639966
0.469875 0.108256 0.472959
0.448829 0.000000 0.014432
0.242925 0.000000 0.000000
0.000000 0.068230 0.247716
0.000000 0.162271 0.332324
0.002037 0.281581 0.452037
0.107630 0.403623 0.587630
0.221793 0.482235 0.696545
0.300481 0.447626 0.712903
0.286511 0.206382 0.547494
0.109566 0.000000 0.087786
0.000000 0.000000 0.000000
0.000000 0.015753 0.227596
0.000000 0.174547 0.310206
0.000000 0.350744 0.430018
0.054221 0.512917 0.566971
0.147189 0.606012 0.677677
0.167986 0.551350 0.695422
0.050997 0.246624 0.530164
0.000000 0.000000 0.068537
0.000000 0.000000 0.000000
0.000000 0.000000 0.236122
0.000000 0.157442 0.309110
0.000000 0.397584 0.422107
0.036697 0.606672 0.554218
0.111747 0.720761 0.661223
0.077508 0.652282 0.675573
0.000000 0.290036 0.506397
0.000000 0.000000 0.039491
0.000000 0.000000 0.000000
0.000000 0.000000 0.420883
0.000000 0.180501 0.474003
0.025416 0.492279 0.570649
0.166001 0.755699 0.689095
0.229102 0.897926 0.784285
0.145375 0.822499 0.787840
0.000000 0.409330 0.608053
0.000000 0.000000 0.129889
0.000000 0.000000 0.000000
0.000000 0.000000 0.975900
0.199471 0.324928 0.996286
0.408670 0.716668 1.000000
0.575497 1.000000 1.000000
0.635312 1.000000 1.000000
0.510338 1.000000 1.000000
0.109663 0.688880 1.000000
0.000000 0.000000 0.515406
0.000000 0.000000 0.000000
0.674702 0.186130 1.000000
0.947390 0.683589 1.000000
1.000000 1.000000 1.000000
1.000000 1.000000 1.000000
1.000000 1.000000 1.000000
1.000000 1.000000 1.000000
0.855756 1.000000 1.000000
0.000000 0.144016 1.000000
0.000000 0.000000 0.451479
1.000000 0.755801 1.000000
1.000000 1.000000 1.000000
1.000000 1.000000 1.000000
1.000000 1.000000 1.000000
1.000000 1.000000 1.000000
1.000000 1.000000 1.000000
1.000000 1.000000 1.000000
1.000000 0.962818 1.000000
0.000000 0.000000 1.000000
0.233692 0.068767 0.006251
0.110540 0.000000 0.000000
0.078239 0.000000 0.000000
0.139408 0.000000 0.064216
0.283530 0.000000 0.148341
0.486954 0.000000 0.189724
0.712890 0.000000 0.108291
0.911416 0.000000 0.000000
1.000000 0.000000 0.000000
0.276712 0.254675 0.195135
0.191282 0.183480 0.182885
0.187649 0.153695 0.227562
0.260001 0.158702 0.318236
0.389388 0.168255 0.420653
0.543725 0.128483 0.477230
0.677792 0.000000 0.407057
0.733233 0.000000 0.105900
0.638556 0.000000 0.000000
0.215041 0.314561 0.252790
0.164748 0.300982 0.257453
0.186778 0.323930 0.319154
0.266884 0.367896 0.426131
0.377685 0.393743 0.543296
0.478664 0.338709 0.612232
0.516168 0.116406 0.551199
0.423409 0.000000 0.255126
0.120461 0.000000 0.000000
0.101790 0.291418 0.233541
0.086743 0.339985 0.246819
0.134120 0.419921 0.317957
0.221245 0.506827 0.434361
0.312302 0.552675 0.560109
0.358343 0.485813 0.635951
0.297282 0.210961 0.579313
0.053898 0.000000 0.284294
0.000000 0.000000 0.000000
0.012490 0.239904 0.238146
0.035487 0.355779 0.249121
0.110591 0.497592 0.319489
0.206690 0.632053 0.435823
0.279538 0.702244 0.561367
0.271753 0.627621 0.636040
0.112817 0.304014 0.576434
0.000000 0.000000 0.275814
0.000000 0.000000 0.000000
0.045091 0.226335 0.413800
0.111626 0.415315 0.408931
0.219525 0.624528 0.465700
0.329246 0.811793 0.569845
0.388111 0.911300 0.683779
0.330304 0.833617 0.746587
0.076876 0.465683 0.674027
0.000000 0.000000 0.358532
0.000000 0.000000 0.000000
0.319965 0.328689 0.954129
0.438219 0.597205 0.917255
0.586676 0.879974 0.944974
0.717360 1.000000 1.000000
0.769160 1.000000 1.000000
0.667828 1.000000 1.000000
0.325982 0.777749 1.000000
0.000000 0.000000 0.707727
0.000000 0.000000 0.000000
0.979899 0.636605 1.000000
1.000000 0.991720 1.000000
1.000000 1.000000 1.000000
1.000000 1.000000 1.000000
1.000000 1.000000 1.000000
1.000000 1.000000 1.000000
1.000000 1.000000 1.000000
0.202801 0.364805 1.000000
0.000000 0.000000 0.784352
1.000000 1.000000 1.000000
1.000000 1.000000 1.000000
1.000000 1.000000 1.000000
1.000000 1.000000 1.000000
1.000000 1.000000 1.000000
1.000000 1.000000 1.000000
1.000000 1.000000 1.000000
1.000000 1.000000 1.000000
0.000000 0.000000 1.000000
0.424692 0.206655 0.085081
0.247680 0.000000 0.000000
0.175319 0.000000 0.000000
0.213759 0.000000 0.000000
0.356012 0.000000 0.006379
0.581955 0.000000 0.072768
0.858330 0.000000 0.063352
1.000000 0.000000 0.000000
1.000000 0.000000 0.000000
0.467213 0.395554 0.262812
0.325268 0.234863 0.177158
0.280422 0.126161 0.164307
0.330391 0.069857 0.220795
0.459757 0.042730 0.319833
0.639964 0.000000 0.411304
0.829319 0.000000 0.421766
0.972998 0.000000 0.254448
1.000000 0.000000 0.000000
0.412236 0.468760 0.304337
0.301029 0.360042 0.247285
0.278948 0.301137 0.261874
0.335276 0.283563 0.343808
0.446161 0.275211 0.465463
0.574615 0.220345 0.575890
0.670514 0.039604 0.600812
0.670599 0.000000 0.442628
0.498475 0.000000 0.000000
0.307953 0.466676 0.263586
0.225850 0.412290 0.223545
0.224476 0.405269 0.254693
0.284682 0.428239 0.351902
0.374184 0.440200 0.486714
0.447562 0.376525 0.607348
0.446259 0.148963 0.638695
0.298584 0.000000 0.482317
0.000000 0.000000 0.016453
0.224978 0.441365 0.240922
0.173034 0.444307 0.203678
0.193001 0.491889 0.237884
0.257299 0.557849 0.337576
0.325209 0.592294 0.473466
0.342879 0.521710 0.592938
0.243321 0.248952 0.620049
0.000000 0.000000 0.455531
0.000000 0.000000 0.000000
0.256343 0.456551 0.383142
0.238307 0.520448 0.331862
0.282942 0.625988 0.353002
0.354235 0.738017 0.439766
0.403036 0.797754 0.562031
0.367060 0.722792 0.666351
0.170886 0.407097 0.675947
0.000000 0.000000 0.490719
0.000000 0.000000 0.000000
0.517502 0.587619 0.883478
0.539814 0.716733 0.798706
0.615135 0.884218 0.788036
0.699020 1.000000 0.843838
0.733886 1.000000 0.935157
0.649017 1.000000 1.000000
0.360557 0.702585 0.983893
0.000000 0.000000 0.762766
0.000000 0.000000 0.220068
1.000000 0.921615 1.000000
1.000000 1.000000 1.000000
1.000000 1.000000 1.000000
1.000000 1.000000 1.000000
1.000000 1.000000 1.000000
1.000000 1.000000 1.000000
0.966361 1.000000 1.000000
0.239814 0.367892 1.000000
0.000000 0.000000 0.893974
1.000000 1.000000 1.000000
1.000000 1.000000 1.000000
1.000000 1.000000 1.000000
1.000000 1.000000 1.000000
1.000000 1.000000 1.000000
1.000000 1.000000 1.000000
1.000000 1.000000 1.000000
1.000000 1.000000 1.000000
0.000000 0.000000 1.000000
0.565513 0.287614 0.192762
0.349527 0.024492 0.010423
0.253732 0.000000 0.000000
0.287805 0.000000 0.000000
0.448290 0.000000 0.000000
0.718591 0.000000 0.057743
1.000000 0.000000 0.112971
1.000000 0.000000 0.043608
1.000000 0.000000 0.000000
0.614788 0.482642 0.351280
0.428123 0.261085 0.219280
0.355598 0.104123 0.168629
0.398458 0.019192 0.203330
0.544812 0.000000 0.304058
0.769634 0.000000 0.428163
1.000000 0.000000 0.509667
1.000000 0.000000 0.459268
1.000000 0.000000 0.164333
0.570683 0.569112 0.367638
0.407268 0.388678 0.273713
0.351519 0.273373 0.258701
0.396249 0.221739 0.325772
0.521136 0.208696 0.454768
0.692721 0.185534 0.602207
0.864409 0.079918 0.701277
0.976470 0.000000 0.661841
0.956038 0.000000 0.370437
0.476473 0.584835 0.295371
0.332928 0.445716 0.224634
0.290154 0.371984 0.231086
0.332532 0.353292 0.317063
0.431307 0.355667 0.461574
0.544586 0.321510 0.620303
0.617344 0.169597 0.725607
0.581418 0.000000 0.686515
0.355510 0.000000 0.388731
0.397853 0.579281 0.234446
0.273491 0.482302 0.169391
0.242583 0.450694 0.180510
0.281078 0.465221 0.269307
0.351787 0.483019 0.413958
0.404387 0.437598 0.569315
0.375418 0.238842 0.666899
0.188286 0.000000 0.614909
0.000000 0.000000 0.298214
0.422938 0.613581 0.331266
0.319764 0.560201 0.251763
0.302305 0.571904 0.248131
0.338077 0.620561 0.321042
0.381460 0.654419 0.447838
0.373697 0.598096 0.582537
0.242898 0.352587 0.655829
0.000000 0.000000 0.575077
0.000000 0.000000 0.224320
0.662263 0.760526 0.778665
0.584974 0.752839 0.661965
0.585239 0.809671 0.621545
0.622142 0.894004 0.657241
0.641629 0.945193 0.745566
0.576514 0.878967 0.839701
0.346470 0.587429 0.869505
0.000000 0.000000 0.741508
0.000000 0.000000 0.338914
1.000000 1.000000 1.000000
1.000000 1.000000 1.000000
1.000000 1.000000 1.000000
1.000000 1.000000 1.000000
1.000000 1.000000 1.000000
1.000000 1.000000 1.000000
0.835243 1.000000 1.000000
0.202103 0.293285 1.000000
0.000000 0.000000 0.860297
1.000000 1.000000 1.000000
1.000000 1.000000 1.000000
1.000000 1.000000 1.000000
1.000000 1.000000 1.000000
1.000000 1.000000 1.000000
1.000000 1.000000 1.000000
1.000000 1.000000 1.000000
1.000000 0.958501 1.000000
0.000000 0.000000 1.000000
0.669154 0.316744 0.274790
0.439553 0.046214 0.069225
0.347421 0.000000 0.000000
0.405963 0.000000 0.000000
0.615251 0.000000 0.000319
0.962221 0.000000 0.123196
1.000000 0.000000 0.242305
1.000000 0.003465 0.276641
1.000000 0.000000 0.121872
0.736991 0.526064 0.418394
0.527875 0.283213 0.273717
0.451677 0.119591 0.211605
0.513170 0.049662 0.243527
0.703994 0.064259 0.357623
1.000000 0.130593 0.518711
1.000000 0.192245 0.668277
1.000000 0.169172 0.724484
1.000000 0.000000 0.582168
0.712492 0.630767 0.412908
0.516046 0.412984 0.313560
0.447544 0.277672 0.293068
0.503330 0.230401 0.362067
0.666610 0.253116 0.507866
0.907453 0.304137 0.694447
1.000000 0.318154 0.862466
1.000000 0.206233 0.929251
1.000000 0.000000 0.788804
0.634014 0.666070 0.311470
0.445114 0.471378 0.239270
0.378765 0.362124 0.242929
0.422876 0.334987 0.332247
0.552223 0.363022 0.493700
0.728441 0.395656 0.690438
0.900035 0.358691 0.862283
1.000000 0.154303 0.925731
0.957680 0.000000 0.773950
0.562334 0.678851 0.213652
0.378549 0.505907 0.147800
0.311500 0.421093 0.155518
0.340663 0.412199 0.245775
0.432379 0.443388 0.404214
0.539855 0.455197 0.593151
0.603160 0.364538 0.751576
0.549229 0.064695 0.795150
0.291859 0.000000 0.616210
0.580649 0.727648 0.265461
0.402242 0.575742 0.182533
0.334332 0.514385 0.171599
0.347963 0.522476 0.240795
0.401045 0.555288 0.374930
0.438352 0.544468 0.535487
0.391520 0.398035 0.660622
0.179051 0.000384 0.665165
0.000000 0.000000 0.440619
0.794578 0.882660 0.659337
0.624501 0.751716 0.533290
0.558261 0.713466 0.478370
0.558471 0.737919 0.501882
0.574606 0.771457 0.587802
0.543009 0.736835 0.696779
0.386884 0.533184 0.766136
0.016300 0.036006 0.709870
0.000000 0.000000 0.418651
1.000000 1.000000 1.000000
1.000000 1.000000 1.000000
1.000000 1.000000 1.000000
1.000000 1.000000 1.000000
1.000000 1.000000 1.000000
0.995325 1.000000 1.000000
0.733443 0.855648 1.000000
0.207858 0.257858 1.000000
0.000000 0.000000 0.768209
1.000000 1.000000 1.000000
1.000000 1.000000 1.000000
1.000000 1.000000 1.000000
1.000000 1.000000 1.000000
1.000000 1.000000 1.000000
1.000000 1.000000 1.000000
1.000000 1.000000 1.000000
0.923025 0.763898 1.000000
0.000000 0.000000 1.000000
0.718693 0.276008 0.281597
0.511311 0.053789 0.095302
0.460411 0.000000 0.000000
0.582729 0.000000 0.000000
0.881866 0.023044 0.085026
1.000000 0.247276 0.252608
1.000000 0.540935 0.441444
1.000000 0.839898 0.577995
1.000000 1.000000 0.565397
0.821456 0.512809 0.426944
0.622631 0.299177 0.309868
0.577238 0.181439 0.269243
0.693581 0.181082 0.324004
0.966830 0.295968 0.469758
1.000000 0.500333 0.678786
1.000000 0.744787 0.900043
1.000000 0.956313 1.000000
1.000000 1.000000 1.000000
0.829852 0.645738 0.415293
0.630025 0.435915 0.348583
0.580159 0.327933 0.353342
0.680125 0.334390 0.447670
0.916660 0.444258 0.626342
1.000000 0.622881 0.860807
1.000000 0.811980 1.000000
1.000000 0.929647 1.000000
1.000000 0.870348 1.000000
0.777320 0.707420 0.299388
0.569624 0.497258 0.261569
0.507997 0.394613 0.290947
0.583876 0.403191 0.404789
0.775566 0.503073 0.597039
1.000000 0.650714 0.838309
1.000000 0.778942 1.000000
1.000000 0.796960 1.000000
1.000000 0.590343 1.000000
0.719720 0.742139 0.178404
0.499982 0.528127 0.145380
0.421997 0.427033 0.175993
0.468771 0.433671 0.286676
0.610176 0.519234 0.470538
0.802946 0.631285 0.697362
0.990681 0.693761 0.913602
1.000000 0.606974 1.000000
1.000000 0.247610 0.983517
0.735332 0.805841 0.197952
0.502069 0.585101 0.143007
0.405822 0.482405 0.148848
0.421165 0.483678 0.231076
0.509537 0.551221 0.381968
0.619240 0.623708 0.570472
0.685441 0.616184 0.742209
0.630171 0.420072 0.819475
0.362325 0.000000 0.701240
0.924856 0.966132 0.550076
0.679277 0.736419 0.443872
0.565556 0.629603 0.396314
0.549834 0.622719 0.422172
0.585117 0.669177 0.512887
0.611275 0.698758 0.636577
0.555043 0.617621 0.738028
0.330018 0.308295 0.738704
0.000000 0.000000 0.536740
1.000000 1.000000 1.000000
1.000000 1.000000 1.000000
1.000000 0.949162 1.000000
0.985974 0.931962 1.000000
0.970804 0.954902 1.000000
0.915632 0.938873 1.000000
0.738758 0.781142 1.000000
0.345350 0.355348 1.000000
0.000000 0.000000 0.707527
1.000000 1.000000 1.000000
1.000000 1.000000 1.000000
1.000000 1.000000 1.000000
1.000000 1.000000 1.000000
1.000000 1.000000 1.000000
1.000000 1.000000 1.000000
1.000000 1.000000 1.000000
0.840550 0.656595 1.000000
0.000000 0.000000 1.000000
0.667293 0.124233 0.168547
0.528433 0.016990 0.050626
0.566807 0.015399 0.002680
0.802681 0.156866 0.051943
1.000000 0.455172 0.202319
1.000000 0.900470 0.434390
1.000000 1.000000 0.705409
1.000000 1.000000 0.949303
1.000000 1.000000 1.000000
0.825900 0.406728 0.344653
0.680578 0.283775 0.302065
0.710942 0.275405 0.322486
0.928824 0.410133 0.432314
1.000000 0.692849 0.634623
1.000000 1.000000 0.909160
1.000000 1.000000 1.000000
1.000000 1.000000 1.000000
1.000000 1.000000 1.000000
0.885035 0.582902 0.354876
0.721948 0.437290 0.365474
0.732578 0.414918 0.432824
0.920323 0.535411 0.582491
1.000000 0.794768 0.816718
1.000000 1.000000 1.000000
1.000000 1.000000 1.000000
1.000000 1.000000 1.000000
1.000000 1.000000 1.000000
0.873219 0.682786 0.251564
0.683758 0.508201 0.290579
0.665621 0.465239 0.380799
0.813775 0.564635 0.546960
1.000000 0.793494 0.790468
1.000000 1.000000 1.000000
1.000000 1.000000 1.000000
1.000000 1.000000 1.000000
1.000000 1.000000 1.000000
0.841394 0.748071 0.133499
0.619642 0.538833 0.173539
0.566399 0.469327 0.259951
0.668201 0.541396 0.416636
0.898447 0.733257 0.644168
1.000000 0.999501 0.919793
1.000000 1.000000 1.000000
1.000000 1.000000 1.000000
1.000000 1.000000 1.000000
0.862924 0.832112 0.145893
0.605653 0.583173 0.156949
0.513656 0.481801 0.210253
0.565036 0.520948 0.328872
0.724760 0.669942 0.512549
0.944660 0.874482 0.737697
1.000000 1.000000 0.957405
1.000000 1.000000 1.000000
1.000000 0.923993 1.000000
1.000000 0.999920 0.480398
0.740266 0.706867 0.429836
0.608560 0.568943 0.418110
0.608140 0.570208 0.467454
0.695542 0.671099 0.576776
0.814165 0.808427 0.721658
0.894272 0.895373 0.854354
0.852991 0.821497 0.903793
0.594314 0.452728 0.775576
1.000000 1.000000 1.000000
1.000000 0.987225 1.000000
0.974695 0.808694 1.000000
0.923791 0.767750 1.000000
0.939763 0.815938 1.000000
0.957579 0.881177 1.000000
0.899070 0.867761 1.000000
0.672932 0.656355 1.000000
0.174723 0.104001 0.773005
1.000000 1.000000 1.000000
1.000000 1.000000 1.000000
1.000000 1.000000 1.000000
1.000000 1.000000 1.000000
1.000000 1.000000 1.000000
1.000000 1.000000 1.000000
1.000000 1.000000 1.000000
0.925925 0.712220 1.000000
0.190081 0.000000 1.000000
0.438196 0.000000 0.000000
0.424635 0.000000 0.000000
0.610798 0.091450 0.000000
1.000000 0.468546 0.100569
1.000000 1.000000 0.338933
1.000000 1.000000 0.661890
1.000000 1.000000 1.000000
1.000000 1.000000 1.000000
1.000000 1.000000 1.000000
0.678120 0.148539 0.144174
0.639987 0.188664 0.229573
0.801531 0.364090 0.357207
1.000000 0.710360 0.560941
1.000000 1.000000 0.851313
1.000000 1.000000 1.000000
1.000000 1.000000 1.000000
1.000000 1.000000 1.000000
1.000000 1.000000 1.000000
0.810392 0.388001 0.216669
0.734642 0.373795 0.355856
0.858099 0.506257 0.529747
1.000000 0.812036 0.771375
1.000000 1.000000 1.000000
1.000000 1.000000 1.000000
1.000000 1.000000 1.000000
1.000000 1.000000 1.000000
1.000000 1.000000 1.000000
0.858617 0.542935 0.165372
0.734895 0.465916 0.330282
0.809490 0.546655 0.523078
1.000000 0.802913 0.775960
1.000000 1.000000 1.000000
1.000000 1.000000 1.000000
1.000000 1.000000 1.000000
1.000000 1.000000 1.000000
1.000000 1.000000 1.000000
0.868818 0.652440 0.088668
0.689464 0.504759 0.248618
0.707114 0.525652 0.430345
0.911831 0.723991 0.665217
1.000000 1.000000 0.961273
1.000000 1.000000 1.000000
1.000000 1.000000 1.000000
1.000000 1.000000 1.000000
1.000000 1.000000 1.000000
0.909440 0.767277 0.131376
0.669485 0.541718 0.253059
0.624798 0.495276 0.391124
0.757011 0.627931 0.576102
1.000000 0.916037 0.815202
1.000000 1.000000 1.000000
1.000000 1.000000 1.000000
1.000000 1.000000 1.000000
1.000000 1.000000 1.000000
1.000000 0.949866 0.484749
0.768514 0.639846 0.532240
0.658791 0.519213 0.591426
0.715379 0.579056 0.692006
0.898343 0.786838 0.840355
1.000000 1.000000 1.000000
1.000000 1.000000 1.000000
1.000000 1.000000 1.000000
1.000000 1.000000 1.000000
1.000000 1.000000 1.000000
1.000000 0.873859 1.000000
0.927760 0.672813 1.000000
0.908295 0.653348 1.000000
0.995762 0.774035 1.000000
1.000000 0.969822 1.000000
1.000000 1.000000 1.000000
1.000000 1.000000 1.000000
0.987837 1.000000 1.000000
1.000000 1.000000 1.000000
1.000000 1.000000 1.000000
1.000000 1.000000 1.000000
1.000000 0.938451 1.000000
1.000000 0.965908 1.000000
1.000000 1.000000 1.000000
1.000000 1.000000 1.000000
1.000000 0.983262 1.000000
0.723497 0.563384 1.000000
0.000000 0.000000 0.000000
0.103712 0.000000 0.000000
0.506650 0.083835 0.000000
1.000000 0.789164 0.119850
1.000000 1.000000 0.486538
1.000000 1.000000 0.933387
1.000000 1.000000 1.000000
1.000000 1.000000 1.000000
1.000000 1.000000 1.000000
0.275995 0.000000 0.000000
0.409209 0.000000 0.076591
0.767828 0.386962 0.364216
1.000000 1.000000 0.707303
1.000000 1.000000 1.000000
1.000000 1.000000 1.000000
1.000000 1.000000 1.000000
1.000000 1.000000 1.000000
1.000000 1.000000 1.000000
0.508358 0.000000 0.000000
0.581011 0.178979 0.316285
0.880100 0.546439 0.647278
1.000000 1.000000 1.000000
1.000000 1.000000 1.000000
1.000000 1.000000 1.000000
1.000000 1.000000 1.000000
1.000000 1.000000 1.000000
1.000000 1.000000 1.000000
0.640503 0.215498 0.043116
0.640497 0.308977 0.389595
0.867537 0.588377 0.733309
1.000000 1.000000 1.000000
1.000000 1.000000 1.000000
1.000000 1.000000 1.000000
1.000000 1.000000 1.000000
1.000000 1.000000 1.000000
1.000000 1.000000 1.000000
0.713535 0.387901 0.058575
0.631466 0.369503 0.391889
0.776630 0.550551 0.715057
1.000000 0.946941 1.000000
1.000000 1.000000 1.000000
1.000000 1.000000 1.000000
1.000000 1.000000 1.000000
1.000000 1.000000 1.000000
1.000000 1.000000 1.000000
0.790982 0.549017 0.181420
0.620136 0.409358 0.464970
0.676290 0.482395 0.731703
0.944606 0.775135 1.000000
1.000000 1.000000 1.000000
1.000000 1.000000 1.000000
1.000000 1.000000 1.000000
1.000000 1.000000 1.000000
1.000000 1.000000 1.000000
0.958788 0.758674 0.602510
0.695145 0.489003 0.797074
0.657847 0.445005 0.968862
0.823622 0.624797 1.000000
1.000000 1.000000 1.000000
1.000000 1.000000 1.000000
1.000000 1.000000 1.000000
1.000000 1.000000 1.000000
1.000000 1.000000 1.000000
1.000000 1.000000 1.000000
0.967552 0.680560 1.000000
0.835050 0.511136 1.000000
0.896112 0.569315 1.000000
1.000000 0.820696 1.000000
1.000000 1.000000 1.000000
1.000000 1.000000 1.000000
1.000000 1.000000 1.000000
1.000000 1.000000 1.000000
1.000000 1.000000 1.000000
1.000000 1.000000 1.000000
1.000000 0.765206 1.000000
1.000000 0.693741 1.000000
1.000000 0.810126 1.000000
1.000000 1.000000 1.000000
1.000000 1.000000 1.000000
1.000000 1.000000 1.000000
1.000000 1.000000 1.000000
