lrplugin/MindfulLensFilmEngine.lrplugin/profiles/luts/agfa_precisa.cube
# Generated from ColorChecker fit
LUT_3D_SIZE 33
DOMAIN_MIN 0.0 0.0 0.0
DOMAIN_MAX 1.0 1.0 1.0
0.000000 0.000000 0.015708
0.000000 0.000000 0.031580
0.000000 0.000000 0.049497
0.000000 0.000000 0.069597
0.000000 0.000000 0.091922
0.000000 0.000000 0.116426
0.000000 0.000000 0.142973
0.000000 0.000000 0.171332
0.000000 0.000000 0.201183
0.000000 0.000000 0.232117
0.000000 0.000000 0.263630
0.000000 0.000000 0.295129
0.000000 0.000000 0.325930
0.024177 0.000000 0.355257
0.061640 0.000000 0.382244
0.102411 0.000000 0.405932
0.146038 0.000000 0.425273
0.192020 0.000000 0.439127
0.239803 0.000747 0.446263
0.288784 0.004318 0.445357
0.338307 0.001788 0.434998
0.387665 0.000000 0.413680
0.436099 0.000000 0.379808
0.482801 0.000000 0.331695
0.526908 0.000000 0.267563
0.567510 0.000000 0.185544
0.603643 0.000000 0.083676
0.634291 0.000000 0.000000
0.658389 0.000000 0.000000
0.674820 0.000000 0.000000
0.682414 0.000000 0.000000
0.679952 0.000000 0.000000
0.666161 0.000000 0.000000
0.000000 0.000000 0.073787
0.000000 0.000000 0.089995
0.000000 0.000000 0.108264
0.000000 0.000000 0.128729
0.000000 0.000000 0.151428
0.000000 0.000000 0.176313
0.000000 0.000000 0.203244
0.000000 0.000000 0.231986
0.000000 0.000000 0.262218
0.000000 0.000000 0.293525
0.000000 0.000000 0.325402
0.004110 0.000000 0.357252
0.033818 0.003633 0.388387
0.067154 0.022028 0.418029
0.103736 0.039880 0.445307
0.143134 0.056387 0.469261
0.184863 0.070655 0.488838
0.228389 0.081698 0.502896
0.273127 0.088439 0.510199
0.318438 0.089707 0.509422
0.363635 0.084239 0.499148
0.407977 0.070680 0.477871
0.450673 0.047584 0.443990
0.490881 0.013410 0.395816
0.527708 0.000000 0.331567
0.560207 0.000000 0.249372
0.587382 0.000000 0.147267
0.608186 0.000000 0.023198
0.621520 0.000000 0.000000
0.626233 0.000000 0.000000
0.621124 0.000000 0.000000
0.604940 0.000000 0.000000
0.576376 0.000000 0.000000
0.000000 0.000000 0.123027
0.000000 0.000000 0.139560
0.000000 0.000000 0.158174
0.000000 0.000000 0.178998
0.000000 0.000000 0.202069
0.000000 0.000000 0.227336
0.000000 0.000000 0.254653
0.000000 0.000000 0.283785
0.000000 0.011166 0.314407
0.000000 0.027775 0.346099
0.011766 0.045834 0.378354
0.037855 0.064877 0.410572
0.067507 0.084345 0.442061
0.100358 0.103586 0.472040
0.135996 0.121856 0.499635
0.173956 0.138320 0.523883
0.213720 0.152050 0.543727
0.254723 0.162024 0.558022
0.296344 0.167131 0.565528
0.337914 0.166164 0.564919
0.378711 0.157827 0.554774
0.417962 0.140730 0.533581
0.454843 0.113391 0.499739
0.488480 0.074236 0.451554
0.517944 0.021598 0.387242
0.542258 0.000000 0.304928
0.560393 0.000000 0.202644
0.571268 0.000000 0.078334
0.573751 0.000000 0.000000
0.566659 0.000000 0.000000
0.548757 0.000000 0.000000
0.518759 0.000000 0.000000
0.475327 0.000000 0.000000
0.000000 0.000000 0.163467
0.000000 0.000000 0.180304
0.000000 0.003187 0.199244
0.000000 0.009747 0.220412
0.000000 0.018540 0.243843
0.000000 0.029618 0.269481
0.000000 0.042941 0.297178
0.000000 0.058377 0.326696
0.000000 0.075701 0.357705
0.013331 0.094595 0.389784
0.036200 0.114652 0.422421
0.062579 0.135370 0.455014
0.092124 0.156153 0.486867
0.124440 0.176318 0.517195
0.159080 0.195084 0.545123
0.195547 0.211582 0.569682
0.233290 0.224849 0.589814
0.271711 0.233829 0.604369
0.310156 0.237374 0.612106
0.347923 0.234245 0.611694
0.384257 0.223111 0.601708
0.418353 0.202545 0.580635
0.449353 0.171032 0.546869
0.476349 0.126963 0.498713
0.498382 0.068637 0.434381
0.514441 0.000000 0.351993
0.523462 0.000000 0.249580
0.524333 0.000000 0.125080
0.515889 0.000000 0.000000
0.496914 0.000000 0.000000
0.466139 0.000000 0.000000
0.422246 0.000000 0.000000
0.363865 0.000000 0.000000
0.000000 0.026746 0.195327
0.000000 0.032804 0.212437
0.000000 0.040702 0.231674
0.000000 0.050641 0.253161
0.000000 0.062732 0.276929
0.000000 0.076993 0.302918
0.000000 0.093347 0.330978
0.000000 0.111629 0.360867
0.008864 0.131579 0.392252
0.028880 0.152845 0.424709
0.052366 0.174984 0.457722
0.078998 0.197458 0.490685
0.108397 0.219641 0.522902
0.140136 0.240810 0.553582
0.173736 0.260152 0.581847
0.208665 0.276763 0.606725
0.244342 0.289644 0.627156
0.280132 0.297706 0.641985
0.315352 0.299766 0.649968
0.349265 0.294550 0.649771
0.381084 0.280691 0.639966
0.409971 0.256730 0.619037
0.435034 0.221115 0.585375
0.455333 0.172202 0.537279
0.469875 0.108256 0.472959
0.477617 0.027449 0.390533
0.477463 0.000000 0.288028
0.468266 0.000000 0.163379
0.448829 0.000000 0.014432
0.417903 0.000000 0.000000
0.374186 0.000000 0.000000
0.316328 0.000000 0.000000
0.242925 0.000000 0.000000
0.000000 0.048618 0.219008
0.000000 0.058210 0.236350
0.000000 0.069629 0.255846
0.000000 0.083042 0.277615
0.000000 0.098525 0.301687
0.000000 0.116060 0.327997
0.000000 0.135537 0.356393
0.000000 0.156755 0.386628
0.016038 0.179420 0.418367
0.036979 0.203145 0.451182
0.061057 0.227452 0.484555
0.087914 0.251770 0.517876
0.117139 0.275435 0.550445
0.148271 0.297692 0.581469
0.180798 0.317693 0.610066
0.214156 0.334498 0.635261
0.247730 0.347074 0.655990
0.280854 0.354297 0.671096
0.312810 0.354950 0.679332
0.342829 0.347724 0.679358
0.370091 0.331217 0.669746
0.393724 0.303934 0.648975
0.412805 0.264291 0.615433
0.426360 0.210608 0.567416
0.433363 0.141115 0.503131
0.432738 0.053948 0.420693
0.423356 0.000000 0.318124
0.404038 0.000000 0.193357
0.373553 0.000000 0.044235
0.330619 0.000000 0.000000
0.273903 0.000000 0.000000
0.202019 0.000000 0.000000
0.113532 0.000000 0.000000
0.000000 0.062356 0.235093
0.000000 0.075581 0.252615
0.000000 0.090618 0.272321
0.000000 0.107602 0.294328
0.000000 0.126572 0.318660
0.000000 0.147475 0.345251
0.000000 0.170169 0.373944
0.000000 0.194416 0.404490
0.016645 0.219887 0.436551
0.038499 0.246161 0.469695
0.063154 0.272726 0.503401
0.090218 0.298975 0.537056
0.119250 0.324209 0.569956
0.149756 0.347640 0.601305
0.181189 0.368385 0.630219
0.212953 0.385468 0.655718
0.244400 0.397822 0.676736
0.274830 0.404288 0.692111
0.303494 0.403615 0.700595
0.329590 0.394458 0.700844
0.352263 0.375381 0.691426
0.370609 0.344855 0.670817
0.383673 0.301259 0.637401
0.390448 0.242881 0.589473
0.389874 0.167915 0.525235
0.380842 0.074462 0.442799
0.362191 0.000000 0.340184
0.332709 0.000000 0.215320
0.291131 0.000000 0.066046
0.236143 0.000000 0.000000
0.166379 0.000000 0.000000
0.080420 0.000000 0.000000
0.000000 0.000000 0.000000
0.000000 0.068648 0.244347
0.000000 0.085607 0.261987
0.000000 0.104364 0.281845
0.000000 0.125017 0.304032
0.000000 0.147572 0.328570
0.000000 0.171942 0.355391
0.000000 0.197947 0.384334
0.000000 0.225317 0.415147
0.011634 0.253689 0.447487
0.034396 0.282605 0.480920
0.059623 0.311519 0.514922
0.086891 0.339790 0.548877
0.115722 0.366684 0.582076
0.145591 0.391378 0.613723
0.175918 0.412953 0.642927
0.206076 0.430400 0.668708
0.235381 0.442617 0.689993
0.263103 0.448411 0.705621
0.288457 0.446494 0.714338
0.310609 0.435488 0.714797
0.328672 0.413922 0.705564
0.341710 0.380233 0.685111
0.348733 0.332764 0.651819
0.348701 0.269768 0.603979
0.340522 0.189405 0.539790
0.323055 0.089743 0.457360
0.295104 0.000000 0.354707
0.255425 0.000000 0.229757
0.202720 0.000000 0.080344
0.135643 0.000000 0.000000
0.052793 0.000000 0.000000
0.000000 0.000000 0.000000
0.000000 0.000000 0.000000
0.000000 0.068230 0.247716
0.000000 0.089027 0.265402
0.000000 0.111606 0.285341
0.000000 0.136030 0.307642
0.000000 0.162271 0.332324
0.000000 0.190206 0.359313
0.000000 0.219622 0.388447
0.000000 0.250213 0.419471
0.002037 0.281581 0.452037
0.025717 0.313235 0.485711
0.051522 0.344592 0.519962
0.078996 0.374977 0.554172
0.107630 0.403623 0.587630
0.136863 0.429670 0.619534
0.166085 0.452166 0.648993
0.194633 0.470066 0.675021
0.221793 0.482235 0.696545
0.246800 0.487442 0.712398
0.268838 0.484368 0.721322
0.287038 0.471598 0.721970
0.300481 0.447626 0.712903
0.308198 0.410855 0.692588
0.309165 0.359595 0.659406
0.302311 0.292062 0.611643
0.286511 0.206382 0.547494
0.260589 0.100587 0.465066
0.223318 0.000000 0.362372
0.173420 0.000000 0.237335
0.109566 0.000000 0.087786
0.030373 0.000000 0.000000
0.000000 0.000000 0.000000
0.000000 0.000000 0.000000
0.000000 0.000000 0.000000
0.000000 0.061882 0.246326
0.000000 0.086624 0.263976
0.000000 0.113130 0.283917
0.000000 0.141430 0.306255
0.000000 0.171459 0.331006
0.000000 0.203061 0.358093
0.000000 0.235989 0.387350
0.000000 0.269901 0.418518
0.000000 0.304364 0.451249
0.013593 0.338853 0.485101
0.039993 0.372750 0.519544
0.067689 0.405346 0.553955
0.096138 0.435837 0.587619
0.124748 0.463331 0.619733
0.152874 0.486840 0.649400
0.179821 0.505285 0.675633
0.204842 0.517494 0.697354
0.227140 0.522205 0.713393
0.245864 0.518061 0.722491
0.260113 0.503613 0.723295
0.268937 0.477322 0.714363
0.271331 0.437555 0.694161
0.266240 0.382587 0.661064
0.252560 0.310599 0.613357
0.229131 0.219683 0.549231
0.194747 0.107837 0.466789
0.148146 0.000000 0.364041
0.088018 0.000000 0.238907
0.013000 0.000000 0.089214
0.000000 0.000000 0.000000
0.000000 0.000000 0.000000
0.000000 0.000000 0.000000
0.000000 0.000000 0.000000
0.000000 0.050432 0.241486
0.000000 0.079226 0.259007
0.000000 0.109767 0.278860
0.000000 0.142049 0.301148
0.000000 0.175972 0.325884
0.000000 0.211347 0.352987
0.000000 0.247889 0.382288
0.000000 0.285224 0.413526
0.000000 0.322883 0.446347
0.000000 0.360307 0.480309
0.026267 0.396844 0.514876
0.054210 0.431748 0.549422
0.082498 0.464183 0.583231
0.110506 0.493219 0.615495
0.137557 0.517836 0.645314
0.162923 0.536919 0.671697
0.185822 0.549262 0.693565
0.205426 0.553567 0.709743
0.220850 0.548444 0.718968
0.231162 0.532409 0.719886
0.235376 0.503887 0.711050
0.232456 0.461210 0.690923
0.221315 0.402620 0.657877
0.200813 0.326263 0.610194
0.169761 0.230196 0.546062
0.126916 0.112381 0.463579
0.070986 0.000000 0.360754
0.000626 0.000000 0.235503
0.000000 0.000000 0.085650
0.000000 0.000000 0.000000
0.000000 0.000000 0.000000
0.000000 0.000000 0.000000
0.000000 0.000000 0.000000
0.000000 0.034749 0.234685
0.000000 0.067708 0.251975
0.000000 0.102394 0.271640
0.000000 0.138767 0.293782
0.000000 0.176692 0.318407
0.000000 0.215946 0.345435
0.000000 0.256209 0.374692
0.000000 0.297071 0.405912
0.000000 0.338031 0.438741
0.000000 0.378493 0.472730
0.011663 0.417770 0.507344
0.039889 0.455083 0.541951
0.068050 0.489560 0.575832
0.095490 0.520238 0.608176
0.121496 0.546059 0.638080
0.145309 0.565877 0.664551
0.166115 0.578449 0.686503
0.183050 0.582443 0.702762
0.195200 0.576433 0.712059
0.201596 0.558903 0.713037
0.201222 0.528240 0.704247
0.193008 0.482745 0.684148
0.175834 0.420621 0.651110
0.148527 0.339983 0.603408
0.109865 0.238851 0.539231
0.058573 0.115153 0.456672
0.000000 0.000000 0.353737
0.000000 0.000000 0.228338
0.000000 0.000000 0.078296
0.000000 0.000000 0.000000
0.000000 0.000000 0.000000
0.000000 0.000000 0.000000
0.000000 0.000000 0.000000
0.000000 0.015753 0.227596
0.000000 0.052989 0.244541
0.000000 0.091933 0.263908
0.000000 0.132508 0.285795
0.000000 0.174547 0.310206
0.000000 0.217788 0.337056
0.000000 0.261880 0.366169
0.000000 0.306378 0.397276
0.000000 0.350744 0.430018
0.000000 0.394348 0.463946
0.000000 0.436470 0.498517
0.026141 0.476295 0.533100
0.054221 0.512917 0.566971
0.081135 0.545336 0.599316
0.106139 0.572463 0.629228
0.128439 0.593114 0.655711
0.147189 0.606012 0.677677
0.161493 0.609792 0.693947
0.170402 0.602991 0.703250
0.172917 0.584059 0.704226
0.167986 0.551350 0.695422
0.154508 0.503128 0.675294
0.131329 0.437562 0.642207
0.097244 0.352733 0.594436
0.050997 0.246624 0.530164
0.000000 0.117132 0.447483
0.000000 0.000000 0.344394
0.000000 0.000000 0.218805
0.000000 0.000000 0.068537
0.000000 0.000000 0.000000
0.000000 0.000000 0.000000
0.000000 0.000000 0.000000
0.000000 0.000000 0.000000
0.000000 0.000000 0.222071
0.000000 0.036035 0.238547
0.000000 0.079352 0.257496
0.000000 0.124243 0.279010
0.000000 0.170508 0.303092
0.000000 0.217849 0.329653
0.000000 0.265881 0.358512
0.000000 0.314123 0.389399
0.000000 0.362004 0.421951
0.000000 0.408860 0.455715
0.000000 0.453933 0.490146
0.014472 0.496375 0.524609
0.042526 0.535246 0.558377
0.068967 0.569510 0.590632
0.093020 0.598044 0.620466
0.113858 0.619629 0.646877
0.130601 0.632954 0.668775
0.142321 0.636618 0.684978
0.148035 0.629125 0.694211
0.146711 0.608889 0.695111
0.137266 0.574229 0.686222
0.118564 0.523374 0.665997
0.089419 0.454460 0.632797
0.048594 0.365532 0.584895
0.000000 0.254539 0.520469
0.000000 0.119342 0.437608
0.000000 0.000000 0.334311
0.000000 0.000000 0.208482
0.000000 0.000000 0.057939
0.000000 0.000000 0.000000
0.000000 0.000000 0.000000
0.000000 0.000000 0.000000
0.000000 0.000000 0.000000
0.000000 0.000000 0.220143
0.000000 0.017857 0.236018
0.000000 0.065664 0.254417
0.000000 0.114988 0.275431
0.000000 0.165594 0.299058
0.000000 0.217150 0.325207
0.000000 0.269235 0.353693
0.000000 0.321334 0.384243
0.000000 0.372841 0.416491
0.000000 0.423057 0.449980
0.000000 0.471191 0.484162
0.006472 0.516358 0.518400
0.034565 0.557584 0.551962
0.060599 0.593800 0.584027
0.083764 0.623846 0.613684
0.103200 0.646469 0.639929
0.117996 0.660323 0.661667
0.127189 0.663973 0.677714
0.129764 0.655888 0.686791
0.124656 0.634446 0.687532
0.110750 0.597933 0.678477
0.086875 0.544544 0.658076
0.051814 0.472378 0.624688
0.004294 0.379446 0.576582
0.000000 0.263663 0.511932
0.000000 0.122855 0.428825
0.000000 0.000000 0.325256
0.000000 0.000000 0.199126
0.000000 0.000000 0.048249
0.000000 0.000000 0.000000
0.000000 0.000000 0.000000
0.000000 0.000000 0.000000
0.000000 0.000000 0.000000
0.000000 0.000000 0.224028
0.000000 0.000000 0.239157
0.000000 0.051928 0.256867
0.000000 0.105804 0.277242
0.000000 0.160869 0.300279
0.000000 0.216756 0.325883
0.000000 0.273010 0.353866
0.000000 0.329081 0.383952
0.000000 0.384328 0.415771
0.000000 0.438017 0.448864
0.000000 0.489323 0.482679
0.003820 0.537326 0.516575
0.032030 0.581017 0.549817
0.057730 0.619292 0.581583
0.080080 0.650957 0.610956
0.098186 0.674723 0.636929
0.111104 0.689213 0.658406
0.117838 0.692952 0.674196
0.117342 0.684378 0.683021
0.108515 0.661833 0.683508
0.090210 0.623568 0.674197
0.061224 0.567743 0.653532
0.020306 0.492424 0.619871
0.000000 0.395586 0.571477
0.000000 0.275109 0.506524
0.000000 0.128785 0.423094
0.000000 0.000000 0.319178
0.000000 0.000000 0.192676
0.000000 0.000000 0.041397
0.000000 0.000000 0.000000
0.000000 0.000000 0.000000
0.000000 0.000000 0.000000
0.000000 0.000000 0.000000
0.000000 0.000000 0.236122
0.000000 0.000000 0.250353
0.000000 0.039248 0.267220
0.000000 0.097798 0.286809
0.000000 0.157442 0.309110
0.000000 0.217780 0.334026
0.000000 0.278321 0.361366
0.000000 0.338481 0.390851
0.000000 0.397584 0.422107
0.000000 0.454861 0.454671
0.000000 0.509452 0.487990
0.008285 0.560404 0.521418
0.036697 0.606672 0.554218
0.062149 0.647117 0.585563
0.083768 0.680511 0.614533
0.100626 0.705530 0.640120
0.111747 0.720761 0.661223
0.116101 0.724697 0.676648
0.112608 0.715739 0.685113
0.100138 0.692195 0.685243
0.077508 0.652282 0.675573
0.043483 0.594124 0.654547
0.000000 0.515752 0.620517
0.000000 0.415108 0.571743
0.000000 0.290036 0.506397
0.000000 0.138294 0.422556
0.000000 0.000000 0.318209
0.000000 0.000000 0.191252
0.000000 0.000000 0.039491
0.000000 0.000000 0.000000
0.000000 0.000000 0.000000
0.000000 0.000000 0.000000
0.000000 0.000000 0.000000
0.000000 0.000000 0.259005
0.000000 0.000000 0.272172
0.000000 0.028775 0.288037
0.000000 0.092123 0.306679
0.000000 0.156469 0.328089
0.000000 0.221379 0.352164
0.000000 0.286328 0.378711
0.000000 0.350697 0.407446
0.000000 0.413774 0.437994
0.000000 0.474757 0.469888
0.000000 0.532750 0.502571
0.021719 0.586766 0.535395
0.050431 0.635725 0.567618
0.075732 0.678453 0.598412
0.096713 0.713688 0.626852
0.112415 0.740071 0.651927
0.121829 0.756154 0.672533
0.123892 0.760395 0.687473
0.117492 0.751161 0.695461
0.101464 0.726725 0.695120
0.074593 0.685269 0.684981
0.035612 0.624882 0.663484
0.000000 0.543562 0.628978
0.000000 0.439214 0.579722
0.000000 0.309649 0.513881
0.000000 0.152589 0.429532
0.000000 0.000000 0.324659
0.000000 0.000000 0.197155
0.000000 0.000000 0.044824
0.000000 0.000000 0.000000
0.000000 0.000000 0.000000
0.000000 0.000000 0.000000
0.000000 0.000000 0.000000
0.000000 0.000000 0.295435
0.000000 0.000000 0.307364
0.000000 0.021704 0.322054
0.000000 0.089976 0.339582
0.000000 0.159149 0.359934
0.000000 0.228756 0.383004
0.000000 0.298236 0.408598
0.000000 0.366935 0.436426
0.000000 0.434108 0.466111
0.000000 0.498917 0.497182
0.013968 0.560431 0.529080
0.046065 0.617629 0.561152
0.075185 0.669395 0.592656
0.100440 0.714523 0.622756
0.120888 0.751713 0.650528
0.135538 0.779574 0.674956
0.143346 0.796621 0.694931
0.143218 0.801279 0.709256
0.134008 0.791879 0.716641
0.114519 0.766660 0.715704
0.083502 0.723769 0.704974
0.039657 0.661262 0.682887
0.000000 0.577099 0.647790
0.000000 0.469152 0.597937
0.000000 0.335198 0.531492
0.000000 0.172923 0.446526
0.000000 0.000000 0.341022
0.000000 0.000000 0.212870
0.000000 0.000000 0.059868
0.000000 0.000000 0.000000
0.000000 0.000000 0.000000
0.000000 0.000000 0.000000
0.000000 0.000000 0.000000
0.000000 0.000000 0.348354
0.000000 0.000000 0.358860
0.000000 0.019277 0.372193
0.000000 0.092601 0.388427
0.000000 0.166730 0.407545
0.000000 0.241160 0.429437
0.000000 0.315297 0.453906
0.000000 0.388451 0.480659
0.000000 0.459843 0.509316
0.014733 0.528600 0.539402
0.050307 0.593757 0.570355
0.083353 0.654256 0.601519
0.112999 0.708950 0.632148
0.138325 0.756595 0.661404
0.158355 0.795857 0.688359
0.172066 0.825311 0.711993
0.178381 0.843438 0.731196
0.176172 0.848626 0.744765
0.164261 0.839173 0.751408
0.141417 0.813284 0.749741
0.106359 0.769069 0.738288
0.057754 0.704550 0.715482
0.000000 0.617653 0.679667
0.000000 0.506215 0.629094
0.000000 0.367978 0.561923
0.000000 0.200593 0.476224
0.000000 0.001619 0.369974
0.000000 0.000000 0.241060
0.000000 0.000000 0.087278
0.000000 0.000000 0.000000
0.000000 0.000000 0.000000
0.000000 0.000000 0.000000
0.000000 0.000000 0.000000
0.000000 0.000000 0.420883
0.000000 0.000000 0.429771
0.000000 0.022779 0.441555
0.000000 0.101287 0.456306
0.000000 0.180501 0.474003
0.000000 0.259885 0.494534
0.000000 0.338806 0.517696
0.000000 0.416542 0.543197
0.025416 0.492279 0.570649
0.064528 0.565109 0.599578
0.101573 0.634033 0.629416
0.135698 0.697957 0.659505
0.166001 0.755699 0.689095
0.191524 0.805982 0.717345
0.211263 0.847437 0.743324
0.224158 0.878603 0.766009
0.229102 0.897926 0.784285
0.224933 0.903762 0.796949
0.210439 0.894371 0.802702
0.184358 0.867925 0.800159
0.145375 0.822499 0.787840
0.092125 0.756080 0.764177
0.023190 0.666561 0.727507
0.000000 0.551741 0.676080
0.000000 0.409330 0.608053
0.000000 0.236944 0.521491
0.000000 0.032105 0.414369
0.000000 0.000000 0.284571
0.000000 0.000000 0.129889
0.000000 0.000000 0.000000
0.000000 0.000000 0.000000
0.000000 0.000000 0.000000
0.000000 0.000000 0.000000
0.000000 0.000000 0.516327
0.000000 0.000000 0.523392
0.000000 0.033543 0.533425
0.000000 0.117368 0.546492
0.000000 0.201802 0.562571
0.000000 0.286269 0.581547
0.004048 0.370106 0.603212
0.047537 0.452554 0.627270
0.090216 0.532765 0.653333
0.131302 0.609795 0.680921
0.169961 0.682611 0.709464
0.205307 0.750086 0.738300
0.236405 0.811001 0.766676
0.262264 0.864045 0.793749
0.281847 0.907814 0.818583
0.294062 0.940813 0.840152
0.297767 0.961453 0.857339
0.291769 0.968054 0.868935
0.274823 0.958844 0.873642
0.245632 0.931957 0.870068
0.202851 0.885436 0.856731
0.145079 0.817233 0.832060
0.070868 0.725204 0.794389
0.000000 0.607115 0.741964
0.000000 0.460642 0.672938
0.000000 0.283364 0.585375
0.000000 0.072770 0.477246
0.000000 0.000000 0.346430
0.000000 0.000000 0.190718
0.000000 0.000000 0.007808
0.000000 0.000000 0.000000
0.000000 0.000000 0.000000
0.000000 0.000000 0.000000
0.000000 0.000000 0.638169
0.000000 0.000000 0.643196
0.000000 0.052946 0.651265
0.000000 0.142226 0.662440
0.000000 0.232013 0.676694
0.036149 0.321699 0.693909
0.082733 0.410584 0.713876
0.128975 0.497877 0.736293
0.174111 0.582692 0.760771
0.217326 0.664052 0.786825
0.257753 0.740890 0.813882
0.294472 0.812043 0.841278
0.326514 0.876257 0.868255
0.352858 0.932188 0.893968
0.372431 0.978396 0.917477
0.384111 1.000000 0.937754
0.386721 1.000000 0.953678
0.379035 1.000000 0.964036
0.359776 1.000000 0.967527
0.327616 1.000000 0.962757
0.281172 0.959303 0.948240
0.219015 0.889431 0.922401
0.139660 0.795009 0.883571
0.041575 0.673767 0.829994
0.000000 0.523344 0.759819
0.000000 0.341287 0.671106
0.000000 0.125051 0.561823
0.000000 0.000000 0.429847
0.000000 0.000000 0.272964
0.000000 0.000000 0.088870
0.000000 0.000000 0.000000
0.000000 0.000000 0.000000
0.000000 0.000000 0.000000
0.000000 0.000000 0.790078
0.000000 0.000000 0.792841
0.000000 0.082413 0.798723
0.034330 0.177286 0.807785
0.083125 0.272564 0.819997
0.132754 0.367605 0.835237
0.182525 0.461675 0.853293
0.231689 0.553945 0.873861
0.279451 0.643498 0.896546
0.324960 0.729322 0.920863
0.367317 0.810312 0.946234
0.405571 0.885273 0.971991
0.438719 0.952916 0.997375
0.465706 1.000000 1.000000
0.485427 1.000000 1.000000
0.496727 1.000000 1.000000
0.498396 1.000000 1.000000
0.489175 1.000000 1.000000
0.467754 1.000000 1.000000
0.432772 1.000000 1.000000
0.382814 1.000000 1.000000
0.316416 0.974147 1.000000
0.232062 0.877450 0.998496
0.128186 0.753171 0.943602
0.003169 0.598916 0.872115
0.000000 0.412196 0.782093
0.000000 0.190430 0.671500
0.000000 0.000000 0.538210
0.000000 0.000000 0.380006
0.000000 0.000000 0.194580
0.000000 0.000000 0.000000
0.000000 0.000000 0.000000
0.000000 0.000000 0.000000
0.000000 0.000000 0.975900
0.046242 0.023692 0.976163
0.095590 0.123411 0.979625
0.146875 0.224019 0.986344
0.199471 0.324928 0.996286
0.252702 0.425464 1.000000
0.305840 0.524855 1.000000
0.358106 0.622241 1.000000
0.408670 0.716668 1.000000
0.456650 0.807089 1.000000
0.501112 0.892366 1.000000
0.541073 0.971268 1.000000
0.575497 1.000000 1.000000
0.603297 1.000000 1.000000
0.623334 1.000000 1.000000
0.634419 1.000000 1.000000
0.635312 1.000000 1.000000
0.624719 1.000000 1.000000
0.601297 1.000000 1.000000
0.563652 1.000000 1.000000
0.510338 1.000000 1.000000
0.439856 1.000000 1.000000
0.350658 0.974044 1.000000
0.241144 0.846849 1.000000
0.109663 0.688880 1.000000
0.000000 0.497614 0.921929
0.000000 0.270436 0.809860
0.000000 0.004638 0.675092
0.000000 0.000000 0.515406
0.000000 0.000000 0.328489
0.000000 0.000000 0.111940
0.000000 0.000000 0.000000
0.000000 0.000000 0.000000
0.124524 0.000000 1.000000
0.175766 0.071790 1.000000
0.229416 0.177456 1.000000
0.284865 0.283941 1.000000
0.341458 0.390625 1.000000
0.398483 0.496796 1.000000
0.455180 0.601651 1.000000
0.510738 0.704292 1.000000
0.564292 0.803730 1.000000
0.614929 0.898886 1.000000
0.661681 0.988586 1.000000
0.703533 1.000000 1.000000
0.739415 1.000000 1.000000
0.768207 1.000000 1.000000
0.788738 1.000000 1.000000
0.799786 1.000000 1.000000
0.800077 1.000000 1.000000
0.788285 1.000000 1.000000
0.763034 1.000000 1.000000
0.722897 1.000000 1.000000
0.666393 1.000000 1.000000
0.591994 1.000000 1.000000
0.498117 1.000000 1.000000
0.383129 0.956366 1.000000
0.245345 0.794805 1.000000
0.083031 0.599113 1.000000
0.000000 0.366642 0.980665
0.000000 0.094649 0.844245
0.000000 0.000000 0.682906
0.000000 0.000000 0.494330
0.000000 0.000000 0.276114
0.000000 0.000000 0.025759
0.000000 0.000000 0.000000
0.277023 0.023896 1.000000
0.332879 0.134347 1.000000
0.391039 0.246107 1.000000
0.450861 0.358616 1.000000
0.511654 0.471220 1.000000
0.572677 0.583171 1.000000
0.633136 0.693631 1.000000
0.692185 0.801668 1.000000
0.748928 0.906260 1.000000
0.802419 1.000000 1.000000
0.851657 1.000000 1.000000
0.895593 1.000000 1.000000
0.933124 1.000000 1.000000
0.963099 1.000000 1.000000
0.984313 1.000000 1.000000
0.995511 1.000000 1.000000
0.995385 1.000000 1.000000
0.982578 1.000000 1.000000
0.955680 1.000000 1.000000
0.913231 1.000000 1.000000
0.853718 1.000000 1.000000
0.775579 1.000000 1.000000
0.677198 1.000000 1.000000
0.556909 1.000000 1.000000
0.412996 0.918305 1.000000
0.243689 0.718311 1.000000
0.047169 0.480668 1.000000
