lrplugin/MindfulLensFilmEngine.lrplugin/profiles/luts/asteroid_city_kodak_vision_t200_v1.cube
# Generated from ColorChecker fit
LUT_3D_SIZE 33
DOMAIN_MIN 0.0 0.0 0.0
DOMAIN_MAX 1.0 1.0 1.0
0.003028 0.002628 0.000000
0.003891 0.003404 0.000000
0.004741 0.004169 0.000000
0.005463 0.004819 0.000000
0.005942 0.005249 0.000000
0.006090 0.005379 0.000000
0.005871 0.005178 0.000000
0.005315 0.004672 0.000000
0.004507 0.003935 0.000000
0.003570 0.003071 0.000111
0.002631 0.002188 0.001145
0.001796 0.001375 0.002282
0.001130 0.000688 0.003466
0.000657 0.000156 0.004617
0.000363 0.000000 0.005628
0.000209 0.000000 0.006378
0.000151 0.000000 0.006766
0.000145 0.000000 0.006735
0.000156 0.000000 0.006297
0.000163 0.000000 0.005531
0.000159 0.000000 0.004565
0.000142 0.000000 0.003540
0.000116 0.000000 0.002579
0.000088 0.000000 0.001766
0.000062 0.000000 0.001136
0.000041 0.000000 0.000687
0.000025 0.000000 0.000390
0.000014 0.000000 0.000208
0.000008 0.000000 0.000105
0.000004 0.000000 0.000049
0.000002 0.000000 0.000022
0.000001 0.000000 0.000009
0.000000 0.000000 0.000004
0.004268 0.003735 0.000000
0.005458 0.004817 0.000000
0.006628 0.005881 0.000000
0.007622 0.006783 0.000000
0.008284 0.007379 0.000000
0.008490 0.007560 0.000000
0.008189 0.007279 0.000000
0.007419 0.006572 0.000000
0.006298 0.005539 0.000000
0.004996 0.004325 0.000948
0.003691 0.003076 0.002577
0.002532 0.001917 0.004399
0.001612 0.000930 0.006333
0.000964 0.000153 0.008244
0.000570 0.000000 0.009944
0.000375 0.000000 0.011218
0.000311 0.000000 0.011876
0.000314 0.000000 0.011814
0.000334 0.000000 0.011045
0.000342 0.000000 0.009705
0.000325 0.000000 0.008014
0.000285 0.000000 0.006218
0.000231 0.000000 0.004533
0.000174 0.000000 0.003106
0.000123 0.000000 0.002000
0.000081 0.000000 0.001210
0.000050 0.000000 0.000688
0.000029 0.000000 0.000368
0.000016 0.000000 0.000185
0.000008 0.000000 0.000087
0.000004 0.000000 0.000039
0.000002 0.000000 0.000016
0.000001 0.000000 0.000006
0.005660 0.005031 0.000000
0.007204 0.006458 0.000000
0.008722 0.007860 0.000000
0.010018 0.009049 0.000000
0.010885 0.009839 0.000000
0.011165 0.010086 0.000000
0.010786 0.009729 0.000000
0.009793 0.008808 0.000000
0.008338 0.007454 0.000548
0.006639 0.005849 0.002602
0.004931 0.004185 0.005039
0.003415 0.002624 0.007811
0.002217 0.001276 0.010805
0.001384 0.000199 0.013807
0.000892 0.000000 0.016507
0.000664 0.000000 0.018545
0.000607 0.000000 0.019599
0.000630 0.000000 0.019485
0.000662 0.000000 0.018218
0.000663 0.000000 0.016013
0.000619 0.000000 0.013229
0.000537 0.000000 0.010271
0.000433 0.000000 0.007494
0.000325 0.000000 0.005139
0.000228 0.000000 0.003311
0.000150 0.000000 0.002006
0.000093 0.000000 0.001142
0.000054 0.000000 0.000611
0.000029 0.000000 0.000307
0.000015 0.000000 0.000145
0.000007 0.000000 0.000065
0.000003 0.000000 0.000027
0.000001 0.000000 0.000011
0.007063 0.006444 0.000000
0.008949 0.008233 0.000000
0.010810 0.009990 0.000000
0.012411 0.011490 0.000000
0.013502 0.012501 0.000000
0.013881 0.012845 0.000000
0.013454 0.012444 0.000000
0.012267 0.011339 0.000205
0.010497 0.009683 0.002536
0.008411 0.007695 0.005436
0.006304 0.005607 0.008903
0.004430 0.003618 0.012903
0.002956 0.001869 0.017286
0.001946 0.000440 0.021739
0.001371 0.000000 0.025782
0.001132 0.000000 0.028851
0.001102 0.000000 0.030437
0.001158 0.000000 0.030241
0.001206 0.000000 0.028273
0.001192 0.000000 0.024859
0.001102 0.000000 0.020548
0.000949 0.000000 0.015965
0.000762 0.000000 0.011658
0.000572 0.000000 0.008001
0.000402 0.000000 0.005162
0.000265 0.000000 0.003130
0.000164 0.000000 0.001784
0.000096 0.000000 0.000956
0.000052 0.000000 0.000482
0.000027 0.000001 0.000229
0.000013 0.000002 0.000102
0.000006 0.000001 0.000043
0.000003 0.000001 0.000017
0.008287 0.007879 0.000000
0.010462 0.010022 0.000000
0.012627 0.012138 0.000000
0.014517 0.013964 0.000000
0.015844 0.015235 0.000000
0.016365 0.015737 0.000000
0.015955 0.015370 0.000249
0.014646 0.014170 0.002730
0.012631 0.012299 0.005909
0.010215 0.010001 0.009817
0.007749 0.007539 0.014507
0.005546 0.005142 0.019972
0.003818 0.002980 0.026035
0.002656 0.001161 0.032260
0.002027 0.000000 0.037957
0.001809 0.000000 0.042297
0.001838 0.000000 0.044529
0.001952 0.000000 0.044201
0.002026 0.000000 0.041315
0.001992 0.000000 0.036333
0.001832 0.000000 0.030047
0.001575 0.000000 0.023361
0.001265 0.000000 0.017074
0.000951 0.000000 0.011731
0.000670 0.000000 0.007577
0.000443 0.000000 0.004601
0.000276 0.000000 0.002627
0.000161 0.000003 0.001411
0.000089 0.000010 0.000713
0.000046 0.000010 0.000339
0.000023 0.000007 0.000151
0.000010 0.000004 0.000064
0.000004 0.000002 0.000025
0.009133 0.009242 0.000000
0.011509 0.011720 0.000000
0.013914 0.014189 0.000000
0.016067 0.016368 0.000000
0.017649 0.017961 0.000000
0.018378 0.018727 0.000837
0.018082 0.018535 0.003448
0.016763 0.017404 0.006842
0.014608 0.015487 0.011019
0.011949 0.013031 0.016060
0.009184 0.010312 0.022092
0.006689 0.007581 0.029163
0.004736 0.005032 0.037076
0.003449 0.002800 0.045267
0.002802 0.000971 0.052801
0.002651 0.000000 0.058546
0.002788 0.000000 0.061463
0.003003 0.000000 0.060921
0.003133 0.000000 0.056907
0.003085 0.000000 0.050040
0.002844 0.000000 0.041395
0.002450 0.000000 0.032204
0.001974 0.000000 0.023558
0.001490 0.000000 0.016204
0.001055 0.000000 0.010481
0.000702 0.000009 0.006375
0.000439 0.000046 0.003647
0.000258 0.000050 0.001963
0.000143 0.000040 0.000994
0.000074 0.000027 0.000474
0.000037 0.000016 0.000212
0.000017 0.000009 0.000090
0.000007 0.000004 0.000036
0.009441 0.010462 0.000000
0.011917 0.013254 0.000000
0.014490 0.016084 0.000000
0.016883 0.018666 0.000000
0.018754 0.020687 0.001759
0.019773 0.021878 0.004579
0.019709 0.022074 0.008292
0.018507 0.021255 0.012807
0.016323 0.019542 0.018120
0.013496 0.017160 0.024367
0.010472 0.014375 0.031761
0.007698 0.011442 0.040427
0.005522 0.008570 0.050165
0.004124 0.005923 0.060288
0.003495 0.003625 0.069618
0.003470 0.001771 0.076704
0.003791 0.000419 0.080208
0.004187 0.000000 0.079313
0.004438 0.000000 0.073989
0.004421 0.000000 0.065025
0.004111 0.000000 0.053791
0.003569 0.000000 0.041867
0.002897 0.000000 0.030652
0.002201 0.000096 0.021109
0.001569 0.000190 0.013674
0.001050 0.000209 0.008333
0.000660 0.000183 0.004778
0.000391 0.000138 0.002578
0.000217 0.000092 0.001309
0.000114 0.000056 0.000626
0.000056 0.000031 0.000282
0.000026 0.000016 0.000119
0.000011 0.000008 0.000048
0.009137 0.011498 0.000000
0.011617 0.014597 0.000000
0.014302 0.017821 0.000584
0.016926 0.020891 0.002501
0.019132 0.023491 0.005578
0.020530 0.025326 0.009761
0.020806 0.026185 0.014870
0.019820 0.025991 0.020730
0.017671 0.024804 0.027309
0.014691 0.022798 0.034784
0.011376 0.020202 0.043457
0.008266 0.017251 0.053535
0.005812 0.014160 0.064833
0.004278 0.011116 0.076566
0.003694 0.008285 0.087343
0.003875 0.005820 0.095432
0.004501 0.003840 0.099232
0.005214 0.002404 0.097761
0.005717 0.001498 0.090986
0.005833 0.001027 0.079857
0.005524 0.000851 0.066026
0.004863 0.000821 0.051395
0.003992 0.000820 0.037654
0.003063 0.000780 0.025961
0.002202 0.000686 0.016844
0.001484 0.000552 0.010286
0.000940 0.000408 0.005912
0.000559 0.000277 0.003199
0.000313 0.000174 0.001630
0.000165 0.000101 0.000782
0.000082 0.000054 0.000354
0.000038 0.000027 0.000151
0.000017 0.000013 0.000060
0.008258 0.012334 0.000000
0.010676 0.015754 0.000732
0.013438 0.019427 0.002571
0.016303 0.023101 0.005768
0.018885 0.026464 0.010385
0.020726 0.029195 0.016252
0.021400 0.031029 0.023049
0.020653 0.031810 0.030483
0.018505 0.031512 0.038457
0.015273 0.030227 0.047158
0.011520 0.028118 0.056952
0.007910 0.025379 0.068114
0.005042 0.022210 0.080484
0.003302 0.018809 0.093214
0.002779 0.015389 0.104770
0.003272 0.012167 0.113228
0.004377 0.009341 0.116809
0.005622 0.007046 0.114435
0.006592 0.005325 0.106099
0.007031 0.004120 0.092894
0.006864 0.003303 0.076701
0.006178 0.002724 0.059679
0.005157 0.002259 0.043737
0.004009 0.001835 0.030185
0.002912 0.001429 0.019617
0.001981 0.001053 0.012005
0.001264 0.000728 0.006919
0.000757 0.000471 0.003756
0.000426 0.000285 0.001921
0.000225 0.000161 0.000926
0.000112 0.000085 0.000420
0.000052 0.000042 0.000180
0.000023 0.000019 0.000073
0.006948 0.012959 0.000337
0.009273 0.016719 0.001843
0.012102 0.020905 0.004807
0.015213 0.025301 0.009494
0.018188 0.029605 0.015892
0.020472 0.033474 0.023696
0.021509 0.036579 0.032428
0.020906 0.038672 0.041645
0.018589 0.039621 0.051148
0.014872 0.039407 0.061083
0.010405 0.038104 0.071823
0.006023 0.035834 0.083672
0.002527 0.032757 0.096483
0.000466 0.029073 0.109391
0.000014 0.025027 0.120808
0.000955 0.020911 0.128751
0.002775 0.017017 0.131405
0.004843 0.013583 0.127704
0.006587 0.010737 0.117713
0.007628 0.008486 0.102647
0.007832 0.006737 0.084539
0.007289 0.005353 0.065690
0.006228 0.004214 0.048130
0.004926 0.003239 0.033239
0.003625 0.002399 0.021634
0.002491 0.001694 0.013269
0.001603 0.001132 0.007670
0.000966 0.000713 0.004179
0.000547 0.000421 0.002146
0.000291 0.000234 0.001039
0.000145 0.000121 0.000474
0.000068 0.000059 0.000204
0.000030 0.000027 0.000083
0.005423 0.013344 0.000646
0.007651 0.017451 0.002960
0.010542 0.022186 0.007117
0.013881 0.027377 0.013374
0.017201 0.032742 0.021649
0.019839 0.037915 0.031509
0.021085 0.042507 0.042317
0.020400 0.046173 0.053466
0.017620 0.048659 0.064623
0.013065 0.049826 0.075826
0.007516 0.049626 0.087383
0.002024 0.048086 0.099552
0.000000 0.045298 0.112168
0.000000 0.041435 0.124376
0.000000 0.036769 0.134637
0.000000 0.031663 0.141070
0.000000 0.026518 0.141991
0.002358 0.021699 0.136488
0.005242 0.017453 0.124761
0.007231 0.013876 0.108128
0.008104 0.010936 0.088677
0.007938 0.008528 0.068728
0.007010 0.006537 0.050297
0.005671 0.004881 0.034737
0.004242 0.003514 0.022634
0.002950 0.002419 0.013912
0.001915 0.001582 0.008065
0.001163 0.000978 0.004410
0.000662 0.000570 0.002275
0.000354 0.000312 0.001107
0.000177 0.000160 0.000508
0.000084 0.000077 0.000220
0.000037 0.000035 0.000090
0.003912 0.013437 0.000928
0.006050 0.017852 0.004015
0.008980 0.023106 0.009297
0.012479 0.029075 0.017031
0.016017 0.035501 0.027081
0.018814 0.042009 0.038918
0.020008 0.048158 0.051771
0.018919 0.053513 0.064886
0.015307 0.057705 0.077767
0.009527 0.060461 0.090292
0.002520 0.061599 0.102609
0.000000 0.061022 0.114843
0.000000 0.058724 0.126754
0.000000 0.054825 0.137506
0.000000 0.049603 0.145702
0.000000 0.043488 0.149709
0.000000 0.037002 0.148153
0.000000 0.030653 0.140415
0.002281 0.024830 0.126907
0.005569 0.019749 0.109034
0.007425 0.015458 0.088851
0.007901 0.011896 0.068567
0.007316 0.008962 0.050054
0.006098 0.006563 0.034538
0.004655 0.004637 0.022516
0.003284 0.003137 0.013863
0.002155 0.002020 0.008059
0.001319 0.001232 0.004424
0.000756 0.000710 0.002292
0.000405 0.000385 0.001121
0.000204 0.000197 0.000518
0.000096 0.000094 0.000226
0.000043 0.000042 0.000093
0.002603 0.013169 0.001207
0.004647 0.017793 0.004934
0.007558 0.023443 0.011130
0.011088 0.030049 0.020056
0.014640 0.037384 0.031556
0.017323 0.045077 0.045054
0.018144 0.052658 0.059702
0.016308 0.059627 0.074631
0.011525 0.065514 0.089190
0.004211 0.069919 0.103050
0.000000 0.072519 0.116121
0.000000 0.073070 0.128304
0.000000 0.071443 0.139214
0.000000 0.067678 0.148026
0.000000 0.062037 0.153542
0.000000 0.055007 0.154493
0.000000 0.047227 0.149956
0.000000 0.039359 0.139723
0.000000 0.031950 0.124483
0.002617 0.025351 0.105718
0.005714 0.019703 0.085382
0.007067 0.014997 0.065464
0.007030 0.011145 0.047586
0.006104 0.008043 0.032762
0.004781 0.005601 0.021347
0.003432 0.003739 0.013157
0.002279 0.002380 0.007667
0.001408 0.001437 0.004223
0.000812 0.000821 0.002198
0.000438 0.000442 0.001081
0.000221 0.000224 0.000502
0.000105 0.000107 0.000220
0.000047 0.000048 0.000091
0.001602 0.012490 0.001487
0.003529 0.017159 0.005637
0.006324 0.022992 0.012408
0.009709 0.029968 0.022074
0.013027 0.037901 0.034495
0.015302 0.046448 0.049106
0.015448 0.055137 0.065056
0.012600 0.063434 0.081421
0.006451 0.070802 0.097420
0.000000 0.076733 0.112507
0.000000 0.080764 0.126301
0.000000 0.082500 0.138410
0.000000 0.081671 0.148248
0.000000 0.078217 0.154975
0.000000 0.072364 0.157612
0.000000 0.064637 0.155316
0.000000 0.055779 0.147687
0.000000 0.046600 0.134999
0.000000 0.037802 0.118246
0.000000 0.029871 0.098980
0.003121 0.023044 0.079010
0.005489 0.017362 0.060036
0.006147 0.012749 0.043362
0.005657 0.009087 0.029734
0.004582 0.006252 0.019338
0.003360 0.004128 0.011919
0.002263 0.002602 0.006957
0.001412 0.001558 0.003843
0.000820 0.000884 0.002009
0.000444 0.000473 0.000993
0.000225 0.000239 0.000464
0.000107 0.000114 0.000205
0.000048 0.000051 0.000085
0.000929 0.011396 0.001742
0.002693 0.015905 0.006043
0.005256 0.021645 0.012971
0.008308 0.028636 0.022818
0.011152 0.036744 0.035491
0.012773 0.045670 0.050496
0.012048 0.054978 0.067047
0.008092 0.064138 0.084237
0.000620 0.072581 0.101207
0.000000 0.079723 0.117213
0.000000 0.084982 0.131579
0.000000 0.087823 0.143596
0.000000 0.087835 0.152448
0.000000 0.084849 0.157257
0.000000 0.079038 0.157249
0.000000 0.070944 0.152001
0.000000 0.061389 0.141635
0.000000 0.051300 0.126900
0.000000 0.041513 0.109083
0.000000 0.032630 0.089790
0.000023 0.024974 0.070655
0.003393 0.018629 0.053068
0.004791 0.013528 0.037993
0.004817 0.009532 0.025893
0.004083 0.006486 0.016778
0.003075 0.004240 0.010326
0.002107 0.002650 0.006030
0.001329 0.001575 0.003338
0.000778 0.000888 0.001751
0.000424 0.000473 0.000869
0.000216 0.000238 0.000408
0.000103 0.000113 0.000181
0.000046 0.000050 0.000076
0.000534 0.009950 0.001924
0.002082 0.014092 0.006094
0.004303 0.019449 0.012751
0.006863 0.026077 0.022202
0.009061 0.033895 0.034421
0.009894 0.042667 0.049027
0.008266 0.052017 0.065357
0.003325 0.061460 0.082588
0.000000 0.070433 0.099843
0.000000 0.078314 0.116235
0.000000 0.084440 0.130837
0.000000 0.088165 0.142656
0.000000 0.088956 0.150660
0.000000 0.086544 0.153923
0.000000 0.081043 0.151845
0.000000 0.072985 0.144359
0.000000 0.063230 0.132034
0.000000 0.052779 0.116013
0.000000 0.042557 0.097816
0.000000 0.033249 0.079063
0.000000 0.025237 0.061204
0.001126 0.018637 0.045333
0.003186 0.013386 0.032091
0.003722 0.009328 0.021686
0.003365 0.006281 0.013972
0.002624 0.004068 0.008571
0.001836 0.002521 0.005000
0.001174 0.001489 0.002771
0.000694 0.000835 0.001457
0.000381 0.000443 0.000726
0.000195 0.000222 0.000342
0.000093 0.000105 0.000153
0.000042 0.000047 0.000064
0.000333 0.008278 0.001987
0.001620 0.011883 0.005779
0.003422 0.016611 0.011797
0.005401 0.022544 0.020350
0.006886 0.029653 0.031484
0.006940 0.037770 0.044949
0.004550 0.046598 0.060241
0.000000 0.055724 0.076664
0.000000 0.064626 0.093388
0.000000 0.072688 0.109458
0.000000 0.079213 0.123782
0.000000 0.083486 0.135162
0.000000 0.084897 0.142411
0.000000 0.083098 0.144574
0.000000 0.078145 0.141181
0.000000 0.070535 0.132426
0.000000 0.061120 0.119192
0.000000 0.050917 0.102883
0.000000 0.040880 0.085147
0.000000 0.031729 0.067563
0.000000 0.023876 0.051395
0.000000 0.017453 0.037473
0.001594 0.012398 0.026174
0.002551 0.008544 0.017498
0.002545 0.005694 0.011184
0.002080 0.003654 0.006825
0.001494 0.002247 0.003970
0.000971 0.001318 0.002198
0.000580 0.000735 0.001157
0.000321 0.000388 0.000578
0.000165 0.000194 0.000274
0.000079 0.000091 0.000123
0.000036 0.000040 0.000052
0.000242 0.006540 0.001910
0.001248 0.009506 0.005149
0.002607 0.013446 0.010271
0.003996 0.018457 0.017573
0.004812 0.024550 0.027161
0.004224 0.031627 0.038910
0.001352 0.039473 0.052477
0.000000 0.047759 0.067321
0.000000 0.056036 0.082706
0.000000 0.063728 0.097689
0.000000 0.070153 0.111120
0.000000 0.074586 0.121711
0.000000 0.076387 0.128212
0.000000 0.075169 0.129676
0.000000 0.070935 0.125728
0.000000 0.064128 0.116718
0.000000 0.055546 0.103684
0.000000 0.046158 0.088136
0.000000 0.036885 0.071721
0.000000 0.028432 0.055914
0.000000 0.021206 0.041794
0.000000 0.015341 0.029969
0.000249 0.010776 0.020621
0.001476 0.007343 0.013612
0.001746 0.004842 0.008612
0.001525 0.003078 0.005217
0.001133 0.001877 0.003020
0.000752 0.001094 0.001668
0.000454 0.000607 0.000877
0.000253 0.000319 0.000439
0.000131 0.000159 0.000208
0.000063 0.000075 0.000094
0.000028 0.000033 0.000040
0.000196 0.004895 0.001704
0.000931 0.007199 0.004307
0.001875 0.010295 0.008414
0.002742 0.014287 0.014297
0.003018 0.019211 0.022098
0.002010 0.025027 0.031794
0.000000 0.031596 0.043185
0.000000 0.038676 0.055880
0.000000 0.045900 0.069269
0.000000 0.052767 0.082493
0.000000 0.058651 0.094447
0.000000 0.062872 0.103873
0.000000 0.064813 0.109558
0.000000 0.064085 0.110616
0.000000 0.060655 0.106741
0.000000 0.054895 0.098340
0.000000 0.047511 0.086466
0.000000 0.039371 0.072577
0.000000 0.031309 0.058205
0.000000 0.023966 0.044657
0.000000 0.017716 0.032826
0.000000 0.012683 0.023150
0.000000 0.008808 0.015680
0.000620 0.005933 0.010204
0.001061 0.003870 0.006379
0.001026 0.002436 0.003827
0.000798 0.001473 0.002201
0.000543 0.000852 0.001210
0.000333 0.000470 0.000635
0.000188 0.000246 0.000317
0.000098 0.000122 0.000151
0.000047 0.000057 0.000068
0.000021 0.000025 0.000029
0.000162 0.003466 0.001412
0.000660 0.005152 0.003379
0.001258 0.007448 0.006483
0.001718 0.010446 0.010956
0.001627 0.014199 0.016953
0.000438 0.018706 0.024517
0.000000 0.023891 0.033558
0.000000 0.029587 0.043815
0.000000 0.035513 0.054815
0.000000 0.041258 0.065828
0.000000 0.046287 0.075879
0.000000 0.050005 0.083838
0.000000 0.051862 0.088620
0.000000 0.051501 0.089443
0.000000 0.048870 0.086059
0.000000 0.044266 0.078859
0.000000 0.038273 0.068799
0.000000 0.031624 0.057170
0.000000 0.025026 0.045297
0.000000 0.019024 0.034274
0.000000 0.013938 0.024814
0.000000 0.009874 0.017223
0.000000 0.006779 0.011482
0.000037 0.004513 0.007361
0.000544 0.002910 0.004541
0.000626 0.001813 0.002694
0.000520 0.001087 0.001535
0.000366 0.000624 0.000839
0.000229 0.000342 0.000438
0.000130 0.000178 0.000219
0.000068 0.000088 0.000104
0.000033 0.000041 0.000047
0.000015 0.000018 0.000020
0.000127 0.002317 0.001087
0.000437 0.003482 0.002487
0.000777 0.005086 0.004698
0.000959 0.007210 0.007908
0.000672 0.009909 0.012262
0.000000 0.013204 0.017838
0.000000 0.017062 0.024615
0.000000 0.021378 0.032436
0.000000 0.025950 0.040953
0.000000 0.030459 0.049590
0.000000 0.034478 0.057549
0.000000 0.037521 0.063892
0.000000 0.039135 0.067720
0.000000 0.039015 0.068386
0.000000 0.037106 0.065694
0.000000 0.033630 0.059977
0.000000 0.029046 0.052025
0.000000 0.023931 0.042895
0.000000 0.018847 0.033654
0.000000 0.014231 0.025168
0.000000 0.010336 0.017979
0.000000 0.007247 0.012299
0.000000 0.004918 0.008075
0.000000 0.003235 0.005100
0.000202 0.002061 0.003101
0.000339 0.001270 0.001817
0.000311 0.000754 0.001024
0.000229 0.000430 0.000555
0.000146 0.000234 0.000288
0.000085 0.000121 0.000143
0.000045 0.000060 0.000068
0.000022 0.000028 0.000031
0.000010 0.000012 0.000013
0.000091 0.001463 0.000778
0.000267 0.002221 0.001716
0.000435 0.003278 0.003201
0.000456 0.004697 0.005376
0.000107 0.006528 0.008362
0.000000 0.008800 0.012244
0.000000 0.011508 0.017039
0.000000 0.014589 0.022660
0.000000 0.017907 0.028869
0.000000 0.021228 0.035239
0.000000 0.024235 0.041164
0.000000 0.026556 0.045921
0.000000 0.027843 0.048816
0.000000 0.027858 0.049351
0.000000 0.026548 0.047376
0.000000 0.024072 0.043148
0.000000 0.020768 0.037271
0.000000 0.017064 0.030546
0.000000 0.013378 0.023779
0.000000 0.010036 0.017612
0.000000 0.007228 0.012439
0.000000 0.005017 0.008399
0.000000 0.003365 0.005437
0.000000 0.002187 0.003384
0.000010 0.001377 0.002028
0.000156 0.000839 0.001172
0.000169 0.000493 0.000653
0.000132 0.000279 0.000350
0.000087 0.000151 0.000181
0.000051 0.000078 0.000089
0.000028 0.000038 0.000042
0.000014 0.000018 0.000019
0.000006 0.000008 0.000008
0.000059 0.000871 0.000519
0.000149 0.001336 0.001111
0.000215 0.001993 0.002052
0.000162 0.002888 0.003443
0.000000 0.004060 0.005376
0.000000 0.005539 0.007928
0.000000 0.007331 0.011128
0.000000 0.009403 0.014934
0.000000 0.011667 0.019192
0.000000 0.013965 0.023608
0.000000 0.016072 0.027749
0.000000 0.017725 0.031100
0.000000 0.018674 0.033160
0.000000 0.018745 0.033571
0.000000 0.017896 0.032225
0.000000 0.016233 0.029304
0.000000 0.013990 0.025236
0.000000 0.011464 0.020589
0.000000 0.008950 0.015930
0.000000 0.006673 0.011706
0.000000 0.004768 0.008188
0.000000 0.003277 0.005467
0.000000 0.002174 0.003494
0.000000 0.001395 0.002144
0.000000 0.000867 0.001267
0.000053 0.000522 0.000722
0.000082 0.000304 0.000397
0.000070 0.000170 0.000211
0.000048 0.000091 0.000108
0.000029 0.000047 0.000053
0.000016 0.000023 0.000025
0.000008 0.000011 0.000011
0.000004 0.000005 0.000005
0.000034 0.000489 0.000323
0.000075 0.000758 0.000675
0.000089 0.001144 0.001237
0.000017 0.001676 0.002077
0.000000 0.002384 0.003259
0.000000 0.003292 0.004841
0.000000 0.004410 0.006855
0.000000 0.005723 0.009282
0.000000 0.007176 0.012029
0.000000 0.008669 0.014903
0.000000 0.010053 0.017620
0.000000 0.011154 0.019834
0.000000 0.011803 0.021210
0.000000 0.011883 0.021507
0.000000 0.011363 0.020651
0.000000 0.010311 0.018762
0.000000 0.008877 0.016123
0.000000 0.007257 0.013109
0.000000 0.005643 0.010093
0.000000 0.004183 0.007370
0.000000 0.002967 0.005114
0.000000 0.002020 0.003381
0.000000 0.001325 0.002137
0.000000 0.000840 0.001295
0.000000 0.000516 0.000755
0.000004 0.000307 0.000424
0.000034 0.000176 0.000230
0.000034 0.000098 0.000121
0.000025 0.000052 0.000061
0.000015 0.000027 0.000030
0.000009 0.000013 0.000014
0.000004 0.000006 0.000006
0.000002 0.000003 0.000003
0.000017 0.000259 0.000188
0.000033 0.000406 0.000385
0.000027 0.000619 0.000702
0.000000 0.000918 0.001180
0.000000 0.001322 0.001862
0.000000 0.001848 0.002788
0.000000 0.002506 0.003982
0.000000 0.003289 0.005439
0.000000 0.004166 0.007105
0.000000 0.005077 0.008862
0.000000 0.005929 0.010535
0.000000 0.006615 0.011907
0.000000 0.007028 0.012768
0.000000 0.007095 0.012968
0.000000 0.006795 0.012458
0.000000 0.006167 0.011313
0.000000 0.005305 0.009707
0.000000 0.004327 0.007872
0.000000 0.003352 0.006038
0.000000 0.002472 0.004386
0.000000 0.001741 0.003024
0.000000 0.001175 0.001983
0.000000 0.000763 0.001240
0.000000 0.000478 0.000743
0.000000 0.000290 0.000427
0.000000 0.000170 0.000237
0.000011 0.000097 0.000127
0.000015 0.000053 0.000066
0.000012 0.000028 0.000033
0.000008 0.000014 0.000016
0.000004 0.000007 0.000007
0.000002 0.000003 0.000003
0.000001 0.000001 0.000001
0.000008 0.000129 0.000102
0.000012 0.000205 0.000206
0.000001 0.000316 0.000375
0.000000 0.000475 0.000632
0.000000 0.000692 0.001004
0.000000 0.000980 0.001514
0.000000 0.001345 0.002182
0.000000 0.001784 0.003005
0.000000 0.002282 0.003954
0.000000 0.002804 0.004963
0.000000 0.003297 0.005929
0.000000 0.003697 0.006726
0.000000 0.003942 0.007231
0.000000 0.003989 0.007355
0.000000 0.003825 0.007071
0.000000 0.003473 0.006419
0.000000 0.002985 0.005502
0.000000 0.002430 0.004453
0.000000 0.001876 0.003406
0.000000 0.001377 0.002464
0.000000 0.000964 0.001689
0.000000 0.000645 0.001100
0.000000 0.000415 0.000682
0.000000 0.000257 0.000404
0.000000 0.000154 0.000230
0.000000 0.000089 0.000126
0.000001 0.000050 0.000066
0.000006 0.000027 0.000034
0.000005 0.000014 0.000017
0.000003 0.000007 0.000008
0.000002 0.000003 0.000004
0.000001 0.000002 0.000002
0.000000 0.000001 0.000001
0.000003 0.000061 0.000052
0.000003 0.000098 0.000104
0.000000 0.000153 0.000188
0.000000 0.000232 0.000319
0.000000 0.000342 0.000510
0.000000 0.000490 0.000776
0.000000 0.000681 0.001127
0.000000 0.000914 0.001564
0.000000 0.001180 0.002072
0.000000 0.001460 0.002616
0.000000 0.001727 0.003140
0.000000 0.001946 0.003574
0.000000 0.002082 0.003851
0.000000 0.002111 0.003924
0.000000 0.002027 0.003774
0.000000 0.001841 0.003427
0.000000 0.001581 0.002935
0.000000 0.001285 0.002372
0.000000 0.000989 0.001809
0.000000 0.000723 0.001305
0.000000 0.000503 0.000890
0.000000 0.000334 0.000576
0.000000 0.000213 0.000355
0.000000 0.000130 0.000208
0.000000 0.000077 0.000117
0.000000 0.000044 0.000063
0.000000 0.000024 0.000033
