lrplugin/MindfulLensFilmEngine.lrplugin/profiles/luts/asteroid_city_kodak_vision_t200_v1.cube
# Generated from ColorChecker fit
LUT_3D_SIZE 5
DOMAIN_MIN 0.0 0.0 0.0
DOMAIN_MAX 1.0 1.0 1.0
0.003028 0.002628 0.000000
0.004507 0.003935 0.000000
0.000151 0.000000 0.006766
0.000062 0.000000 0.001136
0.000000 0.000000 0.000004
0.008258 0.012334 0.000000
0.018505 0.031512 0.038457
0.004377 0.009341 0.116809
0.002912 0.001429 0.019617
0.000023 0.000019 0.000073
0.000333 0.008278 0.001987
0.000000 0.064626 0.093388
0.000000 0.061120 0.119192
0.002545 0.005694 0.011184
0.000036 0.000040 0.000052
0.000017 0.000259 0.000188
0.000000 0.004166 0.007105
0.000000 0.005305 0.009707
0.000000 0.000290 0.000427
0.000001 0.000001 0.000001
0.000000 0.000000 0.000000
0.000000 0.000006 0.000012
0.000000 0.000010 0.000019
0.000000 0.000000 0.000001
0.000000 0.000000 0.000000
0.035043 0.028034 0.009253
0.044336 0.031423 0.024860
0.012667 0.002729 0.040357
0.000913 0.000193 0.005314
0.000005 0.000003 0.000018
0.187956 0.247733 0.136846
0.248134 0.285166 0.402090
0.224085 0.177161 0.512540
0.048045 0.043670 0.113579
0.000376 0.000399 0.000582
0.057934 0.203860 0.038944
0.270412 0.622578 0.649581
0.108918 0.409938 0.585690
0.069282 0.084190 0.103510
0.000627 0.000713 0.000703
0.001956 0.005507 0.002268
0.001516 0.028720 0.040123
0.000000 0.023723 0.041479
0.001683 0.003027 0.003644
0.000019 0.000023 0.000021
0.000001 0.000003 0.000002
0.000000 0.000032 0.000053
0.000000 0.000039 0.000074
0.000000 0.000003 0.000004
0.000000 0.000000 0.000000
0.038170 0.023740 0.022970
0.197410 0.073618 0.095177
0.124275 0.055807 0.086539
0.003216 0.001555 0.002830
0.000003 0.000002 0.000004
0.465663 0.428383 0.259269
0.547904 0.326086 0.299576
0.552933 0.257037 0.535455
0.027859 0.018603 0.040913
0.000127 0.000134 0.000157
0.516279 0.587199 0.121865
0.514192 0.615859 0.499354
0.562235 0.547920 0.784816
0.046200 0.043941 0.086776
0.000225 0.000247 0.000288
0.014889 0.017430 0.002846
0.045088 0.048784 0.058733
0.083765 0.081301 0.144127
0.004466 0.004205 0.009164
0.000009 0.000010 0.000015
0.000008 0.000010 0.000002
0.000081 0.000080 0.000141
0.000176 0.000166 0.000363
0.000008 0.000007 0.000018
0.000000 0.000000 0.000000
0.041184 0.006560 0.010360
0.314982 0.057286 0.077781
0.080933 0.032066 0.038379
0.000772 0.000460 0.000542
0.000000 0.000000 0.000000
0.415775 0.218334 0.116962
0.599658 0.257273 0.190701
0.227020 0.151895 0.165404
0.005395 0.004179 0.006045
0.000004 0.000003 0.000007
0.423004 0.367807 0.004705
0.322699 0.252847 0.269839
0.424402 0.396923 0.670182
0.018404 0.016906 0.035490
0.000016 0.000014 0.000034
0.011263 0.011653 0.000000
0.021810 0.020257 0.035595
0.043683 0.040293 0.087577
0.001818 0.001649 0.004007
0.000001 0.000001 0.000003
0.000006 0.000007 0.000000
0.000034 0.000032 0.000071
0.000074 0.000067 0.000166
0.000003 0.000003 0.000007
0.000000 0.000000 0.000000
0.002252 0.000464 0.000407
0.015076 0.002266 0.003171
0.003230 0.001062 0.001272
0.000020 0.000012 0.000013
0.000000 0.000000 0.000000
0.022616 0.011495 0.004704
0.030802 0.014032 0.007558
0.005934 0.003778 0.004409
0.000078 0.000065 0.000095
0.000000 0.000000 0.000000
0.014481 0.010433 0.000975
0.009212 0.005742 0.003279
0.003625 0.003161 0.007183
0.000144 0.000130 0.000318
0.000000 0.000000 0.000000
0.000277 0.000261 0.000000
0.000220 0.000182 0.000303
0.000308 0.000276 0.000707
0.000012 0.000011 0.000029
0.000000 0.000000 0.000000
0.000000 0.000000 0.000000
0.000000 0.000000 0.000001
0.000000 0.000000 0.000001
0.000000 0.000000 0.000000
0.000000 0.000000 0.000000
