lrplugin/MindfulLensFilmEngine.lrplugin/profiles/luts/asteroid_city_kodak_vision_t200_v1.cube
# Generated from ColorChecker fit
LUT_3D_SIZE 9
DOMAIN_MIN 0.0 0.0 0.0
DOMAIN_MAX 1.0 1.0 1.0
0.003028 0.002628 0.000000
0.005942 0.005249 0.000000
0.004507 0.003935 0.000000
0.001130 0.000688 0.003466
0.000151 0.000000 0.006766
0.000159 0.000000 0.004565
0.000062 0.000000 0.001136
0.000008 0.000000 0.000105
0.000000 0.000000 0.000004
0.008287 0.007879 0.000000
0.015844 0.015235 0.000000
0.012631 0.012299 0.005909
0.003818 0.002980 0.026035
0.001838 0.000000 0.044529
0.001832 0.000000 0.030047
0.000670 0.000000 0.007577
0.000089 0.000010 0.000713
0.000004 0.000002 0.000025
0.008258 0.012334 0.000000
0.018885 0.026464 0.010385
0.018505 0.031512 0.038457
0.005042 0.022210 0.080484
0.004377 0.009341 0.116809
0.006864 0.003303 0.076701
0.002912 0.001429 0.019617
0.000426 0.000285 0.001921
0.000023 0.000019 0.000073
0.002603 0.013169 0.001207
0.014640 0.037384 0.031556
0.011525 0.065514 0.089190
0.000000 0.071443 0.139214
0.000000 0.047227 0.149956
0.005714 0.019703 0.085382
0.004781 0.005601 0.021347
0.000812 0.000821 0.002198
0.000047 0.000048 0.000091
0.000333 0.008278 0.001987
0.006886 0.029653 0.031484
0.000000 0.064626 0.093388
0.000000 0.084897 0.142411
0.000000 0.061120 0.119192
0.000000 0.023876 0.051395
0.002545 0.005694 0.011184
0.000580 0.000735 0.001157
0.000036 0.000040 0.000052
0.000127 0.002317 0.001087
0.000672 0.009909 0.012262
0.000000 0.025950 0.040953
0.000000 0.039135 0.067720
0.000000 0.029046 0.052025
0.000000 0.010336 0.017979
0.000202 0.002061 0.003101
0.000146 0.000234 0.000288
0.000010 0.000012 0.000013
0.000017 0.000259 0.000188
0.000000 0.001322 0.001862
0.000000 0.004166 0.007105
0.000000 0.007028 0.012768
0.000000 0.005305 0.009707
0.000000 0.001741 0.003024
0.000000 0.000290 0.000427
0.000012 0.000028 0.000033
0.000001 0.000001 0.000001
0.000000 0.000011 0.000011
0.000000 0.000070 0.000110
0.000000 0.000264 0.000475
0.000000 0.000484 0.000908
0.000000 0.000370 0.000694
0.000000 0.000115 0.000207
0.000000 0.000016 0.000026
0.000000 0.000001 0.000002
0.000000 0.000000 0.000000
0.000000 0.000000 0.000000
0.000000 0.000002 0.000003
0.000000 0.000006 0.000012
0.000000 0.000013 0.000024
0.000000 0.000010 0.000019
0.000000 0.000003 0.000005
0.000000 0.000000 0.000001
0.000000 0.000000 0.000000
0.000000 0.000000 0.000000
0.015616 0.013091 0.000000
0.027821 0.024087 0.000000
0.020580 0.017217 0.000977
0.005213 0.003015 0.014434
0.000666 0.000000 0.023502
0.000683 0.000000 0.015539
0.000288 0.000000 0.003888
0.000040 0.000000 0.000363
0.000002 0.000001 0.000013
0.047494 0.044094 0.007605
0.077761 0.074068 0.010385
0.060932 0.055323 0.046145
0.021722 0.015219 0.096451
0.012136 0.000000 0.148263
0.010305 0.000000 0.102173
0.003747 0.001027 0.026567
0.000521 0.000290 0.002596
0.000028 0.000021 0.000097
0.054870 0.081428 0.021630
0.102321 0.146360 0.089159
0.114636 0.158871 0.197032
0.070845 0.114198 0.268189
0.061741 0.068304 0.375816
0.051293 0.038461 0.266209
0.019010 0.014836 0.072949
0.002757 0.002456 0.007689
0.000152 0.000149 0.000317
0.022881 0.095827 0.014830
0.097120 0.223547 0.178733
0.147909 0.339492 0.394950
0.066263 0.331897 0.451212
0.061996 0.233175 0.479026
0.082425 0.122232 0.310457
0.036194 0.040068 0.087758
0.005597 0.005972 0.010110
0.000317 0.000344 0.000466
0.005710 0.060205 0.009760
0.062498 0.174911 0.159346
0.065722 0.315327 0.386915
0.000000 0.349695 0.469162
0.000000 0.251537 0.383872
0.032899 0.120176 0.192342
0.024676 0.035481 0.050500
0.004233 0.004999 0.006067
0.000247 0.000281 0.000302
0.002013 0.016269 0.005174
0.016106 0.055265 0.058453
0.000000 0.114844 0.159096
0.000000 0.144055 0.220740
0.000000 0.104896 0.165549
0.000000 0.044482 0.064842
0.005519 0.011494 0.014077
0.001165 0.001518 0.001603
0.000071 0.000083 0.000081
0.000314 0.001729 0.000918
0.001101 0.006777 0.008278
0.000000 0.016564 0.025707
0.000000 0.023736 0.040518
0.000000 0.017552 0.030209
0.000000 0.006588 0.010237
0.000291 0.001432 0.001790
0.000113 0.000171 0.000177
0.000007 0.000009 0.000009
0.000014 0.000071 0.000053
0.000000 0.000325 0.000450
0.000000 0.000954 0.001612
0.000000 0.001546 0.002811
0.000000 0.001161 0.002121
0.000000 0.000394 0.000666
0.000000 0.000071 0.000097
0.000004 0.000007 0.000008
0.000000 0.000000 0.000000
0.000000 0.000001 0.000001
0.000000 0.000006 0.000010
0.000000 0.000022 0.000039
0.000000 0.000039 0.000073
0.000000 0.000030 0.000056
0.000000 0.000009 0.000017
0.000000 0.000001 0.000002
0.000000 0.000000 0.000000
0.000000 0.000000 0.000000
0.035043 0.028034 0.009253
0.054837 0.045373 0.008222
0.044336 0.031423 0.024860
0.023865 0.010068 0.039143
0.012667 0.002729 0.040357
0.004571 0.000617 0.022521
0.000913 0.000193 0.005314
0.000096 0.000043 0.000494
0.000005 0.000003 0.000018
0.125956 0.111728 0.069580
0.165778 0.150272 0.102128
0.133559 0.095349 0.163004
0.090026 0.038701 0.182910
0.068616 0.024981 0.217554
0.035102 0.015432 0.143130
0.009702 0.006045 0.037433
0.001258 0.001022 0.003808
0.000067 0.000063 0.000152
0.187956 0.247733 0.136846
0.236592 0.330444 0.284859
0.248134 0.285166 0.402090
0.230707 0.215108 0.359824
0.224085 0.177161 0.512540
0.145436 0.117228 0.390605
0.048045 0.043670 0.113579
0.006812 0.006819 0.012915
0.000376 0.000399 0.000582
0.130595 0.320890 0.091333
0.244116 0.536090 0.388447
0.377098 0.664327 0.653643
0.328887 0.589752 0.585354
0.314140 0.445334 0.695515
0.250190 0.281490 0.514025
0.094504 0.101776 0.158957
0.014146 0.015451 0.019902
0.000798 0.000887 0.000989
0.057934 0.203860 0.038944
0.176250 0.421181 0.314594
0.270412 0.622578 0.649581
0.126819 0.579355 0.672435
0.108918 0.409938 0.585690
0.151666 0.241658 0.347120
0.069282 0.084190 0.103510
0.010948 0.012544 0.013457
0.000627 0.000713 0.000703
0.016193 0.053849 0.014397
0.054510 0.129584 0.114251
0.059611 0.215988 0.264175
0.000000 0.218254 0.312795
0.000000 0.152067 0.240932
0.026677 0.080200 0.113888
0.018340 0.025826 0.029854
0.003120 0.003732 0.003755
0.000182 0.000210 0.000197
0.001956 0.005507 0.002268
0.005825 0.015089 0.015678
0.001516 0.028720 0.040123
0.000000 0.033276 0.054529
0.000000 0.023723 0.041479
0.000028 0.010817 0.016661
0.001683 0.003027 0.003644
0.000325 0.000412 0.000415
0.000019 0.000023 0.000021
0.000085 0.000213 0.000122
0.000192 0.000671 0.000800
0.000000 0.001512 0.002332
0.000000 0.002064 0.003644
0.000000 0.001526 0.002832
0.000000 0.000603 0.001020
0.000048 0.000139 0.000184
0.000012 0.000017 0.000018
0.000001 0.000001 0.000001
0.000001 0.000003 0.000002
0.000001 0.000012 0.000016
0.000000 0.000032 0.000053
0.000000 0.000051 0.000094
0.000000 0.000039 0.000074
0.000000 0.000014 0.000025
0.000000 0.000003 0.000004
0.000000 0.000000 0.000000
0.000000 0.000000 0.000000
0.040728 0.031782 0.024701
0.067077 0.050170 0.038938
0.086031 0.045746 0.068326
0.097942 0.040861 0.086199
0.066385 0.028017 0.064596
0.019268 0.008334 0.023759
0.002357 0.001105 0.004022
0.000143 0.000087 0.000312
0.000005 0.000004 0.000011
0.175296 0.151655 0.139002
0.217173 0.180276 0.199014
0.247251 0.127688 0.261461
0.322830 0.125689 0.299810
0.251926 0.106200 0.275312
0.085385 0.041258 0.127767
0.014199 0.009125 0.026771
0.001339 0.001152 0.002525
0.000064 0.000064 0.000103
0.361071 0.406377 0.278388
0.334615 0.398251 0.356251
0.316268 0.249881 0.340232
0.450932 0.226754 0.403063
0.415896 0.207112 0.563979
0.191585 0.123197 0.341394
0.049677 0.043266 0.087425
0.006464 0.006600 0.009741
0.000350 0.000381 0.000455
0.406455 0.600620 0.234017
0.364769 0.641087 0.348334
0.367826 0.568884 0.420236
0.396822 0.435150 0.542059
0.361602 0.288303 0.753081
0.245388 0.214972 0.496400
0.088697 0.090210 0.141413
0.013183 0.014353 0.017234
0.000743 0.000831 0.000862
0.245289 0.404160 0.111446
0.273151 0.508083 0.277871
0.337731 0.589905 0.520592
0.270248 0.470889 0.619589
0.200888 0.274398 0.626390
0.169336 0.186152 0.381162
0.068445 0.074835 0.107040
0.010426 0.011640 0.013020
0.000589 0.000666 0.000656
0.066124 0.108116 0.030917
0.089455 0.156672 0.106898
0.125235 0.220828 0.233064
0.104368 0.212439 0.294280
0.078653 0.138647 0.274478
0.059071 0.074992 0.146744
0.021651 0.024709 0.036233
0.003140 0.003547 0.004021
0.000174 0.000197 0.000194
0.006980 0.010932 0.003751
0.010871 0.018142 0.014986
0.017403 0.031514 0.037462
0.019063 0.039133 0.057829
0.016639 0.029452 0.055846
0.009670 0.013102 0.026035
0.002807 0.003304 0.005325
0.000362 0.000412 0.000502
0.000019 0.000022 0.000022
0.000275 0.000413 0.000172
0.000487 0.000802 0.000778
0.000955 0.001791 0.002403
0.001440 0.002818 0.004606
0.001379 0.002317 0.004539
0.000658 0.000908 0.001891
0.000148 0.000179 0.000325
0.000016 0.000018 0.000025
0.000001 0.000001 0.000001
0.000004 0.000006 0.000003
0.000008 0.000014 0.000016
0.000021 0.000041 0.000062
0.000040 0.000076 0.000138
0.000040 0.000065 0.000134
0.000017 0.000024 0.000052
0.000003 0.000004 0.000008
0.000000 0.000000 0.000001
0.000000 0.000000 0.000000
0.038170 0.023740 0.022970
0.107245 0.050711 0.048727
0.197410 0.073618 0.095177
0.217075 0.086660 0.128179
0.124275 0.055807 0.086539
0.031363 0.014742 0.024488
0.003216 0.001555 0.002830
0.000138 0.000075 0.000144
0.000003 0.000002 0.000004
0.167632 0.127497 0.119130
0.298482 0.190039 0.179717
0.483646 0.223064 0.281971
0.625397 0.275226 0.417575
0.416525 0.190356 0.325925
0.115217 0.053802 0.104905
0.013406 0.007035 0.014502
0.000776 0.000548 0.000973
0.000026 0.000024 0.000033
0.465663 0.428383 0.259269
0.490663 0.408060 0.265159
0.547904 0.326086 0.299576
0.760727 0.381568 0.555003
0.552933 0.257037 0.535455
0.172779 0.083553 0.217066
0.027859 0.018603 0.040913
0.002645 0.002430 0.003724
0.000127 0.000134 0.000157
0.731128 0.776759 0.254236
0.598111 0.642085 0.249694
0.521839 0.537518 0.362459
0.660413 0.578365 0.614055
0.471122 0.337152 0.615664
0.182306 0.128278 0.325590
0.042840 0.037406 0.076790
0.005175 0.005300 0.007664
0.000268 0.000294 0.000330
0.516279 0.587199 0.121865
0.437563 0.520732 0.208801
0.514192 0.615859 0.499354
0.728467 0.799045 0.783875
0.562235 0.547920 0.784816
0.223559 0.203719 0.408367
0.046200 0.043941 0.086776
0.004766 0.004934 0.007525
0.000225 0.000247 0.000288
0.143180 0.166819 0.028045
0.139578 0.167790 0.084779
0.244571 0.280562 0.274616
0.429512 0.456530 0.535061
0.367811 0.363651 0.562500
0.138584 0.130923 0.256229
0.023185 0.022087 0.045238
0.001856 0.001878 0.003211
0.000074 0.000080 0.000102
0.014889 0.017430 0.002846
0.017672 0.020726 0.013620
0.045088 0.048784 0.058733
0.092891 0.094480 0.137329
0.083765 0.081301 0.144127
0.030366 0.028608 0.059275
0.004466 0.004205 0.009164
0.000291 0.000286 0.000554
0.000009 0.000010 0.000015
0.000575 0.000671 0.000122
0.000890 0.001003 0.000885
0.003134 0.003235 0.004786
0.007092 0.006991 0.012142
0.006512 0.006219 0.012399
0.002297 0.002148 0.004758
0.000314 0.000292 0.000676
0.000018 0.000017 0.000037
0.000000 0.000000 0.000001
0.000008 0.000010 0.000002
0.000018 0.000019 0.000023
0.000081 0.000080 0.000141
0.000191 0.000185 0.000366
0.000176 0.000166 0.000363
0.000061 0.000056 0.000133
0.000008 0.000007 0.000018
0.000000 0.000000 0.000001
0.000000 0.000000 0.000000
0.046449 0.012465 0.016547
0.187005 0.042437 0.048249
0.352423 0.083887 0.106546
0.305562 0.099186 0.129006
0.125593 0.054536 0.071146
0.024225 0.012172 0.016352
0.002055 0.001072 0.001515
0.000073 0.000038 0.000057
0.000001 0.000001 0.000001
0.173350 0.077318 0.082540
0.435204 0.165993 0.145389
0.712650 0.255999 0.274375
0.697628 0.302704 0.373616
0.350234 0.177333 0.230842
0.078922 0.041737 0.058136
0.007475 0.003981 0.006096
0.000304 0.000176 0.000285
0.000006 0.000005 0.000007
0.527366 0.347781 0.186185
0.709012 0.390242 0.217391
0.755440 0.364127 0.307277
0.781103 0.428248 0.465928
0.471535 0.282725 0.328135
0.124352 0.075970 0.104608
0.014231 0.009168 0.015702
0.000782 0.000595 0.001055
0.000023 0.000022 0.000032
0.897731 0.757701 0.155566
0.852570 0.624545 0.200907
0.693214 0.504700 0.384107
0.853336 0.721740 0.666376
0.647532 0.563079 0.598008
0.210755 0.180879 0.260619
0.029141 0.025112 0.046542
0.001802 0.001639 0.003170
0.000054 0.000054 0.000087
0.646870 0.624803 0.035746
0.561115 0.499969 0.141081
0.615394 0.575941 0.548386
1.000000 1.000000 1.000000
0.891971 0.858801 1.000000
0.307965 0.287946 0.487572
0.042055 0.038648 0.077573
0.002346 0.002185 0.004589
0.000059 0.000058 0.000107
0.179518 0.185984 0.000000
0.164126 0.161831 0.060011
0.284042 0.279451 0.338431
0.579779 0.566401 0.816886
0.517973 0.494357 0.825966
0.178802 0.166790 0.323422
0.023513 0.021616 0.046891
0.001203 0.001110 0.002507
0.000026 0.000025 0.000051
0.018649 0.020018 0.000000
0.019908 0.020344 0.011593
0.051986 0.050690 0.075967
0.116721 0.111586 0.193697
0.105902 0.099339 0.192729
0.036236 0.033440 0.071771
0.004636 0.004232 0.009807
0.000225 0.000205 0.000492
0.000004 0.000004 0.000009
0.000720 0.000786 0.000000
0.000984 0.001002 0.000877
0.003554 0.003396 0.006047
0.008362 0.007843 0.015613
0.007609 0.007036 0.015190
0.002577 0.002355 0.005455
0.000323 0.000293 0.000717
0.000015 0.000014 0.000034
0.000000 0.000000 0.000001
0.000010 0.000011 0.000000
0.000020 0.000019 0.000024
0.000089 0.000084 0.000169
0.000214 0.000198 0.000435
0.000194 0.000178 0.000414
0.000065 0.000059 0.000145
0.000008 0.000007 0.000019
0.000000 0.000000 0.000001
0.000000 0.000000 0.000000
0.041184 0.006560 0.010360
0.171982 0.026667 0.034818
0.314982 0.057286 0.077781
0.243868 0.065383 0.083550
0.080933 0.032066 0.038379
0.011867 0.006179 0.007205
0.000772 0.000460 0.000542
0.000022 0.000013 0.000016
0.000000 0.000000 0.000000
0.147011 0.047527 0.050822
0.389397 0.117062 0.097117
0.591279 0.178050 0.184465
0.477889 0.190469 0.217306
0.186181 0.098327 0.111086
0.032897 0.020280 0.023029
0.002524 0.001637 0.001970
0.000082 0.000053 0.000072
0.000001 0.000001 0.000001
0.415775 0.218334 0.116962
0.634961 0.297771 0.146582
0.599658 0.257273 0.190701
0.458954 0.243044 0.253248
0.227020 0.151895 0.165404
0.053473 0.039794 0.047759
0.005395 0.004179 0.006045
0.000227 0.000181 0.000315
0.000004 0.000003 0.000007
0.638177 0.457252 0.087567
0.699065 0.429052 0.116632
0.474470 0.275957 0.193751
0.433562 0.331929 0.398524
0.325345 0.284803 0.383627
0.105046 0.094551 0.148178
0.013131 0.011814 0.021763
0.000629 0.000565 0.001177
0.000012 0.000011 0.000024
0.423004 0.367807 0.004705
0.392438 0.298579 0.056967
0.322699 0.252847 0.269839
0.481760 0.439281 0.671703
0.424402 0.396923 0.670182
0.144686 0.134449 0.253861
0.018404 0.016906 0.035490
0.000873 0.000796 0.001809
0.000016 0.000014 0.000034
0.111527 0.108490 0.000000
0.098998 0.087770 0.021770
0.128028 0.114917 0.165749
0.252315 0.235796 0.425077
0.227662 0.212317 0.415526
0.077194 0.071260 0.151318
0.009686 0.008850 0.020215
0.000450 0.000408 0.000985
0.000008 0.000007 0.000018
0.011263 0.011653 0.000000
0.010696 0.010301 0.004490
0.021810 0.020257 0.035595
0.048293 0.044879 0.091410
0.043683 0.040293 0.087577
0.014679 0.013419 0.030962
0.001818 0.001649 0.004007
0.000083 0.000075 0.000189
0.000001 0.000001 0.000003
0.000428 0.000457 0.000000
0.000481 0.000477 0.000353
0.001425 0.001323 0.002673
0.003315 0.003049 0.006811
0.002991 0.002730 0.006410
0.000997 0.000903 0.002216
0.000122 0.000110 0.000280
0.000006 0.000005 0.000013
0.000000 0.000000 0.000000
0.000006 0.000007 0.000000
0.000009 0.000009 0.000010
0.000034 0.000032 0.000071
0.000082 0.000075 0.000179
0.000074 0.000067 0.000166
0.000024 0.000022 0.000056
0.000003 0.000003 0.000007
0.000000 0.000000 0.000000
0.000000 0.000000 0.000000
0.015653 0.002692 0.003261
0.063080 0.009154 0.011514
0.112509 0.018144 0.025293
0.083482 0.019760 0.025659
0.025583 0.009213 0.010892
0.003299 0.001664 0.001855
0.000181 0.000114 0.000124
0.000004 0.000003 0.000003
0.000000 0.000000 0.000000
0.057818 0.019927 0.015727
0.147474 0.045157 0.031430
0.209511 0.060022 0.058548
0.154977 0.057539 0.064298
0.053386 0.027419 0.030274
0.008087 0.005212 0.005688
0.000522 0.000380 0.000427
0.000014 0.000011 0.000013
0.000000 0.000000 0.000000
0.153431 0.076402 0.037418
0.247652 0.117702 0.048642
0.217222 0.094893 0.059561
0.136134 0.069210 0.071266
0.055223 0.036614 0.043164
0.011122 0.008629 0.011196
0.000984 0.000817 0.001221
0.000036 0.000031 0.000054
0.000001 0.000000 0.000001
0.207445 0.133442 0.030560
0.256223 0.149117 0.037740
0.158149 0.086316 0.045317
0.093981 0.063544 0.086904
0.058508 0.048887 0.081516
0.017844 0.015881 0.029101
0.002126 0.001918 0.003872
0.000096 0.000086 0.000190
0.000002 0.000001 0.000003
0.121821 0.096131 0.004185
0.125512 0.086516 0.013880
0.078991 0.053353 0.048410
0.078902 0.066403 0.123234
0.066079 0.059789 0.121185
0.022263 0.020343 0.043629
0.002768 0.002521 0.005737
0.000126 0.000115 0.000275
0.000002 0.000002 0.000005
0.029419 0.026790 0.000000
0.026963 0.021802 0.003474
0.023476 0.019080 0.027496
0.037666 0.033800 0.071283
0.033489 0.030565 0.068125
0.011241 0.010242 0.023866
0.001386 0.001256 0.003057
0.000063 0.000057 0.000143
0.000001 0.000001 0.000002
0.002812 0.002797 0.000000
0.002503 0.002275 0.000626
0.003417 0.003027 0.005605
0.006899 0.006263 0.014326
0.006181 0.005618 0.013402
0.002055 0.001860 0.004598
0.000251 0.000226 0.000577
0.000011 0.000010 0.000027
0.000000 0.000000 0.000000
0.000103 0.000108 0.000000
0.000099 0.000095 0.000049
0.000207 0.000187 0.000402
0.000459 0.000416 0.001012
0.000410 0.000371 0.000932
0.000135 0.000122 0.000315
0.000016 0.000015 0.000039
0.000001 0.000001 0.000002
0.000000 0.000000 0.000000
0.000001 0.000002 0.000000
0.000002 0.000002 0.000001
0.000005 0.000004 0.000010
0.000011 0.000010 0.000025
0.000010 0.000009 0.000023
0.000003 0.000003 0.000008
0.000000 0.000000 0.000001
0.000000 0.000000 0.000000
0.000000 0.000000 0.000000
0.002252 0.000464 0.000407
0.008668 0.001296 0.001474
0.015076 0.002266 0.003171
0.010920 0.002339 0.003108
0.003230 0.001062 0.001272
0.000395 0.000187 0.000209
0.000020 0.000012 0.000013
0.000000 0.000000 0.000000
0.000000 0.000000 0.000000
0.008778 0.003428 0.001926
0.021219 0.006981 0.003992
0.028356 0.008042 0.007279
0.019853 0.006930 0.007665
0.006441 0.003134 0.003463
0.000906 0.000571 0.000619
0.000053 0.000039 0.000043
0.000001 0.000001 0.000001
0.000000 0.000000 0.000000
0.022616 0.011495 0.004704
0.037126 0.018463 0.006369
0.030802 0.014032 0.007558
0.016972 0.008435 0.008118
0.005934 0.003778 0.004409
0.001030 0.000783 0.001007
0.000078 0.000065 0.000095
0.000003 0.000002 0.000004
0.000000 0.000000 0.000000
0.027768 0.016795 0.004217
0.037294 0.021561 0.005120
0.022327 0.012401 0.004722
0.009384 0.005808 0.006859
0.004203 0.003289 0.005773
0.001117 0.000966 0.001900
0.000123 0.000110 0.000235
0.000005 0.000005 0.000011
0.000000 0.000000 0.000000
0.014481 0.010433 0.000975
0.016675 0.010817 0.001726
0.009212 0.005742 0.003279
0.005217 0.003968 0.007489
0.003625 0.003161 0.007183
0.001184 0.001062 0.002504
0.000144 0.000130 0.000318
0.000006 0.000006 0.000015
0.000000 0.000000 0.000000
0.003140 0.002642 0.000000
0.003135 0.002327 0.000274
0.001981 0.001440 0.001581
0.002058 0.001756 0.004003
0.001718 0.001537 0.003764
0.000571 0.000513 0.001288
0.000070 0.000063 0.000161
0.000003 0.000003 0.000007
0.000000 0.000000 0.000000
0.000277 0.000261 0.000000
0.000250 0.000212 0.000032
0.000220 0.000182 0.000303
0.000352 0.000312 0.000768
0.000308 0.000276 0.000707
0.000102 0.000091 0.000238
0.000012 0.000011 0.000029
0.000001 0.000000 0.000001
0.000000 0.000000 0.000000
0.000010 0.000010 0.000000
0.000009 0.000008 0.000002
0.000011 0.000010 0.000021
0.000023 0.000020 0.000052
0.000020 0.000018 0.000048
0.000007 0.000006 0.000016
0.000001 0.000001 0.000002
0.000000 0.000000 0.000000
0.000000 0.000000 0.000000
0.000000 0.000000 0.000000
0.000000 0.000000 0.000000
0.000000 0.000000 0.000001
0.000001 0.000000 0.000001
0.000000 0.000000 0.000001
0.000000 0.000000 0.000000
0.000000 0.000000 0.000000
0.000000 0.000000 0.000000
0.000000 0.000000 0.000000
