lrplugin/MindfulLensFilmEngine.lrplugin/profiles/luts/astia_cc.cube
# Generated from ColorChecker fit
LUT_3D_SIZE 9
DOMAIN_MIN 0.0 0.0 0.0
DOMAIN_MAX 1.0 1.0 1.0
0.146698 0.000000 0.225921
0.025757 0.000000 0.277683
0.000000 0.013751 0.454642
0.014683 0.082770 0.661882
0.047217 0.124205 0.805501
0.036545 0.089866 0.792610
0.000000 0.000000 0.531332
0.000000 0.000000 0.000000
0.000000 0.000000 0.000000
0.000000 0.000000 0.000000
0.000000 0.000000 0.028209
0.000000 0.000000 0.262989
0.061594 0.063664 0.511495
0.111730 0.133790 0.671756
0.054819 0.092578 0.642817
0.000000 0.000000 0.324737
0.000000 0.000000 0.000000
0.000000 0.000000 0.000000
0.000000 0.000000 0.000000
0.000000 0.000000 0.000000
0.000000 0.000000 0.076386
0.000000 0.083130 0.368224
0.000000 0.171113 0.547061
0.000000 0.105903 0.503876
0.000000 0.000000 0.130660
0.000000 0.000000 0.000000
0.000000 0.000000 0.000000
0.000000 0.000000 0.000000
0.000000 0.000000 0.000000
0.000000 0.000000 0.000000
0.000000 0.110215 0.253330
0.000000 0.206660 0.449840
0.000000 0.101761 0.391371
0.000000 0.000000 0.000000
0.000000 0.000000 0.000000
0.000000 0.000000 0.000000
0.000000 0.000000 0.000000
0.000000 0.000000 0.000000
0.000000 0.000000 0.000000
0.000000 0.092460 0.225670
0.000000 0.189406 0.436114
0.000000 0.030568 0.358488
0.000000 0.000000 0.000000
0.000000 0.000000 0.000000
0.000000 0.000000 0.000000
0.000000 0.000000 0.000000
0.000000 0.000000 0.000000
0.000000 0.000000 0.000000
0.000000 0.000000 0.381700
0.000000 0.046823 0.599501
0.000000 0.000000 0.496007
0.000000 0.000000 0.000000
0.000000 0.000000 0.000000
0.000000 0.000000 0.000000
0.000000 0.000000 0.000000
0.213866 0.000000 0.000000
0.491040 0.000000 0.426366
0.506579 0.000000 0.855476
0.143630 0.000000 1.000000
0.000000 0.000000 0.932309
0.000000 0.000000 0.298471
0.000000 0.000000 0.000000
0.000000 0.000000 0.000000
1.000000 0.000000 0.384070
1.000000 0.000000 0.849768
1.000000 0.000000 1.000000
1.000000 0.000000 1.000000
1.000000 0.000000 1.000000
0.306395 0.000000 1.000000
0.000000 0.000000 1.000000
0.000000 0.000000 0.000000
0.000000 0.000000 0.000000
1.000000 0.000000 1.000000
1.000000 0.000000 1.000000
1.000000 0.000000 1.000000
1.000000 0.000000 1.000000
1.000000 0.000000 1.000000
1.000000 0.000000 1.000000
0.112399 0.000000 1.000000
0.000000 0.000000 1.000000
0.000000 0.000000 0.000000
0.431373 0.342511 0.389934
0.210583 0.254356 0.304133
0.103776 0.215514 0.357907
0.087752 0.207184 0.471125
0.129087 0.194452 0.564672
0.184143 0.126288 0.560443
0.199060 0.000000 0.381348
0.109763 0.000000 0.000000
0.000000 0.000000 0.000000
0.241949 0.161675 0.184778
0.167566 0.167856 0.181267
0.179997 0.209444 0.309239
0.243861 0.260899 0.480500
0.313556 0.280563 0.607866
0.333263 0.210664 0.605167
0.236944 0.000000 0.387245
0.000000 0.000000 0.000000
0.000000 0.000000 0.000000
0.000000 0.025686 0.000000
0.021671 0.135279 0.053085
0.129209 0.260083 0.251888
0.243544 0.367813 0.477688
0.306893 0.410071 0.635237
0.251258 0.322343 0.630296
0.000000 0.024001 0.369644
0.000000 0.000000 0.000000
0.000000 0.000000 0.000000
0.000000 0.000000 0.000000
0.000000 0.123921 0.000000
0.031288 0.336160 0.201950
0.165845 0.498094 0.475951
0.187314 0.554582 0.657208
0.015515 0.434367 0.643420
0.000000 0.050081 0.333296
0.000000 0.000000 0.000000
0.000000 0.000000 0.000000
0.000000 0.000000 0.000000
0.000000 0.079569 0.000000
0.023604 0.384902 0.213123
0.147306 0.600404 0.526147
0.090529 0.664194 0.721803
0.000000 0.498272 0.689722
0.000000 0.008527 0.320549
0.000000 0.000000 0.000000
0.000000 0.000000 0.000000
0.000000 0.000000 0.000000
0.061240 0.000000 0.013989
0.301019 0.332026 0.376701
0.381959 0.601899 0.716735
0.209742 0.667498 0.914643
0.000000 0.444085 0.851988
0.000000 0.000000 0.411349
0.000000 0.000000 0.000000
0.000000 0.000000 0.000000
0.527411 0.000000 0.127205
0.885821 0.000000 0.429879
1.000000 0.081743 0.821577
1.000000 0.408224 1.000000
0.795650 0.471579 1.000000
0.022128 0.180327 1.000000
0.000000 0.000000 0.723243
0.000000 0.000000 0.000000
0.000000 0.000000 0.000000
1.000000 0.000000 0.988112
1.000000 0.000000 1.000000
1.000000 0.000000 1.000000
1.000000 0.000000 1.000000
1.000000 0.000000 1.000000
1.000000 0.000000 1.000000
0.000000 0.000000 1.000000
0.000000 0.000000 0.186500
0.000000 0.000000 0.000000
1.000000 0.000000 1.000000
1.000000 0.000000 1.000000
1.000000 0.000000 1.000000
1.000000 0.000000 1.000000
1.000000 0.000000 1.000000
1.000000 0.000000 1.000000
1.000000 0.000000 1.000000
0.000000 0.000000 1.000000
0.000000 0.000000 0.000000
0.653299 0.570511 0.522188
0.315213 0.342300 0.301036
0.116561 0.194126 0.229541
0.044493 0.104350 0.242358
0.075943 0.035221 0.275157
0.177625 0.000000 0.264618
0.306037 0.000000 0.148437
0.407457 0.000000 0.000000
0.417944 0.000000 0.000000
0.509573 0.442298 0.378003
0.326773 0.302773 0.253357
0.256369 0.230814 0.270678
0.273332 0.198041 0.356553
0.342417 0.159957 0.438586
0.418159 0.055954 0.445392
0.444873 0.000000 0.306600
0.356660 0.000000 0.000000
0.077400 0.000000 0.000000
0.281799 0.367829 0.230367
0.233036 0.327101 0.193422
0.264344 0.335173 0.290619
0.338516 0.356923 0.440480
0.408125 0.341116 0.562541
0.415526 0.220398 0.577351
0.292858 0.000000 0.406472
0.000000 0.000000 0.000000
0.000000 0.000000 0.000000
0.049396 0.314085 0.093054
0.112592 0.383698 0.132168
0.218247 0.477053 0.297465
0.316973 0.552288 0.499401
0.349166 0.551423 0.649446
0.245000 0.400364 0.660082
0.000000 0.008902 0.444805
0.000000 0.000000 0.000000
0.000000 0.000000 0.000000
0.000000 0.226537 0.017436
0.101524 0.419473 0.118130
0.253330 0.604802 0.336914
0.343129 0.733917 0.576179
0.299135 0.742098 0.739326
0.039345 0.548508 0.730773
0.000000 0.056197 0.455950
0.000000 0.000000 0.000000
0.000000 0.000000 0.000000
0.175847 0.029152 0.092485
0.393408 0.359830 0.237442
0.562341 0.645257 0.492263
0.608900 0.830086 0.751271
0.449121 0.842853 0.909804
0.000000 0.595980 0.864211
0.000000 0.000000 0.511855
0.000000 0.000000 0.000000
0.000000 0.000000 0.000000
0.981006 0.000000 0.444768
1.000000 0.108663 0.613835
1.000000 0.503752 0.884406
1.000000 0.747563 1.000000
1.000000 0.761893 1.000000
0.341173 0.452422 1.000000
0.000000 0.000000 0.722067
0.000000 0.000000 0.000000
0.000000 0.000000 0.000000
1.000000 0.000000 1.000000
1.000000 0.000000 1.000000
1.000000 0.064110 1.000000
1.000000 0.371611 1.000000
1.000000 0.385918 1.000000
1.000000 0.005968 1.000000
0.000000 0.000000 1.000000
0.000000 0.000000 0.155103
0.000000 0.000000 0.000000
1.000000 0.000000 1.000000
1.000000 0.000000 1.000000
1.000000 0.000000 1.000000
1.000000 0.000000 1.000000
1.000000 0.000000 1.000000
1.000000 0.000000 1.000000
1.000000 0.000000 1.000000
0.000000 0.000000 0.955492
0.000000 0.000000 0.000000
0.851612 0.665772 0.617128
0.399214 0.318607 0.283955
0.111283 0.084071 0.106225
0.000000 0.000000 0.033379
0.008631 0.000000 0.015870
0.158267 0.000000 0.005167
0.401086 0.000000 0.000000
0.693721 0.000000 0.000000
0.982586 0.000000 0.000000
0.734322 0.578649 0.501313
0.444606 0.309468 0.277102
0.292452 0.141877 0.201043
0.263187 0.044657 0.214510
0.331919 0.000000 0.259891
0.463539 0.000000 0.280586
0.612718 0.000000 0.221010
0.723909 0.000000 0.026590
0.731348 0.000000 0.000000
0.530488 0.551537 0.381899
0.379799 0.371479 0.252275
0.334481 0.275680 0.263378
0.367679 0.226178 0.348514
0.442322 0.168898 0.442007
0.511122 0.033651 0.479190
0.516570 0.000000 0.396410
0.390940 0.000000 0.131030
0.056287 0.000000 0.000000
0.317413 0.552535 0.264664
0.281269 0.474178 0.212413
0.313014 0.456454 0.293330
0.373617 0.454661 0.432656
0.413827 0.407981 0.556646
0.374174 0.239483 0.592568
0.184970 0.000000 0.468703
0.000000 0.000000 0.114347
0.000000 0.000000 0.000000
0.229894 0.528236 0.192979
0.282981 0.565594 0.198053
0.361190 0.633667 0.328601
0.413310 0.681010 0.501798
0.377910 0.640065 0.635834
0.183342 0.427158 0.649910
0.000000 0.000000 0.464241
0.000000 0.000000 0.000055
0.000000 0.000000 0.000000
0.460220 0.403728 0.247819
0.576395 0.572250 0.287330
0.669639 0.735277 0.444488
0.676559 0.834621 0.628403
0.523545 0.795983 0.749196
0.126769 0.528945 0.718004
0.000000 0.000000 0.446974
0.000000 0.000000 0.000000
0.000000 0.000000 0.000000
1.000000 0.082589 0.547754
1.000000 0.399163 0.595978
1.000000 0.667737 0.753889
1.000000 0.823384 0.922529
1.000000 0.785061 1.000000
0.450089 0.455608 0.901235
0.000000 0.000000 0.518451
0.000000 0.000000 0.000000
0.000000 0.000000 0.000000
1.000000 0.000000 1.000000
1.000000 0.000000 1.000000
1.000000 0.315994 1.000000
1.000000 0.533681 1.000000
1.000000 0.495118 1.000000
1.000000 0.096403 1.000000
0.000000 0.000000 0.817819
0.000000 0.000000 0.000000
0.000000 0.000000 0.000000
1.000000 0.000000 1.000000
1.000000 0.000000 1.000000
1.000000 0.000000 1.000000
1.000000 0.000000 1.000000
1.000000 0.000000 1.000000
1.000000 0.000000 1.000000
1.000000 0.000000 1.000000
0.000000 0.000000 0.353051
0.000000 0.000000 0.000000
1.000000 0.673593 0.656522
0.488391 0.257513 0.255777
0.134177 0.000000 0.011964
0.000000 0.000000 0.000000
0.014240 0.000000 0.000000
0.233584 0.000000 0.000000
0.612150 0.000000 0.000000
1.000000 0.000000 0.000000
1.000000 0.000000 0.000000
0.934337 0.622180 0.553537
0.559630 0.268324 0.272448
0.347239 0.051950 0.141400
0.292845 0.000000 0.116553
0.381910 0.000000 0.155080
0.589679 0.000000 0.215166
0.881180 0.000000 0.256012
1.000000 0.000000 0.237829
1.000000 0.000000 0.121845
0.745458 0.634408 0.448028
0.513287 0.354948 0.266650
0.411372 0.197071 0.228287
0.423213 0.119978 0.281033
0.522094 0.066755 0.373994
0.671081 0.000000 0.457291
0.823020 0.000000 0.482055
0.920539 0.000000 0.400434
0.896050 0.000000 0.165588
0.540242 0.679498 0.337774
0.423719 0.488043 0.233323
0.400103 0.395979 0.264728
0.440717 0.355763 0.372016
0.506664 0.303742 0.496227
0.548830 0.160144 0.579415
0.507881 0.000000 0.564645
0.314268 0.000000 0.396000
0.000000 0.000000 0.018570
0.451372 0.705165 0.258150
0.422778 0.616760 0.205007
0.444456 0.599260 0.280425
0.475549 0.598382 0.416367
0.464981 0.543729 0.545806
0.351458 0.348787 0.602729
0.063467 0.000000 0.522136
0.000000 0.000000 0.240042
0.000000 0.000000 0.000000
0.669020 0.637616 0.282131
0.699807 0.668742 0.251837
0.732944 0.735996 0.342679
0.715394 0.778351 0.478549
0.583901 0.718669 0.584357
0.264991 0.463695 0.586022
0.000000 0.000000 0.410480
0.000000 0.000000 0.000000
0.000000 0.000000 0.000000
1.000000 0.381551 0.520289
1.000000 0.550127 0.481550
1.000000 0.713759 0.556386
1.000000 0.804681 0.660624
1.000000 0.739010 0.711104
0.532950 0.416751 0.625683
0.000000 0.000000 0.323227
0.000000 0.000000 0.000000
0.000000 0.000000 0.000000
1.000000 0.000000 1.000000
1.000000 0.145545 1.000000
1.000000 0.418618 1.000000
1.000000 0.564876 1.000000
1.000000 0.493693 1.000000
1.000000 0.098332 0.855696
0.094000 0.000000 0.391526
0.000000 0.000000 0.000000
0.000000 0.000000 0.000000
1.000000 0.000000 1.000000
1.000000 0.000000 1.000000
1.000000 0.000000 1.000000
1.000000 0.000000 1.000000
1.000000 0.000000 1.000000
1.000000 0.000000 1.000000
1.000000 0.000000 0.784123
0.000000 0.000000 0.000000
0.000000 0.000000 0.000000
1.000000 0.607966 0.609468
0.574791 0.201943 0.206716
0.197717 0.000000 0.000000
0.052154 0.000000 0.000000
0.146099 0.000000 0.000000
0.477331 0.029895 0.000000
1.000000 0.078266 0.100271
1.000000 0.000000 0.327711
1.000000 0.000000 0.598545
1.000000 0.593027 0.520830
0.676653 0.228414 0.246669
0.445965 0.039042 0.120140
0.407967 0.000000 0.112191
0.558478 0.022326 0.194778
0.883096 0.072846 0.340875
1.000000 0.054337 0.524466
1.000000 0.000000 0.720548
1.000000 0.000000 0.905134
0.923846 0.642727 0.431967
0.651066 0.332727 0.260879
0.533011 0.183502 0.230798
0.563540 0.151413 0.304604
0.726289 0.176709 0.446188
0.994678 0.183523 0.620456
1.000000 0.079873 0.793327
1.000000 0.000000 0.931731
1.000000 0.000000 1.000000
0.727783 0.727409 0.332659
0.570270 0.486662 0.236290
0.530268 0.385929 0.274169
0.589454 0.374832 0.401109
0.719286 0.386876 0.572934
0.881004 0.339453 0.746484
1.000000 0.133837 0.879611
1.000000 0.000000 0.931180
1.000000 0.000000 0.861071
0.636370 0.795906 0.250282
0.564002 0.640488 0.197442
0.566642 0.598032 0.271957
0.613786 0.611417 0.420571
0.664715 0.607408 0.591045
0.668489 0.496652 0.732151
0.563949 0.173684 0.793674
0.279721 0.000000 0.726415
0.000000 0.000000 0.482185
0.837667 0.775546 0.249812
0.819490 0.722972 0.206474
0.828530 0.750013 0.283462
0.822106 0.792808 0.419456
0.747317 0.771379 0.554149
0.541043 0.589633 0.628247
0.129948 0.135361 0.583470
0.000000 0.000000 0.362551
0.000000 0.000000 0.000000
1.000000 0.572152 0.433825
1.000000 0.641370 0.363123
1.000000 0.750566 0.405586
1.000000 0.829136 0.491827
1.000000 0.790359 0.553473
0.740070 0.531400 0.523163
0.000000 0.000000 0.334552
0.000000 0.000000 0.000000
0.000000 0.000000 0.000000
1.000000 0.070037 0.942491
1.000000 0.281435 0.804724
1.000000 0.486879 0.772826
1.000000 0.609024 0.769345
1.000000 0.554407 0.717840
1.000000 0.213452 0.542886
0.364771 0.000000 0.170069
0.000000 0.000000 0.000000
0.000000 0.000000 0.000000
1.000000 0.000000 1.000000
1.000000 0.000000 1.000000
1.000000 0.000000 1.000000
1.000000 0.000000 1.000000
1.000000 0.000000 1.000000
1.000000 0.000000 0.851001
1.000000 0.000000 0.250770
0.000000 0.000000 0.000000
0.000000 0.000000 0.000000
1.000000 0.451564 0.432387
0.616703 0.163505 0.114311
0.280619 0.097055 0.000000
0.210193 0.219223 0.000000
0.423778 0.480900 0.018421
0.929507 0.816867 0.255270
1.000000 1.000000 0.620410
1.000000 1.000000 1.000000
1.000000 1.000000 1.000000
1.000000 0.480014 0.376675
0.766723 0.207496 0.194362
0.580105 0.149844 0.152979
0.620458 0.267326 0.238256
0.893953 0.504093 0.436939
1.000000 0.788182 0.736783
1.000000 1.000000 1.000000
1.000000 1.000000 1.000000
1.000000 0.963018 1.000000
1.000000 0.571468 0.324258
0.776943 0.328723 0.246621
0.703634 0.287812 0.303686
0.813321 0.402257 0.473120
1.000000 0.609471 0.733600
1.000000 0.830745 1.000000
1.000000 0.971261 1.000000
1.000000 0.920082 1.000000
1.000000 0.550158 1.000000
0.856175 0.697386 0.256918
0.717489 0.500087 0.250031
0.720503 0.485294 0.371488
0.857250 0.599790 0.590886
1.000000 0.774242 0.878836
1.000000 0.923202 1.000000
1.000000 0.945109 1.000000
1.000000 0.722284 1.000000
1.000000 0.120935 1.000000
0.773789 0.807725 0.194033
0.715981 0.672980 0.221136
0.757502 0.695121 0.370089
0.878204 0.814189 0.602422
1.000000 0.954109 0.880680
1.000000 1.000000 1.000000
1.000000 0.911633 1.000000
1.000000 0.496513 1.000000
1.000000 0.000000 1.000000
0.967820 0.830935 0.192581
0.957530 0.777288 0.214076
0.998912 0.848615 0.350792
1.000000 0.978214 0.556194
1.000000 1.000000 0.784762
1.000000 1.000000 0.991985
0.881329 0.807903 1.000000
0.491788 0.181276 1.000000
0.000000 0.000000 1.000000
1.000000 0.673956 0.347139
1.000000 0.721390 0.320590
1.000000 0.855591 0.402501
1.000000 1.000000 0.538269
1.000000 1.000000 0.674307
1.000000 0.963793 0.758042
0.637424 0.549482 0.737910
0.000000 0.000000 0.563364
0.000000 0.000000 0.184869
1.000000 0.222224 0.789880
1.000000 0.392156 0.670015
1.000000 0.604357 0.651714
1.000000 0.778642 0.672308
1.000000 0.818711 0.670144
1.000000 0.612148 0.584581
0.924883 0.030424 0.355991
0.000000 0.000000 0.000000
0.000000 0.000000 0.000000
1.000000 0.000000 1.000000
1.000000 0.000000 1.000000
1.000000 0.000000 1.000000
1.000000 0.173030 1.000000
1.000000 0.185852 0.930697
1.000000 0.000000 0.627192
1.000000 0.000000 0.141365
0.045448 0.000000 0.000000
0.000000 0.000000 0.000000
1.000000 0.155750 0.069026
0.538654 0.122498 0.000000
0.327837 0.350915 0.000000
0.416412 0.805171 0.107683
0.833086 1.000000 0.415715
1.000000 1.000000 0.888157
1.000000 1.000000 1.000000
1.000000 1.000000 1.000000
1.000000 1.000000 1.000000
1.000000 0.240653 0.081877
0.767127 0.192014 0.097452
0.707375 0.399736 0.242958
0.908459 0.821246 0.518910
1.000000 1.000000 0.926838
1.000000 1.000000 1.000000
1.000000 1.000000 1.000000
1.000000 1.000000 1.000000
1.000000 1.000000 1.000000
0.990644 0.384287 0.102766
0.840967 0.335529 0.222858
0.893717 0.531529 0.467053
1.000000 0.922974 0.827801
1.000000 1.000000 1.000000
1.000000 1.000000 1.000000
1.000000 1.000000 1.000000
1.000000 1.000000 1.000000
1.000000 1.000000 1.000000
0.867800 0.559237 0.105476
0.828184 0.527062 0.290589
0.954045 0.721750 0.593845
1.000000 1.000000 0.999627
1.000000 1.000000 1.000000
1.000000 1.000000 1.000000
1.000000 1.000000 1.000000
1.000000 1.000000 1.000000
1.000000 1.000000 1.000000
0.818770 0.716580 0.101389
0.854282 0.719127 0.309191
1.000000 0.924351 0.629042
1.000000 1.000000 1.000000
1.000000 1.000000 1.000000
1.000000 1.000000 1.000000
1.000000 1.000000 1.000000
1.000000 1.000000 1.000000
1.000000 1.000000 1.000000
1.000000 0.785885 0.139483
1.000000 0.842730 0.324806
1.000000 1.000000 0.615949
1.000000 1.000000 0.981162
1.000000 1.000000 1.000000
1.000000 1.000000 1.000000
1.000000 1.000000 1.000000
1.000000 1.000000 1.000000
1.000000 1.000000 1.000000
1.000000 0.675215 0.306336
1.000000 0.807372 0.421174
1.000000 1.000000 0.635470
1.000000 1.000000 0.909407
1.000000 1.000000 1.000000
1.000000 1.000000 1.000000
1.000000 1.000000 1.000000
1.000000 1.000000 1.000000
0.369467 0.124529 1.000000
1.000000 0.271126 0.726124
1.000000 0.501045 0.719635
1.000000 0.823322 0.806106
1.000000 1.000000 0.937657
1.000000 1.000000 1.000000
1.000000 1.000000 1.000000
1.000000 1.000000 1.000000
0.822756 0.350234 0.992473
0.000000 0.000000 0.666652
1.000000 0.000000 1.000000
1.000000 0.000000 1.000000
1.000000 0.184801 1.000000
1.000000 0.532602 1.000000
1.000000 0.727757 1.000000
1.000000 0.648269 0.962030
1.000000 0.156029 0.662837
1.000000 0.000000 0.180365
0.000000 0.000000 0.000000
0.495695 0.000000 0.000000
0.231417 0.027904 0.000000
0.250571 0.718830 0.000000
0.602438 1.000000 0.421002
1.000000 1.000000 1.000000
1.000000 1.000000 1.000000
1.000000 1.000000 1.000000
1.000000 1.000000 1.000000
1.000000 1.000000 1.000000
0.668250 0.000000 0.000000
0.581397 0.137101 0.000000
0.751732 0.772784 0.380447
1.000000 1.000000 0.965638
1.000000 1.000000 1.000000
1.000000 1.000000 1.000000
1.000000 1.000000 1.000000
1.000000 1.000000 1.000000
1.000000 1.000000 1.000000
0.704538 0.013531 0.000000
0.759429 0.314423 0.175901
1.000000 0.904868 0.728325
1.000000 1.000000 1.000000
1.000000 1.000000 1.000000
1.000000 1.000000 1.000000
1.000000 1.000000 1.000000
1.000000 1.000000 1.000000
1.000000 1.000000 1.000000
0.671280 0.251456 0.000000
0.831406 0.535013 0.361334
1.000000 1.000000 0.965727
1.000000 1.000000 1.000000
1.000000 1.000000 1.000000
1.000000 1.000000 1.000000
1.000000 1.000000 1.000000
1.000000 1.000000 1.000000
1.000000 1.000000 1.000000
0.692695 0.467111 0.000000
0.920716 0.752504 0.482036
1.000000 1.000000 1.000000
1.000000 1.000000 1.000000
1.000000 1.000000 1.000000
1.000000 1.000000 1.000000
1.000000 1.000000 1.000000
1.000000 1.000000 1.000000
1.000000 1.000000 1.000000
0.950491 0.591186 0.106886
1.000000 0.899022 0.576151
1.000000 1.000000 1.000000
1.000000 1.000000 1.000000
1.000000 1.000000 1.000000
1.000000 1.000000 1.000000
1.000000 1.000000 1.000000
1.000000 1.000000 1.000000
1.000000 1.000000 1.000000
1.000000 0.532866 0.344844
1.000000 0.885190 0.719421
1.000000 1.000000 1.000000
1.000000 1.000000 1.000000
1.000000 1.000000 1.000000
1.000000 1.000000 1.000000
1.000000 1.000000 1.000000
1.000000 1.000000 1.000000
1.000000 1.000000 1.000000
1.000000 0.179827 0.801712
1.000000 0.600121 1.000000
1.000000 1.000000 1.000000
1.000000 1.000000 1.000000
1.000000 1.000000 1.000000
1.000000 1.000000 1.000000
1.000000 1.000000 1.000000
1.000000 1.000000 1.000000
1.000000 1.000000 1.000000
1.000000 0.000000 1.000000
1.000000 0.000000 1.000000
1.000000 0.520990 1.000000
1.000000 1.000000 1.000000
1.000000 1.000000 1.000000
1.000000 1.000000 1.000000
1.000000 1.000000 1.000000
1.000000 1.000000 1.000000
1.000000 0.000000 1.000000
