lrplugin/MindfulLensFilmEngine.lrplugin/profiles/luts/astia_cc.cube
# Generated from ColorChecker fit
LUT_3D_SIZE 5
DOMAIN_MIN 0.0 0.0 0.0
DOMAIN_MAX 1.0 1.0 1.0
0.146698 0.000000 0.225921
0.000000 0.013751 0.454642
0.047217 0.124205 0.805501
0.000000 0.000000 0.531332
0.000000 0.000000 0.000000
0.000000 0.000000 0.000000
0.000000 0.000000 0.076386
0.000000 0.171113 0.547061
0.000000 0.000000 0.130660
0.000000 0.000000 0.000000
0.000000 0.000000 0.000000
0.000000 0.000000 0.000000
0.000000 0.189406 0.436114
0.000000 0.000000 0.000000
0.000000 0.000000 0.000000
0.000000 0.000000 0.000000
0.491040 0.000000 0.426366
0.143630 0.000000 1.000000
0.000000 0.000000 0.298471
0.000000 0.000000 0.000000
1.000000 0.000000 1.000000
1.000000 0.000000 1.000000
1.000000 0.000000 1.000000
0.112399 0.000000 1.000000
0.000000 0.000000 0.000000
0.653299 0.570511 0.522188
0.116561 0.194126 0.229541
0.075943 0.035221 0.275157
0.306037 0.000000 0.148437
0.417944 0.000000 0.000000
0.281799 0.367829 0.230367
0.264344 0.335173 0.290619
0.408125 0.341116 0.562541
0.292858 0.000000 0.406472
0.000000 0.000000 0.000000
0.000000 0.226537 0.017436
0.253330 0.604802 0.336914
0.299135 0.742098 0.739326
0.000000 0.056197 0.455950
0.000000 0.000000 0.000000
0.981006 0.000000 0.444768
1.000000 0.503752 0.884406
1.000000 0.761893 1.000000
0.000000 0.000000 0.722067
0.000000 0.000000 0.000000
1.000000 0.000000 1.000000
1.000000 0.000000 1.000000
1.000000 0.000000 1.000000
1.000000 0.000000 1.000000
0.000000 0.000000 0.000000
1.000000 0.673593 0.656522
0.134177 0.000000 0.011964
0.014240 0.000000 0.000000
0.612150 0.000000 0.000000
1.000000 0.000000 0.000000
0.745458 0.634408 0.448028
0.411372 0.197071 0.228287
0.522094 0.066755 0.373994
0.823020 0.000000 0.482055
0.896050 0.000000 0.165588
0.451372 0.705165 0.258150
0.444456 0.599260 0.280425
0.464981 0.543729 0.545806
0.063467 0.000000 0.522136
0.000000 0.000000 0.000000
1.000000 0.381551 0.520289
1.000000 0.713759 0.556386
1.000000 0.739010 0.711104
0.000000 0.000000 0.323227
0.000000 0.000000 0.000000
1.000000 0.000000 1.000000
1.000000 0.000000 1.000000
1.000000 0.000000 1.000000
1.000000 0.000000 0.784123
0.000000 0.000000 0.000000
1.000000 0.451564 0.432387
0.280619 0.097055 0.000000
0.423778 0.480900 0.018421
1.000000 1.000000 0.620410
1.000000 1.000000 1.000000
1.000000 0.571468 0.324258
0.703634 0.287812 0.303686
1.000000 0.609471 0.733600
1.000000 0.971261 1.000000
1.000000 0.550158 1.000000
0.773789 0.807725 0.194033
0.757502 0.695121 0.370089
1.000000 0.954109 0.880680
1.000000 0.911633 1.000000
1.000000 0.000000 1.000000
1.000000 0.673956 0.347139
1.000000 0.855591 0.402501
1.000000 1.000000 0.674307
0.637424 0.549482 0.737910
0.000000 0.000000 0.184869
1.000000 0.000000 1.000000
1.000000 0.000000 1.000000
1.000000 0.185852 0.930697
1.000000 0.000000 0.141365
0.000000 0.000000 0.000000
0.495695 0.000000 0.000000
0.250571 0.718830 0.000000
1.000000 1.000000 1.000000
1.000000 1.000000 1.000000
1.000000 1.000000 1.000000
0.704538 0.013531 0.000000
1.000000 0.904868 0.728325
1.000000 1.000000 1.000000
1.000000 1.000000 1.000000
1.000000 1.000000 1.000000
0.692695 0.467111 0.000000
1.000000 1.000000 1.000000
1.000000 1.000000 1.000000
1.000000 1.000000 1.000000
1.000000 1.000000 1.000000
1.000000 0.532866 0.344844
1.000000 1.000000 1.000000
1.000000 1.000000 1.000000
1.000000 1.000000 1.000000
1.000000 1.000000 1.000000
1.000000 0.000000 1.000000
1.000000 0.520990 1.000000
1.000000 1.000000 1.000000
1.000000 1.000000 1.000000
1.000000 0.000000 1.000000
