lrplugin/MindfulLensFilmEngine.lrplugin/profiles/luts/astia_cc.cube
# Generated from ColorChecker fit
LUT_3D_SIZE 33
DOMAIN_MIN 0.0 0.0 0.0
DOMAIN_MAX 1.0 1.0 1.0
0.146698 0.000000 0.225921
0.106750 0.000000 0.221896
0.073514 0.000000 0.230181
0.046644 0.000000 0.249276
0.025757 0.000000 0.277683
0.010427 0.000000 0.313911
0.000190 0.000000 0.356469
0.000000 0.000000 0.403873
0.000000 0.013751 0.454642
0.000000 0.031562 0.507299
0.000000 0.049326 0.560370
0.006351 0.066573 0.612386
0.014683 0.082770 0.661882
0.023740 0.097322 0.707397
0.032737 0.109570 0.747474
0.040851 0.118792 0.780658
0.047217 0.124205 0.805501
0.050934 0.124961 0.820558
0.051056 0.120149 0.824385
0.046601 0.108796 0.815547
0.036545 0.089866 0.792610
0.019826 0.062260 0.754143
0.000000 0.024815 0.698722
0.000000 0.000000 0.624924
0.000000 0.000000 0.531332
0.000000 0.000000 0.416533
0.000000 0.000000 0.279115
0.000000 0.000000 0.117673
0.000000 0.000000 0.000000
0.000000 0.000000 0.000000
0.000000 0.000000 0.000000
0.000000 0.000000 0.000000
0.000000 0.000000 0.000000
0.090435 0.000000 0.147141
0.059791 0.000000 0.147254
0.035605 0.000000 0.159641
0.017486 0.000000 0.182768
0.005001 0.000000 0.215107
0.000000 0.000000 0.255135
0.000000 0.000000 0.301330
0.000000 0.000000 0.352176
0.001360 0.000000 0.406160
0.009164 0.011652 0.461774
0.019172 0.033330 0.517513
0.030670 0.054130 0.571876
0.042908 0.073493 0.623367
0.055094 0.090798 0.670493
0.066396 0.105359 0.711765
0.075944 0.116428 0.745697
0.082825 0.123195 0.770810
0.086090 0.124787 0.785626
0.084747 0.120265 0.788672
0.077764 0.108631 0.778480
0.064072 0.088822 0.753583
0.042559 0.059713 0.712521
0.012075 0.020114 0.653837
0.000000 0.000000 0.576078
0.000000 0.000000 0.477794
0.000000 0.000000 0.357539
0.000000 0.000000 0.213874
0.000000 0.000000 0.045359
0.000000 0.000000 0.000000
0.000000 0.000000 0.000000
0.000000 0.000000 0.000000
0.000000 0.000000 0.000000
0.000000 0.000000 0.000000
0.026922 0.000000 0.068356
0.005365 0.000000 0.072678
0.000000 0.000000 0.089236
0.000000 0.000000 0.116465
0.000000 0.000000 0.152805
0.000000 0.000000 0.196701
0.000000 0.000000 0.246601
0.000000 0.000000 0.300956
0.000224 0.000000 0.358222
0.013596 0.000000 0.416860
0.028516 0.020643 0.475333
0.044226 0.044896 0.532108
0.059926 0.067301 0.585659
0.074776 0.087209 0.634460
0.087899 0.103909 0.676990
0.098376 0.116627 0.711734
0.105246 0.124526 0.737180
0.107513 0.126705 0.751818
0.104137 0.122201 0.754144
0.094039 0.109990 0.742658
0.076102 0.088981 0.715863
0.049166 0.058022 0.672266
0.012034 0.015900 0.610379
0.000000 0.000000 0.528716
0.000000 0.000000 0.425798
0.000000 0.000000 0.300148
0.000000 0.000000 0.150291
0.000000 0.000000 0.000000
0.000000 0.000000 0.000000
0.000000 0.000000 0.000000
0.000000 0.000000 0.000000
0.000000 0.000000 0.000000
0.000000 0.000000 0.000000
0.000000 0.000000 0.000000
0.000000 0.000000 0.000000
0.000000 0.000000 0.018749
0.000000 0.000000 0.050138
0.000000 0.000000 0.090537
0.000000 0.000000 0.138358
0.000000 0.000000 0.192019
0.000000 0.000000 0.249940
0.000000 0.000000 0.310544
0.008355 0.000000 0.372261
0.027783 0.011149 0.433523
0.047278 0.038761 0.492765
0.065993 0.064088 0.548429
0.083042 0.086456 0.598957
0.097498 0.105127 0.642800
0.108394 0.119300 0.678408
0.114725 0.128113 0.704237
0.115443 0.130638 0.718748
0.109464 0.125886 0.720405
0.095660 0.112806 0.707675
0.072865 0.090281 0.679031
0.039875 0.057133 0.632948
0.000000 0.012122 0.567906
0.000000 0.000000 0.482389
0.000000 0.000000 0.374884
0.000000 0.000000 0.243884
0.000000 0.000000 0.087884
0.000000 0.000000 0.000000
0.000000 0.000000 0.000000
0.000000 0.000000 0.000000
0.000000 0.000000 0.000000
0.000000 0.000000 0.000000
0.000000 0.000000 0.000000
0.000000 0.000000 0.000000
0.000000 0.000000 0.000000
0.000000 0.000000 0.000000
0.000000 0.000000 0.000000
0.000000 0.000000 0.028209
0.000000 0.000000 0.080003
0.000000 0.000000 0.137471
0.000000 0.000000 0.199002
0.000000 0.000000 0.262989
0.000000 0.000000 0.327829
0.017462 0.004646 0.391923
0.040313 0.035528 0.453675
0.061594 0.063664 0.511495
0.080370 0.088354 0.563794
0.095667 0.108833 0.608989
0.106472 0.124275 0.645502
0.111730 0.133790 0.671756
0.110347 0.136425 0.686180
0.101191 0.131164 0.687207
0.083086 0.116929 0.673272
0.054819 0.092578 0.642817
0.015138 0.056906 0.594286
0.000000 0.008647 0.526127
0.000000 0.000000 0.436792
0.000000 0.000000 0.324737
0.000000 0.000000 0.188423
0.000000 0.000000 0.026314
0.000000 0.000000 0.000000
0.000000 0.000000 0.000000
0.000000 0.000000 0.000000
0.000000 0.000000 0.000000
0.000000 0.000000 0.000000
0.000000 0.000000 0.000000
0.000000 0.000000 0.000000
0.000000 0.000000 0.000000
0.000000 0.000000 0.000000
0.000000 0.000000 0.000000
0.000000 0.000000 0.000000
0.000000 0.000000 0.021677
0.000000 0.000000 0.082987
0.000000 0.000000 0.148163
0.000000 0.000000 0.215566
0.000000 0.000000 0.283563
0.000000 0.000850 0.350521
0.024040 0.034918 0.414815
0.047433 0.065756 0.474822
0.067463 0.092635 0.528922
0.083108 0.114766 0.575501
0.093306 0.131295 0.612948
0.096956 0.141306 0.639656
0.092916 0.143820 0.654022
0.080005 0.137794 0.654448
0.057001 0.122125 0.639337
0.022645 0.095643 0.607098
0.000000 0.057119 0.556146
0.000000 0.005258 0.484895
0.000000 0.000000 0.391768
0.000000 0.000000 0.275189
0.000000 0.000000 0.133586
0.000000 0.000000 0.000000
0.000000 0.000000 0.000000
0.000000 0.000000 0.000000
0.000000 0.000000 0.000000
0.000000 0.000000 0.000000
0.000000 0.000000 0.000000
0.000000 0.000000 0.000000
0.000000 0.000000 0.000000
0.000000 0.000000 0.000000
0.000000 0.000000 0.000000
0.000000 0.000000 0.000000
0.000000 0.000000 0.000000
0.000000 0.000000 0.000000
0.000000 0.000000 0.028745
0.000000 0.000000 0.097589
0.000000 0.000000 0.168432
0.000000 0.000000 0.239606
0.000000 0.000000 0.309451
0.000000 0.036569 0.376308
0.024443 0.070006 0.438522
0.045250 0.098948 0.494443
0.060744 0.122579 0.542426
0.069817 0.140019 0.580826
0.071320 0.150325 0.608007
0.064063 0.152493 0.622333
0.046818 0.145453 0.622174
0.018315 0.128075 0.605903
0.000000 0.099165 0.571897
0.000000 0.057464 0.518539
0.000000 0.001653 0.444213
0.000000 0.000000 0.347308
0.000000 0.000000 0.226218
0.000000 0.000000 0.079340
0.000000 0.000000 0.000000
0.000000 0.000000 0.000000
0.000000 0.000000 0.000000
0.000000 0.000000 0.000000
0.000000 0.000000 0.000000
0.000000 0.000000 0.000000
0.000000 0.000000 0.000000
0.000000 0.000000 0.000000
0.000000 0.000000 0.000000
0.000000 0.000000 0.000000
0.000000 0.000000 0.000000
0.000000 0.000000 0.000000
0.000000 0.000000 0.000000
0.000000 0.000000 0.000000
0.000000 0.000000 0.047595
0.000000 0.000000 0.121888
0.000000 0.000000 0.196252
0.000000 0.000000 0.268994
0.000000 0.040034 0.338423
0.000000 0.075973 0.402854
0.014883 0.106856 0.460606
0.029726 0.131841 0.509999
0.037153 0.150021 0.549361
0.035966 0.160429 0.577021
0.024929 0.162031 0.591314
0.002766 0.153733 0.590576
0.000000 0.134378 0.573151
0.000000 0.102745 0.537384
0.000000 0.057550 0.481625
0.000000 0.000000 0.404227
0.000000 0.000000 0.303548
0.000000 0.000000 0.177951
0.000000 0.000000 0.025800
0.000000 0.000000 0.000000
0.000000 0.000000 0.000000
0.000000 0.000000 0.000000
0.000000 0.000000 0.000000
0.000000 0.000000 0.000000
0.000000 0.000000 0.000000
0.000000 0.000000 0.000000
0.000000 0.000000 0.000000
0.000000 0.000000 0.000000
0.000000 0.000000 0.000000
0.000000 0.000000 0.000000
0.000000 0.000000 0.000000
0.000000 0.000000 0.000000
0.000000 0.000000 0.000000
0.000000 0.000000 0.000000
0.000000 0.000000 0.076386
0.000000 0.000000 0.153939
0.000000 0.001594 0.229576
0.000000 0.044779 0.301577
0.000000 0.083130 0.368224
0.000000 0.115840 0.427803
0.000000 0.142039 0.478605
0.000000 0.160795 0.518925
0.000000 0.171113 0.547061
0.000000 0.171936 0.561316
0.000000 0.162141 0.559996
0.000000 0.140546 0.541411
0.000000 0.105903 0.503876
0.000000 0.056901 0.445709
0.000000 0.000000 0.365233
0.000000 0.000000 0.260773
0.000000 0.000000 0.130660
0.000000 0.000000 0.000000
0.000000 0.000000 0.000000
0.000000 0.000000 0.000000
0.000000 0.000000 0.000000
0.000000 0.000000 0.000000
0.000000 0.000000 0.000000
0.000000 0.000000 0.000000
0.000000 0.000000 0.000000
0.000000 0.000000 0.000000
0.000000 0.000000 0.000000
0.000000 0.000000 0.000000
0.000000 0.000000 0.000000
0.000000 0.000000 0.000000
0.000000 0.000000 0.000000
0.000000 0.000000 0.000000
0.000000 0.000000 0.000000
0.000000 0.000000 0.032521
0.000000 0.000000 0.113252
0.000000 0.004097 0.191774
0.000000 0.050192 0.266334
0.000000 0.090869 0.335183
0.000000 0.125294 0.396577
0.000000 0.152573 0.448774
0.000000 0.171746 0.490037
0.000000 0.181792 0.518634
0.000000 0.181627 0.532836
0.000000 0.170103 0.530917
0.000000 0.146010 0.511156
0.000000 0.108074 0.471836
0.000000 0.054960 0.411245
0.000000 0.000000 0.327671
0.000000 0.000000 0.219412
0.000000 0.000000 0.084764
0.000000 0.000000 0.000000
0.000000 0.000000 0.000000
0.000000 0.000000 0.000000
0.000000 0.000000 0.000000
0.000000 0.000000 0.000000
0.000000 0.000000 0.000000
0.000000 0.000000 0.000000
0.000000 0.000000 0.000000
0.000000 0.000000 0.000000
0.000000 0.000000 0.000000
0.000000 0.000000 0.000000
0.000000 0.000000 0.000000
0.000000 0.000000 0.000000
0.000000 0.000000 0.000000
0.000000 0.000000 0.000000
0.000000 0.000000 0.000000
0.000000 0.000000 0.000000
0.000000 0.000000 0.074925
0.000000 0.006622 0.156309
0.000000 0.055572 0.233404
0.000000 0.098495 0.304432
0.000000 0.134532 0.367616
0.000000 0.162761 0.421183
0.000000 0.182198 0.463364
0.000000 0.191793 0.492396
0.000000 0.190438 0.506518
0.000000 0.176957 0.503973
0.000000 0.150114 0.483009
0.000000 0.108610 0.441876
0.000000 0.051082 0.378831
0.000000 0.000000 0.292132
0.000000 0.000000 0.180043
0.000000 0.000000 0.040830
0.000000 0.000000 0.000000
0.000000 0.000000 0.000000
0.000000 0.000000 0.000000
0.000000 0.000000 0.000000
0.000000 0.000000 0.000000
0.000000 0.000000 0.000000
0.000000 0.000000 0.000000
0.000000 0.000000 0.000000
0.000000 0.000000 0.000000
0.000000 0.000000 0.000000
0.000000 0.000000 0.000000
0.000000 0.000000 0.000000
0.000000 0.000000 0.000000
0.000000 0.000000 0.000000
0.000000 0.000000 0.000000
0.000000 0.000000 0.000000
0.000000 0.000000 0.000000
0.000000 0.000000 0.039837
0.000000 0.008380 0.124048
0.000000 0.060136 0.203645
0.000000 0.105231 0.276817
0.000000 0.142781 0.341755
0.000000 0.171838 0.396655
0.000000 0.191389 0.439719
0.000000 0.200362 0.469149
0.000000 0.197619 0.483153
0.000000 0.181960 0.479944
0.000000 0.152122 0.457738
0.000000 0.106778 0.414753
0.000000 0.044541 0.349215
0.000000 0.000000 0.259350
0.000000 0.000000 0.143390
0.000000 0.000000 0.000000
0.000000 0.000000 0.000000
0.000000 0.000000 0.000000
0.000000 0.000000 0.000000
0.000000 0.000000 0.000000
0.000000 0.000000 0.000000
0.000000 0.000000 0.000000
0.000000 0.000000 0.000000
0.000000 0.000000 0.000000
0.000000 0.000000 0.000000
0.000000 0.000000 0.000000
0.000000 0.000000 0.000000
0.000000 0.000000 0.000000
0.000000 0.000000 0.000000
0.000000 0.000000 0.000000
0.000000 0.000000 0.000000
0.000000 0.000000 0.000000
0.000000 0.000000 0.000000
0.000000 0.000000 0.009014
0.000000 0.008500 0.096007
0.000000 0.063016 0.178060
0.000000 0.110215 0.253330
0.000000 0.149185 0.319976
0.000000 0.178951 0.376163
0.000000 0.198476 0.420060
0.000000 0.206660 0.449840
0.000000 0.202337 0.463679
0.000000 0.184284 0.459757
0.000000 0.151209 0.436258
0.000000 0.101761 0.391371
0.000000 0.034525 0.323289
0.000000 0.000000 0.230207
0.000000 0.000000 0.110325
0.000000 0.000000 0.000000
0.000000 0.000000 0.000000
0.000000 0.000000 0.000000
0.000000 0.000000 0.000000
0.000000 0.000000 0.000000
0.000000 0.000000 0.000000
0.000000 0.000000 0.000000
0.000000 0.000000 0.000000
0.000000 0.000000 0.000000
0.000000 0.000000 0.000000
0.000000 0.000000 0.000000
0.000000 0.000000 0.000000
0.000000 0.000000 0.000000
0.000000 0.000000 0.000000
0.000000 0.000000 0.000000
0.000000 0.000000 0.000000
0.000000 0.000000 0.000000
0.000000 0.000000 0.000000
0.000000 0.000000 0.000000
0.000000 0.006023 0.073349
0.000000 0.063262 0.157801
0.000000 0.112502 0.235111
0.000000 0.152804 0.303408
0.000000 0.183168 0.360824
0.000000 0.202530 0.405496
0.000000 0.209762 0.435567
0.000000 0.203675 0.449180
0.000000 0.183016 0.444484
0.000000 0.146470 0.419633
0.000000 0.092658 0.372782
0.000000 0.020139 0.302094
0.000000 0.000000 0.205732
0.000000 0.000000 0.081866
0.000000 0.000000 0.000000
0.000000 0.000000 0.000000
0.000000 0.000000 0.000000
0.000000 0.000000 0.000000
0.000000 0.000000 0.000000
0.000000 0.000000 0.000000
0.000000 0.000000 0.000000
0.000000 0.000000 0.000000
0.000000 0.000000 0.000000
0.000000 0.000000 0.000000
0.000000 0.000000 0.000000
0.000000 0.000000 0.000000
0.000000 0.000000 0.000000
0.000000 0.000000 0.000000
0.000000 0.000000 0.000000
0.000000 0.000000 0.000000
0.000000 0.000000 0.000000
0.000000 0.000000 0.000000
0.000000 0.000000 0.000000
0.000000 0.000000 0.057382
0.000000 0.059838 0.144166
0.000000 0.111062 0.223448
0.000000 0.152614 0.293326
0.000000 0.183469 0.351901
0.000000 0.202536 0.397280
0.000000 0.208662 0.427570
0.000000 0.200630 0.440887
0.000000 0.177162 0.435346
0.000000 0.136915 0.409070
0.000000 0.078485 0.360184
0.000000 0.000404 0.286817
0.000000 0.000000 0.187102
0.000000 0.000000 0.059177
0.000000 0.000000 0.000000
0.000000 0.000000 0.000000
0.000000 0.000000 0.000000
0.000000 0.000000 0.000000
0.000000 0.000000 0.000000
0.000000 0.000000 0.000000
0.000000 0.000000 0.000000
0.000000 0.000000 0.000000
0.000000 0.000000 0.000000
0.000000 0.000000 0.000000
0.000000 0.000000 0.000000
0.000000 0.000000 0.000000
0.000000 0.000000 0.000000
0.000000 0.000000 0.000000
0.000000 0.000000 0.000000
0.000000 0.000000 0.000000
0.000000 0.000000 0.000000
0.000000 0.000000 0.000000
0.000000 0.000000 0.000000
0.000000 0.000000 0.049563
0.000000 0.051625 0.138599
0.000000 0.104780 0.219774
0.000000 0.147507 0.291154
0.000000 0.178752 0.350808
0.000000 0.197399 0.396811
0.000000 0.202268 0.427241
0.000000 0.192117 0.440179
0.000000 0.165640 0.433711
0.000000 0.121469 0.405928
0.000000 0.058172 0.354922
0.000000 0.000000 0.278792
0.000000 0.000000 0.175640
0.000000 0.000000 0.043571
0.000000 0.000000 0.000000
0.000000 0.000000 0.000000
0.000000 0.000000 0.000000
0.000000 0.000000 0.000000
0.000000 0.000000 0.000000
0.000000 0.000000 0.000000
0.000000 0.000000 0.000000
0.000000 0.000000 0.000000
0.000000 0.000000 0.000000
0.000000 0.000000 0.000000
0.000000 0.000000 0.000000
0.000000 0.000000 0.000000
0.000000 0.000000 0.000000
0.000000 0.000000 0.000000
0.000000 0.000000 0.000000
0.000000 0.000000 0.000000
0.000000 0.000000 0.000000
0.000000 0.000000 0.000000
0.000000 0.000000 0.000000
0.000000 0.000000 0.051493
0.000000 0.037419 0.142692
0.000000 0.092460 0.225670
0.000000 0.136291 0.298460
0.000000 0.167831 0.359102
0.000000 0.185938 0.405638
0.000000 0.189406 0.436114
0.000000 0.176966 0.448580
0.000000 0.147287 0.441092
0.000000 0.098973 0.411707
0.000000 0.030568 0.358488
0.000000 0.000000 0.279500
0.000000 0.000000 0.172815
0.000000 0.000000 0.036505
0.000000 0.000000 0.000000
0.000000 0.000000 0.000000
0.000000 0.000000 0.000000
0.000000 0.000000 0.000000
0.000000 0.000000 0.000000
0.000000 0.000000 0.000000
0.000000 0.000000 0.000000
0.000000 0.000000 0.000000
0.000000 0.000000 0.000000
0.000000 0.000000 0.000000
0.000000 0.000000 0.000000
0.000000 0.000000 0.000000
0.000000 0.000000 0.000000
0.000000 0.000000 0.000000
0.000000 0.000000 0.000000
0.000000 0.000000 0.000000
0.000000 0.000000 0.000000
0.000000 0.000000 0.000000
0.000000 0.000000 0.000000
0.000000 0.000000 0.064922
0.000000 0.015934 0.158184
0.000000 0.072820 0.242863
0.000000 0.117689 0.316962
0.000000 0.149435 0.378489
0.000000 0.166888 0.425454
0.000000 0.168816 0.455873
0.000000 0.153924 0.467764
0.000000 0.120854 0.459151
0.000000 0.068186 0.428059
0.000000 0.000000 0.372520
0.000000 0.000000 0.290568
0.000000 0.000000 0.180243
0.000000 0.000000 0.039586
0.000000 0.000000 0.000000
0.000000 0.000000 0.000000
0.000000 0.000000 0.000000
0.000000 0.000000 0.000000
0.000000 0.000000 0.000000
0.000000 0.000000 0.000000
0.000000 0.000000 0.000000
0.000000 0.000000 0.000000
0.000000 0.000000 0.000000
0.000000 0.000000 0.000000
0.000000 0.000000 0.000000
0.000000 0.000000 0.000000
0.000000 0.000000 0.000000
0.000000 0.000000 0.000000
0.000000 0.000000 0.000000
0.000000 0.000000 0.000000
0.000000 0.000000 0.000000
0.000000 0.000000 0.000000
0.000000 0.000000 0.000000
0.000000 0.000000 0.091748
0.000000 0.000000 0.186959
0.000000 0.044493 0.273227
0.000000 0.090341 0.348522
0.000000 0.122209 0.410820
0.000000 0.138899 0.458101
0.000000 0.139154 0.488348
0.000000 0.121653 0.499549
0.000000 0.085010 0.489694
0.000000 0.027779 0.456780
0.000000 0.000000 0.398804
0.000000 0.000000 0.313772
0.000000 0.000000 0.199689
0.000000 0.000000 0.054566
0.000000 0.000000 0.000000
0.000000 0.000000 0.000000
0.000000 0.000000 0.000000
0.000000 0.000000 0.000000
0.000000 0.000000 0.000000
0.000000 0.000000 0.000000
0.000000 0.000000 0.000000
0.000000 0.000000 0.000000
0.000000 0.000000 0.000000
0.000000 0.000000 0.000000
0.000000 0.000000 0.000000
0.000000 0.000000 0.000000
0.000000 0.000000 0.000000
0.000000 0.000000 0.000000
0.000000 0.000000 0.000000
0.000000 0.000000 0.000000
0.000000 0.000000 0.000000
0.000000 0.000000 0.000000
0.000000 0.000000 0.029732
0.000000 0.000000 0.134012
0.000000 0.000000 0.231051
0.000000 0.006031 0.318783
0.000000 0.052804 0.395150
0.000000 0.084714 0.458095
0.000000 0.100539 0.505567
0.000000 0.098994 0.535516
0.000000 0.078731 0.545900
0.000000 0.038339 0.534678
0.000000 0.000000 0.499813
0.000000 0.000000 0.439273
0.000000 0.000000 0.351031
0.000000 0.000000 0.233062
0.000000 0.000000 0.083345
0.000000 0.000000 0.000000
0.000000 0.000000 0.000000
0.000000 0.000000 0.000000
0.000000 0.000000 0.000000
0.000000 0.000000 0.000000
0.000000 0.000000 0.000000
0.000000 0.000000 0.000000
0.000000 0.000000 0.000000
0.000000 0.000000 0.000000
0.000000 0.000000 0.000000
0.000000 0.000000 0.000000
0.000000 0.000000 0.000000
0.000000 0.000000 0.000000
0.000000 0.000000 0.000000
0.000000 0.000000 0.000000
0.000000 0.000000 0.000000
0.000000 0.000000 0.000000
0.000000 0.000000 0.000000
0.000000 0.000000 0.087603
0.000000 0.000000 0.193907
0.000000 0.000000 0.292637
0.000000 0.000000 0.381700
0.000000 0.003549 0.459004
0.000000 0.035430 0.522460
0.000000 0.050291 0.569986
0.000000 0.046823 0.599501
0.000000 0.023652 0.608930
0.000000 0.000000 0.596202
0.000000 0.000000 0.559249
0.000000 0.000000 0.496007
0.000000 0.000000 0.404415
0.000000 0.000000 0.282420
0.000000 0.000000 0.127967
0.000000 0.000000 0.000000
0.000000 0.000000 0.000000
0.000000 0.000000 0.000000
0.000000 0.000000 0.000000
0.000000 0.000000 0.000000
0.000000 0.000000 0.000000
0.000000 0.000000 0.000000
0.000000 0.000000 0.000000
0.000000 0.000000 0.000000
0.000000 0.000000 0.000000
0.000000 0.000000 0.000000
0.000000 0.000000 0.000000
0.000000 0.000000 0.000000
0.000000 0.000000 0.000000
0.000000 0.000000 0.000000
0.000000 0.000000 0.000000
0.000000 0.000000 0.000000
0.000000 0.000000 0.051629
0.000000 0.000000 0.165585
0.000000 0.000000 0.273767
0.000000 0.000000 0.374046
0.000000 0.000000 0.464293
0.000000 0.000000 0.542386
0.000000 0.000000 0.606207
0.000000 0.000000 0.653639
0.000000 0.000000 0.682573
0.000000 0.000000 0.690900
0.000000 0.000000 0.676517
0.000000 0.000000 0.637326
0.000000 0.000000 0.571230
0.000000 0.000000 0.476140
0.000000 0.000000 0.349966
0.000000 0.000000 0.190627
0.000000 0.000000 0.000000
0.000000 0.000000 0.000000
0.000000 0.000000 0.000000
0.000000 0.000000 0.000000
0.000000 0.000000 0.000000
0.000000 0.000000 0.000000
0.000000 0.000000 0.000000
0.000000 0.000000 0.000000
0.000000 0.000000 0.000000
0.000000 0.000000 0.000000
0.000000 0.000000 0.000000
0.000000 0.000000 0.000000
0.000000 0.000000 0.000000
0.000000 0.000000 0.000000
0.000000 0.000000 0.000000
0.000000 0.000000 0.000000
0.000000 0.000000 0.030307
0.029777 0.000000 0.150194
0.069413 0.000000 0.266173
0.093178 0.000000 0.376078
0.099360 0.000000 0.477748
0.086208 0.000000 0.569023
0.051933 0.000000 0.647749
0.000000 0.000000 0.711776
0.000000 0.000000 0.758957
0.000000 0.000000 0.787149
0.000000 0.000000 0.794214
0.000000 0.000000 0.778017
0.000000 0.000000 0.736427
0.000000 0.000000 0.667317
0.000000 0.000000 0.568566
0.000000 0.000000 0.438053
0.000000 0.000000 0.273664
0.000000 0.000000 0.073288
0.000000 0.000000 0.000000
0.000000 0.000000 0.000000
0.000000 0.000000 0.000000
0.000000 0.000000 0.000000
0.000000 0.000000 0.000000
0.000000 0.000000 0.000000
0.000000 0.000000 0.000000
0.000000 0.000000 0.000000
0.000000 0.000000 0.000000
0.000000 0.000000 0.000000
0.000000 0.000000 0.000000
0.000000 0.000000 0.000000
0.000000 0.000000 0.000000
0.042161 0.000000 0.000000
0.119335 0.000000 0.028173
0.184585 0.000000 0.152160
0.236273 0.000000 0.274173
0.272718 0.000000 0.392009
0.292205 0.000000 0.503470
0.292973 0.000000 0.606364
0.273225 0.000000 0.698499
0.231123 0.000000 0.777689
0.164788 0.000000 0.841753
0.072303 0.000000 0.888513
0.000000 0.000000 0.915794
0.000000 0.000000 0.921426
0.000000 0.000000 0.903243
0.000000 0.000000 0.859083
0.000000 0.000000 0.786788
0.000000 0.000000 0.684203
0.000000 0.000000 0.549177
0.000000 0.000000 0.379565
0.000000 0.000000 0.173223
0.000000 0.000000 0.000000
0.000000 0.000000 0.000000
0.000000 0.000000 0.000000
0.000000 0.000000 0.000000
0.000000 0.000000 0.000000
0.000000 0.000000 0.000000
0.000000 0.000000 0.000000
0.000000 0.000000 0.000000
0.000000 0.000000 0.000000
0.000000 0.000000 0.000000
0.010889 0.000000 0.000000
0.116413 0.000000 0.000000
0.213866 0.000000 0.000000
0.301681 0.000000 0.050077
0.378253 0.000000 0.176229
0.441934 0.000000 0.302404
0.491040 0.000000 0.426366
0.523843 0.000000 0.545882
0.538578 0.000000 0.658722
0.533438 0.000000 0.762660
0.506579 0.000000 0.855476
0.456114 0.000000 0.934951
0.380118 0.000000 0.998872
0.276625 0.000000 1.000000
0.143630 0.000000 1.000000
0.000000 0.000000 1.000000
0.000000 0.000000 1.000000
0.000000 0.000000 1.000000
0.000000 0.000000 0.932309
0.000000 0.000000 0.825706
0.000000 0.000000 0.685983
0.000000 0.000000 0.510963
0.000000 0.000000 0.298471
0.000000 0.000000 0.046338
0.000000 0.000000 0.000000
0.000000 0.000000 0.000000
0.000000 0.000000 0.000000
0.000000 0.000000 0.000000
0.000000 0.000000 0.000000
0.000000 0.000000 0.000000
0.000000 0.000000 0.000000
0.087793 0.000000 0.000000
0.208142 0.000000 0.000000
0.322684 0.000000 0.000000
0.429885 0.000000 0.000000
0.528172 0.000000 0.101192
0.615929 0.000000 0.227462
0.691504 0.000000 0.355821
0.753202 0.000000 0.483997
0.799290 0.000000 0.609721
0.827994 0.000000 0.730727
0.837501 0.000000 0.844756
0.825957 0.000000 0.949550
0.791469 0.000000 1.000000
0.732103 0.000000 1.000000
0.645886 0.000000 1.000000
0.530806 0.000000 1.000000
0.384808 0.000000 1.000000
0.205801 0.000000 1.000000
0.000000 0.000000 1.000000
0.000000 0.000000 1.000000
0.000000 0.000000 1.000000
0.000000 0.000000 0.995879
0.000000 0.000000 0.851264
0.000000 0.000000 0.670640
0.000000 0.000000 0.451801
0.000000 0.000000 0.192545
0.000000 0.000000 0.000000
0.000000 0.000000 0.000000
0.000000 0.000000 0.000000
0.000000 0.000000 0.000000
0.000000 0.000000 0.000000
0.000000 0.000000 0.000000
0.000000 0.000000 0.000000
0.455742 0.000000 0.000000
0.579018 0.000000 0.000000
0.695719 0.000000 0.069305
0.804262 0.000000 0.187006
0.903026 0.000000 0.311241
0.990349 0.000000 0.439697
1.000000 0.000000 0.570066
1.000000 0.000000 0.700044
1.000000 0.000000 0.827330
1.000000 0.000000 0.949628
1.000000 0.000000 1.000000
1.000000 0.000000 1.000000
1.000000 0.000000 1.000000
1.000000 0.000000 1.000000
0.967509 0.000000 1.000000
0.840258 0.000000 1.000000
0.680655 0.000000 1.000000
0.486558 0.000000 1.000000
0.255789 0.000000 1.000000
0.000000 0.000000 1.000000
0.000000 0.000000 1.000000
0.000000 0.000000 1.000000
0.000000 0.000000 1.000000
0.000000 0.000000 0.861521
0.000000 0.000000 0.636128
0.000000 0.000000 0.369543
0.000000 0.000000 0.059538
