lrplugin/MindfulLensFilmEngine.lrplugin/profiles/luts/blue_velvet_cinestill_50d.cube
# Generated from ColorChecker fit
LUT_3D_SIZE 9
DOMAIN_MIN 0.0 0.0 0.0
DOMAIN_MAX 1.0 1.0 1.0
0.038758 0.000000 0.000000
0.000000 0.000000 0.000000
0.000000 0.000000 0.035625
0.000000 0.000000 0.117665
0.000000 0.000000 0.219855
0.000000 0.000000 0.314895
0.000000 0.000000 0.360466
0.000000 0.000000 0.299232
0.000000 0.000000 0.058835
0.173216 0.004000 0.240778
0.104897 0.006183 0.271055
0.000000 0.000000 0.333362
0.000000 0.000000 0.429240
0.000000 0.000000 0.545212
0.000000 0.000000 0.652780
0.000000 0.000000 0.708431
0.000000 0.000000 0.653630
0.000000 0.000000 0.414824
0.223371 0.087808 0.395709
0.172984 0.107423 0.429332
0.118905 0.107494 0.496638
0.034178 0.074546 0.597972
0.000000 0.005435 0.718661
0.000000 0.000000 0.829010
0.000000 0.000000 0.884308
0.000000 0.000000 0.824824
0.000000 0.000000 0.575808
0.227212 0.127941 0.474844
0.184593 0.167110 0.505734
0.164175 0.211542 0.571278
0.130003 0.236625 0.670624
0.058678 0.228077 0.787900
0.000000 0.181943 0.892217
0.000000 0.104595 0.937665
0.000000 0.012735 0.863317
0.000000 0.000000 0.593226
0.246042 0.136463 0.557768
0.205456 0.201785 0.580784
0.205677 0.288505 0.638741
0.201750 0.360876 0.729588
0.161278 0.393474 0.836259
0.064424 0.371208 0.926666
0.000000 0.289311 0.953704
0.000000 0.153346 0.855247
0.000000 0.000000 0.554152
0.364477 0.123311 0.759702
0.324616 0.225866 0.770639
0.336881 0.357283 0.816118
0.347318 0.470674 0.892893
0.314532 0.529482 0.982701
0.209685 0.507473 1.000000
0.016497 0.388746 1.000000
0.000000 0.167724 0.922382
0.000000 0.000000 0.581290
0.690449 0.096304 1.000000
0.654434 0.251649 1.000000
0.674576 0.434648 1.000000
0.687924 0.587276 1.000000
0.644083 0.661834 1.000000
0.505217 0.620953 1.000000
0.246047 0.437592 1.000000
0.000000 0.095037 1.000000
0.000000 0.000000 0.832979
1.000000 0.061134 1.000000
1.000000 0.289308 1.000000
1.000000 0.535255 1.000000
1.000000 0.729811 1.000000
1.000000 0.814141 1.000000
1.000000 0.739736 1.000000
0.750365 0.468418 1.000000
0.215051 0.000000 1.000000
0.000000 0.000000 1.000000
1.000000 0.021376 1.000000
1.000000 0.346894 1.000000
1.000000 0.671633 1.000000
1.000000 0.915290 1.000000
1.000000 1.000000 1.000000
1.000000 0.889791 1.000000
1.000000 0.511671 1.000000
1.000000 0.000000 1.000000
0.035256 0.000000 1.000000
0.093463 0.004872 0.000000
0.030810 0.003090 0.000000
0.000000 0.000000 0.000000
0.000000 0.000000 0.030822
0.000000 0.000000 0.127963
0.000000 0.000000 0.232072
0.000000 0.000000 0.303173
0.000000 0.000000 0.286267
0.000000 0.000000 0.111340
0.219318 0.152074 0.198205
0.173373 0.151926 0.200560
0.129043 0.134127 0.241431
0.061147 0.089843 0.324698
0.000000 0.020568 0.439226
0.000000 0.000000 0.558856
0.000000 0.000000 0.642415
0.000000 0.000000 0.633708
0.000000 0.000000 0.461523
0.264526 0.249782 0.318212
0.224253 0.253479 0.328552
0.216654 0.271543 0.378447
0.207547 0.284004 0.470584
0.175311 0.281217 0.592627
0.110881 0.263867 0.717224
0.017750 0.242966 0.802002
0.000000 0.239855 0.789571
0.000000 0.286202 0.607520
0.264312 0.310126 0.358674
0.223102 0.324356 0.370114
0.238337 0.376300 0.421467
0.266838 0.434850 0.514220
0.277984 0.479223 0.634844
0.253710 0.498965 0.754787
0.188512 0.493951 0.830482
0.089441 0.474382 0.803339
0.000000 0.460790 0.599752
0.277211 0.343113 0.398157
0.232883 0.379043 0.404749
0.261485 0.467363 0.450927
0.310839 0.565825 0.536982
0.341325 0.642508 0.648187
0.325881 0.675821 0.754793
0.250001 0.654500 0.812035
0.111739 0.577609 0.760130
0.000000 0.454540 0.524272
0.385075 0.356628 0.550862
0.339877 0.429905 0.547593
0.376806 0.561575 0.582900
0.434687 0.698251 0.655876
0.464900 0.796875 0.750597
0.431384 0.824716 0.836118
0.310636 0.759374 0.866477
0.091709 0.588774 0.780692
0.000000 0.311170 0.502763
0.693068 0.356432 0.966619
0.653675 0.487182 0.949414
0.698321 0.673655 0.969089
0.756830 0.851327 1.000000
0.771585 0.966000 1.000000
0.697525 0.973808 1.000000
0.502149 0.841209 1.000000
0.165511 0.544992 1.000000
0.000000 0.072272 0.692544
1.000000 0.346164 1.000000
1.000000 0.558992 1.000000
1.000000 0.816202 1.000000
1.000000 1.000000 1.000000
1.000000 1.000000 1.000000
1.000000 1.000000 1.000000
0.979588 0.930519 1.000000
0.492621 0.481257 1.000000
0.000000 0.000000 1.000000
1.000000 0.327342 1.000000
1.000000 0.651332 1.000000
1.000000 0.999689 1.000000
1.000000 1.000000 1.000000
1.000000 1.000000 1.000000
1.000000 1.000000 1.000000
1.000000 1.000000 1.000000
1.000000 0.430439 1.000000
0.315671 0.000000 1.000000
0.177030 0.102079 0.000000
0.115787 0.083722 0.000000
0.055456 0.039519 0.000000
0.000000 0.000000 0.000000
0.000000 0.000000 0.064112
0.000000 0.000000 0.168031
0.000000 0.000000 0.252020
0.000000 0.000000 0.263424
0.000000 0.000000 0.134565
0.289327 0.250233 0.188564
0.229998 0.215521 0.167623
0.207808 0.194195 0.188302
0.190350 0.170920 0.256825
0.157777 0.140693 0.364393
0.102801 0.108839 0.487191
0.030690 0.091008 0.586384
0.000000 0.113181 0.608118
0.000000 0.211665 0.483519
0.322777 0.355805 0.274807
0.257882 0.311516 0.266855
0.259062 0.311170 0.300951
0.284914 0.328296 0.382121
0.306591 0.346752 0.500371
0.307806 0.360724 0.630687
0.284829 0.374725 0.733038
0.246485 0.403598 0.752372
0.214159 0.472511 0.618621
0.309837 0.428869 0.277268
0.236322 0.386258 0.274615
0.250532 0.409477 0.313754
0.302066 0.460915 0.398514
0.353079 0.513293 0.517703
0.378284 0.549659 0.645111
0.364951 0.563387 0.739510
0.312910 0.558182 0.744652
0.234545 0.548075 0.589269
0.306278 0.477377 0.273493
0.225517 0.452180 0.269385
0.246845 0.506026 0.306129
0.310862 0.590167 0.386356
0.370723 0.666186 0.497678
0.392145 0.705991 0.612688
0.353397 0.691820 0.688961
0.245311 0.616239 0.669052
0.071272 0.482141 0.480497
0.391185 0.507159 0.376663
0.308980 0.519589 0.365281
0.335941 0.615604 0.393127
0.403669 0.735318 0.461634
0.456322 0.829175 0.557218
0.450614 0.857945 0.651276
0.355820 0.792729 0.700185
0.153769 0.614952 0.645302
0.000000 0.316372 0.412968
0.666958 0.521920 0.735590
0.593539 0.596672 0.712050
0.629077 0.750877 0.725430
0.696173 0.913513 0.775967
0.729986 1.000000 0.848879
0.678232 1.000000 0.914365
0.501186 0.896694 0.927606
0.171680 0.589382 0.828764
0.000000 0.090307 0.542981
1.000000 0.523247 1.000000
1.000000 0.689492 1.000000
1.000000 0.922388 1.000000
1.000000 1.000000 1.000000
1.000000 1.000000 1.000000
1.000000 1.000000 1.000000
0.941778 1.000000 1.000000
0.455754 0.572467 1.000000
0.000000 0.000000 1.000000
1.000000 0.510600 1.000000
1.000000 0.801990 1.000000
1.000000 1.000000 1.000000
1.000000 1.000000 1.000000
1.000000 1.000000 1.000000
1.000000 1.000000 1.000000
1.000000 1.000000 1.000000
1.000000 0.595022 1.000000
0.221499 0.000000 1.000000
0.301890 0.175899 0.033438
0.222024 0.128607 0.000000
0.177752 0.083628 0.000000
0.138445 0.030269 0.000000
0.086030 0.000000 0.044522
0.014994 0.000000 0.141889
0.000000 0.000000 0.229028
0.000000 0.000000 0.255620
0.000000 0.000000 0.156331
0.401756 0.323657 0.218999
0.310034 0.242187 0.182285
0.288010 0.200799 0.186919
0.296055 0.177663 0.241462
0.307098 0.161275 0.339458
0.306628 0.150461 0.459430
0.292688 0.154374 0.564883
0.275882 0.192495 0.604304
0.279369 0.294633 0.511159
0.422716 0.434290 0.275160
0.315212 0.329986 0.256808
0.304221 0.294862 0.279617
0.341118 0.295948 0.350953
0.389832 0.310604 0.463162
0.426853 0.326517 0.593570
0.441226 0.341700 0.704486
0.434556 0.364498 0.743199
0.421002 0.413582 0.641979
0.394463 0.515817 0.242816
0.271677 0.404503 0.234328
0.264934 0.382793 0.266133
0.316610 0.406581 0.344397
0.381635 0.442087 0.460270
0.427501 0.465861 0.589882
0.434253 0.464777 0.694345
0.394498 0.436043 0.719750
0.313397 0.387190 0.597171
0.370000 0.574135 0.198493
0.236861 0.476113 0.192309
0.232009 0.479449 0.224863
0.288819 0.528896 0.301127
0.353225 0.579538 0.411052
0.383716 0.596786 0.529571
0.351343 0.556377 0.616600
0.239710 0.444380 0.617033
0.044982 0.257187 0.460746
0.425647 0.613018 0.254350
0.291514 0.553070 0.243844
0.290622 0.597560 0.269839
0.347350 0.680105 0.336109
0.398632 0.744648 0.431409
0.393959 0.745463 0.529475
0.295382 0.647149 0.589025
0.077508 0.424637 0.553756
0.000000 0.063181 0.352350
0.661038 0.634119 0.558179
0.539694 0.641506 0.537662
0.549262 0.747739 0.550724
0.605119 0.875296 0.599943
0.635202 0.956984 0.672876
0.580003 0.935938 0.742063
0.392573 0.765620 0.765024
0.038521 0.409819 0.684262
0.000000 0.000000 0.427258
1.000000 0.636966 1.000000
1.000000 0.745427 1.000000
1.000000 0.938471 1.000000
1.000000 1.000000 1.000000
1.000000 1.000000 1.000000
1.000000 1.000000 1.000000
0.792431 0.938192 1.000000
0.276694 0.430811 1.000000
0.000000 0.000000 0.876380
1.000000 0.618967 1.000000
1.000000 0.866721 1.000000
1.000000 1.000000 1.000000
1.000000 1.000000 1.000000
1.000000 1.000000 1.000000
1.000000 1.000000 1.000000
1.000000 1.000000 1.000000
0.969283 0.516372 1.000000
0.000000 0.000000 1.000000
0.456474 0.231747 0.115546
0.354704 0.163197 0.039147
0.320245 0.120780 0.000559
0.315245 0.087305 0.011878
0.314408 0.055910 0.070186
0.304998 0.030058 0.157543
0.286835 0.023542 0.240990
0.272296 0.060482 0.272552
0.286318 0.175328 0.189232
0.551117 0.380994 0.281426
0.424742 0.260608 0.239366
0.397661 0.202664 0.235000
0.423022 0.178832 0.279230
0.466532 0.171112 0.367940
0.506455 0.171828 0.481992
0.533612 0.183637 0.587232
0.551382 0.219520 0.634486
0.575703 0.302787 0.559562
0.564939 0.497119 0.313715
0.413587 0.340808 0.295755
0.386225 0.274577 0.314689
0.427002 0.258955 0.380224
0.492625 0.264805 0.487044
0.552361 0.273313 0.614817
0.588032 0.275997 0.728191
0.594018 0.274701 0.776796
0.577257 0.281596 0.695241
0.524865 0.586085 0.252287
0.352592 0.414242 0.249123
0.321717 0.351441 0.281371
0.367392 0.347076 0.357539
0.437325 0.360870 0.471115
0.491782 0.362872 0.600570
0.503588 0.333461 0.709356
0.458124 0.263343 0.745904
0.353329 0.153552 0.643629
0.481134 0.651736 0.172649
0.296424 0.489229 0.175914
0.263235 0.446057 0.212424
0.307717 0.460474 0.289489
0.368583 0.481065 0.399403
0.397098 0.466742 0.519437
0.357089 0.386745 0.611847
0.224938 0.220642 0.623868
0.000000 0.000000 0.487717
0.507299 0.695790 0.185939
0.323065 0.571969 0.188201
0.293185 0.569102 0.220857
0.334815 0.614305 0.290021
0.377664 0.645027 0.386788
0.364002 0.609039 0.487234
0.248655 0.464443 0.552417
0.000000 0.179671 0.528375
0.000000 0.000000 0.346129
0.700228 0.717844 0.438929
0.533809 0.666537 0.433692
0.517294 0.729131 0.455314
0.558836 0.821605 0.508712
0.579149 0.870267 0.583785
0.511502 0.811754 0.655411
0.301723 0.593028 0.683451
0.000000 0.171381 0.612747
0.000000 0.000000 0.373122
1.000000 0.715372 1.000000
1.000000 0.774886 1.000000
1.000000 0.932576 1.000000
1.000000 1.000000 1.000000
1.000000 1.000000 1.000000
0.981919 1.000000 1.000000
0.663042 0.796847 1.000000
0.103685 0.224600 1.000000
0.000000 0.000000 0.758586
1.000000 0.683727 1.000000
1.000000 0.896848 1.000000
1.000000 1.000000 1.000000
1.000000 1.000000 1.000000
1.000000 1.000000 1.000000
1.000000 1.000000 1.000000
1.000000 1.000000 1.000000
0.759963 0.366033 1.000000
0.000000 0.000000 1.000000
0.605216 0.258504 0.197118
0.495007 0.196409 0.121789
0.480865 0.179931 0.077849
0.517713 0.185379 0.079737
0.573032 0.199392 0.126874
0.626862 0.218934 0.203661
0.671800 0.251301 0.279478
0.713001 0.314113 0.308691
0.768177 0.435321 0.230642
0.707926 0.414359 0.352539
0.561386 0.282936 0.318459
0.540773 0.231978 0.315039
0.592013 0.226655 0.355523
0.673589 0.242467 0.438132
0.756541 0.265242 0.546072
0.824468 0.291136 0.647526
0.873525 0.326632 0.695661
0.912426 0.388543 0.628625
0.726042 0.539640 0.369690
0.546352 0.359369 0.365814
0.515165 0.285737 0.391186
0.569407 0.272777 0.457852
0.658562 0.284852 0.562836
0.744671 0.296650 0.688148
0.802334 0.293189 0.800774
0.818709 0.269816 0.852684
0.793509 0.232202 0.780828
0.683722 0.638257 0.287425
0.478494 0.434096 0.303643
0.437057 0.354076 0.347014
0.487337 0.341094 0.428384
0.569821 0.348372 0.543583
0.637550 0.339463 0.673421
0.656127 0.288245 0.783689
0.603709 0.178926 0.825161
0.471011 0.006042 0.733588
0.628439 0.711997 0.180230
0.409712 0.513382 0.207369
0.362777 0.447740 0.258880
0.406561 0.446828 0.344413
0.472552 0.452731 0.458600
0.504793 0.417863 0.581055
0.459888 0.304964 0.676373
0.306994 0.087104 0.694129
0.027830 0.000000 0.568878
0.630981 0.760523 0.158224
0.415222 0.601372 0.188046
0.371969 0.575352 0.238775
0.411150 0.603083 0.318864
0.455255 0.615510 0.421750
0.439328 0.553910 0.525849
0.310972 0.369886 0.594558
0.030349 0.025368 0.576255
0.000000 0.000000 0.404302
0.785450 0.781379 0.367158
0.593554 0.700087 0.392360
0.567591 0.743412 0.434320
0.608491 0.820836 0.500296
0.629744 0.852167 0.582526
0.557395 0.767542 0.658230
0.330051 0.507427 0.689608
0.000000 0.022614 0.623842
0.000000 0.000000 0.393095
1.000000 0.769982 0.988416
1.000000 0.809424 1.000000
1.000000 0.956297 1.000000
1.000000 1.000000 1.000000
1.000000 1.000000 1.000000
0.998552 1.000000 1.000000
0.661107 0.739881 1.000000
0.060973 0.105614 1.000000
0.000000 0.000000 0.724126
1.000000 0.719630 1.000000
1.000000 0.927160 1.000000
1.000000 1.000000 1.000000
1.000000 1.000000 1.000000
1.000000 1.000000 1.000000
1.000000 1.000000 1.000000
1.000000 1.000000 1.000000
0.688380 0.299019 1.000000
0.000000 0.000000 1.000000
0.688548 0.228518 0.237099
0.600117 0.220631 0.178698
0.633544 0.273505 0.141887
0.736528 0.356951 0.143445
0.869330 0.451109 0.185132
1.000000 0.546445 0.253689
1.000000 0.643755 0.320838
1.000000 0.754163 0.343282
1.000000 0.899118 0.262705
0.818697 0.399334 0.393807
0.683229 0.304792 0.383933
0.697359 0.304399 0.394307
0.799790 0.356825 0.440510
0.941780 0.431073 0.523107
1.000000 0.506472 0.627640
1.000000 0.572678 0.724636
1.000000 0.629677 0.769600
1.000000 0.687781 0.703020
0.858620 0.540670 0.407078
0.682853 0.384521 0.433880
0.677138 0.347234 0.478902
0.771177 0.376343 0.556532
0.907233 0.429712 0.666135
1.000000 0.475530 0.792058
1.000000 0.492318 0.903630
1.000000 0.468921 0.955159
1.000000 0.404516 0.885936
0.829709 0.654382 0.314747
0.624809 0.466152 0.367308
0.603127 0.412824 0.435380
0.685369 0.430797 0.532152
0.804796 0.466795 0.655793
0.907227 0.477870 0.789454
0.951041 0.431404 0.901266
0.907172 0.305105 0.944341
0.759112 0.087009 0.856772
0.776673 0.740201 0.190280
0.558234 0.553894 0.258619
0.528893 0.509859 0.339076
0.600356 0.533356 0.443642
0.696887 0.559971 0.569290
0.755306 0.535619 0.697972
0.724993 0.416543 0.796624
0.567882 0.169312 0.817161
0.258469 0.000000 0.696479
0.767533 0.795737 0.142774
0.555576 0.649836 0.217848
0.531311 0.644906 0.300961
0.597444 0.695066 0.402909
0.669240 0.724766 0.519466
0.674522 0.668782 0.631390
0.553669 0.472219 0.704418
0.259617 0.090508 0.689268
0.000000 0.000000 0.521640
0.893624 0.816476 0.316962
0.712600 0.753945 0.390660
0.710574 0.822410 0.467636
0.781253 0.924853 0.557489
0.830905 0.974584 0.654795
0.778351 0.895242 0.739115
0.554973 0.620793 0.774990
0.104709 0.095531 0.711942
0.000000 0.000000 0.484472
1.000000 0.795782 0.893204
1.000000 0.864063 0.958354
1.000000 1.000000 1.000000
1.000000 1.000000 1.000000
1.000000 1.000000 1.000000
1.000000 1.000000 1.000000
0.870123 0.882504 1.000000
0.248804 0.209101 1.000000
0.000000 0.000000 0.772823
1.000000 0.724897 1.000000
1.000000 0.975912 1.000000
1.000000 1.000000 1.000000
1.000000 1.000000 1.000000
1.000000 1.000000 1.000000
1.000000 1.000000 1.000000
1.000000 1.000000 1.000000
0.860863 0.453812 1.000000
0.000000 0.000000 1.000000
0.622905 0.097605 0.179208
0.603216 0.211715 0.156496
0.728213 0.397392 0.142195
0.938373 0.617950 0.155423
1.000000 0.847028 0.200281
1.000000 1.000000 0.265850
1.000000 1.000000 0.326191
1.000000 1.000000 0.340348
1.000000 1.000000 0.252346
0.805946 0.294969 0.351474
0.729537 0.305263 0.384933
0.823433 0.419051 0.424847
1.000000 0.588506 0.489138
1.000000 0.776131 0.580709
1.000000 0.954755 0.687445
1.000000 1.000000 0.782210
1.000000 1.000000 0.822851
1.000000 1.000000 0.752195
0.891271 0.462493 0.374650
0.768434 0.398587 0.451622
0.834237 0.461427 0.532409
1.000000 0.592049 0.633737
1.000000 0.741818 0.757311
1.000000 0.872425 0.889820
1.000000 0.955890 1.000000
1.000000 0.974563 1.000000
1.000000 0.921119 0.982539
0.897507 0.599978 0.285550
0.742965 0.495964 0.394312
0.788106 0.533278 0.503565
0.946413 0.641816 0.628839
1.000000 0.761805 0.770643
1.000000 0.843799 0.914467
1.000000 0.848680 1.000000
1.000000 0.747658 1.000000
1.000000 0.522272 0.987678
0.866597 0.705100 0.156619
0.699497 0.599552 0.286383
0.735840 0.641238 0.412633
0.880109 0.748920 0.549699
1.000000 0.851685 0.696893
1.000000 0.888950 0.838509
1.000000 0.810457 0.943822
1.000000 0.576280 0.967087
0.756253 0.156817 0.847541
0.863797 0.773415 0.095935
0.707716 0.709382 0.236851
0.751551 0.789821 0.369562
0.890784 0.922354 0.507200
1.000000 1.000000 0.647882
1.000000 1.000000 0.774704
1.000000 0.863651 0.855744
0.750896 0.487337 0.844060
0.238894 0.000000 0.677692
0.977675 0.798353 0.247208
0.860619 0.823366 0.390361
0.932663 0.981416 0.519933
1.000000 1.000000 0.647861
1.000000 1.000000 0.771063
1.000000 1.000000 0.871440
1.000000 1.000000 0.915871
0.595876 0.505614 0.856219
0.000000 0.000000 0.629327
1.000000 0.771223 0.789782
1.000000 0.937293 0.927192
1.000000 1.000000 1.000000
1.000000 1.000000 1.000000
1.000000 1.000000 1.000000
1.000000 1.000000 1.000000
1.000000 1.000000 1.000000
0.743425 0.653775 1.000000
0.000000 0.000000 0.889275
1.000000 0.681214 1.000000
1.000000 1.000000 1.000000
1.000000 1.000000 1.000000
1.000000 1.000000 1.000000
1.000000 1.000000 1.000000
1.000000 1.000000 1.000000
1.000000 1.000000 1.000000
1.000000 0.952360 1.000000
0.119477 0.000000 1.000000
0.300723 0.000000 0.000000
0.413490 0.128983 0.000000
0.690807 0.530952 0.013067
1.000000 0.967770 0.052867
1.000000 1.000000 0.112417
1.000000 1.000000 0.183139
1.000000 1.000000 0.241435
1.000000 1.000000 0.248687
1.000000 1.000000 0.151261
0.568189 0.043781 0.156561
0.615574 0.246904 0.255380
0.851010 0.558527 0.343481
1.000000 0.924327 0.441127
1.000000 1.000000 0.553561
1.000000 1.000000 0.671006
1.000000 1.000000 0.768669
1.000000 1.000000 0.806735
1.000000 1.000000 0.730372
0.728592 0.250859 0.205951
0.724444 0.367354 0.355486
0.924558 0.614141 0.491051
1.000000 0.925758 0.631711
1.000000 1.000000 0.781511
1.000000 1.000000 0.929480
1.000000 1.000000 1.000000
1.000000 1.000000 1.000000
1.000000 1.000000 1.000000
0.797795 0.424029 0.135903
0.760389 0.492556 0.323625
0.936171 0.704496 0.493441
1.000000 0.983247 0.663217
1.000000 1.000000 0.835804
1.000000 1.000000 0.999031
1.000000 1.000000 1.000000
1.000000 1.000000 1.000000
1.000000 1.000000 1.000000
0.814972 0.558913 0.017841
0.767013 0.622612 0.232158
0.933879 0.834172 0.423946
1.000000 1.000000 0.609878
1.000000 1.000000 0.791606
1.000000 1.000000 0.955763
1.000000 1.000000 1.000000
1.000000 1.000000 1.000000
1.000000 1.000000 0.983862
0.842614 0.649010 0.000000
0.811234 0.755500 0.189078
0.989029 1.000000 0.391498
1.000000 1.000000 0.581560
1.000000 1.000000 0.759720
1.000000 1.000000 0.911413
1.000000 1.000000 1.000000
1.000000 1.000000 1.000000
1.000000 0.708570 0.836781
0.966526 0.685696 0.101543
0.983283 0.887076 0.338010
1.000000 1.000000 0.540657
1.000000 1.000000 0.723759
1.000000 1.000000 0.886577
1.000000 1.000000 1.000000
1.000000 1.000000 1.000000
1.000000 1.000000 1.000000
0.712984 0.519521 0.794509
1.000000 0.658227 0.624319
1.000000 1.000000 0.858215
1.000000 1.000000 1.000000
1.000000 1.000000 1.000000
1.000000 1.000000 1.000000
1.000000 1.000000 1.000000
1.000000 1.000000 1.000000
1.000000 1.000000 1.000000
0.645123 0.476111 1.000000
1.000000 0.553733 1.000000
1.000000 1.000000 1.000000
1.000000 1.000000 1.000000
1.000000 1.000000 1.000000
1.000000 1.000000 1.000000
1.000000 1.000000 1.000000
1.000000 1.000000 1.000000
1.000000 1.000000 1.000000
1.000000 0.601303 1.000000
