lrplugin/MindfulLensFilmEngine.lrplugin/profiles/luts/blue_velvet_cinestill_50d.cube
# Generated from ColorChecker fit
LUT_3D_SIZE 5
DOMAIN_MIN 0.0 0.0 0.0
DOMAIN_MAX 1.0 1.0 1.0
0.038758 0.000000 0.000000
0.000000 0.000000 0.035625
0.000000 0.000000 0.219855
0.000000 0.000000 0.360466
0.000000 0.000000 0.058835
0.223371 0.087808 0.395709
0.118905 0.107494 0.496638
0.000000 0.005435 0.718661
0.000000 0.000000 0.884308
0.000000 0.000000 0.575808
0.246042 0.136463 0.557768
0.205677 0.288505 0.638741
0.161278 0.393474 0.836259
0.000000 0.289311 0.953704
0.000000 0.000000 0.554152
0.690449 0.096304 1.000000
0.674576 0.434648 1.000000
0.644083 0.661834 1.000000
0.246047 0.437592 1.000000
0.000000 0.000000 0.832979
1.000000 0.021376 1.000000
1.000000 0.671633 1.000000
1.000000 1.000000 1.000000
1.000000 0.511671 1.000000
0.035256 0.000000 1.000000
0.177030 0.102079 0.000000
0.055456 0.039519 0.000000
0.000000 0.000000 0.064112
0.000000 0.000000 0.252020
0.000000 0.000000 0.134565
0.322777 0.355805 0.274807
0.259062 0.311170 0.300951
0.306591 0.346752 0.500371
0.284829 0.374725 0.733038
0.214159 0.472511 0.618621
0.306278 0.477377 0.273493
0.246845 0.506026 0.306129
0.370723 0.666186 0.497678
0.353397 0.691820 0.688961
0.071272 0.482141 0.480497
0.666958 0.521920 0.735590
0.629077 0.750877 0.725430
0.729986 1.000000 0.848879
0.501186 0.896694 0.927606
0.000000 0.090307 0.542981
1.000000 0.510600 1.000000
1.000000 1.000000 1.000000
1.000000 1.000000 1.000000
1.000000 1.000000 1.000000
0.221499 0.000000 1.000000
0.456474 0.231747 0.115546
0.320245 0.120780 0.000559
0.314408 0.055910 0.070186
0.286835 0.023542 0.240990
0.286318 0.175328 0.189232
0.564939 0.497119 0.313715
0.386225 0.274577 0.314689
0.492625 0.264805 0.487044
0.588032 0.275997 0.728191
0.577257 0.281596 0.695241
0.481134 0.651736 0.172649
0.263235 0.446057 0.212424
0.368583 0.481065 0.399403
0.357089 0.386745 0.611847
0.000000 0.000000 0.487717
0.700228 0.717844 0.438929
0.517294 0.729131 0.455314
0.579149 0.870267 0.583785
0.301723 0.593028 0.683451
0.000000 0.000000 0.373122
1.000000 0.683727 1.000000
1.000000 1.000000 1.000000
1.000000 1.000000 1.000000
1.000000 1.000000 1.000000
0.000000 0.000000 1.000000
0.688548 0.228518 0.237099
0.633544 0.273505 0.141887
0.869330 0.451109 0.185132
1.000000 0.643755 0.320838
1.000000 0.899118 0.262705
0.858620 0.540670 0.407078
0.677138 0.347234 0.478902
0.907233 0.429712 0.666135
1.000000 0.492318 0.903630
1.000000 0.404516 0.885936
0.776673 0.740201 0.190280
0.528893 0.509859 0.339076
0.696887 0.559971 0.569290
0.724993 0.416543 0.796624
0.258469 0.000000 0.696479
0.893624 0.816476 0.316962
0.710574 0.822410 0.467636
0.830905 0.974584 0.654795
0.554973 0.620793 0.774990
0.000000 0.000000 0.484472
1.000000 0.724897 1.000000
1.000000 1.000000 1.000000
1.000000 1.000000 1.000000
1.000000 1.000000 1.000000
0.000000 0.000000 1.000000
0.300723 0.000000 0.000000
0.690807 0.530952 0.013067
1.000000 1.000000 0.112417
1.000000 1.000000 0.241435
1.000000 1.000000 0.151261
0.728592 0.250859 0.205951
0.924558 0.614141 0.491051
1.000000 1.000000 0.781511
1.000000 1.000000 1.000000
1.000000 1.000000 1.000000
0.814972 0.558913 0.017841
0.933879 0.834172 0.423946
1.000000 1.000000 0.791606
1.000000 1.000000 1.000000
1.000000 1.000000 0.983862
0.966526 0.685696 0.101543
1.000000 1.000000 0.540657
1.000000 1.000000 0.886577
1.000000 1.000000 1.000000
0.712984 0.519521 0.794509
1.000000 0.553733 1.000000
1.000000 1.000000 1.000000
1.000000 1.000000 1.000000
1.000000 1.000000 1.000000
1.000000 0.601303 1.000000
