lrplugin/MindfulLensFilmEngine.lrplugin/profiles/luts/blue_velvet_cinestill_50d.cube
# Generated from ColorChecker fit
LUT_3D_SIZE 33
DOMAIN_MIN 0.0 0.0 0.0
DOMAIN_MAX 1.0 1.0 1.0
0.038758 0.000000 0.000000
0.019835 0.000000 0.000000
0.000000 0.000000 0.000000
0.000000 0.000000 0.000000
0.000000 0.000000 0.000000
0.000000 0.000000 0.000000
0.000000 0.000000 0.006584
0.000000 0.000000 0.020032
0.000000 0.000000 0.035625
0.000000 0.000000 0.053317
0.000000 0.000000 0.073007
0.000000 0.000000 0.094530
0.000000 0.000000 0.117665
0.000000 0.000000 0.142133
0.000000 0.000000 0.167596
0.000000 0.000000 0.193655
0.000000 0.000000 0.219855
0.000000 0.000000 0.245682
0.000000 0.000000 0.270561
0.000000 0.000000 0.293863
0.000000 0.000000 0.314895
0.000000 0.000000 0.332908
0.000000 0.000000 0.347095
0.000000 0.000000 0.356590
0.000000 0.000000 0.360466
0.000000 0.000000 0.357740
0.000000 0.000000 0.347370
0.000000 0.000000 0.328253
0.000000 0.000000 0.299232
0.000000 0.000000 0.259085
0.000000 0.000000 0.206538
0.000000 0.000000 0.140253
0.000000 0.000000 0.058835
0.081476 0.000000 0.047056
0.063854 0.000000 0.050714
0.043052 0.000000 0.055611
0.018674 0.000000 0.062050
0.000000 0.000000 0.070274
0.000000 0.000000 0.080467
0.000000 0.000000 0.092755
0.000000 0.000000 0.107207
0.000000 0.000000 0.123831
0.000000 0.000000 0.142577
0.000000 0.000000 0.163336
0.000000 0.000000 0.185942
0.000000 0.000000 0.210168
0.000000 0.000000 0.235730
0.000000 0.000000 0.262284
0.000000 0.000000 0.289429
0.000000 0.000000 0.316704
0.000000 0.000000 0.343590
0.000000 0.000000 0.369509
0.000000 0.000000 0.393825
0.000000 0.000000 0.415841
0.000000 0.000000 0.434805
0.000000 0.000000 0.449904
0.000000 0.000000 0.460266
0.000000 0.000000 0.464962
0.000000 0.000000 0.463002
0.000000 0.000000 0.453341
0.000000 0.000000 0.434871
0.000000 0.000000 0.406429
0.000000 0.000000 0.366791
0.000000 0.000000 0.314675
0.000000 0.000000 0.248740
0.000000 0.000000 0.167588
0.117988 0.000000 0.119760
0.101428 0.000000 0.124049
0.082440 0.000000 0.129629
0.060594 0.000000 0.136798
0.035508 0.000000 0.145794
0.006848 0.000000 0.156797
0.000000 0.000000 0.169930
0.000000 0.000000 0.185254
0.000000 0.000000 0.202774
0.000000 0.000000 0.222434
0.000000 0.000000 0.244123
0.000000 0.000000 0.267668
0.000000 0.000000 0.292839
0.000000 0.000000 0.319346
0.000000 0.000000 0.346841
0.000000 0.000000 0.374918
0.000000 0.000000 0.403111
0.000000 0.000000 0.430897
0.000000 0.000000 0.457693
0.000000 0.000000 0.482858
0.000000 0.000000 0.505692
0.000000 0.000000 0.525437
0.000000 0.000000 0.541274
0.000000 0.000000 0.552329
0.000000 0.000000 0.557666
0.000000 0.000000 0.556293
0.000000 0.000000 0.547157
0.000000 0.000000 0.529148
0.000000 0.000000 0.501096
0.000000 0.000000 0.461775
0.000000 0.000000 0.409896
0.000000 0.000000 0.344115
0.000000 0.000000 0.263029
0.148476 0.000000 0.184268
0.132759 0.000000 0.189075
0.115337 0.000000 0.195222
0.095746 0.000000 0.203002
0.073567 0.000000 0.212650
0.048433 0.000000 0.224340
0.020024 0.000000 0.238190
0.000000 0.000000 0.254257
0.000000 0.000000 0.272541
0.000000 0.000000 0.292983
0.000000 0.000000 0.315464
0.000000 0.000000 0.339809
0.000000 0.000000 0.365782
0.000000 0.000000 0.393089
0.000000 0.000000 0.421377
0.000000 0.000000 0.450235
0.000000 0.000000 0.479194
0.000000 0.000000 0.507725
0.000000 0.000000 0.535240
0.000000 0.000000 0.561093
0.000000 0.000000 0.584581
0.000000 0.000000 0.604939
0.000000 0.000000 0.621347
0.000000 0.000000 0.632922
0.000000 0.000000 0.638727
0.000000 0.000000 0.637762
0.000000 0.000000 0.628972
0.000000 0.000000 0.611241
0.000000 0.000000 0.583396
0.000000 0.000000 0.544203
0.000000 0.000000 0.492372
0.000000 0.000000 0.426552
0.000000 0.000000 0.345335
0.173216 0.004000 0.240778
0.158138 0.009001 0.245993
0.142052 0.011170 0.252596
0.124456 0.010290 0.260874
0.104897 0.006183 0.271055
0.082972 0.000000 0.283313
0.058327 0.000000 0.297757
0.030657 0.000000 0.314442
0.000000 0.000000 0.333362
0.000000 0.000000 0.354454
0.000000 0.000000 0.377595
0.000000 0.000000 0.402604
0.000000 0.000000 0.429240
0.000000 0.000000 0.457206
0.000000 0.000000 0.486143
0.000000 0.000000 0.515637
0.000000 0.000000 0.545212
0.000000 0.000000 0.574335
0.000000 0.000000 0.602414
0.000000 0.000000 0.628799
0.000000 0.000000 0.652780
0.000000 0.000000 0.673590
0.000000 0.000000 0.690402
0.000000 0.000000 0.702330
0.000000 0.000000 0.708431
0.000000 0.000000 0.707702
0.000000 0.000000 0.699082
0.000000 0.000000 0.681451
0.000000 0.000000 0.653630
0.000000 0.000000 0.614382
0.000000 0.000000 0.562412
0.000000 0.000000 0.496363
0.000000 0.000000 0.414824
0.192572 0.029786 0.289629
0.177950 0.034874 0.295148
0.162985 0.037836 0.302098
0.147141 0.038410 0.310762
0.129931 0.036373 0.321364
0.110917 0.031546 0.334072
0.089708 0.023788 0.348992
0.065965 0.012999 0.366173
0.039397 0.000000 0.385606
0.009761 0.000000 0.407221
0.000000 0.000000 0.430892
0.000000 0.000000 0.456432
0.000000 0.000000 0.483597
0.000000 0.000000 0.512084
0.000000 0.000000 0.541530
0.000000 0.000000 0.571516
0.000000 0.000000 0.601561
0.000000 0.000000 0.631128
0.000000 0.000000 0.659621
0.000000 0.000000 0.686384
0.000000 0.000000 0.710702
0.000000 0.000000 0.731805
0.000000 0.000000 0.748859
0.000000 0.000000 0.760976
0.000000 0.000000 0.767207
0.000000 0.000000 0.766543
0.000000 0.000000 0.757921
0.000000 0.000000 0.740214
0.000000 0.000000 0.712240
0.000000 0.000000 0.672757
0.000000 0.000000 0.620464
0.000000 0.000000 0.554001
0.000000 0.000000 0.471951
0.207003 0.052200 0.331301
0.192668 0.057408 0.337021
0.178628 0.061160 0.344213
0.164312 0.063150 0.353155
0.149197 0.063114 0.364069
0.132811 0.060828 0.377115
0.114728 0.056107 0.392395
0.094574 0.048808 0.409955
0.072021 0.038827 0.429779
0.046792 0.026102 0.451794
0.018660 0.010610 0.475869
0.000000 0.000000 0.501812
0.000000 0.000000 0.529374
0.000000 0.000000 0.558248
0.000000 0.000000 0.588067
0.000000 0.000000 0.618405
0.000000 0.000000 0.648779
0.000000 0.000000 0.678646
0.000000 0.000000 0.707404
0.000000 0.000000 0.734394
0.000000 0.000000 0.758898
0.000000 0.000000 0.780137
0.000000 0.000000 0.797276
0.000000 0.000000 0.809421
0.000000 0.000000 0.815618
0.000000 0.000000 0.814855
0.000000 0.000000 0.806061
0.000000 0.000000 0.788108
0.000000 0.000000 0.759806
0.000000 0.000000 0.719911
0.000000 0.000000 0.667116
0.000000 0.000000 0.600057
0.000000 0.000000 0.517312
0.217057 0.071468 0.366409
0.202857 0.076844 0.372231
0.189563 0.081401 0.379565
0.176567 0.084790 0.388683
0.163312 0.086702 0.399801
0.149290 0.086869 0.413076
0.134040 0.085065 0.428605
0.117152 0.081102 0.446429
0.098264 0.074833 0.466528
0.077065 0.066152 0.488823
0.053290 0.054992 0.513179
0.026726 0.041328 0.539400
0.000000 0.025174 0.567233
0.000000 0.006585 0.596363
0.000000 0.000000 0.626421
0.000000 0.000000 0.656976
0.000000 0.000000 0.687540
0.000000 0.000000 0.717566
0.000000 0.000000 0.746446
0.000000 0.000000 0.773518
0.000000 0.000000 0.798057
0.000000 0.000000 0.819282
0.000000 0.000000 0.836352
0.000000 0.000000 0.848367
0.000000 0.000000 0.854370
0.000000 0.000000 0.853345
0.000000 0.000000 0.844215
0.000000 0.000000 0.825847
0.000000 0.000000 0.797048
0.000000 0.000000 0.756567
0.000000 0.000000 0.703094
0.000000 0.000000 0.635261
0.000000 0.000000 0.551639
0.223371 0.087808 0.395709
0.209174 0.093419 0.401541
0.196464 0.098813 0.408919
0.184598 0.103598 0.418112
0.172984 0.107423 0.429332
0.161078 0.109976 0.442731
0.148385 0.110986 0.458401
0.134460 0.110222 0.476378
0.118905 0.107494 0.496638
0.101374 0.102652 0.519098
0.081567 0.095586 0.543617
0.059235 0.086227 0.569995
0.034178 0.074546 0.597972
0.006244 0.060555 0.627233
0.000000 0.044304 0.657401
0.000000 0.025887 0.688041
0.000000 0.005435 0.718661
0.000000 0.000000 0.748707
0.000000 0.000000 0.777570
0.000000 0.000000 0.804581
0.000000 0.000000 0.829010
0.000000 0.000000 0.850072
0.000000 0.000000 0.866922
0.000000 0.000000 0.878654
0.000000 0.000000 0.884308
0.000000 0.000000 0.882861
0.000000 0.000000 0.873234
0.000000 0.000000 0.854287
0.000000 0.000000 0.824824
0.000000 0.000000 0.783588
0.000000 0.000000 0.729266
0.000000 0.000000 0.660483
0.000000 0.000000 0.575808
0.226677 0.101428 0.420099
0.212367 0.107358 0.425848
0.200095 0.113640 0.433176
0.189187 0.119838 0.442349
0.179012 0.125558 0.453572
0.168992 0.130444 0.466992
0.158598 0.134183 0.482700
0.147348 0.136498 0.500723
0.134811 0.137158 0.521035
0.120604 0.135968 0.543547
0.104393 0.132775 0.568113
0.085893 0.127467 0.594530
0.064869 0.119971 0.622533
0.041134 0.110254 0.651801
0.014551 0.098325 0.681953
0.000000 0.084233 0.712550
0.000000 0.068066 0.743094
0.000000 0.049954 0.773028
0.000000 0.030066 0.801737
0.000000 0.008612 0.828547
0.000000 0.000000 0.852725
0.000000 0.000000 0.873480
0.000000 0.000000 0.889962
0.000000 0.000000 0.901263
0.000000 0.000000 0.906414
0.000000 0.000000 0.904391
0.000000 0.000000 0.894108
0.000000 0.000000 0.874423
0.000000 0.000000 0.844132
0.000000 0.000000 0.801976
0.000000 0.000000 0.746635
0.000000 0.000000 0.676732
0.000000 0.000000 0.590829
0.227796 0.112530 0.440612
0.213273 0.118880 0.446191
0.201314 0.126117 0.453380
0.191206 0.133763 0.462439
0.182287 0.141377 0.473570
0.173941 0.148563 0.486915
0.165604 0.154962 0.502558
0.156761 0.160255 0.520524
0.146943 0.164167 0.540781
0.135733 0.166460 0.563237
0.122762 0.166937 0.587740
0.107711 0.165442 0.614082
0.090308 0.161858 0.641994
0.070332 0.156111 0.671149
0.047611 0.148165 0.701164
0.022020 0.138025 0.731593
0.000000 0.125736 0.761934
0.000000 0.111384 0.791625
0.000000 0.095096 0.820047
0.000000 0.077037 0.846521
0.000000 0.057414 0.870310
0.000000 0.036475 0.890617
0.000000 0.014507 0.906589
0.000000 0.000000 0.917311
0.000000 0.000000 0.921812
0.000000 0.000000 0.919061
0.000000 0.000000 0.907968
0.000000 0.000000 0.887387
0.000000 0.000000 0.856110
0.000000 0.000000 0.812871
0.000000 0.000000 0.756347
0.000000 0.000000 0.685156
0.000000 0.000000 0.597855
0.227640 0.121306 0.458423
0.212823 0.128195 0.463748
0.201066 0.136473 0.470711
0.191621 0.145616 0.479568
0.183790 0.155143 0.490515
0.176922 0.164612 0.503689
0.170419 0.173620 0.519171
0.163729 0.181808 0.536981
0.156350 0.188854 0.557082
0.147829 0.194477 0.579376
0.137761 0.198437 0.603708
0.125792 0.200536 0.629864
0.111616 0.200612 0.657571
0.094976 0.198547 0.686499
0.075664 0.194262 0.716258
0.053522 0.187718 0.746397
0.028439 0.178918 0.776412
0.000355 0.167904 0.805734
0.000000 0.154758 0.833740
0.000000 0.139603 0.859747
0.000000 0.122603 0.883012
0.000000 0.103961 0.902734
0.000000 0.083921 0.918055
0.000000 0.062767 0.928056
0.000000 0.040824 0.931761
0.000000 0.018456 0.928135
0.000000 0.000000 0.916083
0.000000 0.000000 0.894453
0.000000 0.000000 0.862033
0.000000 0.000000 0.817553
0.000000 0.000000 0.759686
0.000000 0.000000 0.687042
0.000000 0.000000 0.598178
0.227212 0.127941 0.474844
0.212038 0.135506 0.479836
0.200390 0.144926 0.486491
0.191486 0.155636 0.495059
0.184593 0.167110 0.505734
0.179027 0.178862 0.518648
0.174151 0.190448 0.533875
0.169380 0.201463 0.551433
0.164175 0.211542 0.571278
0.158050 0.220361 0.593309
0.150565 0.227637 0.617365
0.141330 0.233126 0.643230
0.130003 0.236625 0.670624
0.116293 0.237972 0.699212
0.099956 0.237044 0.728599
0.080800 0.233760 0.758332
0.058678 0.228077 0.787900
0.033496 0.219995 0.816731
0.005205 0.209552 0.844196
0.000000 0.196828 0.869606
0.000000 0.181943 0.892217
0.000000 0.165056 0.911221
0.000000 0.146369 0.925755
0.000000 0.126122 0.934897
0.000000 0.104595 0.937665
0.000000 0.082111 0.933019
0.000000 0.059032 0.919860
0.000000 0.035759 0.897032
0.000000 0.012735 0.863317
0.000000 0.000000 0.817442
0.000000 0.000000 0.758073
0.000000 0.000000 0.683818
0.000000 0.000000 0.593226
0.227608 0.132611 0.491328
0.212028 0.141005 0.495910
0.200414 0.151688 0.502177
0.191948 0.164051 0.510377
0.185862 0.177524 0.520695
0.181435 0.191579 0.533261
0.177997 0.205726 0.548144
0.174926 0.219518 0.565357
0.171651 0.232547 0.584852
0.167648 0.244445 0.606522
0.162442 0.254886 0.630203
0.155609 0.263581 0.655672
0.146771 0.270285 0.682646
0.135603 0.274791 0.710786
0.121825 0.276934 0.739692
0.105208 0.276589 0.768905
0.085574 0.273669 0.797909
0.062790 0.268130 0.826129
0.036775 0.259969 0.852931
0.007496 0.249220 0.877622
0.000000 0.235960 0.899450
0.000000 0.220305 0.917607
0.000000 0.202413 0.931222
0.000000 0.182481 0.939369
0.000000 0.160746 0.941062
0.000000 0.137486 0.935256
0.000000 0.113020 0.920848
0.000000 0.087707 0.896675
0.000000 0.061944 0.861517
0.000000 0.036172 0.814095
0.000000 0.010870 0.753071
0.000000 0.000000 0.677047
0.000000 0.000000 0.584569
0.230012 0.135483 0.509466
0.213998 0.144877 0.513566
0.202360 0.156961 0.519370
0.194245 0.171081 0.527122
0.188849 0.186623 0.537003
0.185418 0.203016 0.549138
0.183246 0.219727 0.563592
0.181677 0.236265 0.580371
0.180102 0.252178 0.599423
0.177963 0.267056 0.620639
0.174751 0.280527 0.643848
0.170005 0.292261 0.668822
0.163314 0.301968 0.695275
0.154315 0.309399 0.722862
0.142696 0.314344 0.751178
0.128192 0.316634 0.779761
0.110588 0.316141 0.808089
0.089718 0.312775 0.835583
0.065465 0.306491 0.861604
0.037761 0.297278 0.885454
0.006586 0.285171 0.906378
0.000000 0.270243 0.923560
0.000000 0.252606 0.936127
0.000000 0.232415 0.943148
0.000000 0.209864 0.943632
0.000000 0.185187 0.936529
0.000000 0.158659 0.920732
0.000000 0.130595 0.895073
0.000000 0.101351 0.858327
0.000000 0.071322 0.809210
0.000000 0.040945 0.746380
0.000000 0.010696 0.668436
0.000000 0.000000 0.573916
0.235701 0.136716 0.530990
0.219240 0.147301 0.534537
0.207537 0.160940 0.539808
0.199704 0.176937 0.547038
0.194902 0.194636 0.556405
0.192341 0.213421 0.568029
0.191280 0.232715 0.581970
0.191028 0.251985 0.598230
0.190941 0.270734 0.616753
0.190427 0.288509 0.637424
0.188940 0.304895 0.660067
0.185985 0.319518 0.684451
0.181115 0.332045 0.710285
0.173933 0.342182 0.737217
0.164090 0.349678 0.764840
0.151288 0.354318 0.792686
0.135275 0.355932 0.820230
0.115851 0.354387 0.846886
0.092863 0.349592 0.872011
0.066208 0.341495 0.894903
0.035833 0.330087 0.914802
0.001731 0.315396 0.930887
0.000000 0.297492 0.942282
0.000000 0.276486 0.948049
0.000000 0.252529 0.947193
0.000000 0.225810 0.938660
0.000000 0.196562 0.921338
0.000000 0.165056 0.894054
0.000000 0.131605 0.855579
0.000000 0.096559 0.804625
0.000000 0.060313 0.739843
0.000000 0.023299 0.659828
0.000000 0.000000 0.563115
0.246042 0.136463 0.557768
0.229139 0.148444 0.560699
0.217348 0.163811 0.565367
0.209745 0.181825 0.572005
0.205456 0.201785 0.580784
0.203656 0.223032 0.591821
0.203569 0.244947 0.605171
0.204469 0.266951 0.620831
0.205677 0.288505 0.638741
0.206564 0.309113 0.658779
0.206551 0.328315 0.680768
0.205106 0.345695 0.704470
0.201750 0.360876 0.729588
0.196047 0.373520 0.755769
0.187616 0.383332 0.782599
0.176122 0.390055 0.809606
0.161278 0.393474 0.836259
0.142850 0.393414 0.861969
0.120648 0.389739 0.886088
0.094536 0.382355 0.907909
0.064424 0.371208 0.926666
0.030271 0.356283 0.941537
0.000000 0.337607 0.951637
0.000000 0.315248 0.956026
0.000000 0.289311 0.953704
0.000000 0.259944 0.943611
0.000000 0.227336 0.924631
0.000000 0.191714 0.895588
0.000000 0.153346 0.855247
0.000000 0.112543 0.802314
0.000000 0.069651 0.735437
0.000000 0.025062 0.653206
0.000000 0.000000 0.554152
0.262495 0.134865 0.591811
0.245173 0.148466 0.594063
0.233287 0.165752 0.598065
0.225879 0.185938 0.604042
0.222040 0.208281 0.612165
0.220910 0.232079 0.622542
0.221677 0.256669 0.635226
0.223579 0.281429 0.650208
0.225904 0.305776 0.667424
0.227988 0.329169 0.686747
0.229215 0.351107 0.707995
0.229019 0.371128 0.730926
0.226884 0.388814 0.755239
0.222343 0.403782 0.780575
0.214975 0.415694 0.806515
0.204412 0.424250 0.832584
0.190333 0.429190 0.858244
0.172467 0.430296 0.882904
0.150591 0.427389 0.905909
0.124531 0.420332 0.926549
0.094163 0.409026 0.944053
0.059412 0.393414 0.957593
0.020251 0.373479 0.966281
0.000000 0.349244 0.969171
0.000000 0.320773 0.965260
0.000000 0.288170 0.953482
0.000000 0.251578 0.932716
0.000000 0.211183 0.901782
0.000000 0.167209 0.859440
0.000000 0.119922 0.804393
0.000000 0.069627 0.735282
0.000000 0.016671 0.650693
0.000000 0.000000 0.549153
0.286610 0.132058 0.635266
0.268907 0.147520 0.636782
0.256938 0.166932 0.640055
0.249708 0.189464 0.645310
0.246273 0.214331 0.652709
0.245738 0.240786 0.662359
0.247256 0.268123 0.674305
0.250031 0.295676 0.688535
0.253313 0.322819 0.704980
0.256405 0.348968 0.723509
0.258655 0.373578 0.743934
0.259463 0.396145 0.766010
0.258277 0.416203 0.789430
0.254593 0.433331 0.813830
0.247959 0.447144 0.838788
0.237969 0.457299 0.863822
0.224267 0.463494 0.888393
0.206547 0.465466 0.911901
0.184551 0.462993 0.933689
0.158071 0.455894 0.953041
0.126947 0.444027 0.969183
0.091068 0.427292 0.981281
0.050373 0.405628 0.988443
0.004849 0.379014 0.989718
0.000000 0.347470 0.984097
0.000000 0.311058 0.970512
0.000000 0.269878 0.947836
0.000000 0.224070 0.914884
0.000000 0.173816 0.870411
0.000000 0.119339 0.813116
0.000000 0.060900 0.741636
0.000000 0.000000 0.654551
0.000000 0.000000 0.550383
0.320027 0.128167 0.690421
0.302001 0.145750 0.691146
0.289976 0.167512 0.693635
0.282924 0.192582 0.698107
0.279865 0.220130 0.704720
0.279868 0.249365 0.713576
0.282052 0.279538 0.724717
0.285584 0.309940 0.738125
0.289682 0.339902 0.753726
0.293611 0.368795 0.771385
0.296685 0.396031 0.790909
0.298269 0.421062 0.812048
0.297775 0.443381 0.834491
0.294665 0.462520 0.857869
0.288451 0.478052 0.881756
0.278692 0.489592 0.905664
0.264997 0.496792 0.929050
0.247025 0.499347 0.951309
0.224483 0.496991 0.971781
0.197127 0.489499 0.989744
0.164762 0.476687 1.000000
0.127242 0.458410 1.000000
0.084472 0.434564 1.000000
0.036403 0.405084 1.000000
0.000000 0.369949 1.000000
0.000000 0.329174 0.997081
0.000000 0.282816 0.972373
0.000000 0.230974 0.937279
0.000000 0.173785 0.890549
0.000000 0.111428 0.830876
0.000000 0.044122 0.756895
0.000000 0.000000 0.667180
0.000000 0.000000 0.560248
0.364477 0.123311 0.759702
0.346203 0.143291 0.759585
0.334169 0.167647 0.761236
0.327311 0.195463 0.764869
0.324616 0.225866 0.770639
0.325118 0.258022 0.778640
0.327899 0.291139 0.788911
0.332093 0.324463 0.801430
0.336881 0.357283 0.816118
0.341493 0.388925 0.832834
0.345210 0.418759 0.851383
0.347359 0.446192 0.871507
0.347318 0.470674 0.892893
0.344515 0.491695 0.915167
0.338425 0.508783 0.937896
0.328573 0.521508 0.960591
0.314532 0.529482 0.982701
0.295927 0.532354 1.000000
0.272428 0.529816 1.000000
0.243758 0.521598 1.000000
0.209685 0.507473 1.000000
0.170030 0.487253 1.000000
0.124661 0.460790 1.000000
0.073495 0.427977 1.000000
0.016497 0.388746 1.000000
0.000000 0.343071 1.000000
0.000000 0.290967 1.000000
0.000000 0.232486 0.971492
0.000000 0.167724 0.922382
0.000000 0.096815 0.860207
0.000000 0.019934 0.783596
0.000000 0.000000 0.691120
0.000000 0.000000 0.581290
0.421785 0.117599 0.845676
0.403353 0.140271 0.844670
0.391373 0.167479 0.845434
0.384745 0.198267 0.848175
0.382420 0.231718 0.853045
0.383398 0.266954 0.860134
0.386726 0.303139 0.869475
0.391502 0.339476 0.881042
0.396872 0.375210 0.894750
0.402032 0.409625 0.910456
0.406225 0.442045 0.927958
0.408746 0.471836 0.946994
0.408938 0.498403 0.967247
0.406191 0.521192 0.988336
0.399946 0.539690 1.000000
0.389694 0.553421 1.000000
0.374972 0.561954 1.000000
0.355369 0.564895 1.000000
0.330522 0.561892 1.000000
0.300116 0.552633 1.000000
0.263887 0.536846 1.000000
0.221619 0.514299 1.000000
0.173144 0.484802 1.000000
0.118346 0.448203 1.000000
0.057154 0.404392 1.000000
0.000000 0.353299 1.000000
0.000000 0.294894 1.000000
0.000000 0.229187 1.000000
0.000000 0.156231 0.968580
0.000000 0.076115 0.903781
0.000000 0.000000 0.824415
0.000000 0.000000 0.729050
0.000000 0.000000 0.616193
0.493865 0.111134 0.951048
0.475384 0.136807 0.949109
0.463537 0.167147 0.948939
0.457191 0.201151 0.950740
0.455260 0.237859 0.954659
0.456708 0.276350 0.960782
0.460550 0.315745 0.969136
0.465846 0.355204 0.979691
0.471707 0.393926 0.992358
0.477295 0.431154 1.000000
0.481819 0.466167 1.000000
0.484536 0.498288 1.000000
0.484755 0.526879 1.000000
0.481831 0.551342 1.000000
0.475171 0.571119 1.000000
0.464228 0.585694 1.000000
0.448507 0.594589 1.000000
0.427560 0.597369 1.000000
0.400989 0.593637 1.000000
0.368445 0.583038 1.000000
0.329627 0.565256 1.000000
0.284285 0.540017 1.000000
0.232216 0.507085 1.000000
0.173268 0.466266 1.000000
0.107336 0.417407 1.000000
0.034365 0.360394 1.000000
0.000000 0.295153 1.000000
0.000000 0.221652 1.000000
0.000000 0.139898 1.000000
0.000000 0.049939 0.964407
0.000000 0.000000 0.882167
0.000000 0.000000 0.783789
0.000000 0.000000 0.667778
0.582720 0.104007 1.000000
0.564317 0.133011 1.000000
0.552701 0.166777 1.000000
0.546706 0.204258 1.000000
0.545209 0.244451 1.000000
0.547141 0.286391 1.000000
0.551479 0.329156 1.000000
0.557250 0.371861 1.000000
0.563530 0.413664 1.000000
0.569445 0.453762 1.000000
0.574168 0.491393 1.000000
0.576923 0.525834 1.000000
0.576982 0.556405 1.000000
0.573667 0.582464 1.000000
0.566346 0.603410 1.000000
0.554441 0.618682 1.000000
0.537420 0.627761 1.000000
0.514800 0.630166 1.000000
0.486147 0.625458 1.000000
0.451078 0.613238 1.000000
0.409257 0.593147 1.000000
0.360397 0.564866 1.000000
0.304262 0.528117 1.000000
0.240664 0.482663 1.000000
0.169463 0.428306 1.000000
0.090569 0.364888 1.000000
0.003942 0.292294 1.000000
0.000000 0.210446 1.000000
0.000000 0.119309 1.000000
0.000000 0.018886 1.000000
0.000000 0.000000 0.959804
0.000000 0.000000 0.858295
0.000000 0.000000 0.739006
0.690449 0.096304 1.000000
0.672265 0.128986 1.000000
0.660997 0.166489 1.000000
0.655438 0.207726 1.000000
0.654434 0.251649 1.000000
0.656878 0.297249 1.000000
0.661714 0.343560 1.000000
0.667933 0.389656 1.000000
0.674576 0.434648 1.000000
0.680733 0.477692 1.000000
0.685543 0.517982 1.000000
0.688194 0.554751 1.000000
0.687924 0.587276 1.000000
0.684018 0.614870 1.000000
0.675811 0.636891 1.000000
0.662689 0.652733 1.000000
0.644083 0.661834 1.000000
0.619477 0.663669 1.000000
0.588403 0.657755 1.000000
0.550439 0.643651 1.000000
0.505217 0.620953 1.000000
0.452415 0.589300 1.000000
0.391759 0.548369 1.000000
0.323028 0.497880 1.000000
0.246047 0.437592 1.000000
0.160690 0.367304 1.000000
0.066881 0.286855 1.000000
0.000000 0.196126 1.000000
0.000000 0.095037 1.000000
0.000000 0.000000 1.000000
0.000000 0.000000 1.000000
0.000000 0.000000 0.955663
0.000000 0.000000 0.832979
0.819237 0.088101 1.000000
0.801435 0.124824 1.000000
0.790645 0.166396 1.000000
0.785626 0.211685 1.000000
0.785190 0.259600 1.000000
0.788194 0.309088 1.000000
0.793546 0.359141 1.000000
0.800203 0.408786 1.000000
0.807170 0.457095 1.000000
0.813502 0.503178 1.000000
0.818304 0.546185 1.000000
0.820727 0.585308 1.000000
0.819975 0.619777 1.000000
0.815297 0.648866 1.000000
0.805995 0.671884 1.000000
0.791417 0.688186 1.000000
0.770961 0.697164 1.000000
0.744075 0.698251 1.000000
0.710255 0.690920 1.000000
0.669046 0.674685 1.000000
0.620042 0.649101 1.000000
0.562888 0.613762 1.000000
0.497275 0.568302 1.000000
0.422946 0.512397 1.000000
0.339690 0.445762 1.000000
0.247347 0.368154 1.000000
0.145807 0.279368 1.000000
0.035006 0.179241 1.000000
0.000000 0.067650 1.000000
0.000000 0.000000 1.000000
0.000000 0.000000 1.000000
0.000000 0.000000 1.000000
0.000000 0.000000 0.952935
0.971364 0.079466 1.000000
0.954121 0.120613 1.000000
0.943958 0.166601 1.000000
0.939602 0.216255 1.000000
0.939826 0.268441 1.000000
0.943453 0.322064 1.000000
0.949357 0.376069 1.000000
0.956458 0.429444 1.000000
0.963728 0.481214 1.000000
0.970186 0.530446 1.000000
0.974901 0.576247 1.000000
0.976990 0.617765 1.000000
0.975620 0.654189 1.000000
0.970008 0.684745 1.000000
0.959418 0.708703 1.000000
0.943164 0.725372 1.000000
0.920608 0.734100 1.000000
0.891165 0.734278 1.000000
0.854293 0.725335 1.000000
0.809504 0.706742 1.000000
0.756356 0.678009 1.000000
0.694459 0.638687 1.000000
0.623469 0.588368 1.000000
0.543093 0.526684 1.000000
0.453086 0.453305 1.000000
0.353252 0.367945 1.000000
0.243446 0.270356 1.000000
