lrplugin/MindfulLensFilmEngine.lrplugin/profiles/luts/bw_arista_edu_100.cube
# Generated from ColorChecker fit
LUT_3D_SIZE 33
DOMAIN_MIN 0.0 0.0 0.0
DOMAIN_MAX 1.0 1.0 1.0
0.655506 0.322337 1.000000
0.597620 0.298081 0.945864
0.547358 0.279164 0.870401
0.504083 0.264935 0.807083
0.467185 0.254786 0.754378
0.436088 0.248150 0.710858
0.410243 0.244502 0.675200
0.389130 0.243361 0.646189
0.372260 0.244286 0.622713
0.359174 0.246879 0.603765
0.349440 0.250787 0.588444
0.342657 0.255695 0.575955
0.338456 0.261332 0.565606
0.336493 0.267471 0.556813
0.336457 0.273925 0.549096
0.338066 0.280549 0.542080
0.341066 0.287243 0.535495
0.345234 0.293946 0.529176
0.350376 0.300642 0.523066
0.356329 0.307356 0.517211
0.362956 0.314154 0.511761
0.370154 0.321146 0.506974
0.377847 0.328485 0.503212
0.385988 0.336364 0.500942
0.394562 0.345019 0.500736
0.403582 0.354730 0.503273
0.413090 0.365817 0.509336
0.423159 0.378644 0.519813
0.433890 0.393615 0.535697
0.445416 0.411178 0.558088
0.457897 0.431824 0.588189
0.471524 0.456084 0.627310
0.486517 0.484533 0.676866
0.597620 0.298081 0.945864
0.543655 0.276606 0.863792
0.497096 0.260247 0.794938
0.457314 0.248363 0.737693
0.423707 0.240355 0.690549
0.395705 0.235667 0.652106
0.372768 0.233786 0.621068
0.354382 0.234241 0.596244
0.340066 0.236600 0.576549
0.329368 0.240479 0.561003
0.321864 0.245532 0.548731
0.317161 0.251456 0.538964
0.314895 0.257991 0.531037
0.314732 0.264920 0.524393
0.316368 0.272067 0.518576
0.319526 0.279297 0.513238
0.323962 0.286520 0.508137
0.329460 0.293688 0.503133
0.335832 0.300793 0.498196
0.342923 0.307871 0.493397
0.350606 0.315000 0.488914
0.358781 0.322299 0.485030
0.367382 0.329933 0.482133
0.376369 0.338104 0.480718
0.385734 0.347060 0.481383
0.395497 0.357091 0.484832
0.405709 0.368527 0.491875
0.416449 0.381742 0.503426
0.427826 0.397153 0.520506
0.439980 0.415217 0.544239
0.453079 0.436435 0.575855
0.467321 0.461350 0.616692
0.482933 0.490547 0.668189
0.547358 0.279164 0.870401
0.497096 0.260247 0.794938
0.454028 0.246229 0.732149
0.417531 0.236478 0.680447
0.387012 0.230409 0.638355
0.361908 0.227474 0.604495
0.341685 0.227171 0.577600
0.325839 0.229039 0.556505
0.313894 0.232659 0.540150
0.305407 0.237655 0.527583
0.299960 0.243692 0.517955
0.297168 0.250479 0.510522
0.296675 0.257766 0.504647
0.298154 0.265345 0.499797
0.301307 0.273051 0.495545
0.305867 0.280762 0.491569
0.311596 0.288397 0.487651
0.318284 0.295917 0.483680
0.325753 0.303327 0.479650
0.333855 0.310672 0.475659
0.342467 0.318041 0.471912
0.351501 0.325565 0.468719
0.360896 0.333417 0.466493
0.370620 0.341811 0.465755
0.380672 0.351006 0.467131
0.391080 0.361301 0.471349
0.401901 0.373038 0.479247
0.413223 0.386602 0.491766
0.425162 0.402418 0.509951
0.437865 0.420957 0.534953
0.451507 0.442728 0.568031
0.466294 0.468285 0.610545
0.482461 0.498224 0.663964
0.504083 0.264935 0.807083
0.457314 0.248363 0.737693
0.417531 0.236478 0.680447
0.384120 0.228663 0.633788
0.356494 0.224339 0.596262
0.334097 0.222972 0.566519
0.316404 0.224069 0.543318
0.302916 0.227180 0.525519
0.293167 0.231896 0.512091
0.286719 0.237851 0.502106
0.283164 0.244723 0.494742
0.282123 0.252229 0.489282
0.283247 0.260131 0.485114
0.286216 0.268232 0.481732
0.290741 0.276376 0.478736
0.296562 0.284453 0.475829
0.303447 0.292391 0.472820
0.311195 0.300163 0.469625
0.319635 0.307784 0.466263
0.328625 0.315309 0.462860
0.338052 0.322839 0.459645
0.347833 0.330515 0.456956
0.357915 0.338519 0.455232
0.368274 0.347078 0.455021
0.378917 0.356460 0.456973
0.389877 0.366975 0.461845
0.401222 0.378976 0.470500
0.413044 0.392857 0.483904
0.425467 0.409056 0.503131
0.438647 0.428052 0.529357
0.452765 0.450367 0.563867
0.468035 0.476564 0.608049
0.484700 0.507250 0.663396
0.467185 0.254786 0.754378
0.423707 0.240355 0.690549
0.387012 0.230409 0.638355
0.356494 0.224339 0.596262
0.331573 0.221579 0.562843
0.311701 0.221605 0.536777
0.296358 0.223934 0.516845
0.285057 0.228126 0.501938
0.277335 0.233785 0.491048
0.272764 0.240554 0.483275
0.270942 0.248120 0.477822
0.271498 0.256214 0.473999
0.274091 0.264605 0.471221
0.278408 0.273109 0.469007
0.284166 0.281580 0.466983
0.291113 0.289918 0.464880
0.299026 0.298062 0.462533
0.307710 0.305996 0.459884
0.317002 0.313744 0.456977
0.326767 0.321374 0.453966
0.336899 0.328996 0.451107
0.347323 0.336760 0.448762
0.357994 0.344862 0.447397
0.368894 0.353538 0.447587
0.380038 0.363066 0.450008
0.391467 0.373767 0.455444
0.403255 0.386005 0.464783
0.415502 0.400184 0.479019
0.428341 0.416753 0.499250
0.441933 0.436201 0.526681
0.456468 0.459060 0.562622
0.472167 0.485905 0.608486
0.489278 0.517353 0.665793
0.436088 0.248150 0.710858
0.395705 0.235667 0.652106
0.361908 0.227474 0.604495
0.334097 0.222972 0.566519
0.311701 0.221605 0.536777
0.294178 0.222859 0.513972
0.281016 0.226263 0.496914
0.271735 0.231387 0.484519
0.265880 0.237845 0.475805
0.263030 0.245291 0.469899
0.262791 0.253423 0.466031
0.264798 0.261982 0.463536
0.268718 0.270748 0.461855
0.274246 0.279547 0.460536
0.281107 0.288244 0.459229
0.289055 0.296749 0.457691
0.297874 0.305013 0.455784
0.307378 0.313028 0.453476
0.317410 0.320832 0.450839
0.327843 0.328500 0.448051
0.338579 0.336155 0.445396
0.349550 0.343958 0.443261
0.360717 0.352113 0.442140
0.372072 0.360868 0.442632
0.383635 0.370511 0.445441
0.395456 0.381375 0.451377
0.407614 0.393833 0.461355
0.420220 0.408301 0.476393
0.433413 0.425237 0.497619
0.447359 0.445142 0.526261
0.462259 0.468558 0.563655
0.478338 0.496071 0.611244
0.495855 0.528307 0.670572
0.410243 0.244502 0.675200
0.372768 0.233786 0.621068
0.341685 0.227171 0.577600
0.316404 0.224069 0.543318
0.296358 0.223934 0.516845
0.281016 0.226263 0.496914
0.269873 0.230595 0.482360
0.262453 0.236511 0.472123
0.258312 0.243636 0.465251
0.257035 0.251634 0.460894
0.258234 0.260214 0.458310
0.261554 0.269126 0.456860
0.266668 0.278162 0.456012
0.273279 0.287159 0.455339
0.281118 0.295992 0.454518
0.289948 0.304581 0.453332
0.299560 0.312888 0.451671
0.309774 0.320916 0.449527
0.320443 0.328712 0.446999
0.331445 0.336365 0.444293
0.342691 0.344004 0.441716
0.354119 0.351804 0.439684
0.365698 0.359978 0.438716
0.377428 0.368786 0.439439
0.389336 0.378525 0.442582
0.401479 0.389539 0.448981
0.413944 0.402212 0.459577
0.426849 0.416970 0.475416
0.440340 0.434282 0.497651
0.454592 0.454659 0.527537
0.469811 0.478654 0.566436
0.486231 0.506863 0.615817
0.504118 0.539924 0.677251
0.389130 0.243361 0.646189
0.354382 0.234241 0.596244
0.325839 0.229039 0.556505
0.302916 0.227180 0.525519
0.285057 0.228126 0.501938
0.271735 0.231387 0.484519
0.262453 0.236511 0.472123
0.256745 0.243091 0.463719
0.254172 0.250760 0.458379
0.254325 0.259195 0.455280
0.256828 0.268114 0.453705
0.261330 0.277279 0.453044
0.267511 0.286492 0.452790
0.275083 0.295600 0.452541
0.283784 0.304489 0.452003
0.293384 0.313089 0.450984
0.303682 0.321374 0.449398
0.314507 0.329356 0.447267
0.325715 0.337094 0.444715
0.337194 0.344686 0.441973
0.348863 0.352273 0.439377
0.360666 0.360039 0.437367
0.372581 0.368210 0.436489
0.384614 0.377053 0.437396
0.396799 0.386879 0.440844
0.409202 0.398041 0.447695
0.421917 0.410933 0.458916
0.435069 0.425993 0.475581
0.448811 0.443699 0.498866
0.463325 0.464574 0.530055
0.478826 0.489182 0.570537
0.495555 0.518128 0.621804
0.513785 0.552061 0.685456
0.372260 0.244286 0.622713
0.340066 0.236600 0.576549
0.313894 0.232659 0.540150
0.293167 0.231896 0.512091
0.277335 0.233785 0.491048
0.265880 0.237845 0.475805
0.258312 0.243636 0.465251
0.254172 0.250760 0.458379
0.253027 0.258862 0.454287
0.254479 0.267630 0.452181
0.258156 0.276792 0.451369
0.263716 0.286119 0.451266
0.270846 0.295426 0.451393
0.279265 0.304568 0.451374
0.288720 0.313444 0.450940
0.298986 0.321994 0.449927
0.309871 0.330200 0.448276
0.321210 0.338089 0.446033
0.332869 0.345728 0.443349
0.344742 0.353225 0.440482
0.356754 0.360733 0.437793
0.368858 0.368445 0.435750
0.381039 0.376599 0.434926
0.393310 0.385472 0.435997
0.405714 0.395386 0.439748
0.418322 0.406704 0.447067
0.431237 0.419832 0.458946
0.444590 0.435215 0.476486
0.458542 0.453346 0.500891
0.473285 0.474756 0.533469
0.489038 0.500019 0.575635
0.506050 0.529752 0.628909
0.524602 0.564615 0.694917
0.359174 0.246879 0.603765
0.329368 0.240479 0.561003
0.305407 0.237655 0.527583
0.286719 0.237851 0.502106
0.272764 0.240554 0.483275
0.263030 0.245291 0.469899
0.257035 0.251634 0.460894
0.254325 0.259195 0.455280
0.254479 0.267630 0.452181
0.257103 0.276636 0.450828
0.261832 0.285953 0.450557
0.268334 0.295363 0.450809
0.276302 0.304691 0.451130
0.285462 0.313802 0.451172
0.295568 0.322606 0.450692
0.306404 0.331054 0.449552
0.317784 0.339139 0.447718
0.329552 0.346897 0.445264
0.341579 0.354405 0.442368
0.353768 0.361784 0.439312
0.366051 0.369196 0.436485
0.378390 0.376846 0.434381
0.390775 0.384981 0.433598
0.403227 0.393890 0.434841
0.415796 0.403904 0.438919
0.428562 0.415397 0.446747
0.441634 0.428785 0.459344
0.455152 0.444526 0.477837
0.469283 0.463121 0.503454
0.484225 0.485112 0.537533
0.500207 0.511085 0.581514
0.517485 0.541667 0.636943
0.536347 0.577527 0.705471
0.349440 0.250787 0.588444
0.321864 0.245532 0.548731
0.299960 0.243692 0.517955
0.283164 0.244723 0.494742
0.270942 0.248120 0.477822
0.262791 0.253423 0.466031
0.258234 0.260214 0.458310
0.256828 0.268114 0.453705
0.258156 0.276792 0.451369
0.261832 0.285953 0.450557
0.267501 0.295350 0.450632
0.274835 0.304774 0.451061
0.283536 0.314060 0.451417
0.293338 0.323085 0.451378
0.304002 0.331770 0.450726
0.315319 0.340074 0.449351
0.327110 0.348003 0.447245
0.339226 0.355603 0.444508
0.351547 0.362962 0.441344
0.363983 0.370210 0.438063
0.376473 0.377521 0.435078
0.388986 0.385109 0.432911
0.401520 0.393233 0.432185
0.414103 0.402192 0.433632
0.426793 0.412329 0.438088
0.439677 0.424026 0.446493
0.452872 0.437711 0.459894
0.466523 0.453854 0.479441
0.480808 0.472963 0.506393
0.495930 0.495594 0.542111
0.512126 0.522342 0.588061
0.529659 0.553844 0.645818
0.548824 0.590781 0.717058
0.342657 0.255695 0.575955
0.317161 0.251456 0.538964
0.297168 0.250479 0.510522
0.282123 0.252229 0.489282
0.271498 0.256214 0.473999
0.264798 0.261982 0.463536
0.261554 0.269126 0.456860
0.261330 0.277279 0.453044
0.263716 0.286119 0.451266
0.268334 0.295363 0.450809
0.274835 0.304774 0.451061
0.282899 0.314153 0.451516
0.292238 0.323346 0.451773
0.302590 0.332241 0.451536
0.313724 0.340768 0.450614
0.325439 0.348900 0.448923
0.337565 0.356649 0.446482
0.349958 0.364075 0.443416
0.362506 0.371274 0.439956
0.375127 0.378389 0.436438
0.387766 0.385604 0.433302
0.400401 0.393143 0.431095
0.413037 0.401275 0.430469
0.425709 0.410311 0.432180
0.438482 0.420602 0.437090
0.451452 0.432544 0.446167
0.464741 0.446574 0.460482
0.478504 0.463171 0.481215
0.492924 0.482857 0.509648
0.508213 0.506195 0.547169
0.524615 0.533793 0.595272
0.542400 0.566297 0.655556
0.561872 0.604400 0.729725
0.338456 0.261332 0.565606
0.314895 0.257991 0.531037
0.296675 0.257766 0.504647
0.283247 0.260131 0.485114
0.274091 0.264605 0.471221
0.268718 0.270748 0.461855
0.266668 0.278162 0.456012
0.267511 0.286492 0.452790
0.270846 0.295426 0.451393
0.276302 0.304691 0.451130
0.283536 0.314060 0.451417
0.292238 0.323346 0.451773
0.302124 0.332405 0.451823
0.312941 0.341136 0.451299
0.324467 0.349479 0.450035
0.336507 0.357417 0.447973
0.348897 0.364975 0.445159
0.361502 0.372220 0.441745
0.374217 0.379262 0.437987
0.386968 0.386253 0.434247
0.399707 0.393386 0.430993
0.412419 0.400898 0.428798
0.425117 0.409068 0.428339
0.437843 0.418217 0.430399
0.450669 0.428707 0.435866
0.463699 0.440944 0.445735
0.477063 0.455376 0.461105
0.490922 0.472493 0.483178
0.505467 0.492826 0.513265
0.520918 0.516951 0.552780
0.537525 0.545484 0.603244
0.555567 0.579084 0.666281
0.575353 0.618453 0.743622
0.336493 0.267471 0.556813
0.314732 0.264920 0.524393
0.298154 0.265345 0.499797
0.286216 0.268232 0.481732
0.278408 0.273109 0.469007
0.274246 0.279547 0.460536
0.273279 0.287159 0.455339
0.275083 0.295600 0.452541
0.279265 0.304568 0.451374
0.285462 0.313802 0.451172
0.293338 0.323085 0.451378
0.302590 0.332241 0.451536
0.312941 0.341136 0.451299
0.324148 0.349680 0.450423
0.335992 0.357823 0.448771
0.348289 0.365558 0.446310
0.360882 0.372922 0.443113
0.373642 0.379991 0.439356
0.386473 0.386888 0.435324
0.399306 0.393772 0.431405
0.412102 0.400850 0.428093
0.424854 0.408368 0.425985
0.437580 0.416616 0.425788
0.450333 0.425925 0.428309
0.463190 0.436668 0.434464
0.476262 0.449261 0.445272
0.489687 0.464164 0.461859
0.503635 0.481875 0.485455
0.518302 0.502939 0.517396
0.533916 0.527940 0.559123
0.550735 0.557505 0.612182
0.569046 0.592304 0.678225
0.589164 0.633048 0.759008
0.336457 0.273925 0.549096
0.316368 0.272067 0.518576
0.301307 0.273051 0.495545
0.290741 0.276376 0.478736
0.284166 0.281580 0.466983
0.281107 0.288244 0.459229
0.281118 0.295992 0.454518
0.283784 0.304489 0.452003
0.288720 0.313444 0.450940
0.295568 0.322606 0.450692
0.304002 0.331770 0.450726
0.313724 0.340768 0.450614
0.324467 0.349479 0.450035
0.335992 0.357823 0.448771
0.348092 0.365759 0.446711
0.360586 0.373293 0.443849
0.373326 0.380471 0.440283
0.386192 0.387381 0.436218
0.399093 0.394154 0.431963
0.411968 0.400962 0.427932
0.424787 0.408022 0.424646
0.437548 0.415589 0.422730
0.450279 0.423965 0.422915
0.463037 0.433492 0.426035
0.475910 0.444552 0.433033
0.489014 0.457574 0.444954
0.502495 0.473025 0.462949
0.516530 0.491418 0.488277
0.531324 0.513305 0.522298
0.547111 0.539281 0.566480
0.564157 0.569985 0.622395
0.582755 0.606097 0.691722
0.603230 0.648339 0.776243
0.338066 0.280549 0.542080
0.319526 0.279297 0.513238
0.305867 0.280762 0.491569
0.296562 0.284453 0.475829
0.291113 0.289918 0.464880
0.289055 0.296749 0.457691
0.289948 0.304581 0.453332
0.293384 0.313089 0.450984
0.298986 0.321994 0.449927
0.306404 0.331054 0.449552
0.315319 0.340074 0.449351
0.325439 0.348900 0.448923
0.336507 0.357417 0.447973
0.348289 0.365558 0.446310
0.360586 0.373293 0.443849
0.373226 0.380638 0.440610
0.386066 0.387649 0.436717
0.398995 0.394425 0.432402
0.411928 0.401107 0.428000
0.424814 0.407879 0.423953
0.437628 0.414967 0.420806
0.450375 0.422639 0.419210
0.463092 0.431204 0.419924
0.475843 0.441016 0.423808
0.488724 0.452470 0.431831
0.501856 0.466002 0.445064
0.515396 0.482092 0.464686
0.529525 0.501262 0.491979
0.544457 0.524075 0.528332
0.560434 0.551137 0.575239
0.577728 0.583098 0.634298
0.596641 0.620647 0.707214
0.617503 0.664518 0.795796
0.341066 0.287243 0.535495
0.323962 0.286520 0.508137
0.311596 0.288397 0.487651
0.303447 0.292391 0.472820
0.299026 0.298062 0.462533
0.297874 0.305013 0.455784
0.299560 0.312888 0.451671
0.303682 0.321374 0.449398
0.309871 0.330200 0.448276
0.317784 0.339139 0.447718
0.327110 0.348003 0.447245
0.337565 0.356649 0.446482
0.348897 0.364975 0.445159
0.360882 0.372922 0.443113
0.373326 0.380471 0.440283
0.386066 0.387649 0.436717
0.398967 0.394522 0.432566
0.411923 0.401201 0.428087
0.424859 0.407836 0.423642
0.437730 0.414623 0.419698
0.450518 0.421797 0.416828
0.463237 0.429637 0.415709
0.475930 0.438463 0.417125
0.488669 0.448640 0.421964
0.501556 0.460572 0.431220
0.514722 0.474708 0.445992
0.528329 0.491536 0.467483
0.542567 0.511590 0.497003
0.557657 0.535443 0.535967
0.573847 0.563713 0.585895
0.591418 0.597058 0.648411
0.610679 0.636180 0.725247
0.631967 0.681822 0.818238
0.345234 0.293946 0.529176
0.329460 0.293688 0.503133
0.318284 0.295917 0.483680
0.311195 0.300163 0.469625
0.307710 0.305996 0.459884
0.307378 0.313028 0.453476
0.309774 0.320916 0.449527
0.314507 0.329356 0.447267
0.321210 0.338089 0.446033
0.329552 0.346897 0.445264
0.339226 0.355603 0.444508
0.349958 0.364075 0.443416
0.361502 0.372220 0.441745
0.373642 0.379991 0.439356
0.386192 0.387381 0.436218
0.398995 0.394425 0.432402
0.411923 0.401201 0.428087
0.424879 0.407829 0.423556
0.437796 0.414472 0.419197
0.450633 0.421334 0.415503
0.463383 0.428662 0.413075
0.476066 0.436745 0.412615
0.488731 0.445916 0.414933
0.501460 0.456547 0.420944
0.514360 0.469054 0.431668
0.527572 0.483896 0.448230
0.541263 0.501574 0.471860
0.555632 0.522629 0.503895
0.570905 0.547647 0.545774
0.587341 0.577256 0.599045
0.605226 0.612124 0.665359
0.624876 0.652964 0.746473
0.646637 0.700530 0.844248
0.350376 0.300642 0.523066
0.335832 0.300793 0.498196
0.325754 0.303327 0.479650
0.319635 0.307784 0.466263
0.317002 0.313744 0.456977
0.317410 0.320832 0.450839
0.320443 0.328712 0.446999
0.325715 0.337094 0.444715
0.332869 0.345728 0.443349
0.341579 0.354405 0.442368
0.351547 0.362962 0.441344
0.362506 0.371274 0.439956
0.374217 0.379262 0.437987
0.386473 0.386888 0.435324
0.399093 0.394154 0.431963
0.411928 0.401107 0.428000
0.424859 0.407836 0.423642
0.437796 0.414472 0.419197
0.450676 0.421186 0.415079
0.463471 0.428196 0.411810
0.476176 0.435757 0.410013
0.488822 0.444170 0.410421
0.501465 0.453777 0.413867
0.514193 0.464962 0.421293
0.527121 0.478151 0.433746
0.540397 0.493814 0.452377
0.554196 0.512461 0.478443
0.568724 0.534646 0.513305
0.584216 0.560965 0.558432
0.600936 0.592054 0.615395
0.619178 0.628595 0.685873
0.639267 0.671310 0.771648
0.661554 0.720963 0.874609
0.356329 0.307356 0.517211
0.342923 0.307871 0.493397
0.333855 0.310672 0.475659
0.328625 0.315309 0.462860
0.326767 0.321374 0.453966
0.327843 0.328500 0.448051
0.331445 0.336365 0.444293
0.337194 0.344686 0.441973
0.344742 0.353225 0.440482
0.353768 0.361784 0.439312
0.363983 0.370210 0.438063
0.375127 0.378389 0.436438
0.386968 0.386253 0.434247
0.399306 0.393772 0.431405
0.411968 0.400962 0.427932
0.424814 0.407879 0.423953
0.437730 0.414623 0.419698
0.450633 0.421334 0.415503
0.463471 0.428196 0.411810
0.476218 0.435435 0.409164
0.488882 0.443318 0.408217
0.501498 0.452157 0.409726
0.514130 0.462304 0.414552
0.526873 0.474153 0.423664
0.539851 0.488142 0.438133
0.553218 0.504750 0.459138
0.567157 0.524499 0.487962
0.581881 0.547953 0.525992
0.597632 0.575717 0.574723
0.614682 0.608440 0.635754
0.633333 0.646814 0.710788
0.653916 0.691570 0.801635
0.676792 0.743484 0.910209
0.362956 0.314154 0.511761
0.350606 0.315000 0.488914
0.342467 0.318041 0.471912
0.338052 0.322839 0.459645
0.336899 0.328996 0.451107
0.338579 0.336155 0.445396
0.342691 0.344004 0.441716
0.348863 0.352273 0.439377
0.356754 0.360733 0.437793
0.366051 0.369196 0.436485
0.376473 0.377521 0.435078
0.387766 0.385604 0.433302
0.399707 0.393386 0.430993
0.412102 0.400850 0.428093
0.424787 0.408022 0.424646
0.437628 0.414967 0.420806
0.450518 0.421797 0.416828
0.463383 0.428662 0.413075
0.476176 0.435757 0.410014
0.488882 0.443318 0.408217
0.501514 0.451624 0.408363
0.514113 0.460996 0.411235
0.526754 0.471797 0.417720
0.539537 0.484432 0.428813
0.552593 0.499348 0.445613
0.566085 0.517037 0.469323
0.580203 0.538029 0.501253
0.595167 0.562901 0.542817
0.611226 0.592267 0.595537
0.628660 0.626787 0.661036
0.647779 0.667163 0.741045
0.668919 0.714138 0.837400
0.692451 0.768497 0.952042
0.370154 0.321146 0.506974
0.358781 0.322300 0.485030
0.351501 0.325565 0.468719
0.347833 0.330515 0.456956
0.347323 0.336760 0.448762
0.349550 0.343958 0.443261
0.354119 0.351804 0.439684
0.360666 0.360039 0.437367
0.368858 0.368445 0.435750
0.378390 0.376846 0.434381
0.388986 0.385109 0.432911
0.400401 0.393143 0.431096
0.412419 0.400898 0.428798
0.424854 0.408368 0.425985
0.437548 0.415589 0.422730
0.450375 0.422639 0.419210
0.463237 0.429637 0.415709
0.476066 0.436745 0.412615
0.488822 0.444170 0.410421
0.501498 0.452157 0.409726
0.514113 0.460996 0.411235
0.526719 0.471018 0.415756
0.539394 0.482597 0.424206
0.552248 0.496149 0.437602
0.565420 0.512132 0.457072
0.579078 0.531047 0.483845
0.593421 0.553436 0.519256
0.608676 0.579885 0.564748
0.625099 0.611020 0.621865
0.642979 0.647511 0.692261
0.662630 0.690070 0.777690
0.684400 0.739452 0.880016
0.708663 0.796452 1.000000
0.377847 0.328485 0.503212
0.367382 0.329933 0.482133
0.360896 0.333417 0.466493
0.357915 0.338519 0.455232
0.357994 0.344862 0.447397
0.360717 0.352113 0.442140
0.365698 0.359978 0.438716
0.372581 0.368210 0.436489
0.381039 0.376599 0.434926
0.390775 0.384981 0.433598
0.401520 0.393233 0.432185
0.413037 0.401275 0.430469
0.425117 0.409068 0.428339
0.437580 0.416616 0.425788
0.450279 0.423965 0.422915
0.463092 0.431204 0.419924
0.475930 0.438463 0.417125
0.488731 0.445916 0.414933
0.501465 0.453777 0.413867
0.514130 0.462304 0.414552
0.526754 0.471797 0.417720
0.539394 0.482597 0.424206
0.552138 0.495090 0.434950
0.565102 0.509701 0.450999
0.578433 0.526900 0.473505
0.592307 0.547197 0.503724
0.606928 0.571146 0.543019
0.622532 0.599342 0.592856
0.639383 0.632423 0.654809
0.657776 0.671070 0.730554
0.678035 0.716005 0.821876
0.700512 0.767991 0.930662
0.725590 0.827837 1.000000
0.385988 0.336364 0.500942
0.376369 0.338104 0.480718
0.370620 0.341812 0.465755
0.368274 0.347078 0.455021
0.368894 0.353538 0.447587
0.372072 0.360868 0.442632
0.377428 0.368786 0.439439
0.384614 0.377053 0.437396
0.393310 0.385472 0.435997
0.403227 0.393890 0.434841
0.414103 0.402192 0.433632
0.425709 0.410311 0.432180
0.437843 0.418217 0.430399
0.450333 0.425925 0.428309
0.463037 0.433492 0.426035
0.475843 0.441016 0.423808
0.488669 0.448640 0.421964
0.501460 0.456547 0.420944
0.514193 0.464962 0.421293
0.526873 0.474153 0.423664
0.539537 0.484432 0.428813
0.552248 0.496149 0.437602
0.565102 0.509701 0.450999
0.578223 0.525525 0.470076
0.591764 0.544098 0.496011
0.605909 0.565945 0.530087
0.620870 0.591627 0.573692
0.636889 0.621752 0.628321
0.654240 0.656968 0.695571
0.673222 0.697965 0.777147
0.694168 0.745477 0.874858
0.717438 0.800278 0.990620
0.743422 0.863186 1.000000
0.394562 0.345019 0.500736
0.385734 0.347060 0.481383
0.380672 0.351006 0.467131
0.378917 0.356460 0.456973
0.380038 0.363066 0.450008
0.383635 0.370511 0.445441
0.389336 0.378525 0.442582
0.396799 0.386879 0.440844
0.405714 0.395386 0.439748
0.415796 0.403904 0.438919
0.426793 0.412329 0.438088
0.438482 0.420602 0.437090
0.450669 0.428707 0.435867
0.463190 0.436668 0.434464
0.475910 0.444552 0.433033
0.488724 0.452470 0.431831
0.501556 0.460572 0.431220
0.514360 0.469054 0.431668
0.527121 0.478151 0.433746
0.539851 0.488142 0.438133
0.552593 0.499348 0.445613
0.565420 0.512132 0.457072
0.578433 0.526900 0.473505
0.591764 0.544098 0.496011
0.605574 0.564218 0.525794
0.620053 0.587791 0.564163
0.635422 0.615392 0.612533
0.651931 0.647637 0.672424
0.669858 0.685185 0.745461
0.689514 0.728738 0.833374
0.711235 0.779040 0.938000
0.735391 0.836875 1.000000
0.762379 0.903072 1.000000
0.403582 0.354730 0.503273
0.395497 0.357091 0.484832
0.391080 0.361301 0.471349
0.389877 0.366975 0.461845
0.391467 0.373767 0.455444
0.395456 0.381375 0.451377
0.401479 0.389539 0.448981
0.409202 0.398041 0.447695
0.418322 0.406704 0.447067
0.428562 0.415397 0.446747
0.439677 0.424026 0.446493
0.451452 0.432544 0.446167
0.463699 0.440944 0.445735
0.476262 0.449261 0.445272
0.489014 0.457574 0.444954
0.501856 0.466002 0.445064
0.514722 0.474708 0.445992
0.527572 0.483896 0.448230
0.540397 0.493814 0.452377
0.553218 0.504750 0.459138
0.566085 0.517037 0.469323
0.579078 0.531047 0.483845
0.592307 0.547197 0.503724
0.605909 0.565945 0.530087
0.620053 0.587791 0.564163
0.634938 0.613279 0.607288
0.650791 0.642992 0.660903
0.667870 0.677560 0.726554
0.686460 0.717650 0.805893
0.706879 0.763975 0.900677
0.729472 0.817289 1.000000
0.754614 0.878389 1.000000
0.782712 0.948112 1.000000
0.413090 0.365817 0.509336
0.405709 0.368527 0.491875
0.401901 0.373038 0.479247
0.401222 0.378976 0.470500
0.403255 0.386005 0.464783
0.407614 0.393833 0.461355
0.413944 0.402212 0.459577
0.421917 0.410933 0.458917
0.431237 0.419832 0.458946
0.441634 0.428785 0.459344
0.452872 0.437712 0.459894
0.464741 0.446574 0.460482
0.477063 0.455376 0.461105
0.489687 0.464164 0.461859
0.502495 0.473025 0.462949
0.515396 0.482092 0.464686
0.528329 0.491536 0.467483
0.541263 0.501574 0.471860
0.554196 0.512461 0.478443
0.567157 0.524499 0.487962
0.580203 0.538029 0.501253
0.593421 0.553436 0.519256
0.606928 0.571146 0.543019
0.620870 0.591627 0.573692
0.635422 0.615392 0.612533
0.650791 0.642992 0.660903
0.667212 0.675025 0.720270
