lrplugin/MindfulLensFilmEngine.lrplugin/profiles/luts/bw_arista_edu_100.cube
# Generated from ColorChecker fit
LUT_3D_SIZE 5
DOMAIN_MIN 0.0 0.0 0.0
DOMAIN_MAX 1.0 1.0 1.0
0.655506 0.322337 1.000000
0.372260 0.244286 0.622713
0.341066 0.287243 0.535495
0.394562 0.345019 0.500736
0.486517 0.484533 0.676866
0.372260 0.244286 0.622713
0.253027 0.258862 0.454287
0.309871 0.330200 0.448276
0.405714 0.395386 0.439748
0.524602 0.564615 0.694917
0.341066 0.287243 0.535495
0.309871 0.330200 0.448276
0.398967 0.394522 0.432566
0.501556 0.460572 0.431220
0.631967 0.681822 0.818238
0.394562 0.345019 0.500736
0.405714 0.395386 0.439748
0.501556 0.460572 0.431220
0.605574 0.564218 0.525794
0.762379 0.903072 1.000000
0.486517 0.484533 0.676866
0.524602 0.564615 0.694918
0.631967 0.681822 0.818238
0.762379 0.903072 1.000000
0.990730 1.000000 1.000000
0.372260 0.244286 0.622713
0.253027 0.258862 0.454287
0.309871 0.330200 0.448276
0.405714 0.395386 0.439748
0.524602 0.564615 0.694917
0.253027 0.258862 0.454287
0.254773 0.326731 0.430486
0.366715 0.401538 0.442265
0.482057 0.463648 0.432479
0.615127 0.666532 0.775128
0.309871 0.330200 0.448276
0.366715 0.401538 0.442265
0.488062 0.458844 0.416857
0.597398 0.525758 0.422692
0.739333 0.799029 0.941559
0.405714 0.395386 0.439748
0.482057 0.463648 0.432479
0.597398 0.525758 0.422692
0.705504 0.648634 0.568817
0.881268 1.000000 1.000000
0.524602 0.564615 0.694918
0.615127 0.666532 0.775128
0.739333 0.799029 0.941559
0.881268 1.000000 1.000000
1.000000 1.000000 1.000000
0.341066 0.287243 0.535495
0.309871 0.330200 0.448276
0.398967 0.394522 0.432566
0.501556 0.460572 0.431220
0.631967 0.681822 0.818238
0.309871 0.330200 0.448276
0.366715 0.401538 0.442265
0.488062 0.458844 0.416857
0.597398 0.525758 0.422692
0.739333 0.799029 0.941559
0.398967 0.394522 0.432566
0.488062 0.458844 0.416857
0.606062 0.502589 0.362701
0.706733 0.592673 0.428528
0.864968 0.969122 1.000000
0.501556 0.460572 0.431220
0.597398 0.525758 0.422692
0.706733 0.592673 0.428528
0.813610 0.771510 0.714941
1.000000 1.000000 1.000000
0.631967 0.681822 0.818238
0.739333 0.799029 0.941559
0.864968 0.969122 1.000000
1.000000 1.000000 1.000000
1.000000 1.000000 1.000000
0.394562 0.345019 0.500736
0.405714 0.395386 0.439748
0.501556 0.460572 0.431220
0.605574 0.564218 0.525794
0.762379 0.903072 1.000000
0.405714 0.395386 0.439748
0.482057 0.463648 0.432479
0.597398 0.525758 0.422692
0.705504 0.648634 0.568817
0.881268 1.000000 1.000000
0.501556 0.460572 0.431220
0.597398 0.525758 0.422692
0.706733 0.592673 0.428528
0.813610 0.771510 0.714941
1.000000 1.000000 1.000000
0.605574 0.564218 0.525794
0.705504 0.648634 0.568817
0.813610 0.771510 0.714941
0.944222 1.000000 1.000000
1.000000 1.000000 1.000000
0.762379 0.903072 1.000000
0.881268 1.000000 1.000000
1.000000 1.000000 1.000000
1.000000 1.000000 1.000000
1.000000 1.000000 1.000000
0.486517 0.484533 0.676866
0.524602 0.564615 0.694918
0.631967 0.681822 0.818238
0.762379 0.903072 1.000000
0.990730 1.000000 1.000000
0.524602 0.564615 0.694918
0.615127 0.666532 0.775128
0.739333 0.799029 0.941559
0.881268 1.000000 1.000000
1.000000 1.000000 1.000000
0.631967 0.681822 0.818238
0.739333 0.799029 0.941559
0.864968 0.969122 1.000000
1.000000 1.000000 1.000000
1.000000 1.000000 1.000000
0.762379 0.903072 1.000000
0.881268 1.000000 1.000000
1.000000 1.000000 1.000000
1.000000 1.000000 1.000000
1.000000 1.000000 1.000000
0.990730 1.000000 1.000000
1.000000 1.000000 1.000000
1.000000 1.000000 1.000000
1.000000 1.000000 1.000000
1.000000 1.000000 1.000000
