lrplugin/MindfulLensFilmEngine.lrplugin/profiles/luts/bw_arista_edu_100.cube
# Generated from ColorChecker fit
LUT_3D_SIZE 9
DOMAIN_MIN 0.0 0.0 0.0
DOMAIN_MAX 1.0 1.0 1.0
0.655506 0.322337 1.000000
0.467185 0.254786 0.754378
0.372260 0.244286 0.622713
0.338456 0.261332 0.565606
0.341066 0.287243 0.535495
0.362956 0.314154 0.511761
0.394562 0.345019 0.500736
0.433890 0.393615 0.535697
0.486517 0.484533 0.676866
0.467185 0.254786 0.754378
0.331573 0.221579 0.562843
0.277335 0.233785 0.491048
0.274091 0.264605 0.471221
0.299026 0.298062 0.462533
0.336899 0.328996 0.451107
0.380038 0.363066 0.450008
0.428341 0.416753 0.499250
0.489278 0.517353 0.665793
0.372260 0.244286 0.622713
0.277335 0.233785 0.491048
0.253027 0.258862 0.454287
0.270846 0.295426 0.451393
0.309871 0.330200 0.448276
0.356754 0.360733 0.437793
0.405714 0.395386 0.439748
0.458542 0.453346 0.500891
0.524602 0.564615 0.694917
0.338456 0.261332 0.565606
0.274091 0.264605 0.471221
0.270846 0.295426 0.451393
0.302124 0.332405 0.451823
0.348897 0.364975 0.445159
0.399707 0.393386 0.430993
0.450669 0.428707 0.435866
0.505467 0.492826 0.513265
0.575353 0.618453 0.743622
0.341066 0.287243 0.535495
0.299026 0.298062 0.462533
0.309871 0.330200 0.448276
0.348897 0.364975 0.445159
0.398967 0.394522 0.432566
0.450518 0.421797 0.416828
0.501556 0.460572 0.431220
0.557657 0.535443 0.535967
0.631967 0.681822 0.818238
0.362956 0.314154 0.511761
0.336899 0.328996 0.451107
0.356754 0.360733 0.437793
0.399707 0.393386 0.430993
0.450518 0.421797 0.416828
0.501514 0.451624 0.408363
0.552593 0.499348 0.445613
0.611226 0.592267 0.595537
0.692451 0.768497 0.952042
0.394562 0.345019 0.500736
0.380038 0.363066 0.450008
0.405714 0.395386 0.439748
0.450669 0.428707 0.435867
0.501556 0.460572 0.431220
0.552593 0.499348 0.445613
0.605574 0.564218 0.525794
0.669858 0.685185 0.745461
0.762379 0.903072 1.000000
0.433890 0.393615 0.535697
0.428341 0.416753 0.499250
0.458542 0.453346 0.500891
0.505467 0.492826 0.513265
0.557657 0.535443 0.535967
0.611226 0.592267 0.595537
0.669858 0.685185 0.745461
0.744808 0.846907 1.000000
0.854900 1.000000 1.000000
0.486517 0.484533 0.676866
0.489278 0.517353 0.665793
0.524602 0.564615 0.694918
0.575353 0.618453 0.743622
0.631967 0.681822 0.818238
0.692451 0.768497 0.952042
0.762379 0.903072 1.000000
0.854900 1.000000 1.000000
0.990730 1.000000 1.000000
0.467185 0.254786 0.754378
0.331573 0.221579 0.562843
0.277335 0.233785 0.491048
0.274091 0.264605 0.471221
0.299026 0.298062 0.462533
0.336899 0.328996 0.451107
0.380038 0.363066 0.450008
0.428341 0.416753 0.499250
0.489278 0.517353 0.665793
0.331573 0.221579 0.562843
0.242342 0.216446 0.444719
0.223098 0.245990 0.419253
0.245350 0.286118 0.425409
0.288177 0.323556 0.429097
0.338231 0.355850 0.423173
0.389731 0.391364 0.427441
0.444469 0.449282 0.488651
0.511808 0.559607 0.680500
0.277335 0.233785 0.491048
0.223098 0.245990 0.419253
0.228720 0.283940 0.417526
0.267601 0.326246 0.431565
0.320717 0.362339 0.434019
0.376608 0.392469 0.424479
0.431389 0.427707 0.429488
0.488744 0.489940 0.502531
0.559926 0.611876 0.724042
0.274091 0.264605 0.471221
0.245350 0.286118 0.425409
0.267601 0.326246 0.431565
0.316140 0.366305 0.442125
0.373832 0.398432 0.436472
0.431111 0.425581 0.420937
0.485985 0.461527 0.428796
0.544029 0.530863 0.520272
0.618391 0.669002 0.782537
0.299026 0.298062 0.462533
0.288177 0.323556 0.429097
0.320717 0.362339 0.434019
0.373832 0.398432 0.436472
0.432280 0.426676 0.422577
0.488391 0.452730 0.405401
0.542062 0.493075 0.424958
0.600762 0.575007 0.548206
0.679531 0.736645 0.869053
0.336899 0.328996 0.451107
0.338231 0.355850 0.423173
0.376608 0.392469 0.424479
0.431111 0.425581 0.420937
0.488391 0.452730 0.405401
0.542667 0.482282 0.397677
0.595732 0.533419 0.444514
0.656947 0.636145 0.619608
0.743244 0.831283 1.000000
0.380038 0.363066 0.450008
0.389731 0.391364 0.427441
0.431389 0.427707 0.429488
0.485985 0.461527 0.428796
0.542062 0.493075 0.424958
0.595732 0.533419 0.444514
0.650681 0.604449 0.540951
0.718162 0.738872 0.794703
0.816999 0.980215 1.000000
0.428341 0.416753 0.499250
0.444469 0.449282 0.488651
0.488744 0.489940 0.502531
0.544029 0.530863 0.520272
0.600762 0.575007 0.548206
0.656947 0.636145 0.619608
0.718162 0.738872 0.794703
0.797553 0.918599 1.000000
0.915837 1.000000 1.000000
0.489278 0.517353 0.665793
0.511808 0.559607 0.680501
0.559926 0.611876 0.724042
0.618391 0.669002 0.782537
0.679531 0.736645 0.869053
0.743244 0.831283 1.000000
0.816999 0.980215 1.000000
0.915837 1.000000 1.000000
1.000000 1.000000 1.000000
0.372260 0.244286 0.622713
0.277335 0.233785 0.491048
0.253027 0.258862 0.454287
0.270846 0.295426 0.451393
0.309871 0.330200 0.448276
0.356754 0.360733 0.437793
0.405714 0.395386 0.439748
0.458542 0.453346 0.500891
0.524602 0.564615 0.694917
0.277335 0.233785 0.491048
0.223098 0.245990 0.419253
0.228720 0.283940 0.417526
0.267601 0.326246 0.431565
0.320717 0.362339 0.434019
0.376608 0.392469 0.424479
0.431389 0.427707 0.429488
0.488744 0.489940 0.502531
0.559926 0.611876 0.724042
0.253027 0.258862 0.454287
0.228720 0.283940 0.417526
0.254773 0.326731 0.430486
0.306483 0.368552 0.445605
0.366715 0.401538 0.442265
0.425904 0.428646 0.426797
0.482057 0.463648 0.432479
0.540748 0.531140 0.519532
0.615127 0.666532 0.775128
0.270846 0.295426 0.451393
0.267601 0.326246 0.431565
0.306483 0.368552 0.445605
0.364679 0.406365 0.452685
0.426947 0.434525 0.438925
0.485615 0.458693 0.417394
0.540581 0.495347 0.428103
0.599315 0.571787 0.538014
0.676856 0.726129 0.841032
0.309871 0.330200 0.448276
0.320717 0.362339 0.434019
0.366715 0.401538 0.442265
0.426947 0.434525 0.438925
0.488062 0.458844 0.416857
0.544282 0.482861 0.395862
0.597398 0.525758 0.422692
0.656771 0.617541 0.571043
0.739333 0.799029 0.941559
0.356754 0.360733 0.437793
0.376608 0.392469 0.424479
0.425904 0.428646 0.426797
0.485615 0.458693 0.417394
0.544282 0.482861 0.395862
0.598021 0.512219 0.388743
0.650513 0.568656 0.449522
0.713015 0.684880 0.658634
0.804350 0.904419 1.000000
0.405714 0.395386 0.439748
0.431389 0.427707 0.429488
0.482057 0.463648 0.432479
0.540581 0.495347 0.428103
0.597398 0.525758 0.422692
0.650513 0.568656 0.449522
0.705504 0.648634 0.568817
0.775516 0.801105 0.867746
0.881268 1.000000 1.000000
0.458542 0.453346 0.500891
0.488744 0.489940 0.502531
0.540748 0.531140 0.519532
0.599315 0.571787 0.538014
0.656771 0.617541 0.571043
0.713015 0.684880 0.658634
0.775516 0.801105 0.867746
0.859315 1.000000 1.000000
0.987019 1.000000 1.000000
0.524602 0.564615 0.694918
0.559926 0.611876 0.724042
0.615127 0.666532 0.775128
0.676856 0.726129 0.841032
0.739333 0.799029 0.941559
0.804350 0.904419 1.000000
0.881268 1.000000 1.000000
0.987019 1.000000 1.000000
1.000000 1.000000 1.000000
0.338456 0.261332 0.565606
0.274091 0.264605 0.471221
0.270846 0.295426 0.451393
0.302124 0.332405 0.451823
0.348897 0.364975 0.445159
0.399707 0.393386 0.430993
0.450669 0.428707 0.435866
0.505467 0.492826 0.513265
0.575353 0.618453 0.743622
0.274091 0.264605 0.471221
0.245350 0.286118 0.425409
0.267601 0.326246 0.431565
0.316140 0.366305 0.442125
0.373832 0.398432 0.436472
0.431111 0.425581 0.420937
0.485985 0.461527 0.428796
0.544029 0.530863 0.520272
0.618391 0.669002 0.782537
0.270846 0.295426 0.451393
0.267601 0.326246 0.431565
0.306483 0.368552 0.445605
0.364679 0.406365 0.452685
0.426947 0.434525 0.438925
0.485615 0.458693 0.417394
0.540581 0.495347 0.428103
0.599315 0.571787 0.538014
0.676856 0.726129 0.841032
0.302124 0.332405 0.451823
0.316140 0.366305 0.442125
0.364679 0.406365 0.452685
0.426821 0.439310 0.449413
0.489215 0.462685 0.425166
0.546082 0.484857 0.399749
0.599215 0.525008 0.419910
0.657974 0.613142 0.559346
0.739291 0.790081 0.918702
0.348897 0.364975 0.445159
0.373832 0.398432 0.436472
0.426947 0.434525 0.438925
0.489215 0.462685 0.425166
0.549178 0.483163 0.394788
0.602950 0.507029 0.374331
0.654215 0.556170 0.417281
0.714227 0.663294 0.604073
0.801810 0.871930 1.000000
0.399707 0.393386 0.430993
0.431111 0.425581 0.420937
0.485615 0.458693 0.417394
0.546082 0.484857 0.399749
0.602950 0.507029 0.374331
0.654224 0.538982 0.374417
0.705480 0.605311 0.460232
0.769865 0.741427 0.718944
0.868097 0.993564 1.000000
0.450669 0.428707 0.435867
0.485985 0.461527 0.428796
0.540581 0.495347 0.428103
0.599215 0.525008 0.419910
0.654215 0.556170 0.417281
0.705480 0.605311 0.460232
0.760478 0.699730 0.615721
0.834250 0.877544 0.977656
0.949405 1.000000 1.000000
0.505467 0.492826 0.513265
0.544029 0.530863 0.520272
0.599315 0.571787 0.538014
0.657974 0.613142 0.559346
0.714227 0.663294 0.604073
0.769865 0.741427 0.718944
0.834250 0.877544 0.977656
0.924315 1.000000 1.000000
1.000000 1.000000 1.000000
0.575353 0.618453 0.743622
0.618391 0.669002 0.782537
0.676856 0.726129 0.841032
0.739291 0.790081 0.918702
0.801810 0.871930 1.000000
0.868097 0.993564 1.000000
0.949405 1.000000 1.000000
1.000000 1.000000 1.000000
1.000000 1.000000 1.000000
0.341066 0.287243 0.535495
0.299026 0.298062 0.462533
0.309871 0.330200 0.448276
0.348897 0.364975 0.445159
0.398967 0.394522 0.432566
0.450518 0.421797 0.416828
0.501556 0.460572 0.431220
0.557657 0.535443 0.535967
0.631967 0.681822 0.818238
0.299026 0.298062 0.462533
0.288177 0.323556 0.429097
0.320717 0.362339 0.434019
0.373832 0.398432 0.436472
0.432280 0.426676 0.422577
0.488391 0.452730 0.405401
0.542062 0.493075 0.424958
0.600762 0.575007 0.548206
0.679531 0.736645 0.869053
0.309871 0.330200 0.448276
0.320717 0.362339 0.434019
0.366715 0.401538 0.442265
0.426947 0.434525 0.438925
0.488062 0.458844 0.416857
0.544282 0.482861 0.395862
0.597398 0.525758 0.422692
0.656771 0.617541 0.571043
0.739333 0.799029 0.941559
0.348897 0.364975 0.445159
0.373832 0.398432 0.436472
0.426947 0.434525 0.438925
0.489215 0.462685 0.425166
0.549178 0.483163 0.394788
0.602950 0.507029 0.374331
0.654215 0.556170 0.417281
0.714227 0.663294 0.604073
0.801810 0.871930 1.000000
0.398967 0.394522 0.432566
0.432280 0.426676 0.422577
0.488062 0.458844 0.416857
0.549178 0.483163 0.394788
0.606062 0.502589 0.362701
0.656722 0.530894 0.353874
0.706733 0.592673 0.428528
0.769243 0.723338 0.673835
0.864968 0.969122 1.000000
0.450518 0.421797 0.416828
0.488391 0.452730 0.405401
0.544282 0.482861 0.395862
0.602950 0.507029 0.374331
0.656722 0.530894 0.353874
0.705497 0.570935 0.374504
0.756745 0.654452 0.503182
0.825503 0.819560 0.833815
0.934383 1.000000 1.000000
0.501556 0.460572 0.431220
0.542062 0.493075 0.424958
0.597398 0.525758 0.422692
0.654215 0.556170 0.417281
0.706733 0.592673 0.428528
0.756745 0.654452 0.503182
0.813610 0.771510 0.714941
0.894262 0.984669 1.000000
1.000000 1.000000 1.000000
0.557657 0.535443 0.535967
0.600762 0.575007 0.548206
0.656771 0.617541 0.571043
0.714227 0.663294 0.604073
0.769243 0.723338 0.673835
0.825503 0.819560 0.833815
0.894262 0.984669 1.000000
0.994344 1.000000 1.000000
1.000000 1.000000 1.000000
0.631967 0.681822 0.818238
0.679531 0.736645 0.869053
0.739333 0.799029 0.941559
0.801810 0.871930 1.000000
0.864968 0.969122 1.000000
0.934383 1.000000 1.000000
1.000000 1.000000 1.000000
1.000000 1.000000 1.000000
1.000000 1.000000 1.000000
0.362956 0.314154 0.511761
0.336899 0.328996 0.451107
0.356754 0.360733 0.437793
0.399707 0.393386 0.430993
0.450518 0.421797 0.416828
0.501514 0.451624 0.408363
0.552593 0.499348 0.445613
0.611226 0.592267 0.595537
0.692451 0.768497 0.952042
0.336899 0.328996 0.451107
0.338231 0.355850 0.423173
0.376608 0.392469 0.424479
0.431111 0.425581 0.420937
0.488391 0.452730 0.405401
0.542667 0.482282 0.397677
0.595732 0.533419 0.444514
0.656947 0.636145 0.619608
0.743244 0.831283 1.000000
0.356754 0.360733 0.437793
0.376608 0.392469 0.424479
0.425904 0.428646 0.426797
0.485615 0.458693 0.417394
0.544282 0.482861 0.395862
0.598021 0.512219 0.388743
0.650513 0.568656 0.449522
0.713015 0.684880 0.658634
0.804350 0.904419 1.000000
0.399707 0.393386 0.430993
0.431111 0.425581 0.420937
0.485615 0.458693 0.417394
0.546082 0.484857 0.399749
0.602950 0.507029 0.374331
0.654224 0.538982 0.374417
0.705480 0.605311 0.460232
0.769865 0.741427 0.718944
0.868097 0.993564 1.000000
0.450518 0.421797 0.416828
0.488391 0.452730 0.405401
0.544282 0.482861 0.395862
0.602950 0.507029 0.374331
0.656722 0.530894 0.353874
0.705497 0.570935 0.374504
0.756745 0.654452 0.503182
0.825503 0.819560 0.833815
0.934383 1.000000 1.000000
0.501514 0.451624 0.408363
0.542667 0.482282 0.397677
0.598021 0.512219 0.388743
0.654224 0.538982 0.374417
0.705497 0.570935 0.374504
0.753633 0.627263 0.435753
0.807992 0.737968 0.631861
0.885506 0.943873 1.000000
1.000000 1.000000 1.000000
0.552593 0.499348 0.445613
0.595732 0.533419 0.444514
0.650513 0.568656 0.449522
0.705480 0.605311 0.460232
0.756745 0.654452 0.503182
0.807992 0.737968 0.631861
0.870476 0.888568 0.926700
0.963021 1.000000 1.000000
1.000000 1.000000 1.000000
0.611226 0.592267 0.595537
0.656947 0.636145 0.619608
0.713015 0.684880 0.658634
0.769865 0.741427 0.718944
0.825503 0.819560 0.833815
0.885506 0.943873 1.000000
0.963021 1.000000 1.000000
1.000000 1.000000 1.000000
1.000000 1.000000 1.000000
0.692451 0.768497 0.952042
0.743244 0.831283 1.000000
0.804350 0.904419 1.000000
0.868097 0.993564 1.000000
0.934383 1.000000 1.000000
1.000000 1.000000 1.000000
1.000000 1.000000 1.000000
1.000000 1.000000 1.000000
1.000000 1.000000 1.000000
0.394562 0.345019 0.500736
0.380038 0.363066 0.450008
0.405714 0.395386 0.439748
0.450669 0.428707 0.435867
0.501556 0.460572 0.431220
0.552593 0.499348 0.445613
0.605574 0.564218 0.525794
0.669858 0.685185 0.745461
0.762379 0.903072 1.000000
0.380038 0.363066 0.450008
0.389731 0.391364 0.427441
0.431389 0.427707 0.429488
0.485985 0.461527 0.428796
0.542062 0.493075 0.424958
0.595732 0.533419 0.444514
0.650681 0.604449 0.540951
0.718162 0.738872 0.794703
0.816999 0.980215 1.000000
0.405714 0.395386 0.439748
0.431389 0.427707 0.429488
0.482057 0.463648 0.432479
0.540581 0.495347 0.428103
0.597398 0.525758 0.422692
0.650513 0.568656 0.449522
0.705504 0.648634 0.568817
0.775516 0.801105 0.867746
0.881268 1.000000 1.000000
0.450669 0.428707 0.435867
0.485985 0.461527 0.428796
0.540581 0.495347 0.428103
0.599215 0.525008 0.419910
0.654215 0.556170 0.417281
0.705480 0.605311 0.460232
0.760478 0.699730 0.615721
0.834250 0.877544 0.977656
0.949405 1.000000 1.000000
0.501556 0.460572 0.431220
0.542062 0.493075 0.424958
0.597398 0.525758 0.422692
0.654215 0.556170 0.417281
0.706733 0.592673 0.428528
0.756745 0.654452 0.503182
0.813610 0.771510 0.714941
0.894262 0.984669 1.000000
1.000000 1.000000 1.000000
0.552593 0.499348 0.445613
0.595732 0.533419 0.444514
0.650513 0.568656 0.449522
0.705480 0.605311 0.460232
0.756745 0.654452 0.503182
0.807992 0.737968 0.631861
0.870476 0.888568 0.926700
0.963021 1.000000 1.000000
1.000000 1.000000 1.000000
0.605574 0.564218 0.525794
0.650681 0.604449 0.540951
0.705504 0.648634 0.568817
0.760478 0.699730 0.615721
0.813610 0.771510 0.714941
0.870476 0.888568 0.926700
0.944222 1.000000 1.000000
1.000000 1.000000 1.000000
1.000000 1.000000 1.000000
0.669858 0.685185 0.745461
0.718162 0.738872 0.794703
0.775516 0.801105 0.867746
0.834250 0.877544 0.977656
0.894262 0.984669 1.000000
0.963021 1.000000 1.000000
1.000000 1.000000 1.000000
1.000000 1.000000 1.000000
1.000000 1.000000 1.000000
0.762379 0.903072 1.000000
0.816999 0.980216 1.000000
0.881268 1.000000 1.000000
0.949405 1.000000 1.000000
1.000000 1.000000 1.000000
1.000000 1.000000 1.000000
1.000000 1.000000 1.000000
1.000000 1.000000 1.000000
1.000000 1.000000 1.000000
0.433890 0.393615 0.535697
0.428341 0.416753 0.499250
0.458542 0.453346 0.500891
0.505467 0.492826 0.513265
0.557657 0.535443 0.535967
0.611226 0.592267 0.595537
0.669858 0.685185 0.745461
0.744808 0.846907 1.000000
0.854900 1.000000 1.000000
0.428341 0.416753 0.499250
0.444469 0.449282 0.488651
0.488744 0.489940 0.502531
0.544029 0.530863 0.520272
0.600762 0.575007 0.548206
0.656947 0.636145 0.619608
0.718162 0.738872 0.794703
0.797553 0.918599 1.000000
0.915837 1.000000 1.000000
0.458542 0.453346 0.500891
0.488744 0.489940 0.502531
0.540748 0.531140 0.519532
0.599315 0.571787 0.538014
0.656771 0.617541 0.571043
0.713015 0.684880 0.658634
0.775516 0.801105 0.867746
0.859315 1.000000 1.000000
0.987019 1.000000 1.000000
0.505467 0.492826 0.513265
0.544029 0.530863 0.520272
0.599315 0.571787 0.538014
0.657974 0.613142 0.559346
0.714227 0.663294 0.604073
0.769865 0.741427 0.718944
0.834250 0.877544 0.977656
0.924315 1.000000 1.000000
1.000000 1.000000 1.000000
0.557657 0.535443 0.535967
0.600762 0.575007 0.548206
0.656771 0.617541 0.571043
0.714227 0.663294 0.604073
0.769243 0.723338 0.673835
0.825503 0.819560 0.833815
0.894262 0.984669 1.000000
0.994344 1.000000 1.000000
1.000000 1.000000 1.000000
0.611226 0.592267 0.595537
0.656947 0.636145 0.619608
0.713015 0.684880 0.658634
0.769865 0.741427 0.718944
0.825503 0.819560 0.833815
0.885506 0.943873 1.000000
0.963021 1.000000 1.000000
1.000000 1.000000 1.000000
1.000000 1.000000 1.000000
0.669858 0.685185 0.745461
0.718162 0.738872 0.794703
0.775516 0.801105 0.867746
0.834250 0.877544 0.977656
0.894262 0.984669 1.000000
0.963021 1.000000 1.000000
1.000000 1.000000 1.000000
1.000000 1.000000 1.000000
1.000000 1.000000 1.000000
0.744808 0.846907 1.000000
0.797553 0.918599 1.000000
0.859315 1.000000 1.000000
0.924315 1.000000 1.000000
0.994344 1.000000 1.000000
1.000000 1.000000 1.000000
1.000000 1.000000 1.000000
1.000000 1.000000 1.000000
1.000000 1.000000 1.000000
0.854900 1.000000 1.000000
0.915837 1.000000 1.000000
0.987019 1.000000 1.000000
1.000000 1.000000 1.000000
1.000000 1.000000 1.000000
1.000000 1.000000 1.000000
1.000000 1.000000 1.000000
1.000000 1.000000 1.000000
1.000000 1.000000 1.000000
0.486517 0.484533 0.676866
0.489278 0.517353 0.665793
0.524602 0.564615 0.694918
0.575353 0.618453 0.743622
0.631967 0.681822 0.818238
0.692451 0.768497 0.952042
0.762379 0.903072 1.000000
0.854900 1.000000 1.000000
0.990730 1.000000 1.000000
0.489278 0.517353 0.665793
0.511808 0.559607 0.680501
0.559926 0.611876 0.724042
0.618391 0.669002 0.782537
0.679531 0.736645 0.869053
0.743244 0.831283 1.000000
0.816999 0.980215 1.000000
0.915837 1.000000 1.000000
1.000000 1.000000 1.000000
0.524602 0.564615 0.694918
0.559926 0.611876 0.724042
0.615127 0.666532 0.775128
0.676856 0.726129 0.841032
0.739333 0.799029 0.941559
0.804350 0.904419 1.000000
0.881268 1.000000 1.000000
0.987019 1.000000 1.000000
1.000000 1.000000 1.000000
0.575353 0.618453 0.743622
0.618391 0.669002 0.782537
0.676856 0.726129 0.841032
0.739291 0.790081 0.918702
0.801810 0.871930 1.000000
0.868097 0.993564 1.000000
0.949405 1.000000 1.000000
1.000000 1.000000 1.000000
1.000000 1.000000 1.000000
0.631967 0.681822 0.818238
0.679531 0.736645 0.869053
0.739333 0.799029 0.941559
0.801810 0.871930 1.000000
0.864968 0.969122 1.000000
0.934383 1.000000 1.000000
1.000000 1.000000 1.000000
1.000000 1.000000 1.000000
1.000000 1.000000 1.000000
0.692451 0.768497 0.952042
0.743244 0.831283 1.000000
0.804350 0.904419 1.000000
0.868097 0.993564 1.000000
0.934383 1.000000 1.000000
1.000000 1.000000 1.000000
1.000000 1.000000 1.000000
1.000000 1.000000 1.000000
1.000000 1.000000 1.000000
0.762379 0.903072 1.000000
0.816999 0.980216 1.000000
0.881268 1.000000 1.000000
0.949405 1.000000 1.000000
1.000000 1.000000 1.000000
1.000000 1.000000 1.000000
1.000000 1.000000 1.000000
1.000000 1.000000 1.000000
1.000000 1.000000 1.000000
0.854900 1.000000 1.000000
0.915837 1.000000 1.000000
0.987019 1.000000 1.000000
1.000000 1.000000 1.000000
1.000000 1.000000 1.000000
1.000000 1.000000 1.000000
1.000000 1.000000 1.000000
1.000000 1.000000 1.000000
1.000000 1.000000 1.000000
0.990730 1.000000 1.000000
1.000000 1.000000 1.000000
1.000000 1.000000 1.000000
1.000000 1.000000 1.000000
1.000000 1.000000 1.000000
1.000000 1.000000 1.000000
1.000000 1.000000 1.000000
1.000000 1.000000 1.000000
1.000000 1.000000 1.000000
