lrplugin/MindfulLensFilmEngine.lrplugin/profiles/luts/bw_kosmo_pan.cube
# Generated from ColorChecker fit
LUT_3D_SIZE 33
DOMAIN_MIN 0.0 0.0 0.0
DOMAIN_MAX 1.0 1.0 1.0
0.012450 0.000000 0.416133
0.035662 0.000000 0.435444
0.056735 0.000000 0.450537
0.075872 0.000441 0.461953
0.093264 0.027057 0.470200
0.109096 0.050995 0.475755
0.123543 0.072528 0.479058
0.136773 0.091913 0.480518
0.148943 0.109392 0.480512
0.160204 0.125197 0.479380
0.170695 0.139542 0.477434
0.180549 0.152631 0.474947
0.189889 0.164653 0.472164
0.198831 0.175781 0.469293
0.207480 0.186179 0.466511
0.215933 0.195992 0.463961
0.224280 0.205355 0.461753
0.232600 0.214388 0.459964
0.240965 0.223198 0.458637
0.249437 0.231876 0.457782
0.258071 0.240503 0.457377
0.266911 0.249143 0.457365
0.275994 0.257848 0.457657
0.285348 0.266655 0.458131
0.294993 0.275589 0.458631
0.304939 0.284660 0.458968
0.315188 0.293865 0.458920
0.325732 0.303186 0.458231
0.336558 0.312592 0.456613
0.347639 0.322040 0.453745
0.358944 0.331471 0.449271
0.370431 0.340813 0.442803
0.382050 0.349980 0.433919
0.035662 0.000000 0.435444
0.057771 0.000000 0.452553
0.077809 0.003701 0.465630
0.095977 0.031648 0.475207
0.112464 0.056733 0.481786
0.127454 0.079237 0.485832
0.141119 0.099428 0.487780
0.153625 0.117560 0.488031
0.165126 0.133873 0.486950
0.175771 0.148593 0.484872
0.185698 0.161933 0.482099
0.195038 0.174092 0.478897
0.203910 0.185255 0.475502
0.212428 0.195594 0.472113
0.220697 0.205267 0.468901
0.228810 0.214418 0.465998
0.236855 0.223177 0.463507
0.244909 0.231661 0.461496
0.253042 0.239973 0.460001
0.261313 0.248201 0.459023
0.269776 0.256423 0.458531
0.278473 0.264699 0.458461
0.287438 0.273077 0.458715
0.296698 0.281593 0.459163
0.306269 0.290266 0.459639
0.316159 0.299103 0.459948
0.326369 0.308098 0.459859
0.336889 0.317230 0.459107
0.347702 0.326465 0.457397
0.358781 0.335755 0.454398
0.370092 0.345038 0.449747
0.381590 0.354239 0.443048
0.393224 0.363269 0.433870
0.056735 0.000000 0.450537
0.077809 0.003701 0.465630
0.096879 0.033176 0.476871
0.114144 0.059595 0.484785
0.129792 0.083249 0.489864
0.144003 0.104416 0.492567
0.156947 0.123360 0.493318
0.168788 0.140332 0.492511
0.179679 0.155568 0.490503
0.189766 0.169292 0.487621
0.199185 0.181712 0.484158
0.208063 0.193024 0.480371
0.216520 0.203410 0.476489
0.224666 0.213039 0.472703
0.232604 0.222064 0.469173
0.240425 0.230627 0.466026
0.248215 0.238854 0.463355
0.256049 0.246858 0.461221
0.263994 0.254740 0.459649
0.272108 0.262584 0.458634
0.280441 0.270463 0.458137
0.289034 0.278436 0.458084
0.297920 0.286546 0.458369
0.307121 0.294826 0.458855
0.316653 0.303291 0.459367
0.326522 0.311947 0.459701
0.336725 0.320781 0.459618
0.347252 0.329771 0.458847
0.358082 0.338879 0.457081
0.369188 0.348053 0.453982
0.380531 0.357229 0.449180
0.392066 0.366327 0.442269
0.403738 0.375255 0.432812
0.075872 0.000441 0.461953
0.095977 0.031648 0.475207
0.114144 0.059595 0.484785
0.130570 0.084584 0.491202
0.145440 0.106903 0.494943
0.158932 0.126827 0.496458
0.171215 0.144615 0.496163
0.182449 0.160516 0.494442
0.192786 0.174763 0.491647
0.202370 0.187574 0.488094
0.211333 0.199157 0.484068
0.219803 0.209703 0.479820
0.227895 0.219390 0.475567
0.235719 0.228383 0.471495
0.243373 0.236834 0.467754
0.250949 0.244880 0.464463
0.258528 0.252643 0.461707
0.266185 0.260234 0.459538
0.273984 0.267749 0.457973
0.281981 0.275271 0.457000
0.290223 0.282867 0.456569
0.298750 0.290594 0.456600
0.307592 0.298491 0.456979
0.316770 0.306587 0.457558
0.326296 0.314896 0.458157
0.336176 0.323417 0.458561
0.346403 0.332137 0.458524
0.356965 0.341029 0.457766
0.367840 0.350051 0.455972
0.378997 0.359148 0.452798
0.390397 0.368252 0.447861
0.401991 0.377282 0.440751
0.413724 0.386140 0.431019
0.093264 0.027057 0.470200
0.112464 0.056733 0.481786
0.129792 0.083249 0.489864
0.145440 0.106903 0.494943
0.159592 0.127980 0.497498
0.172424 0.146750 0.497972
0.184102 0.163471 0.496772
0.194785 0.178387 0.494275
0.204623 0.191728 0.490823
0.213755 0.203709 0.486724
0.222315 0.214533 0.482256
0.230426 0.224388 0.477659
0.238202 0.233451 0.473145
0.245750 0.241881 0.468889
0.253166 0.249827 0.465035
0.260540 0.257423 0.461692
0.267952 0.264788 0.458937
0.275473 0.272029 0.456814
0.283165 0.279238 0.455333
0.291083 0.286495 0.454470
0.299272 0.293865 0.454171
0.307769 0.301399 0.454345
0.316601 0.309135 0.454870
0.325787 0.317097 0.455590
0.335339 0.325296 0.456317
0.345258 0.333727 0.456829
0.355538 0.342375 0.456869
0.366162 0.351208 0.456149
0.377107 0.360182 0.454349
0.388339 0.369238 0.451112
0.399818 0.378304 0.446051
0.411493 0.387296 0.438744
0.423305 0.396112 0.428736
0.109096 0.050995 0.475755
0.127454 0.079237 0.485832
0.144003 0.104416 0.492567
0.158932 0.126827 0.496458
0.172424 0.146750 0.497972
0.184652 0.164454 0.497544
0.195780 0.180193 0.495573
0.205966 0.194206 0.492427
0.215356 0.206720 0.488440
0.224088 0.217948 0.483912
0.232294 0.228089 0.479112
0.240093 0.237328 0.474274
0.247599 0.245837 0.469598
0.254915 0.253773 0.465254
0.262138 0.261280 0.461375
0.269352 0.268490 0.458064
0.276636 0.275519 0.455389
0.284060 0.282469 0.453384
0.291684 0.289430 0.452053
0.299559 0.296477 0.451363
0.307729 0.303673 0.451251
0.316228 0.311064 0.451618
0.325082 0.318687 0.452335
0.334308 0.326561 0.453236
0.343914 0.334693 0.454125
0.353900 0.343076 0.454771
0.364257 0.351691 0.454911
0.374968 0.360502 0.454248
0.386006 0.369461 0.452452
0.397336 0.378508 0.449159
0.408914 0.387566 0.443974
0.420688 0.396547 0.436466
0.432597 0.405348 0.426172
0.123543 0.072528 0.479058
0.141119 0.099428 0.487780
0.156947 0.123360 0.493318
0.171215 0.144615 0.496163
0.184102 0.163471 0.496772
0.195780 0.180193 0.495573
0.206412 0.195030 0.492956
0.216152 0.208219 0.489281
0.225144 0.219984 0.484873
0.233524 0.230533 0.480026
0.241422 0.240063 0.474997
0.248956 0.248755 0.470014
0.256235 0.256777 0.465269
0.263363 0.264284 0.460923
0.270432 0.271416 0.457101
0.277527 0.278301 0.453896
0.284722 0.285051 0.451370
0.292086 0.291766 0.449549
0.299676 0.298533 0.448426
0.307542 0.305422 0.447962
0.315725 0.312492 0.448085
0.324258 0.319789 0.448688
0.333163 0.327343 0.449632
0.342456 0.335171 0.450746
0.352143 0.343276 0.451822
0.362222 0.351649 0.452624
0.372681 0.360265 0.452878
0.383501 0.369088 0.452281
0.394653 0.378064 0.450492
0.406099 0.387130 0.447141
0.417795 0.396207 0.441824
0.429685 0.405202 0.434101
0.441706 0.414008 0.423503
0.136773 0.091913 0.480518
0.153625 0.117560 0.488031
0.168788 0.140332 0.492511
0.182449 0.160516 0.494442
0.194785 0.178387 0.494275
0.205966 0.194206 0.492427
0.216152 0.208219 0.489281
0.225494 0.220660 0.485188
0.234135 0.231749 0.480466
0.242211 0.241691 0.475398
0.249846 0.250678 0.470236
0.257157 0.258889 0.465197
0.264252 0.266489 0.460467
0.271232 0.273628 0.456196
0.278187 0.280445 0.452504
0.285198 0.287061 0.449473
0.292341 0.293588 0.447158
0.299679 0.300121 0.445576
0.307269 0.306743 0.444712
0.315158 0.313522 0.444519
0.323385 0.320514 0.444916
0.331979 0.327758 0.445788
0.340964 0.335284 0.446989
0.350350 0.343105 0.448337
0.360143 0.351221 0.449619
0.370337 0.359617 0.450587
0.380920 0.368268 0.450962
0.391868 0.377131 0.450430
0.403153 0.386152 0.448645
0.414733 0.395263 0.445226
0.426562 0.404380 0.439760
0.438582 0.413409 0.431802
0.450728 0.422239 0.420872
0.148943 0.109392 0.480512
0.165126 0.133873 0.486950
0.179679 0.155568 0.490503
0.192786 0.174763 0.491647
0.204623 0.191728 0.490823
0.215356 0.206720 0.488440
0.225144 0.219984 0.484873
0.234135 0.231749 0.480466
0.242472 0.242231 0.475526
0.250286 0.251632 0.470330
0.257701 0.260142 0.465121
0.264830 0.267936 0.460108
0.271781 0.275174 0.455468
0.278651 0.282004 0.451343
0.285528 0.288561 0.447843
0.292493 0.294963 0.445046
0.299617 0.301318 0.442994
0.306962 0.307718 0.441699
0.314582 0.314242 0.441137
0.322523 0.320956 0.441251
0.330822 0.327911 0.441953
0.339506 0.335144 0.443121
0.348594 0.342680 0.444598
0.358098 0.350529 0.446195
0.368018 0.358688 0.447691
0.378349 0.367139 0.448830
0.389074 0.375852 0.449323
0.400170 0.384783 0.448850
0.411603 0.393873 0.447054
0.423333 0.403049 0.443548
0.435308 0.412227 0.437910
0.447471 0.421307 0.429686
0.459752 0.430176 0.418389
0.160204 0.125197 0.479380
0.175771 0.148593 0.484872
0.189766 0.169292 0.487621
0.202370 0.187574 0.488094
0.213755 0.203709 0.486724
0.224088 0.217948 0.483912
0.233524 0.230533 0.480026
0.242211 0.241691 0.475398
0.250286 0.251632 0.470330
0.257880 0.260558 0.465090
0.265115 0.268653 0.459912
0.272102 0.276088 0.454997
0.278946 0.283021 0.450513
0.285742 0.289597 0.446596
0.292577 0.295946 0.443346
0.299528 0.302185 0.440832
0.306664 0.308416 0.439089
0.314046 0.314729 0.438120
0.321726 0.321199 0.437893
0.329747 0.327888 0.438343
0.338143 0.334845 0.439374
0.346941 0.342103 0.440853
0.356157 0.349683 0.442618
0.365799 0.357593 0.444471
0.375867 0.365825 0.446182
0.386353 0.374358 0.447486
0.397238 0.383159 0.448088
0.408497 0.392180 0.447656
0.420094 0.401359 0.445829
0.431985 0.410620 0.442209
0.444119 0.419875 0.436366
0.456434 0.429020 0.427839
0.468860 0.437939 0.416130
0.170695 0.139542 0.477434
0.185698 0.161933 0.482099
0.199185 0.181712 0.484158
0.211333 0.199157 0.484068
0.222315 0.214533 0.482256
0.232294 0.228089 0.479112
0.241422 0.240063 0.474997
0.249846 0.250678 0.470236
0.257701 0.260142 0.465121
0.265115 0.268653 0.459912
0.272208 0.276390 0.454835
0.279090 0.283523 0.450082
0.285862 0.290206 0.445814
0.292618 0.296579 0.442157
0.299442 0.302770 0.439204
0.306410 0.308891 0.437016
0.313589 0.315043 0.435619
0.321036 0.321311 0.435007
0.328803 0.327767 0.435140
0.336929 0.334470 0.435947
0.345446 0.341464 0.437320
0.354380 0.348780 0.439121
0.363743 0.356436 0.441177
0.373544 0.364434 0.443284
0.383778 0.372766 0.445201
0.394435 0.381405 0.446658
0.405496 0.390316 0.447349
0.416931 0.399446 0.446935
0.428704 0.408731 0.445046
0.440768 0.418092 0.441277
0.453069 0.427436 0.435189
0.465544 0.436657 0.426312
0.478121 0.445634 0.414140
0.180549 0.152631 0.474947
0.195038 0.174092 0.478897
0.208063 0.193024 0.480371
0.219803 0.209703 0.479820
0.230426 0.224388 0.477659
0.240093 0.237328 0.474274
0.248956 0.248755 0.470014
0.257157 0.258889 0.465197
0.264830 0.267936 0.460108
0.272102 0.276088 0.454997
0.279090 0.283523 0.450082
0.285901 0.290406 0.445548
0.292635 0.296888 0.441546
0.299382 0.303107 0.438195
0.306227 0.309185 0.435578
0.313240 0.315233 0.433749
0.320489 0.321347 0.432726
0.328027 0.327609 0.432494
0.335904 0.334088 0.433006
0.344158 0.340839 0.434180
0.352819 0.347902 0.435902
0.361909 0.355306 0.438025
0.371439 0.363064 0.440368
0.381415 0.371177 0.442717
0.391831 0.379630 0.444826
0.402674 0.388397 0.446413
0.413923 0.397436 0.447166
0.425546 0.406692 0.446739
0.437505 0.416097 0.444750
0.449750 0.425568 0.440788
0.462226 0.435010 0.434405
0.474867 0.444313 0.425123
0.487598 0.453354 0.412429
0.189889 0.164653 0.472164
0.203910 0.185255 0.475502
0.216520 0.203410 0.476489
0.227895 0.219390 0.475567
0.238202 0.233451 0.473145
0.247599 0.245837 0.469598
0.256235 0.256777 0.465269
0.264252 0.266489 0.460467
0.271781 0.275174 0.455468
0.278946 0.283021 0.450513
0.285862 0.290206 0.445814
0.292635 0.296888 0.441546
0.299361 0.303217 0.437852
0.306130 0.309325 0.434843
0.313023 0.315334 0.432595
0.320109 0.321348 0.431151
0.327452 0.327462 0.430521
0.335106 0.333753 0.430684
0.343116 0.340288 0.431583
0.351519 0.347117 0.433128
0.360342 0.354279 0.435196
0.369606 0.361797 0.437633
0.379320 0.369682 0.440250
0.389486 0.377931 0.442823
0.400097 0.386525 0.445099
0.411139 0.395436 0.446788
0.422586 0.404618 0.447568
0.434407 0.414012 0.447085
0.446559 0.423547 0.444950
0.458992 0.433138 0.440743
0.471648 0.442684 0.434009
0.484458 0.452072 0.424259
0.497347 0.461177 0.410973
0.198831 0.175781 0.469293
0.212428 0.195594 0.472113
0.224666 0.213039 0.472703
0.235719 0.228383 0.471495
0.245750 0.241881 0.468889
0.254915 0.253773 0.465254
0.263363 0.264284 0.460923
0.271232 0.273628 0.456196
0.278651 0.282004 0.451343
0.285742 0.289597 0.446596
0.292618 0.296579 0.442157
0.299382 0.303107 0.438195
0.306130 0.309325 0.434843
0.312948 0.315365 0.432204
0.319915 0.321342 0.430346
0.327098 0.327360 0.429304
0.334559 0.333507 0.429081
0.342350 0.339860 0.429644
0.350513 0.346481 0.430931
0.359084 0.353416 0.432842
0.368087 0.360701 0.435247
0.377540 0.368356 0.437982
0.387452 0.376388 0.440851
0.397821 0.384791 0.443621
0.408640 0.393544 0.446031
0.419890 0.402612 0.447783
0.431545 0.411948 0.448547
0.443570 0.421490 0.447959
0.455921 0.431162 0.445624
0.468546 0.440876 0.441112
0.481384 0.450528 0.433959
0.494365 0.460003 0.423671
0.507411 0.469169 0.409717
0.207480 0.186179 0.466511
0.220697 0.205267 0.468901
0.232604 0.222064 0.469173
0.243373 0.236834 0.467754
0.253166 0.249827 0.465035
0.262138 0.261280 0.461375
0.270432 0.271416 0.457101
0.278187 0.280445 0.452504
0.285528 0.288561 0.447843
0.292577 0.295946 0.443346
0.299442 0.302770 0.439204
0.306227 0.309185 0.435578
0.313023 0.315334 0.432595
0.319915 0.321342 0.430346
0.326979 0.327324 0.428893
0.334282 0.333378 0.428263
0.341882 0.339590 0.428448
0.349828 0.346033 0.429411
0.358163 0.352765 0.431077
0.366917 0.359831 0.433341
0.376116 0.367261 0.436064
0.385772 0.375072 0.439073
0.395894 0.383269 0.442164
0.406477 0.391841 0.445096
0.417512 0.400764 0.447600
0.428978 0.410000 0.449368
0.440847 0.419498 0.450064
0.453081 0.429193 0.449314
0.465636 0.439006 0.446716
0.478455 0.448845 0.441830
0.491476 0.458602 0.434185
0.504627 0.468159 0.423278
0.517827 0.477382 0.408571
0.215933 0.195992 0.463961
0.228810 0.214418 0.465998
0.240425 0.230627 0.466026
0.250949 0.244880 0.464463
0.260540 0.257423 0.461692
0.269352 0.268490 0.458064
0.277527 0.278301 0.453896
0.285198 0.287061 0.449473
0.292493 0.294963 0.445046
0.299528 0.302185 0.440832
0.306410 0.308891 0.437016
0.313240 0.315233 0.433749
0.320109 0.321348 0.431151
0.327098 0.327360 0.429304
0.334282 0.333378 0.428263
0.341724 0.339498 0.428044
0.349482 0.345803 0.428634
0.357602 0.352361 0.429984
0.366123 0.359228 0.432015
0.375076 0.366444 0.434610
0.384483 0.374037 0.437624
0.394354 0.382021 0.440875
0.404696 0.390397 0.444150
0.415502 0.399149 0.447201
0.426760 0.408251 0.449748
0.438448 0.417662 0.451479
0.450535 0.427327 0.452045
0.462981 0.437178 0.451069
0.475740 0.447131 0.448135
0.488753 0.457092 0.442799
0.501955 0.466951 0.434580
0.515273 0.476583 0.422967
0.528624 0.485853 0.407412
0.224280 0.205355 0.461753
0.236855 0.223177 0.463507
0.248215 0.238854 0.463355
0.258528 0.252643 0.461707
0.267952 0.264788 0.458937
0.276636 0.275519 0.455389
0.284722 0.285051 0.451370
0.292341 0.293588 0.447158
0.299617 0.301318 0.442994
0.306664 0.308416 0.439089
0.313589 0.315043 0.435619
0.320489 0.321347 0.432726
0.327452 0.327462 0.430521
0.334559 0.333507 0.429081
0.341882 0.339590 0.428448
0.349482 0.345803 0.428634
0.357413 0.352224 0.429615
0.365722 0.358919 0.431335
0.374444 0.365940 0.433705
0.383608 0.373324 0.436602
0.393233 0.381096 0.439871
0.403329 0.389265 0.443323
0.413898 0.397829 0.446735
0.424933 0.406770 0.449853
0.436420 0.416057 0.452388
0.448333 0.425647 0.454017
0.460640 0.435480 0.454387
0.473300 0.445485 0.453108
0.486261 0.455576 0.449760
0.499466 0.465653 0.443888
0.512846 0.475604 0.435005
0.526326 0.485302 0.422589
0.539820 0.494606 0.406086
0.232600 0.214388 0.459964
0.244909 0.231661 0.461496
0.256049 0.246858 0.461221
0.266185 0.260234 0.459538
0.275473 0.272029 0.456814
0.284060 0.282469 0.453384
0.292086 0.291766 0.449549
0.299679 0.300121 0.445576
0.306962 0.307718 0.441699
0.314046 0.314729 0.438120
0.321036 0.321311 0.435007
0.328027 0.327609 0.432494
0.335106 0.333753 0.430684
0.342350 0.339860 0.429644
0.349828 0.346033 0.429411
0.357602 0.352361 0.429984
0.365722 0.358919 0.431335
0.374232 0.365770 0.433398
0.383167 0.372961 0.436075
0.392551 0.380527 0.439236
0.402403 0.388488 0.442717
0.412730 0.396852 0.446320
0.423533 0.405611 0.449816
0.434802 0.414745 0.452939
0.446520 0.424220 0.455395
0.458660 0.433988 0.456852
0.471187 0.443987 0.456948
0.484057 0.454141 0.455285
0.497219 0.464362 0.451435
0.510611 0.474548 0.444934
0.524164 0.484580 0.435287
0.537798 0.494329 0.421964
0.551427 0.503651 0.404403
0.240965 0.223198 0.458637
0.253042 0.239973 0.460001
0.263994 0.254740 0.459649
0.273984 0.267749 0.457973
0.283165 0.279238 0.455333
0.291684 0.289430 0.452053
0.299676 0.298533 0.448426
0.307269 0.306743 0.444712
0.314582 0.314242 0.441137
0.321726 0.321199 0.437893
0.328803 0.327767 0.435140
0.335904 0.334088 0.433006
0.343116 0.340288 0.431583
0.350513 0.346481 0.430931
0.358163 0.352765 0.431077
0.366123 0.359228 0.432015
0.374444 0.365940 0.433705
0.383167 0.372961 0.436075
0.392323 0.380335 0.439019
0.401936 0.388093 0.442397
0.412021 0.396252 0.446038
0.422585 0.404815 0.449735
0.433625 0.413773 0.453251
0.445129 0.423102 0.456312
0.457078 0.432763 0.458615
0.469444 0.442706 0.459820
0.482189 0.452865 0.459557
0.495268 0.463161 0.457420
0.508625 0.473503 0.452971
0.522197 0.483783 0.445740
0.535913 0.493881 0.435222
0.549693 0.503665 0.420879
0.563446 0.512986 0.402140
0.249437 0.231876 0.457782
0.261313 0.248201 0.459023
0.272108 0.262584 0.458634
0.281981 0.275271 0.457000
0.291083 0.286495 0.454470
0.299559 0.296477 0.451363
0.307542 0.305422 0.447962
0.315158 0.313522 0.444519
0.322523 0.320956 0.441251
0.329747 0.327888 0.438343
0.336929 0.334470 0.435947
0.344158 0.340839 0.434180
0.351519 0.347117 0.433128
0.359084 0.353416 0.432842
0.366917 0.359831 0.433341
0.375076 0.366444 0.434610
0.383608 0.373324 0.436602
0.392551 0.380527 0.439236
0.401936 0.388093 0.442397
0.411783 0.396049 0.445938
0.422107 0.404411 0.449678
0.432910 0.413176 0.453404
0.444188 0.422333 0.456869
0.455927 0.431854 0.459791
0.468107 0.441697 0.461859
0.480696 0.451808 0.462724
0.493654 0.462118 0.462008
0.506934 0.472545 0.459298
0.520479 0.482993 0.454146
0.534223 0.493352 0.446074
0.548093 0.503499 0.434569
0.562006 0.513296 0.419085
0.575869 0.522594 0.399044
0.258071 0.240503 0.457377
0.269776 0.256423 0.458531
0.280441 0.270463 0.458137
0.290223 0.282867 0.456569
0.299272 0.293865 0.454171
0.307729 0.303673 0.451251
0.315725 0.312492 0.448085
0.323385 0.320514 0.444916
0.330822 0.327911 0.441953
0.338143 0.334845 0.439374
0.345446 0.341464 0.437320
0.352819 0.347902 0.435902
0.360342 0.354279 0.435196
0.368087 0.360701 0.435247
0.376116 0.367261 0.436064
0.384483 0.374037 0.437624
0.393233 0.381096 0.439871
0.402403 0.388488 0.442717
0.412021 0.396252 0.446038
0.422107 0.404411 0.449678
0.432670 0.412975 0.453450
0.443713 0.421942 0.457130
0.455228 0.431295 0.460464
0.467201 0.441002 0.463162
0.479607 0.451019 0.464904
0.492413 0.461287 0.465334
0.505579 0.471736 0.464063
0.519052 0.482278 0.460672
0.532775 0.492815 0.454705
0.546681 0.503234 0.445674
0.560692 0.513407 0.433058
0.574724 0.523195 0.416304
0.588683 0.532442 0.394824
0.266911 0.249143 0.457365
0.278473 0.264699 0.458461
0.289034 0.278436 0.458084
0.298750 0.290594 0.456600
0.307769 0.301399 0.454345
0.316228 0.311064 0.451618
0.324258 0.319789 0.448688
0.331979 0.327758 0.445788
0.339506 0.335144 0.443121
0.346941 0.342103 0.440853
0.354380 0.348780 0.439121
0.361909 0.355306 0.438025
0.369606 0.361797 0.437633
0.377540 0.368356 0.437982
0.385772 0.375072 0.439073
0.394354 0.382021 0.440875
0.403329 0.389265 0.443323
0.412730 0.396852 0.446320
0.422585 0.404815 0.449735
0.432910 0.413176 0.453404
0.443713 0.421942 0.457130
0.454994 0.431106 0.460682
0.466744 0.440647 0.463797
0.478945 0.450531 0.466178
0.491572 0.460711 0.467495
0.504589 0.471124 0.467384
0.517952 0.481694 0.465450
0.531609 0.492334 0.461262
0.545499 0.502940 0.454358
0.559552 0.513396 0.444242
0.573690 0.523570 0.430384
0.587825 0.533320 0.412222
0.601862 0.542488 0.389160
0.275994 0.257848 0.457657
0.287438 0.273077 0.458715
0.297920 0.286546 0.458369
0.307592 0.298491 0.456979
0.316601 0.309135 0.454870
0.325082 0.318687 0.452335
0.333163 0.327343 0.449632
0.340964 0.335284 0.446989
0.348594 0.342680 0.444598
0.356157 0.349683 0.442618
0.363743 0.356436 0.441177
0.371439 0.363064 0.440368
0.379320 0.369682 0.440250
0.387452 0.376388 0.440851
0.395894 0.383269 0.442164
0.404696 0.390397 0.444150
0.413898 0.397829 0.446735
0.423533 0.405611 0.449816
0.433625 0.413773 0.453251
0.444188 0.422333 0.456869
0.455228 0.431295 0.460464
0.466744 0.440647 0.463797
0.478723 0.450367 0.466597
0.491147 0.460416 0.468559
0.503986 0.470743 0.469344
0.517204 0.481282 0.468580
0.530754 0.491956 0.465863
0.544582 0.502672 0.460755
0.558625 0.513322 0.452785
0.572810 0.523788 0.441448
0.587058 0.533936 0.426207
0.601278 0.543617 0.406491
0.615374 0.552672 0.381696
0.285348 0.266655 0.458131
0.296698 0.281593 0.459163
0.307121 0.294826 0.458855
0.316770 0.306587 0.457558
0.325787 0.317097 0.455590
0.334308 0.326561 0.453236
0.342456 0.335171 0.450746
0.350350 0.343105 0.448337
0.358098 0.350529 0.446195
0.365799 0.357593 0.444471
0.373544 0.364434 0.443284
0.381415 0.371177 0.442717
0.389486 0.377931 0.442823
0.397821 0.384791 0.443621
0.406477 0.391841 0.445096
0.415502 0.399149 0.447201
0.424933 0.406770 0.449853
0.434802 0.414745 0.452939
0.445129 0.423102 0.456312
0.455927 0.431854 0.459791
0.467201 0.441002 0.463162
0.478945 0.450531 0.466178
0.491147 0.460416 0.468559
0.503784 0.470613 0.469991
0.516825 0.481069 0.470129
0.530232 0.491716 0.468591
0.543956 0.502470 0.464965
0.557941 0.513236 0.458804
0.572120 0.523904 0.449630
0.586421 0.534350 0.436929
0.600759 0.544438 0.420157
0.615045 0.554017 0.398732
0.629177 0.562922 0.372045
0.294993 0.275589 0.458631
0.306269 0.290266 0.459639
0.316653 0.303291 0.459367
0.326296 0.314896 0.458157
0.335339 0.325296 0.456317
0.343914 0.334693 0.454125
0.352143 0.343276 0.451822
0.360143 0.351221 0.449619
0.368018 0.358688 0.447691
0.375867 0.365825 0.446182
0.383778 0.372766 0.445201
0.391831 0.379630 0.444826
0.400097 0.386525 0.445099
0.408640 0.393544 0.446031
0.417512 0.400764 0.447600
0.426760 0.408251 0.449748
0.436420 0.416057 0.452388
0.446520 0.424220 0.455395
0.457078 0.432763 0.458615
0.468107 0.441697 0.461859
0.479607 0.451019 0.464904
0.491572 0.460711 0.467495
0.503986 0.470743 0.469344
0.516825 0.481069 0.470129
0.530057 0.491633 0.469494
0.543639 0.502362 0.467053
0.557521 0.513170 0.462383
0.571646 0.523958 0.455029
0.585944 0.534612 0.444505
0.600340 0.545006 0.430290
0.614748 0.555000 0.411828
0.629076 0.564438 0.388533
0.643221 0.573154 0.359784
0.304939 0.284660 0.458968
0.316159 0.299103 0.459948
0.326522 0.311947 0.459701
0.336176 0.323417 0.458561
0.345258 0.333727 0.456829
0.353900 0.343076 0.454771
0.362222 0.351649 0.452624
0.370337 0.359617 0.450587
0.378349 0.367139 0.448830
0.386353 0.374358 0.447486
0.394435 0.381405 0.446658
0.402674 0.388397 0.446413
0.411139 0.395436 0.446788
0.419890 0.402612 0.447783
0.428978 0.410000 0.449368
0.438448 0.417662 0.451479
0.448333 0.425647 0.454017
0.458660 0.433988 0.456852
0.469444 0.442706 0.459820
0.480696 0.451808 0.462724
0.492413 0.461287 0.465334
0.504589 0.471124 0.467384
0.517204 0.481282 0.468580
0.530232 0.491716 0.468591
0.543639 0.502362 0.467053
0.557380 0.513146 0.463570
0.571404 0.523978 0.457712
0.585649 0.534755 0.449018
0.600046 0.545362 0.436990
0.614515 0.555667 0.421099
0.628970 0.565528 0.400783
0.643316 0.574785 0.375446
0.657447 0.583267 0.344460
0.315188 0.293865 0.458920
0.326369 0.308098 0.459859
0.336725 0.320781 0.459618
0.346403 0.332137 0.458524
0.355538 0.342375 0.456869
0.364257 0.351691 0.454911
0.372681 0.360265 0.452878
0.380920 0.368268 0.450962
0.389074 0.375852 0.449323
0.397238 0.383159 0.448088
0.405496 0.390316 0.447349
0.413923 0.397436 0.447166
0.422586 0.404618 0.447568
0.431545 0.411948 0.448547
0.440847 0.419498 0.450064
0.450535 0.427327 0.452045
0.460640 0.435480 0.454387
0.471187 0.443987 0.456948
0.482189 0.452865 0.459557
0.493654 0.462118 0.462008
0.505579 0.471736 0.464063
0.517952 0.481694 0.465450
0.530754 0.491956 0.465863
0.543956 0.502470 0.464965
0.557521 0.513170 0.462383
0.571404 0.523978 0.457712
0.585549 0.534801 0.450516
