lrplugin/MindfulLensFilmEngine.lrplugin/profiles/luts/bw_kosmo_pan.cube
# Generated from ColorChecker fit
LUT_3D_SIZE 9
DOMAIN_MIN 0.0 0.0 0.0
DOMAIN_MAX 1.0 1.0 1.0
0.012450 0.000000 0.416133
0.093264 0.027057 0.470200
0.148943 0.109392 0.480512
0.189889 0.164653 0.472164
0.224280 0.205355 0.461753
0.258071 0.240503 0.457377
0.294993 0.275589 0.458631
0.336558 0.312592 0.456613
0.382050 0.349980 0.433919
0.093264 0.027057 0.470200
0.159592 0.127980 0.497498
0.204623 0.191728 0.490823
0.238202 0.233451 0.473145
0.267952 0.264788 0.458937
0.299272 0.293865 0.454171
0.335339 0.325296 0.456317
0.377107 0.360182 0.454349
0.423305 0.396112 0.428736
0.148943 0.109392 0.480512
0.204623 0.191728 0.490823
0.242472 0.242231 0.475526
0.271781 0.275174 0.455468
0.299617 0.301318 0.442994
0.330822 0.327911 0.441953
0.368018 0.358688 0.447691
0.411603 0.393873 0.447054
0.459752 0.430176 0.418389
0.189889 0.164653 0.472164
0.238202 0.233451 0.473145
0.271781 0.275174 0.455468
0.299361 0.303217 0.437852
0.327452 0.327462 0.430521
0.360342 0.354279 0.435196
0.400097 0.386525 0.445099
0.446559 0.423547 0.444950
0.497347 0.461177 0.410973
0.224280 0.205355 0.461753
0.267952 0.264788 0.458937
0.299617 0.301318 0.442994
0.327452 0.327462 0.430521
0.357413 0.352224 0.429615
0.393233 0.381096 0.439871
0.436420 0.416057 0.452388
0.486261 0.455576 0.449760
0.539820 0.494606 0.406086
0.258071 0.240503 0.457377
0.299272 0.293865 0.454171
0.330822 0.327911 0.441953
0.360342 0.354279 0.435196
0.393233 0.381096 0.439871
0.432670 0.412975 0.453450
0.479607 0.451019 0.464904
0.532775 0.492815 0.454705
0.588683 0.532442 0.394824
0.294993 0.275589 0.458631
0.335339 0.325296 0.456317
0.368018 0.358688 0.447691
0.400097 0.386525 0.445099
0.436420 0.416057 0.452388
0.479607 0.451019 0.464904
0.530057 0.491633 0.469494
0.585944 0.534612 0.444505
0.643221 0.573154 0.359784
0.336558 0.312592 0.456613
0.377107 0.360182 0.454349
0.411603 0.393873 0.447054
0.446559 0.423547 0.444950
0.486261 0.455576 0.449760
0.532775 0.492815 0.454705
0.585944 0.534612 0.444505
0.643386 0.576799 0.395384
0.700498 0.611696 0.275063
0.382050 0.349980 0.433919
0.423305 0.396112 0.428736
0.459752 0.430176 0.418389
0.497347 0.461177 0.410973
0.539820 0.494606 0.406086
0.588683 0.532442 0.394824
0.643221 0.573154 0.359784
0.700498 0.611696 0.275063
0.755354 0.639511 0.106257
0.093264 0.027057 0.470200
0.159592 0.127980 0.497498
0.204623 0.191728 0.490823
0.238202 0.233451 0.473145
0.267952 0.264788 0.458937
0.299272 0.293865 0.454171
0.335339 0.325296 0.456317
0.377107 0.360182 0.454349
0.423305 0.396112 0.428736
0.159592 0.127980 0.497498
0.213445 0.207497 0.503273
0.249654 0.255475 0.484147
0.277507 0.286186 0.460969
0.304072 0.310391 0.446084
0.334192 0.335336 0.443339
0.370489 0.364759 0.448081
0.413359 0.398882 0.447157
0.460979 0.434417 0.418913
0.204623 0.191728 0.490823
0.249654 0.255475 0.484147
0.280322 0.292734 0.460229
0.305361 0.316897 0.437790
0.331281 0.337848 0.427052
0.362372 0.361956 0.429736
0.400697 0.392080 0.439065
0.446100 0.427563 0.439759
0.496200 0.464241 0.408041
0.238202 0.233451 0.473145
0.277507 0.286186 0.460969
0.305361 0.316897 0.437790
0.329941 0.338100 0.420206
0.357202 0.358799 0.416314
0.390877 0.384486 0.425709
0.432476 0.417140 0.439490
0.481285 0.455230 0.440251
0.534367 0.493709 0.402091
0.267952 0.264788 0.458937
0.304072 0.310391 0.446084
0.331281 0.337848 0.427052
0.357202 0.358799 0.416314
0.387234 0.381369 0.419841
0.424553 0.410173 0.435105
0.470113 0.446311 0.451078
0.522646 0.487373 0.448231
0.578659 0.527437 0.398536
0.299272 0.293865 0.454171
0.334192 0.335336 0.443339
0.362372 0.361956 0.429736
0.390877 0.384486 0.425709
0.424553 0.410173 0.435105
0.466019 0.442753 0.453270
0.515674 0.482449 0.467050
0.571693 0.525974 0.454794
0.630027 0.566525 0.386346
0.335339 0.325296 0.456317
0.370489 0.364759 0.448081
0.400697 0.392080 0.439065
0.432476 0.417140 0.439490
0.470113 0.446311 0.451078
0.515674 0.482449 0.467050
0.569000 0.524901 0.472130
0.627711 0.569498 0.442537
0.687204 0.608562 0.345994
0.377107 0.360182 0.454349
0.413359 0.398882 0.447157
0.446100 0.427563 0.439759
0.481285 0.455230 0.440251
0.522646 0.487373 0.448231
0.571693 0.525974 0.454794
0.627711 0.569498 0.442537
0.687766 0.612902 0.385557
0.746696 0.647627 0.249451
0.423305 0.396112 0.428736
0.460979 0.434417 0.418913
0.496200 0.464241 0.408041
0.534367 0.493709 0.402091
0.578659 0.527437 0.398536
0.630027 0.566525 0.386346
0.687204 0.608562 0.345994
0.746696 0.647627 0.249451
0.802790 0.674282 0.060188
0.148943 0.109392 0.480512
0.204623 0.191728 0.490823
0.242472 0.242231 0.475526
0.271781 0.275174 0.455468
0.299617 0.301318 0.442994
0.330822 0.327911 0.441953
0.368018 0.358688 0.447691
0.411603 0.393873 0.447054
0.459752 0.430176 0.418389
0.204623 0.191728 0.490823
0.249654 0.255475 0.484147
0.280322 0.292734 0.460229
0.305361 0.316897 0.437790
0.331281 0.337848 0.427052
0.362372 0.361956 0.429736
0.400697 0.392080 0.439065
0.446100 0.427563 0.439759
0.496200 0.464241 0.408041
0.242472 0.242231 0.475526
0.280322 0.292734 0.460229
0.306905 0.321505 0.434638
0.330400 0.341061 0.415351
0.356761 0.360405 0.410463
0.389722 0.385031 0.419572
0.430791 0.416916 0.433774
0.479256 0.454529 0.435665
0.532179 0.492825 0.399343
0.271781 0.275174 0.455468
0.305361 0.316897 0.437790
0.330400 0.341061 0.415351
0.354520 0.359303 0.402622
0.383123 0.379750 0.405575
0.419383 0.407015 0.421682
0.464255 0.442201 0.439914
0.516470 0.482896 0.440744
0.572535 0.523178 0.396141
0.299617 0.301318 0.442994
0.331281 0.337848 0.427052
0.356761 0.360405 0.410463
0.383123 0.379750 0.405575
0.415210 0.403130 0.416235
0.455643 0.434281 0.437789
0.504822 0.473427 0.457084
0.560919 0.517279 0.452466
0.619888 0.559035 0.393783
0.330822 0.327911 0.441953
0.362372 0.361956 0.429736
0.389722 0.385031 0.419572
0.419383 0.407015 0.421682
0.455643 0.434281 0.437789
0.500568 0.469685 0.461114
0.554000 0.512573 0.476379
0.613557 0.558777 0.459805
0.674637 0.600619 0.379114
0.368018 0.358688 0.447691
0.400697 0.392080 0.439065
0.430791 0.416916 0.433774
0.464255 0.442201 0.439914
0.504822 0.473427 0.457084
0.554000 0.512573 0.476379
0.611076 0.558106 0.480396
0.673114 0.604982 0.443231
0.734955 0.644643 0.330482
0.411603 0.393873 0.447054
0.446100 0.427563 0.439759
0.479256 0.454529 0.435665
0.516470 0.482896 0.440744
0.560919 0.517279 0.452466
0.613557 0.558777 0.459805
0.673114 0.604982 0.443231
0.736099 0.649969 0.374716
0.796796 0.684304 0.217732
0.459752 0.430176 0.418389
0.496200 0.464241 0.408041
0.532179 0.492825 0.399343
0.572535 0.523178 0.396141
0.619888 0.559035 0.393783
0.674637 0.600619 0.379114
0.734955 0.644643 0.330482
0.796796 0.684304 0.217732
0.853888 0.709289 0.002213
0.189889 0.164653 0.472164
0.238202 0.233451 0.473145
0.271781 0.275174 0.455468
0.299361 0.303217 0.437852
0.327452 0.327462 0.430521
0.360342 0.354279 0.435196
0.400097 0.386525 0.445099
0.446559 0.423547 0.444950
0.497347 0.461177 0.410973
0.238202 0.233451 0.473145
0.277507 0.286186 0.460969
0.305361 0.316897 0.437790
0.329941 0.338100 0.420206
0.357202 0.358799 0.416314
0.390877 0.384486 0.425709
0.432476 0.417140 0.439490
0.481285 0.455230 0.440251
0.534367 0.493709 0.402091
0.271781 0.275174 0.455468
0.305361 0.316897 0.437790
0.330400 0.341061 0.415351
0.354520 0.359303 0.402622
0.383123 0.379750 0.405575
0.419383 0.407015 0.421682
0.464255 0.442201 0.439914
0.516470 0.482896 0.440744
0.572535 0.523178 0.396141
0.299361 0.303217 0.437852
0.329941 0.338100 0.420206
0.354520 0.359303 0.402622
0.380167 0.377586 0.397447
0.411725 0.400197 0.408529
0.451814 0.430872 0.431212
0.500834 0.469834 0.452345
0.556957 0.513795 0.450274
0.616138 0.555953 0.394845
0.327452 0.327462 0.430521
0.357202 0.358799 0.416314
0.383123 0.379750 0.405575
0.411725 0.400197 0.408529
0.447297 0.426510 0.426895
0.491904 0.461547 0.453896
0.545388 0.504653 0.474254
0.605368 0.551661 0.464189
0.667241 0.594892 0.391424
0.360342 0.354279 0.435196
0.390877 0.384486 0.425709
0.419383 0.407015 0.421682
0.451814 0.430872 0.431212
0.491904 0.461547 0.453896
0.541161 0.501020 0.480830
0.598872 0.547758 0.494611
0.662100 0.596718 0.469336
0.725687 0.639340 0.370601
0.400097 0.386525 0.445099
0.432476 0.417140 0.439490
0.464255 0.442201 0.439914
0.500834 0.469834 0.452345
0.545388 0.504653 0.474254
0.598872 0.547758 0.494611
0.660016 0.596741 0.493890
0.725329 0.645677 0.444060
0.789095 0.685131 0.308595
0.446559 0.423547 0.444950
0.481285 0.455230 0.440251
0.516470 0.482896 0.440744
0.556957 0.513795 0.450274
0.605368 0.551661 0.464189
0.662100 0.596718 0.469336
0.725329 0.645677 0.444060
0.791006 0.691737 0.358210
0.852861 0.724585 0.173130
0.497347 0.461177 0.410973
0.534367 0.493709 0.402091
0.572535 0.523178 0.396141
0.616138 0.555953 0.394845
0.667241 0.594892 0.391424
0.725687 0.639340 0.370601
0.789095 0.685131 0.308595
0.852861 0.724585 0.173130
0.910159 0.746511 0.000000
0.224280 0.205355 0.461753
0.267952 0.264788 0.458937
0.299617 0.301318 0.442994
0.327452 0.327462 0.430521
0.357413 0.352224 0.429615
0.393233 0.381096 0.439871
0.436420 0.416057 0.452388
0.486261 0.455576 0.449760
0.539820 0.494606 0.406086
0.267952 0.264788 0.458937
0.304072 0.310391 0.446084
0.331281 0.337848 0.427052
0.357202 0.358799 0.416314
0.387234 0.381369 0.419841
0.424553 0.410173 0.435105
0.470113 0.446311 0.451078
0.522646 0.487373 0.448231
0.578659 0.527437 0.398536
0.299617 0.301318 0.442994
0.331281 0.337848 0.427052
0.356761 0.360405 0.410463
0.383123 0.379750 0.405575
0.415210 0.403130 0.416235
0.455643 0.434281 0.437789
0.504822 0.473427 0.457084
0.560919 0.517279 0.452466
0.619888 0.559035 0.393783
0.327452 0.327462 0.430521
0.357202 0.358799 0.416314
0.383123 0.379750 0.405575
0.411725 0.400197 0.408529
0.447297 0.426510 0.426895
0.491904 0.461547 0.453896
0.545388 0.504653 0.474254
0.605368 0.551661 0.464189
0.667241 0.594892 0.391424
0.357413 0.352224 0.429615
0.387234 0.381369 0.419841
0.415210 0.403130 0.416235
0.447297 0.426510 0.426895
0.487227 0.457001 0.451417
0.536511 0.496583 0.480897
0.594433 0.543724 0.497933
0.658059 0.593378 0.476621
0.722227 0.636987 0.382557
0.393233 0.381096 0.439871
0.424553 0.410173 0.435105
0.455643 0.434281 0.437789
0.491904 0.461547 0.453896
0.536511 0.496583 0.480897
0.590418 0.540493 0.507764
0.652356 0.590864 0.514969
0.718832 0.641775 0.474482
0.784133 0.683789 0.349777
0.436420 0.416057 0.452388
0.470113 0.446311 0.451078
0.504822 0.473427 0.457084
0.545388 0.504653 0.474254
0.594433 0.543724 0.497933
0.652356 0.590864 0.514969
0.717330 0.642785 0.503707
0.785309 0.692685 0.433996
0.850022 0.730251 0.267181
0.486261 0.455576 0.449760
0.522646 0.487373 0.448231
0.560919 0.517279 0.452466
0.605368 0.551661 0.464189
0.658059 0.593378 0.476621
0.718832 0.641775 0.474482
0.785309 0.692685 0.433996
0.852885 0.738430 0.322883
0.914734 0.767816 0.100365
0.539820 0.494606 0.406086
0.578659 0.527437 0.398536
0.619888 0.559035 0.393783
0.667241 0.594892 0.391424
0.722227 0.636987 0.382557
0.784133 0.683789 0.349777
0.850022 0.730251 0.267181
0.914734 0.767816 0.100365
0.970889 0.784416 0.000000
0.258071 0.240503 0.457377
0.299272 0.293865 0.454171
0.330822 0.327911 0.441953
0.360342 0.354279 0.435196
0.393233 0.381096 0.439871
0.432670 0.412975 0.453450
0.479607 0.451019 0.464904
0.532775 0.492815 0.454705
0.588683 0.532442 0.394824
0.299272 0.293865 0.454171
0.334192 0.335336 0.443339
0.362372 0.361956 0.429736
0.390877 0.384486 0.425709
0.424553 0.410173 0.435105
0.466019 0.442753 0.453270
0.515674 0.482449 0.467050
0.571693 0.525974 0.454794
0.630027 0.566525 0.386346
0.330822 0.327911 0.441953
0.362372 0.361956 0.429736
0.389722 0.385031 0.419572
0.419383 0.407015 0.421682
0.455643 0.434281 0.437789
0.500568 0.469685 0.461114
0.554000 0.512573 0.476379
0.613557 0.558777 0.459805
0.674637 0.600619 0.379114
0.360342 0.354279 0.435196
0.390877 0.384486 0.425709
0.419383 0.407015 0.421682
0.451814 0.430872 0.431212
0.491904 0.461547 0.453896
0.541161 0.501020 0.480830
0.598872 0.547758 0.494611
0.662100 0.596718 0.469336
0.725687 0.639340 0.370601
0.393233 0.381096 0.439871
0.424553 0.410173 0.435105
0.455643 0.434281 0.437789
0.491904 0.461547 0.453896
0.536511 0.496583 0.480897
0.590418 0.540493 0.507764
0.652356 0.590864 0.514969
0.718832 0.641775 0.474482
0.784133 0.683789 0.349777
0.432670 0.412975 0.453450
0.466019 0.442753 0.453270
0.500568 0.469685 0.461114
0.541161 0.501020 0.480830
0.590418 0.540493 0.507764
0.648737 0.588328 0.528763
0.714294 0.641236 0.522173
0.783040 0.692416 0.457841
0.848705 0.731554 0.297114
0.479607 0.451019 0.464904
0.515674 0.482449 0.467050
0.554000 0.512573 0.476379
0.598872 0.547758 0.494611
0.652356 0.590864 0.514969
0.714294 0.641236 0.522173
0.782305 0.694706 0.492446
0.851786 0.743595 0.393510
0.915910 0.776713 0.184585
0.532775 0.492815 0.454705
0.571693 0.525974 0.454794
0.613557 0.558777 0.459805
0.662100 0.596718 0.469336
0.718832 0.641775 0.474482
0.783040 0.692416 0.457841
0.851786 0.743595 0.393510
0.919912 0.786757 0.247083
0.980035 0.809830 0.000000
0.588683 0.532442 0.394824
0.630027 0.566525 0.386346
0.674637 0.600619 0.379114
0.725687 0.639340 0.370601
0.784133 0.683789 0.349777
0.848705 0.731554 0.297114
0.915910 0.776713 0.184585
0.980035 0.809830 0.000000
1.000000 0.817958 0.000000
0.294993 0.275589 0.458631
0.335339 0.325296 0.456317
0.368018 0.358688 0.447691
0.400097 0.386525 0.445099
0.436420 0.416057 0.452388
0.479607 0.451019 0.464904
0.530057 0.491633 0.469494
0.585944 0.534612 0.444505
0.643221 0.573154 0.359784
0.335339 0.325296 0.456317
0.370489 0.364759 0.448081
0.400697 0.392080 0.439065
0.432476 0.417140 0.439490
0.470113 0.446311 0.451078
0.515674 0.482449 0.467050
0.569000 0.524901 0.472130
0.627711 0.569498 0.442537
0.687204 0.608562 0.345994
0.368018 0.358688 0.447691
0.400697 0.392080 0.439065
0.430791 0.416916 0.433774
0.464255 0.442201 0.439914
0.504822 0.473427 0.457084
0.554000 0.512573 0.476379
0.611076 0.558106 0.480396
0.673114 0.604982 0.443231
0.734955 0.644643 0.330482
0.400097 0.386525 0.445099
0.432476 0.417140 0.439490
0.464255 0.442201 0.439914
0.500834 0.469834 0.452345
0.545388 0.504653 0.474254
0.598872 0.547758 0.494611
0.660016 0.596741 0.493890
0.725329 0.645677 0.444060
0.789095 0.685131 0.308595
0.436420 0.416057 0.452388
0.470113 0.446311 0.451078
0.504822 0.473427 0.457084
0.545388 0.504653 0.474254
0.594433 0.543724 0.497933
0.652356 0.590864 0.514969
0.717330 0.642785 0.503707
0.785309 0.692685 0.433996
0.850022 0.730251 0.267181
0.479607 0.451019 0.464904
0.515674 0.482449 0.467050
0.554000 0.512573 0.476379
0.598872 0.547758 0.494611
0.652356 0.590864 0.514969
0.714294 0.641236 0.522173
0.782305 0.694706 0.492446
0.851786 0.743595 0.393510
0.915910 0.776713 0.184585
0.530057 0.491633 0.469494
0.569000 0.524901 0.472130
0.611076 0.558106 0.480396
0.660016 0.596741 0.493890
0.717330 0.642785 0.503707
0.782305 0.694706 0.492446
0.852004 0.747458 0.434202
0.921267 0.792485 0.294573
0.982713 0.817716 0.030654
0.585944 0.534612 0.444505
0.627711 0.569498 0.442537
0.673114 0.604982 0.443231
0.725329 0.645677 0.444060
0.785309 0.692685 0.433996
0.851786 0.743595 0.393510
0.921267 0.792485 0.294573
0.988038 0.829918 0.100657
1.000000 0.842948 0.000000
0.643221 0.573154 0.359784
0.687204 0.608562 0.345994
0.734955 0.644643 0.330482
0.789095 0.685131 0.308595
0.850022 0.730251 0.267181
0.915910 0.776713 0.184585
0.982713 0.817716 0.030654
1.000000 0.842948 0.000000
1.000000 0.838581 0.000000
0.336558 0.312592 0.456613
0.377107 0.360182 0.454349
0.411603 0.393873 0.447054
0.446559 0.423547 0.444950
0.486261 0.455576 0.449760
0.532775 0.492815 0.454705
0.585944 0.534612 0.444505
0.643386 0.576799 0.395384
0.700498 0.611696 0.275063
0.377107 0.360182 0.454349
0.413359 0.398882 0.447157
0.446100 0.427563 0.439759
0.481285 0.455230 0.440251
0.522646 0.487373 0.448231
0.571693 0.525974 0.454794
0.627711 0.569498 0.442537
0.687766 0.612901 0.385557
0.746696 0.647627 0.249451
0.411603 0.393873 0.447054
0.446100 0.427563 0.439759
0.479256 0.454529 0.435665
0.516470 0.482896 0.440744
0.560919 0.517279 0.452466
0.613557 0.558777 0.459805
0.673114 0.604982 0.443231
0.736099 0.649969 0.374716
0.796796 0.684304 0.217732
0.446559 0.423547 0.444950
0.481285 0.455230 0.440251
0.516470 0.482896 0.440744
0.556957 0.513795 0.450274
0.605368 0.551661 0.464189
0.662100 0.596718 0.469336
0.725329 0.645677 0.444060
0.791006 0.691737 0.358210
0.852861 0.724585 0.173130
0.486261 0.455576 0.449760
0.522646 0.487373 0.448231
0.560919 0.517279 0.452466
0.605368 0.551661 0.464189
0.658059 0.593378 0.476621
0.718832 0.641775 0.474482
0.785309 0.692685 0.433996
0.852885 0.738430 0.322883
0.914734 0.767816 0.100365
0.532775 0.492815 0.454705
0.571693 0.525974 0.454794
0.613557 0.558777 0.459805
0.662100 0.596718 0.469336
0.718832 0.641775 0.474482
0.783040 0.692416 0.457841
0.851786 0.743595 0.393510
0.919912 0.786757 0.247083
0.980035 0.809830 0.000000
0.585944 0.534612 0.444505
0.627711 0.569498 0.442537
0.673114 0.604982 0.443231
0.725329 0.645677 0.444060
0.785309 0.692685 0.433996
0.851786 0.743595 0.393510
0.921267 0.792485 0.294573
0.988038 0.829918 0.100657
1.000000 0.842948 0.000000
0.643386 0.576799 0.395384
0.687766 0.612901 0.385557
0.736099 0.649969 0.374716
0.791006 0.691737 0.358210
0.852885 0.738430 0.322883
0.919912 0.786757 0.247083
0.988038 0.829918 0.100657
1.000000 0.857600 0.000000
1.000000 0.855977 0.000000
0.700498 0.611696 0.275063
0.746696 0.647627 0.249451
0.796796 0.684304 0.217732
0.852861 0.724585 0.173130
0.914734 0.767816 0.100365
0.980035 0.809830 0.000000
1.000000 0.842948 0.000000
1.000000 0.855977 0.000000
1.000000 0.834215 0.000000
0.382050 0.349980 0.433919
0.423305 0.396112 0.428736
0.459752 0.430176 0.418389
0.497347 0.461177 0.410973
0.539820 0.494606 0.406086
0.588683 0.532442 0.394824
0.643221 0.573154 0.359784
0.700498 0.611696 0.275063
0.755354 0.639511 0.106257
0.423305 0.396112 0.428736
0.460979 0.434417 0.418913
0.496200 0.464241 0.408041
0.534367 0.493709 0.402091
0.578659 0.527437 0.398536
0.630027 0.566525 0.386346
0.687204 0.608562 0.345994
0.746696 0.647627 0.249451
0.802790 0.674282 0.060188
0.459752 0.430176 0.418389
0.496200 0.464241 0.408041
0.532179 0.492825 0.399343
0.572535 0.523178 0.396141
0.619888 0.559035 0.393783
0.674637 0.600619 0.379114
0.734955 0.644643 0.330482
0.796796 0.684304 0.217732
0.853888 0.709289 0.002213
0.497347 0.461177 0.410973
0.534367 0.493709 0.402091
0.572535 0.523178 0.396141
0.616138 0.555953 0.394845
0.667241 0.594892 0.391424
0.725687 0.639340 0.370601
0.789095 0.685131 0.308595
0.852861 0.724585 0.173130
0.910159 0.746511 0.000000
0.539820 0.494606 0.406086
0.578659 0.527437 0.398536
0.619888 0.559035 0.393783
0.667241 0.594892 0.391424
0.722227 0.636987 0.382557
0.784133 0.683789 0.349777
0.850022 0.730251 0.267181
0.914734 0.767816 0.100365
0.970888 0.784416 0.000000
0.588683 0.532442 0.394824
0.630027 0.566525 0.386346
0.674637 0.600619 0.379114
0.725687 0.639340 0.370601
0.784133 0.683789 0.349777
0.848705 0.731554 0.297114
0.915910 0.776713 0.184585
0.980035 0.809830 0.000000
1.000000 0.817958 0.000000
0.643221 0.573154 0.359784
0.687204 0.608562 0.345994
0.734955 0.644643 0.330482
0.789095 0.685131 0.308595
0.850022 0.730251 0.267181
0.915910 0.776713 0.184585
0.982713 0.817716 0.030654
1.000000 0.842948 0.000000
1.000000 0.838581 0.000000
0.700498 0.611696 0.275063
0.746696 0.647627 0.249451
0.796796 0.684304 0.217732
0.852861 0.724585 0.173130
0.914734 0.767816 0.100365
0.980035 0.809830 0.000000
1.000000 0.842948 0.000000
1.000000 0.855977 0.000000
1.000000 0.834215 0.000000
0.755354 0.639511 0.106257
0.802790 0.674282 0.060188
0.853888 0.709289 0.002213
0.910159 0.746511 0.000000
0.970888 0.784416 0.000000
1.000000 0.817958 0.000000
1.000000 0.838581 0.000000
1.000000 0.834215 0.000000
1.000000 0.789277 0.000000
