lrplugin/MindfulLensFilmEngine.lrplugin/profiles/luts/bw_kosmo_pan.cube
# Generated from ColorChecker fit
LUT_3D_SIZE 5
DOMAIN_MIN 0.0 0.0 0.0
DOMAIN_MAX 1.0 1.0 1.0
0.012450 0.000000 0.416133
0.148943 0.109392 0.480512
0.224280 0.205355 0.461753
0.294993 0.275589 0.458631
0.382050 0.349980 0.433919
0.148943 0.109392 0.480512
0.242472 0.242231 0.475526
0.299617 0.301318 0.442994
0.368018 0.358688 0.447691
0.459752 0.430176 0.418389
0.224280 0.205355 0.461753
0.299617 0.301318 0.442994
0.357413 0.352224 0.429615
0.436420 0.416057 0.452388
0.539820 0.494606 0.406086
0.294993 0.275589 0.458631
0.368018 0.358688 0.447691
0.436420 0.416057 0.452388
0.530057 0.491633 0.469494
0.643221 0.573154 0.359784
0.382050 0.349980 0.433919
0.459752 0.430176 0.418389
0.539820 0.494606 0.406086
0.643221 0.573154 0.359784
0.755354 0.639511 0.106257
0.148943 0.109392 0.480512
0.242472 0.242231 0.475526
0.299617 0.301318 0.442994
0.368018 0.358688 0.447691
0.459752 0.430176 0.418389
0.242472 0.242231 0.475526
0.306905 0.321505 0.434638
0.356761 0.360405 0.410463
0.430791 0.416916 0.433774
0.532179 0.492825 0.399343
0.299617 0.301318 0.442994
0.356761 0.360405 0.410463
0.415210 0.403130 0.416235
0.504822 0.473427 0.457084
0.619888 0.559035 0.393783
0.368018 0.358688 0.447691
0.430791 0.416916 0.433774
0.504822 0.473427 0.457084
0.611076 0.558106 0.480396
0.734955 0.644643 0.330482
0.459752 0.430176 0.418389
0.532179 0.492825 0.399343
0.619888 0.559035 0.393783
0.734955 0.644643 0.330482
0.853888 0.709289 0.002213
0.224280 0.205355 0.461753
0.299617 0.301318 0.442994
0.357413 0.352224 0.429615
0.436420 0.416057 0.452388
0.539820 0.494606 0.406086
0.299617 0.301318 0.442994
0.356761 0.360405 0.410463
0.415210 0.403130 0.416235
0.504822 0.473427 0.457084
0.619888 0.559035 0.393783
0.357413 0.352224 0.429615
0.415210 0.403130 0.416235
0.487227 0.457001 0.451417
0.594433 0.543724 0.497933
0.722227 0.636987 0.382557
0.436420 0.416057 0.452388
0.504822 0.473427 0.457084
0.594433 0.543724 0.497933
0.717330 0.642785 0.503707
0.850022 0.730251 0.267181
0.539820 0.494606 0.406086
0.619888 0.559035 0.393783
0.722227 0.636987 0.382557
0.850022 0.730251 0.267181
0.970889 0.784416 0.000000
0.294993 0.275589 0.458631
0.368018 0.358688 0.447691
0.436420 0.416057 0.452388
0.530057 0.491633 0.469494
0.643221 0.573154 0.359784
0.368018 0.358688 0.447691
0.430791 0.416916 0.433774
0.504822 0.473427 0.457084
0.611076 0.558106 0.480396
0.734955 0.644643 0.330482
0.436420 0.416057 0.452388
0.504822 0.473427 0.457084
0.594433 0.543724 0.497933
0.717330 0.642785 0.503707
0.850022 0.730251 0.267181
0.530057 0.491633 0.469494
0.611076 0.558106 0.480396
0.717330 0.642785 0.503707
0.852004 0.747458 0.434202
0.982713 0.817716 0.030654
0.643221 0.573154 0.359784
0.734955 0.644643 0.330482
0.850022 0.730251 0.267181
0.982713 0.817716 0.030654
1.000000 0.838581 0.000000
0.382050 0.349980 0.433919
0.459752 0.430176 0.418389
0.539820 0.494606 0.406086
0.643221 0.573154 0.359784
0.755354 0.639511 0.106257
0.459752 0.430176 0.418389
0.532179 0.492825 0.399343
0.619888 0.559035 0.393783
0.734955 0.644643 0.330482
0.853888 0.709289 0.002213
0.539820 0.494606 0.406086
0.619888 0.559035 0.393783
0.722227 0.636987 0.382557
0.850022 0.730251 0.267181
0.970888 0.784416 0.000000
0.643221 0.573154 0.359784
0.734955 0.644643 0.330482
0.850022 0.730251 0.267181
0.982713 0.817716 0.030654
1.000000 0.838581 0.000000
0.755354 0.639511 0.106257
0.853888 0.709289 0.002213
0.970888 0.784416 0.000000
1.000000 0.838581 0.000000
1.000000 0.789277 0.000000
