lrplugin/MindfulLensFilmEngine.lrplugin/profiles/luts/bw_trix_400.cube
# Generated from ColorChecker fit
LUT_3D_SIZE 33
DOMAIN_MIN 0.0 0.0 0.0
DOMAIN_MAX 1.0 1.0 1.0
0.799299 1.000000 0.252795
0.730865 1.000000 0.239099
0.671917 1.000000 0.230397
0.621563 1.000000 0.225897
0.578960 1.000000 0.224870
0.543309 1.000000 0.226644
0.513858 1.000000 0.230611
0.489902 1.000000 0.236220
0.470782 1.000000 0.242982
0.455884 0.958329 0.250468
0.444641 0.901138 0.258309
0.436533 0.853440 0.266197
0.431086 0.813880 0.273882
0.427871 0.781227 0.281177
0.426507 0.754377 0.287953
0.426658 0.732346 0.294144
0.428034 0.714278 0.299740
0.430393 0.699439 0.304796
0.433537 0.687221 0.309424
0.437316 0.677139 0.313797
0.441625 0.668833 0.318148
0.446407 0.662066 0.322772
0.451649 0.656727 0.328022
0.457386 0.652828 0.334312
0.463699 0.650507 0.342117
0.470713 0.650024 0.351971
0.478603 0.651765 0.364469
0.487588 0.656239 0.380266
0.497933 0.664080 0.400078
0.509949 0.676047 0.424680
0.523996 0.693023 0.454907
0.540477 0.716013 0.491656
0.559844 0.746149 0.535884
0.730865 1.000000 0.239099
0.667327 1.000000 0.228037
0.612969 1.000000 0.221695
0.566912 1.000000 0.219296
0.528325 1.000000 0.220126
0.496420 1.000000 0.223530
0.470456 1.000000 0.228913
0.449741 0.964907 0.235740
0.433627 0.892968 0.243536
0.421511 0.832976 0.251889
0.412838 0.783358 0.260444
0.407100 0.742668 0.268906
0.403833 0.709582 0.277044
0.402622 0.682900 0.284683
0.403095 0.661548 0.291711
0.404929 0.644574 0.298075
0.407845 0.631153 0.303783
0.411613 0.620582 0.308902
0.416047 0.612284 0.313560
0.421008 0.605805 0.317946
0.426402 0.600816 0.322309
0.432184 0.597112 0.326955
0.438353 0.594611 0.332256
0.444956 0.593359 0.338640
0.452083 0.593522 0.346596
0.459874 0.595394 0.356674
0.468513 0.599389 0.369484
0.478231 0.606050 0.385696
0.489305 0.616041 0.406040
0.502060 0.630151 0.431307
0.516863 0.649294 0.462349
0.534131 0.674508 0.500075
0.554327 0.706955 0.545457
0.671917 1.000000 0.230397
0.612969 1.000000 0.221695
0.562904 1.000000 0.217448
0.520856 1.000000 0.216898
0.486003 1.000000 0.219342
0.457570 1.000000 0.224142
0.434828 0.921229 0.230717
0.417096 0.844382 0.238549
0.403736 0.780540 0.247177
0.394160 0.728039 0.256203
0.387822 0.685337 0.265287
0.384226 0.651017 0.274152
0.382920 0.623787 0.282579
0.383499 0.602479 0.290409
0.385605 0.586049 0.297546
0.388926 0.573577 0.303951
0.393194 0.564269 0.309646
0.398189 0.557452 0.314716
0.403739 0.552581 0.319302
0.409716 0.549233 0.323608
0.416037 0.547109 0.327898
0.422669 0.546037 0.332496
0.429623 0.545965 0.337784
0.436955 0.546970 0.344209
0.444770 0.549249 0.352273
0.453217 0.553127 0.362542
0.462494 0.559050 0.375642
0.472842 0.567590 0.392256
0.484549 0.579445 0.413130
0.497952 0.595433 0.439071
0.513430 0.616500 0.470944
0.531413 0.643714 0.509674
0.552372 0.678270 0.556249
0.621563 1.000000 0.225897
0.566912 1.000000 0.219296
0.520856 1.000000 0.216898
0.482538 1.000000 0.217956
0.451150 0.994124 0.221787
0.425927 0.895147 0.227764
0.406153 0.812199 0.235324
0.391156 0.743398 0.243961
0.380313 0.686985 0.253233
0.373044 0.641325 0.262753
0.368817 0.604910 0.272200
0.367147 0.576354 0.281309
0.367594 0.554394 0.289877
0.369764 0.537895 0.297761
0.373310 0.525842 0.304878
0.377931 0.517349 0.311205
0.383373 0.511649 0.316781
0.389428 0.508105 0.321703
0.395932 0.506199 0.326129
0.402769 0.505540 0.330278
0.409872 0.505862 0.334428
0.417214 0.507021 0.338918
0.424821 0.508999 0.344147
0.432760 0.511902 0.350574
0.441147 0.515960 0.358720
0.450143 0.521527 0.369163
0.459956 0.529082 0.382543
0.470841 0.539227 0.399562
0.483097 0.552690 0.420980
0.497071 0.570322 0.447616
0.513155 0.593099 0.480353
0.531790 0.622121 0.520131
0.553459 0.658613 0.567951
0.578960 1.000000 0.224870
0.528325 1.000000 0.220126
0.486003 1.000000 0.219342
0.451150 0.994124 0.221787
0.422967 0.886473 0.226790
0.400704 0.796169 0.233742
0.383654 0.721236 0.242092
0.371158 0.659822 0.251353
0.362603 0.610200 0.261094
0.357422 0.570766 0.270947
0.355095 0.540042 0.280602
0.355147 0.516672 0.289812
0.357149 0.499428 0.298388
0.360721 0.487203 0.306202
0.365526 0.479014 0.313187
0.371275 0.474006 0.319334
0.377725 0.471443 0.324697
0.384680 0.470719 0.329389
0.391987 0.471347 0.333582
0.399544 0.472968 0.337510
0.407292 0.475345 0.341468
0.415218 0.478368 0.345808
0.423358 0.482048 0.350944
0.431792 0.486522 0.357352
0.440647 0.492052 0.365566
0.450095 0.499022 0.376181
0.460357 0.507943 0.389851
0.471697 0.519449 0.407292
0.484428 0.534297 0.429279
0.498908 0.553370 0.456649
0.515540 0.577675 0.490297
0.534776 0.608343 0.531180
0.557113 0.646630 0.580314
0.543309 1.000000 0.226644
0.496420 1.000000 0.223530
0.457570 1.000000 0.224142
0.425927 0.895147 0.227764
0.400704 0.796169 0.233742
0.381161 0.713870 0.241480
0.366604 0.646303 0.250443
0.356385 0.591648 0.260159
0.349903 0.548210 0.270212
0.346602 0.514415 0.280248
0.345973 0.488816 0.289974
0.347554 0.470090 0.299157
0.350927 0.457037 0.307623
0.355723 0.448582 0.315260
0.361617 0.443775 0.322014
0.368332 0.441789 0.327893
0.375637 0.441923 0.332966
0.383344 0.443598 0.337359
0.391317 0.446360 0.341262
0.399461 0.449882 0.344923
0.407731 0.453957 0.348649
0.416125 0.458505 0.352812
0.424691 0.463570 0.357839
0.433519 0.469320 0.364220
0.442749 0.476046 0.372504
0.452565 0.484165 0.383302
0.463197 0.494218 0.397284
0.474924 0.506870 0.415180
0.488068 0.522911 0.437781
0.503000 0.543253 0.465937
0.520134 0.568935 0.500560
0.539933 0.601119 0.542620
0.562906 0.641092 0.593150
0.513858 1.000000 0.230611
0.470456 1.000000 0.228913
0.434828 0.921229 0.230717
0.406153 0.812199 0.235324
0.383654 0.721236 0.242092
0.366604 0.646303 0.250443
0.354320 0.585485 0.259857
0.346167 0.536994 0.269874
0.341553 0.499163 0.280096
0.339935 0.470452 0.290183
0.340815 0.449444 0.299857
0.343744 0.434847 0.308900
0.348314 0.425492 0.317153
0.354169 0.420336 0.324519
0.360994 0.418459 0.330960
0.368524 0.419065 0.336499
0.376540 0.421485 0.341218
0.384866 0.425170 0.345261
0.393376 0.429699 0.348830
0.401989 0.434773 0.352190
0.410669 0.440218 0.355664
0.419427 0.445985 0.359636
0.428321 0.452149 0.364551
0.437455 0.458909 0.370912
0.446979 0.466587 0.379285
0.457089 0.475631 0.390295
0.468027 0.486614 0.404626
0.480082 0.500231 0.423025
0.493589 0.517302 0.446296
0.508930 0.538773 0.475306
0.526531 0.565712 0.510981
0.546866 0.599312 0.554307
0.570456 0.640891 0.606331
0.489902 1.000000 0.236220
0.449741 0.964907 0.235740
0.417096 0.844382 0.238549
0.391156 0.743398 0.243961
0.371158 0.659822 0.251353
0.356385 0.591648 0.260159
0.346167 0.536994 0.269874
0.339877 0.494100 0.280055
0.336938 0.461332 0.290317
0.336819 0.437181 0.300337
0.339032 0.420261 0.309851
0.343138 0.409310 0.318656
0.348744 0.403192 0.326609
0.355502 0.400893 0.333627
0.363112 0.401525 0.339687
0.371319 0.404324 0.344827
0.379915 0.408650 0.349145
0.388736 0.413987 0.352799
0.397668 0.419944 0.356008
0.406641 0.426254 0.359050
0.415630 0.432774 0.362263
0.424660 0.439485 0.366048
0.433798 0.446493 0.370863
0.443161 0.454028 0.377227
0.452909 0.462445 0.385721
0.463251 0.472222 0.396985
0.474441 0.483962 0.411719
0.486778 0.498393 0.430682
0.500609 0.516364 0.454697
0.516328 0.538854 0.484644
0.534373 0.566960 0.521464
0.555229 0.601908 0.566159
0.579427 0.645047 0.619790
0.470782 1.000000 0.242982
0.433627 0.892968 0.243536
0.403736 0.780540 0.247177
0.380313 0.686985 0.253233
0.362603 0.610200 0.261094
0.349903 0.548210 0.270212
0.341553 0.499163 0.280096
0.336938 0.461332 0.290317
0.335494 0.433114 0.300507
0.336699 0.413030 0.310357
0.340078 0.399725 0.319618
0.345204 0.391970 0.328102
0.351695 0.388657 0.335682
0.359215 0.388805 0.342289
0.367475 0.391557 0.347915
0.376231 0.396180 0.352614
0.385287 0.402065 0.356499
0.394491 0.408727 0.359742
0.403741 0.415806 0.362577
0.412977 0.423065 0.365298
0.422188 0.430394 0.368259
0.431408 0.437804 0.371873
0.440717 0.445433 0.376616
0.450242 0.453542 0.383021
0.460157 0.462515 0.391684
0.470681 0.472863 0.403260
0.482080 0.485220 0.418463
0.494664 0.500343 0.438070
0.508793 0.519116 0.462916
0.524870 0.542545 0.493898
0.543347 0.571761 0.531971
0.564720 0.608021 0.578152
0.589531 0.652702 0.633518
0.455884 0.958329 0.250468
0.421511 0.832976 0.251889
0.394160 0.728039 0.256203
0.373044 0.641325 0.262753
0.357422 0.570766 0.270947
0.346602 0.514415 0.280248
0.339935 0.470452 0.290183
0.336819 0.437181 0.300337
0.336699 0.413030 0.310357
0.339066 0.396551 0.319949
0.343458 0.386421 0.328879
0.349457 0.381439 0.336975
0.356694 0.380532 0.344123
0.364844 0.382749 0.350271
0.373630 0.387263 0.355427
0.382819 0.393372 0.359657
0.392228 0.400499 0.363090
0.401716 0.408189 0.365915
0.411190 0.416114 0.368379
0.420605 0.424069 0.370792
0.429960 0.431972 0.373523
0.439300 0.439869 0.377000
0.448718 0.447926 0.381713
0.458353 0.456435 0.388212
0.468388 0.465814 0.397106
0.479055 0.476602 0.409066
0.490632 0.489466 0.424822
0.503440 0.505194 0.445165
0.517851 0.524699 0.470946
0.534279 0.549021 0.503075
0.553187 0.579320 0.542524
0.575084 0.616884 0.590324
0.600524 0.663122 0.647568
0.444641 0.901138 0.258309
0.412838 0.783358 0.260444
0.387822 0.685337 0.265287
0.368817 0.604910 0.272200
0.355095 0.540042 0.280602
0.345973 0.488816 0.289974
0.340815 0.449444 0.299857
0.339032 0.420261 0.309851
0.340078 0.399725 0.319618
0.343458 0.386421 0.328879
0.348719 0.379054 0.337416
0.355456 0.376458 0.345071
0.363312 0.377588 0.351745
0.371973 0.381525 0.357402
0.381173 0.387474 0.362064
0.390692 0.394762 0.365813
0.400356 0.402845 0.368792
0.410038 0.411299 0.371206
0.419657 0.419826 0.373317
0.429177 0.428252 0.375449
0.438610 0.436528 0.377987
0.448013 0.444728 0.381374
0.457490 0.453051 0.386116
0.467191 0.461821 0.392776
0.477312 0.471485 0.401979
0.488095 0.482615 0.414412
0.499830 0.495906 0.430819
0.512851 0.512180 0.452006
0.527539 0.532382 0.478838
0.544322 0.557579 0.512243
0.563674 0.588965 0.553206
0.586114 0.627858 0.602774
0.612209 0.675700 0.662054
0.436533 0.853440 0.266197
0.407100 0.742668 0.268906
0.384226 0.651017 0.274152
0.367147 0.576354 0.281309
0.355147 0.516672 0.289812
0.347554 0.470090 0.299157
0.343744 0.434847 0.308900
0.343138 0.409310 0.318656
0.345204 0.391970 0.328102
0.349457 0.381439 0.336975
0.355456 0.376458 0.345071
0.362809 0.375889 0.352247
0.371167 0.378718 0.358420
0.380231 0.384059 0.363568
0.389745 0.391145 0.367728
0.399500 0.399338 0.370998
0.409336 0.408122 0.373536
0.419135 0.417106 0.375562
0.428828 0.426021 0.377352
0.438392 0.434726 0.379247
0.447849 0.443202 0.381644
0.457268 0.451555 0.385005
0.466766 0.460014 0.389847
0.476502 0.468935 0.396751
0.486685 0.478795 0.406357
0.497569 0.490197 0.419365
0.509455 0.503870 0.436535
0.522688 0.520663 0.458689
0.537662 0.541554 0.486707
0.554815 0.567641 0.521530
0.574633 0.600150 0.564161
0.597647 0.640428 0.615659
0.624435 0.689949 0.677148
0.431086 0.813880 0.273882
0.403833 0.709582 0.277044
0.382920 0.623787 0.282579
0.367594 0.554394 0.289877
0.357149 0.499428 0.298388
0.350927 0.457037 0.307623
0.348314 0.425492 0.317153
0.348744 0.403192 0.326609
0.351695 0.388657 0.335682
0.356694 0.380532 0.344123
0.363312 0.377588 0.351745
0.371167 0.378718 0.358420
0.379925 0.382941 0.364079
0.389294 0.389399 0.368715
0.399033 0.397359 0.372382
0.408945 0.406212 0.375191
0.418878 0.415473 0.377316
0.428729 0.424783 0.378990
0.438438 0.433905 0.380507
0.447995 0.442727 0.382222
0.457434 0.451263 0.384548
0.466835 0.459648 0.387959
0.476325 0.468144 0.392990
0.486078 0.477136 0.400236
0.496312 0.487134 0.410352
0.507293 0.498773 0.424053
0.519332 0.512809 0.442115
0.532789 0.530126 0.465374
0.548067 0.551731 0.494725
0.565618 0.578754 0.531125
0.585936 0.612451 0.575591
0.609567 0.654202 0.629198
0.637098 0.705511 0.693085
0.427871 0.781227 0.281177
0.402622 0.682900 0.284683
0.383499 0.602479 0.290409
0.369764 0.537895 0.297761
0.360721 0.487203 0.306202
0.355723 0.448582 0.315260
0.354169 0.420336 0.324519
0.355502 0.400893 0.333627
0.359215 0.388805 0.342289
0.364844 0.382749 0.350271
0.371973 0.381525 0.357402
0.380231 0.384059 0.363568
0.389294 0.389399 0.368715
0.398885 0.396720 0.372853
0.408772 0.405319 0.376048
0.418770 0.414618 0.378428
0.428739 0.424165 0.380182
0.438587 0.433629 0.381559
0.448267 0.442806 0.382866
0.457779 0.451615 0.384473
0.467168 0.460100 0.386809
0.476528 0.468429 0.390364
0.485996 0.476893 0.395687
0.495756 0.485910 0.403388
0.506040 0.496019 0.414137
0.517126 0.507887 0.428664
0.529335 0.522302 0.447761
0.543039 0.540178 0.472278
0.558652 0.562553 0.503126
0.576638 0.590589 0.541276
0.597503 0.625572 0.587760
0.621804 0.668914 0.643669
0.650141 0.722148 0.710157
0.426507 0.754377 0.287953
0.403095 0.661548 0.291711
0.385605 0.586049 0.297546
0.373310 0.525842 0.304878
0.365526 0.479014 0.313187
0.361617 0.443775 0.322014
0.360994 0.418459 0.330960
0.363112 0.401525 0.339687
0.367475 0.391557 0.347915
0.373630 0.387263 0.355427
0.381173 0.387474 0.362064
0.389745 0.391145 0.367728
0.399033 0.397359 0.372382
0.408772 0.405319 0.376048
0.418742 0.414354 0.378809
0.428768 0.423918 0.380809
0.438723 0.433588 0.382250
0.448525 0.443066 0.383396
0.458141 0.452178 0.384570
0.467580 0.460875 0.386158
0.476901 0.469230 0.388603
0.486207 0.477444 0.392409
0.495648 0.485840 0.398142
0.505421 0.494864 0.406425
0.515767 0.505089 0.417946
0.526976 0.517211 0.433448
0.539382 0.532051 0.453737
0.553367 0.550552 0.479680
0.569358 0.573784 0.512203
0.587829 0.602940 0.552291
0.609299 0.639338 0.600992
0.634335 0.684419 0.659412
0.663550 0.739750 0.728719
0.426658 0.732346 0.294144
0.404929 0.644574 0.298075
0.388926 0.573577 0.303951
0.377931 0.517349 0.311205
0.371275 0.474006 0.319334
0.368332 0.441789 0.327893
0.368524 0.419065 0.336499
0.371319 0.404324 0.344827
0.376231 0.396180 0.352614
0.382819 0.393372 0.359657
0.390692 0.394762 0.365813
0.399500 0.399338 0.370998
0.408945 0.406212 0.375191
0.418770 0.414618 0.378428
0.428768 0.423918 0.380809
0.438775 0.433595 0.382490
0.448678 0.443258 0.383691
0.458404 0.452640 0.384689
0.467932 0.461598 0.385824
0.477283 0.470114 0.387495
0.486528 0.478293 0.390162
0.495780 0.486366 0.394343
0.505203 0.494686 0.400618
0.515003 0.503733 0.409628
0.525434 0.514108 0.422072
0.536797 0.526541 0.438712
0.549438 0.541881 0.460367
0.563750 0.561105 0.487919
0.580173 0.585312 0.522310
0.599190 0.615727 0.564540
0.621335 0.653699 0.615671
0.647183 0.700701 0.676825
0.677361 0.758328 0.749184
0.428034 0.714278 0.299740
0.407845 0.631153 0.303783
0.393194 0.564269 0.309646
0.383373 0.511649 0.316781
0.377725 0.471443 0.324697
0.375637 0.441923 0.332966
0.376540 0.421485 0.341218
0.379915 0.408650 0.349145
0.385287 0.402065 0.356499
0.392228 0.400499 0.363090
0.400356 0.402845 0.368792
0.409336 0.408122 0.373536
0.418878 0.415473 0.377316
0.428739 0.424165 0.380182
0.438723 0.433588 0.382250
0.448678 0.443258 0.383691
0.458500 0.452815 0.384739
0.468131 0.462022 0.385688
0.477559 0.470768 0.386891
0.486819 0.479066 0.388764
0.495990 0.487052 0.391779
0.505201 0.494987 0.396473
0.514624 0.503257 0.403439
0.524478 0.512372 0.413333
0.535028 0.522965 0.426870
0.546588 0.535794 0.444825
0.559514 0.551743 0.468035
0.574212 0.571818 0.497395
0.591131 0.597150 0.533861
0.610768 0.628994 0.578451
0.633667 0.668731 0.632241
0.660417 0.717863 0.696367
0.691653 0.778020 0.772027
0.430393 0.699439 0.304796
0.411613 0.620582 0.308902
0.398189 0.557452 0.314716
0.389428 0.508105 0.321703
0.384680 0.470719 0.329389
0.383344 0.443598 0.337359
0.384866 0.425170 0.345261
0.388736 0.413987 0.352799
0.394491 0.408727 0.359742
0.401716 0.408189 0.365915
0.410038 0.411299 0.371206
0.419135 0.417106 0.375562
0.428729 0.424783 0.378990
0.438587 0.433629 0.381559
0.448525 0.443066 0.383396
0.458404 0.452640 0.384689
0.468131 0.462022 0.385688
0.477659 0.471007 0.386700
0.486987 0.479514 0.388095
0.496163 0.487588 0.390302
0.505277 0.495395 0.393810
0.514469 0.503228 0.399169
0.523922 0.511504 0.406989
0.533869 0.520763 0.417940
0.544585 0.531671 0.432753
0.556395 0.545016 0.452217
0.569668 0.561712 0.477184
0.584820 0.582798 0.508566
0.602312 0.609434 0.547332
0.622655 0.642909 0.594515
0.646401 0.684632 0.651206
0.674152 0.736138 0.718558
0.706555 0.799087 0.797783
0.433537 0.687221 0.309424
0.416047 0.612284 0.313560
0.403739 0.552581 0.319302
0.395932 0.506199 0.326129
0.391987 0.471347 0.333582
0.391317 0.446360 0.341262
0.393376 0.429699 0.348830
0.397668 0.419944 0.356008
0.403741 0.415806 0.362577
0.411190 0.416114 0.368379
0.419657 0.419826 0.373317
0.428828 0.426021 0.377352
0.438438 0.433905 0.380507
0.448267 0.442806 0.382866
0.458141 0.452178 0.384570
0.467932 0.461598 0.385824
0.477559 0.470768 0.386891
0.486987 0.479514 0.388095
0.496228 0.487787 0.389819
0.505338 0.495661 0.392509
0.514422 0.503335 0.396668
0.523629 0.511133 0.402861
0.533156 0.519502 0.411713
0.543245 0.529013 0.423910
0.554185 0.540364 0.440196
0.566310 0.554373 0.461378
0.580003 0.571987 0.488321
0.595690 0.594274 0.521951
0.613845 0.622426 0.563255
0.634988 0.657763 0.613280
0.659685 0.701725 0.673132
0.688549 0.755878 0.743979
0.722238 0.821913 0.827047
0.437316 0.677139 0.313797
0.421008 0.605805 0.317946
0.409716 0.549233 0.323608
0.402769 0.505540 0.330278
0.399544 0.472968 0.337510
0.399461 0.449882 0.344923
0.401989 0.434773 0.352190
0.406641 0.426254 0.359050
0.412977 0.423065 0.365298
0.420605 0.424069 0.370792
0.429177 0.428252 0.375449
0.438392 0.434726 0.379247
0.447995 0.442727 0.382222
0.457779 0.451615 0.384473
0.467580 0.460875 0.386158
0.477283 0.470114 0.387495
0.486819 0.479066 0.388764
0.496163 0.487588 0.390302
0.505338 0.495661 0.392509
0.514414 0.503392 0.395844
0.523506 0.511010 0.400827
0.532775 0.518869 0.408037
0.542429 0.527449 0.418114
0.552722 0.537351 0.431760
0.563954 0.549304 0.449733
0.576473 0.564159 0.472856
0.590669 0.582891 0.502008
0.606984 0.606600 0.538131
0.625901 0.636511 0.582227
0.647953 0.673973 0.635357
0.673717 0.720458 0.698643
0.703817 0.777563 0.773268
0.738923 0.847010 0.860473
0.441625 0.668833 0.318148
0.426402 0.600816 0.322309
0.416037 0.547109 0.327898
0.409872 0.505862 0.334428
0.407292 0.475345 0.341468
0.407731 0.453957 0.348649
0.410669 0.440218 0.355664
0.415630 0.432774 0.362263
0.422188 0.430394 0.368259
0.429960 0.431972 0.373523
0.438610 0.436528 0.377987
0.447849 0.443202 0.381644
0.457434 0.451263 0.384548
0.467168 0.460100 0.386809
0.476901 0.469230 0.388603
0.486528 0.478293 0.390162
0.495990 0.487052 0.391779
0.505277 0.495395 0.393810
0.514422 0.503335 0.396668
0.523506 0.511010 0.400827
0.532655 0.518679 0.406821
0.542044 0.526728 0.415247
0.551890 0.535668 0.426758
0.562460 0.546132 0.442071
0.574066 0.558878 0.461960
0.587066 0.574788 0.487262
0.601863 0.594871 0.518872
0.618909 0.620256 0.557746
0.638701 0.652199 0.604902
0.661781 0.692080 0.661416
0.688738 0.741402 0.728425
0.720209 0.801795 0.807126
0.756874 0.875010 0.898776
0.446407 0.662066 0.322772
0.432184 0.597112 0.326955
0.422669 0.546037 0.332496
0.417214 0.507021 0.338918
0.415218 0.478368 0.345808
0.416125 0.458505 0.352812
0.419427 0.445985 0.359636
0.424660 0.439485 0.366048
0.431408 0.437804 0.371873
0.439300 0.439869 0.377000
0.448013 0.444728 0.381374
0.457268 0.451555 0.385005
0.466835 0.459648 0.387959
0.476528 0.468429 0.390364
0.486207 0.477444 0.392409
0.495780 0.486366 0.394343
0.505201 0.494987 0.396473
0.514469 0.503228 0.399169
0.523629 0.511133 0.402861
0.532775 0.518869 0.408037
0.542044 0.526728 0.415247
0.551621 0.535128 0.425101
0.561737 0.544608 0.438270
0.572669 0.555833 0.455483
0.584741 0.569594 0.477531
0.598321 0.586804 0.505265
0.613827 0.608499 0.539597
0.631720 0.635844 0.581496
0.652509 0.670123 0.631996
0.676748 0.712749 0.692188
0.705037 0.765255 0.763223
0.738025 0.829302 0.846314
0.776405 0.906672 0.942734
0.451649 0.656727 0.328022
0.438353 0.594611 0.332256
0.429623 0.545965 0.337784
0.424821 0.508999 0.344147
0.423358 0.482048 0.350944
0.424691 0.463570 0.357839
0.428321 0.452149 0.364551
0.433798 0.446493 0.370863
0.440717 0.445433 0.376616
0.448718 0.447926 0.381713
0.457490 0.453051 0.386116
0.466766 0.460014 0.389847
0.476325 0.468144 0.392990
0.485996 0.476893 0.395687
0.495648 0.485840 0.398142
0.505203 0.494686 0.400618
0.514624 0.503257 0.403439
0.523922 0.511504 0.406989
0.533156 0.519502 0.411713
0.542429 0.527449 0.418114
0.551890 0.535668 0.426758
0.561737 0.544608 0.438270
0.572211 0.554839 0.453334
0.583601 0.567059 0.472696
0.596243 0.582087 0.497162
0.610516 0.600869 0.527597
0.626850 0.624472 0.564928
0.645717 0.654091 0.610142
0.667638 0.691043 0.664284
0.693178 0.736769 0.728461
0.722950 0.792836 0.803842
0.757613 0.860934 0.891652
0.797871 0.942878 0.993180
0.457386 0.652828 0.334312
0.444956 0.593359 0.338640
0.436955 0.546970 0.344209
0.432760 0.511902 0.350574
0.431792 0.486522 0.357352
0.433519 0.469320 0.364220
0.437455 0.458909 0.370912
0.443161 0.454028 0.377227
0.450242 0.453542 0.383021
0.458353 0.456435 0.388212
0.467191 0.461821 0.392776
0.476502 0.468935 0.396751
0.486078 0.477136 0.400236
0.495756 0.485910 0.403388
0.505421 0.494864 0.406425
0.515003 0.503733 0.409628
0.524478 0.512372 0.413333
0.533869 0.520763 0.417940
0.543245 0.529013 0.423910
0.552722 0.537351 0.431760
0.562460 0.546132 0.442071
0.572669 0.555833 0.455483
0.583601 0.567059 0.472696
0.595557 0.580536 0.494470
0.608884 0.597116 0.521627
0.623974 0.617774 0.555048
0.641266 0.643610 0.595672
0.661246 0.675849 0.644503
0.684445 0.715839 0.702601
0.711441 0.765054 0.771089
0.742857 0.825090 0.851148
0.779364 0.897669 0.944022
0.821679 0.984636 1.000000
0.463699 0.650507 0.342117
0.452083 0.593522 0.346596
0.444770 0.549249 0.352273
0.441147 0.515960 0.358720
0.440647 0.492052 0.365566
0.442749 0.476046 0.372504
0.446979 0.466587 0.379285
0.452909 0.462445 0.385721
0.460157 0.462515 0.391684
0.468388 0.465814 0.397106
0.477312 0.471485 0.401979
0.486685 0.478795 0.406357
0.496312 0.487134 0.410352
0.506040 0.496019 0.414137
0.515767 0.505089 0.417946
0.525434 0.514108 0.422072
0.535028 0.522965 0.426870
0.544585 0.531671 0.432753
0.554185 0.540364 0.440196
0.563954 0.549304 0.449733
0.574066 0.558878 0.461960
0.584741 0.569594 0.477531
0.596243 0.582087 0.497162
0.608884 0.597116 0.521627
0.623023 0.615561 0.551764
0.639064 0.638431 0.588468
0.657457 0.666857 0.632695
0.678700 0.702093 0.685462
0.703335 0.745520 0.747845
0.731952 0.798642 0.820981
0.765186 0.863086 0.906069
0.803719 0.940605 1.000000
0.848278 1.000000 1.000000
0.470713 0.650024 0.351971
0.459874 0.595394 0.356674
0.453217 0.553127 0.362542
0.450143 0.521527 0.369163
0.450095 0.499022 0.376181
0.452565 0.484165 0.383302
0.457089 0.475631 0.390295
0.463251 0.472222 0.396985
0.470681 0.472863 0.403260
0.479055 0.476602 0.409066
0.488095 0.482615 0.414412
0.497569 0.490197 0.419365
0.507293 0.498773 0.424053
0.517126 0.507887 0.428664
0.526976 0.517211 0.433448
0.536797 0.526541 0.438712
0.546588 0.535794 0.444825
0.556395 0.545016 0.452217
0.566310 0.554373 0.461378
0.576473 0.564159 0.472856
0.587066 0.574788 0.487262
0.598321 0.586804 0.505265
0.610516 0.600869 0.527597
0.623974 0.617774 0.555048
0.639064 0.638431 0.588468
0.656202 0.663880 0.628769
0.675851 0.695283 0.676922
0.698518 0.733924 0.733959
0.724759 0.781217 0.800971
0.755174 0.838694 0.879110
0.790410 0.908016 0.969589
0.831161 0.990967 1.000000
0.878166 1.000000 1.000000
0.478603 0.651765 0.364469
0.468513 0.599389 0.369484
0.462494 0.559050 0.375642
0.459956 0.529082 0.382543
0.460357 0.507943 0.389851
0.463197 0.494218 0.397284
0.468027 0.486614 0.404626
0.474441 0.483962 0.411719
0.482080 0.485220 0.418463
0.490632 0.489466 0.424822
0.499830 0.495906 0.430819
0.509455 0.503870 0.436535
0.519332 0.512809 0.442115
0.529335 0.522302 0.447761
0.539382 0.532051 0.453737
0.549438 0.541881 0.460367
0.559514 0.551743 0.468035
0.569668 0.561712 0.477184
0.580003 0.571987 0.488321
0.590669 0.582891 0.502008
0.601863 0.594871 0.518872
0.613827 0.608499 0.539597
0.626850 0.624472 0.564928
0.641266 0.643610 0.595672
0.657457 0.666857 0.632695
0.675851 0.695283 0.676922
0.696920 0.730080 0.729340
