lrplugin/MindfulLensFilmEngine.lrplugin/profiles/luts/bw_trix_400.cube
# Generated from ColorChecker fit
LUT_3D_SIZE 5
DOMAIN_MIN 0.0 0.0 0.0
DOMAIN_MAX 1.0 1.0 1.0
0.799299 1.000000 0.252795
0.470782 1.000000 0.242982
0.428034 0.714278 0.299740
0.463699 0.650507 0.342117
0.559844 0.746149 0.535884
0.470782 1.000000 0.242982
0.335494 0.433114 0.300507
0.385287 0.402065 0.356499
0.460157 0.462515 0.391684
0.589531 0.652702 0.633518
0.428034 0.714278 0.299740
0.385287 0.402065 0.356499
0.458500 0.452815 0.384739
0.535028 0.522965 0.426870
0.691653 0.778020 0.772027
0.463699 0.650507 0.342117
0.460157 0.462515 0.391684
0.535028 0.522965 0.426870
0.623023 0.615561 0.551764
0.848278 1.000000 1.000000
0.559844 0.746149 0.535884
0.589531 0.652702 0.633518
0.691653 0.778020 0.772027
0.848278 1.000000 1.000000
1.000000 1.000000 1.000000
0.470782 1.000000 0.242982
0.335494 0.433114 0.300507
0.385287 0.402065 0.356499
0.460157 0.462515 0.391684
0.589531 0.652702 0.633518
0.335494 0.433114 0.300507
0.335199 0.241795 0.381038
0.435079 0.371016 0.412490
0.522489 0.477215 0.437273
0.674210 0.725898 0.744521
0.385287 0.402065 0.356499
0.435079 0.371016 0.412490
0.531713 0.503564 0.412979
0.609899 0.583415 0.462055
0.793776 0.903339 0.910537
0.460157 0.462515 0.391684
0.522489 0.477215 0.437273
0.609899 0.583415 0.462055
0.704456 0.692085 0.631804
0.977652 1.000000 1.000000
0.589531 0.652702 0.633518
0.674210 0.725898 0.744521
0.793776 0.903339 0.910537
0.977652 1.000000 1.000000
1.000000 1.000000 1.000000
0.428034 0.714278 0.299740
0.385287 0.402065 0.356499
0.458500 0.452815 0.384739
0.535028 0.522965 0.426870
0.691653 0.778020 0.772027
0.385287 0.402065 0.356499
0.435079 0.371016 0.412490
0.531713 0.503564 0.412979
0.609899 0.583415 0.462055
0.793776 0.903339 0.910537
0.458500 0.452815 0.384739
0.531713 0.503564 0.412979
0.614219 0.603390 0.399852
0.688086 0.663265 0.511132
0.924807 1.000000 1.000000
0.535028 0.522965 0.426870
0.609899 0.583415 0.462055
0.688086 0.663265 0.511132
0.799012 0.800755 0.801553
1.000000 1.000000 1.000000
0.691653 0.778020 0.772027
0.793776 0.903339 0.910537
0.924807 1.000000 1.000000
1.000000 1.000000 1.000000
1.000000 1.000000 1.000000
0.463699 0.650507 0.342117
0.460157 0.462515 0.391684
0.535028 0.522965 0.426870
0.623023 0.615561 0.551764
0.848278 1.000000 1.000000
0.460157 0.462515 0.391684
0.522489 0.477215 0.437273
0.609899 0.583415 0.462055
0.704456 0.692085 0.631804
0.977652 1.000000 1.000000
0.535028 0.522965 0.426870
0.609899 0.583415 0.462055
0.688086 0.663265 0.511132
0.799012 0.800755 0.801553
1.000000 1.000000 1.000000
0.623023 0.615561 0.551764
0.704456 0.692085 0.631804
0.799012 0.800755 0.801553
0.983473 1.000000 1.000000
1.000000 1.000000 1.000000
0.848278 1.000000 1.000000
0.977652 1.000000 1.000000
1.000000 1.000000 1.000000
1.000000 1.000000 1.000000
1.000000 1.000000 1.000000
0.559844 0.746149 0.535884
0.589531 0.652702 0.633518
0.691653 0.778020 0.772027
0.848278 1.000000 1.000000
1.000000 1.000000 1.000000
0.589531 0.652702 0.633518
0.674210 0.725898 0.744521
0.793776 0.903339 0.910537
0.977652 1.000000 1.000000
1.000000 1.000000 1.000000
0.691653 0.778020 0.772027
0.793776 0.903339 0.910537
0.924807 1.000000 1.000000
1.000000 1.000000 1.000000
1.000000 1.000000 1.000000
0.848278 1.000000 1.000000
0.977652 1.000000 1.000000
1.000000 1.000000 1.000000
1.000000 1.000000 1.000000
1.000000 1.000000 1.000000
1.000000 1.000000 1.000000
1.000000 1.000000 1.000000
1.000000 1.000000 1.000000
1.000000 1.000000 1.000000
1.000000 1.000000 1.000000
