lrplugin/MindfulLensFilmEngine.lrplugin/profiles/luts/bw_trix_400.cube
# Generated from ColorChecker fit
LUT_3D_SIZE 9
DOMAIN_MIN 0.0 0.0 0.0
DOMAIN_MAX 1.0 1.0 1.0
0.799299 1.000000 0.252795
0.578960 1.000000 0.224870
0.470782 1.000000 0.242982
0.431086 0.813880 0.273882
0.428034 0.714278 0.299740
0.441625 0.668833 0.318148
0.463699 0.650507 0.342117
0.497933 0.664080 0.400078
0.559844 0.746149 0.535884
0.578960 1.000000 0.224870
0.422967 0.886473 0.226790
0.362603 0.610200 0.261094
0.357149 0.499428 0.298388
0.377725 0.471443 0.324697
0.407292 0.475345 0.341468
0.440647 0.492052 0.365566
0.484428 0.534297 0.429279
0.557113 0.646630 0.580314
0.470782 1.000000 0.242982
0.362603 0.610200 0.261094
0.335494 0.433114 0.300507
0.351695 0.388657 0.335682
0.385287 0.402065 0.356499
0.422188 0.430394 0.368259
0.460157 0.462515 0.391684
0.508793 0.519116 0.462916
0.589531 0.652702 0.633518
0.431086 0.813880 0.273882
0.357149 0.499428 0.298388
0.351695 0.388657 0.335682
0.379925 0.382941 0.364079
0.418878 0.415473 0.377316
0.457434 0.451263 0.384548
0.496312 0.487134 0.410352
0.548067 0.551731 0.494725
0.637098 0.705511 0.693085
0.428034 0.714278 0.299740
0.377725 0.471443 0.324697
0.385287 0.402065 0.356499
0.418878 0.415473 0.377316
0.458500 0.452815 0.384739
0.495990 0.487052 0.391779
0.535028 0.522965 0.426870
0.591131 0.597150 0.533861
0.691653 0.778020 0.772027
0.441625 0.668833 0.318148
0.407292 0.475345 0.341468
0.422188 0.430394 0.368259
0.457434 0.451263 0.384548
0.495990 0.487052 0.391779
0.532655 0.518679 0.406821
0.574066 0.558878 0.461960
0.638701 0.652199 0.604902
0.756874 0.875010 0.898776
0.463699 0.650507 0.342117
0.440647 0.492052 0.365566
0.460157 0.462515 0.391684
0.496312 0.487134 0.410352
0.535028 0.522965 0.426870
0.574066 0.558878 0.461960
0.623023 0.615561 0.551764
0.703335 0.745520 0.747845
0.848278 1.000000 1.000000
0.497933 0.664080 0.400078
0.484428 0.534297 0.429279
0.508793 0.519116 0.462916
0.548067 0.551731 0.494725
0.591131 0.597150 0.533861
0.638701 0.652199 0.604902
0.703335 0.745520 0.747845
0.809430 0.937573 1.000000
0.993222 1.000000 1.000000
0.559844 0.746149 0.535884
0.557113 0.646630 0.580314
0.589531 0.652702 0.633518
0.637098 0.705511 0.693085
0.691653 0.778020 0.772027
0.756874 0.875010 0.898776
0.848278 1.000000 1.000000
0.993222 1.000000 1.000000
1.000000 1.000000 1.000000
0.578960 1.000000 0.224870
0.422967 0.886473 0.226790
0.362603 0.610200 0.261094
0.357149 0.499428 0.298388
0.377725 0.471443 0.324697
0.407292 0.475345 0.341468
0.440647 0.492052 0.365566
0.484428 0.534297 0.429279
0.557113 0.646630 0.580314
0.422967 0.886473 0.226790
0.322562 0.491922 0.251086
0.302239 0.333926 0.295398
0.324240 0.305906 0.334187
0.362645 0.333100 0.357333
0.403373 0.372563 0.370137
0.444183 0.413168 0.393321
0.494672 0.475600 0.463028
0.576277 0.612367 0.630818
0.362603 0.610200 0.261094
0.302239 0.333926 0.295398
0.308385 0.256029 0.339920
0.346241 0.277885 0.372976
0.392848 0.332687 0.388300
0.437084 0.385443 0.395050
0.479668 0.432978 0.417802
0.533158 0.503935 0.496553
0.621949 0.658774 0.686721
0.357149 0.499428 0.298388
0.324240 0.305906 0.334187
0.346241 0.277885 0.372976
0.391312 0.324698 0.396925
0.439454 0.387488 0.403625
0.482505 0.439221 0.406087
0.524144 0.484676 0.432744
0.579887 0.560448 0.527448
0.677091 0.734951 0.749470
0.377725 0.471443 0.324697
0.362645 0.333100 0.357333
0.392848 0.332687 0.388300
0.439454 0.387488 0.403625
0.485424 0.446605 0.404753
0.525557 0.490954 0.408550
0.566489 0.533269 0.447304
0.626698 0.618101 0.568722
0.736500 0.821817 0.835931
0.407292 0.475345 0.341468
0.403373 0.372563 0.370137
0.437084 0.385443 0.395050
0.482505 0.439221 0.406087
0.525557 0.490954 0.408550
0.563996 0.529512 0.423160
0.607421 0.575584 0.486058
0.677269 0.681675 0.648808
0.806815 0.932105 0.978392
0.440647 0.492052 0.365566
0.444183 0.413168 0.393321
0.479668 0.432978 0.417802
0.524144 0.484676 0.432744
0.566489 0.533269 0.447304
0.607421 0.575584 0.486058
0.659498 0.640263 0.589004
0.747117 0.787765 0.811558
0.906512 1.000000 1.000000
0.484428 0.534297 0.429279
0.494672 0.475600 0.463028
0.533158 0.503935 0.496553
0.579887 0.560448 0.527448
0.626698 0.618101 0.568722
0.677269 0.681675 0.648808
0.747117 0.787765 0.811558
0.863597 1.000000 1.000000
1.000000 1.000000 1.000000
0.557113 0.646630 0.580314
0.576277 0.612367 0.630818
0.621949 0.658774 0.686721
0.677091 0.734951 0.749470
0.736500 0.821817 0.835931
0.806815 0.932105 0.978392
0.906512 1.000000 1.000000
1.000000 1.000000 1.000000
1.000000 1.000000 1.000000
0.470782 1.000000 0.242982
0.362603 0.610200 0.261094
0.335494 0.433114 0.300507
0.351695 0.388657 0.335682
0.385287 0.402065 0.356499
0.422188 0.430394 0.368259
0.460157 0.462515 0.391684
0.508793 0.519116 0.462916
0.589531 0.652702 0.633518
0.362603 0.610200 0.261094
0.302239 0.333926 0.295398
0.308385 0.256029 0.339920
0.346241 0.277885 0.372976
0.392848 0.332687 0.388300
0.437084 0.385443 0.395050
0.479668 0.432978 0.417802
0.533158 0.503935 0.496553
0.621949 0.658774 0.686721
0.335494 0.433114 0.300507
0.308385 0.256029 0.339920
0.335199 0.241795 0.381038
0.384097 0.299742 0.406031
0.435079 0.371016 0.412490
0.479984 0.428580 0.413427
0.522489 0.477215 0.437273
0.578113 0.553517 0.527880
0.674210 0.725898 0.744521
0.351695 0.388657 0.335682
0.346241 0.277885 0.372976
0.384097 0.299742 0.406031
0.436384 0.371510 0.420874
0.486061 0.442290 0.418949
0.527927 0.493000 0.417125
0.568620 0.536373 0.447687
0.626616 0.616960 0.558342
0.732233 0.811129 0.812219
0.385287 0.402065 0.356499
0.392848 0.332687 0.388300
0.435079 0.371016 0.412490
0.486061 0.442290 0.418949
0.531713 0.503564 0.412979
0.569793 0.543710 0.415300
0.609899 0.583415 0.462055
0.673468 0.675184 0.604807
0.793776 0.903339 0.910537
0.422188 0.430394 0.368259
0.437084 0.385443 0.395050
0.479984 0.428580 0.413427
0.527927 0.493000 0.417125
0.569793 0.543710 0.415300
0.606300 0.577535 0.432530
0.650006 0.623120 0.508810
0.725306 0.740921 0.699560
0.868437 1.000000 1.000000
0.460157 0.462515 0.391684
0.479668 0.432978 0.417802
0.522489 0.477215 0.437273
0.568620 0.536373 0.447687
0.609899 0.583415 0.462055
0.650006 0.623120 0.508810
0.704456 0.692085 0.631804
0.800606 0.858722 0.890309
0.977652 1.000000 1.000000
0.508793 0.519116 0.462916
0.533158 0.503935 0.496553
0.578113 0.553517 0.527880
0.626616 0.616960 0.558342
0.673468 0.675184 0.604807
0.725306 0.740921 0.699560
0.800606 0.858722 0.890309
0.929685 1.000000 1.000000
1.000000 1.000000 1.000000
0.589531 0.652702 0.633518
0.621949 0.658774 0.686721
0.674210 0.725898 0.744521
0.732233 0.811129 0.812219
0.793776 0.903339 0.910537
0.868437 1.000000 1.000000
0.977652 1.000000 1.000000
1.000000 1.000000 1.000000
1.000000 1.000000 1.000000
0.431086 0.813880 0.273882
0.357149 0.499428 0.298388
0.351695 0.388657 0.335682
0.379925 0.382941 0.364079
0.418878 0.415473 0.377316
0.457434 0.451263 0.384548
0.496312 0.487134 0.410352
0.548067 0.551731 0.494725
0.637098 0.705511 0.693085
0.357149 0.499428 0.298388
0.324240 0.305906 0.334187
0.346241 0.277885 0.372976
0.391312 0.324698 0.396925
0.439454 0.387488 0.403625
0.482505 0.439221 0.406087
0.524144 0.484676 0.432744
0.579887 0.560448 0.527448
0.677091 0.734951 0.749470
0.351695 0.388657 0.335682
0.346241 0.277885 0.372976
0.384097 0.299742 0.406031
0.436384 0.371510 0.420874
0.486061 0.442290 0.418949
0.527927 0.493000 0.417125
0.568620 0.536373 0.447687
0.626616 0.616960 0.558342
0.732233 0.811129 0.812219
0.379925 0.382941 0.364079
0.391312 0.324698 0.396925
0.436384 0.371510 0.420874
0.489219 0.448616 0.425807
0.535738 0.513070 0.417025
0.573699 0.553745 0.415250
0.612699 0.591328 0.456624
0.674175 0.678323 0.592709
0.791403 0.899053 0.890488
0.418878 0.415473 0.377316
0.439454 0.387488 0.403625
0.486061 0.442290 0.418949
0.535738 0.513070 0.417025
0.577365 0.564838 0.407008
0.611659 0.594419 0.413475
0.651179 0.630456 0.476424
0.720320 0.733407 0.651271
0.855319 0.995548 1.000000
0.457434 0.451263 0.384548
0.482505 0.439221 0.406087
0.527927 0.493000 0.417125
0.573699 0.553745 0.415250
0.611659 0.594419 0.413475
0.645487 0.619803 0.440232
0.690699 0.666493 0.539372
0.774651 0.802901 0.770169
0.936539 1.000000 1.000000
0.496312 0.487134 0.410352
0.524144 0.484676 0.432744
0.568620 0.536373 0.447687
0.612699 0.591328 0.456624
0.651179 0.630456 0.476424
0.690699 0.666493 0.539372
0.749735 0.743988 0.693177
0.858603 0.939310 1.000000
1.000000 1.000000 1.000000
0.548067 0.551731 0.494725
0.579887 0.560448 0.527448
0.626616 0.616960 0.558342
0.674175 0.678323 0.592709
0.720320 0.733407 0.651271
0.774651 0.802901 0.770169
0.858603 0.939310 1.000000
1.000000 1.000000 1.000000
1.000000 1.000000 1.000000
0.637098 0.705511 0.693085
0.677091 0.734951 0.749470
0.732233 0.811129 0.812219
0.791403 0.899053 0.890488
0.855319 0.995548 1.000000
0.936539 1.000000 1.000000
1.000000 1.000000 1.000000
1.000000 1.000000 1.000000
1.000000 1.000000 1.000000
0.428034 0.714278 0.299740
0.377725 0.471443 0.324697
0.385287 0.402065 0.356499
0.418878 0.415473 0.377316
0.458500 0.452815 0.384739
0.495990 0.487052 0.391779
0.535028 0.522965 0.426870
0.591131 0.597150 0.533861
0.691653 0.778020 0.772027
0.377725 0.471443 0.324697
0.362645 0.333100 0.357333
0.392848 0.332687 0.388300
0.439454 0.387488 0.403625
0.485424 0.446605 0.404753
0.525557 0.490954 0.408550
0.566489 0.533269 0.447304
0.626698 0.618101 0.568722
0.736500 0.821817 0.835931
0.385287 0.402065 0.356499
0.392848 0.332687 0.388300
0.435079 0.371016 0.412490
0.486061 0.442290 0.418949
0.531713 0.503564 0.412979
0.569793 0.543710 0.415300
0.609899 0.583415 0.462055
0.673468 0.675184 0.604807
0.793776 0.903339 0.910537
0.418878 0.415473 0.377316
0.439454 0.387488 0.403625
0.486061 0.442290 0.418949
0.535738 0.513070 0.417025
0.577365 0.564838 0.407008
0.611659 0.594419 0.413475
0.651179 0.630456 0.476424
0.720320 0.733407 0.651271
0.855319 0.995548 1.000000
0.458500 0.452815 0.384739
0.485424 0.446605 0.404753
0.531713 0.503564 0.412979
0.577365 0.564838 0.407008
0.614219 0.603390 0.399852
0.645954 0.624001 0.419943
0.688086 0.663265 0.511132
0.767972 0.789597 0.732692
0.924807 1.000000 1.000000
0.495990 0.487052 0.391779
0.525557 0.490954 0.408550
0.569793 0.543710 0.415300
0.611659 0.594419 0.413475
0.645954 0.624001 0.419943
0.679314 0.645187 0.466989
0.730218 0.702530 0.602321
0.828981 0.872395 0.889066
1.000000 1.000000 1.000000
0.535028 0.522965 0.426870
0.566489 0.533269 0.447304
0.609899 0.583415 0.462055
0.651179 0.630456 0.476424
0.688086 0.663265 0.511132
0.730218 0.702530 0.602321
0.799012 0.800755 0.801553
0.927744 1.000000 1.000000
1.000000 1.000000 1.000000
0.591131 0.597150 0.533861
0.626698 0.618101 0.568722
0.673468 0.675184 0.604807
0.720320 0.733407 0.651271
0.767972 0.789597 0.732692
0.828981 0.872395 0.889066
0.927744 1.000000 1.000000
1.000000 1.000000 1.000000
1.000000 1.000000 1.000000
0.691653 0.778020 0.772027
0.736500 0.821817 0.835931
0.793776 0.903339 0.910537
0.855319 0.995548 1.000000
0.924807 1.000000 1.000000
1.000000 1.000000 1.000000
1.000000 1.000000 1.000000
1.000000 1.000000 1.000000
1.000000 1.000000 1.000000
0.441625 0.668833 0.318148
0.407292 0.475345 0.341468
0.422188 0.430394 0.368259
0.457434 0.451263 0.384548
0.495990 0.487052 0.391779
0.532655 0.518679 0.406821
0.574066 0.558878 0.461960
0.638701 0.652199 0.604902
0.756874 0.875010 0.898776
0.407292 0.475345 0.341468
0.403373 0.372563 0.370137
0.437084 0.385443 0.395050
0.482505 0.439221 0.406087
0.525557 0.490954 0.408550
0.563996 0.529512 0.423160
0.607421 0.575584 0.486058
0.677269 0.681675 0.648808
0.806815 0.932105 0.978392
0.422188 0.430394 0.368259
0.437084 0.385443 0.395050
0.479984 0.428580 0.413427
0.527927 0.493000 0.417125
0.569793 0.543710 0.415300
0.606300 0.577535 0.432530
0.650006 0.623120 0.508810
0.725306 0.740921 0.699560
0.868437 1.000000 1.000000
0.457434 0.451263 0.384548
0.482505 0.439221 0.406087
0.527927 0.493000 0.417125
0.573699 0.553745 0.415250
0.611659 0.594419 0.413475
0.645487 0.619803 0.440232
0.690699 0.666493 0.539372
0.774651 0.802901 0.770169
0.936539 1.000000 1.000000
0.495990 0.487052 0.391779
0.525557 0.490954 0.408550
0.569793 0.543710 0.415300
0.611659 0.594419 0.413475
0.645954 0.624001 0.419943
0.679314 0.645187 0.466989
0.730218 0.702530 0.602321
0.828981 0.872395 0.889066
1.000000 1.000000 1.000000
0.532655 0.518679 0.406821
0.563996 0.529512 0.423160
0.606300 0.577535 0.432530
0.645487 0.619803 0.440232
0.679314 0.645187 0.466989
0.717381 0.674375 0.548942
0.781122 0.759872 0.737653
0.903815 0.985999 1.000000
1.000000 1.000000 1.000000
0.574066 0.558878 0.461960
0.607421 0.575584 0.486058
0.650006 0.623120 0.508810
0.690699 0.666493 0.539372
0.730218 0.702530 0.602321
0.781122 0.759872 0.737653
0.867807 0.898979 1.000000
1.000000 1.000000 1.000000
1.000000 1.000000 1.000000
0.638701 0.652199 0.604902
0.677269 0.681675 0.648808
0.725306 0.740921 0.699560
0.774651 0.802901 0.770169
0.828981 0.872395 0.889066
0.903815 0.985999 1.000000
1.000000 1.000000 1.000000
1.000000 1.000000 1.000000
1.000000 1.000000 1.000000
0.756874 0.875010 0.898776
0.806815 0.932105 0.978392
0.868437 1.000000 1.000000
0.936539 1.000000 1.000000
1.000000 1.000000 1.000000
1.000000 1.000000 1.000000
1.000000 1.000000 1.000000
1.000000 1.000000 1.000000
1.000000 1.000000 1.000000
0.463699 0.650507 0.342117
0.440647 0.492052 0.365566
0.460157 0.462515 0.391684
0.496312 0.487134 0.410352
0.535028 0.522965 0.426870
0.574066 0.558878 0.461960
0.623023 0.615561 0.551764
0.703335 0.745520 0.747845
0.848278 1.000000 1.000000
0.440647 0.492052 0.365566
0.444183 0.413168 0.393321
0.479668 0.432978 0.417802
0.524144 0.484676 0.432744
0.566489 0.533269 0.447304
0.607421 0.575584 0.486058
0.659498 0.640263 0.589004
0.747117 0.787765 0.811558
0.906512 1.000000 1.000000
0.460157 0.462515 0.391684
0.479668 0.432978 0.417802
0.522489 0.477215 0.437273
0.568620 0.536373 0.447687
0.609899 0.583415 0.462055
0.650006 0.623120 0.508810
0.704456 0.692085 0.631804
0.800606 0.858722 0.890309
0.977652 1.000000 1.000000
0.496312 0.487134 0.410352
0.524144 0.484676 0.432744
0.568620 0.536373 0.447687
0.612699 0.591328 0.456624
0.651179 0.630456 0.476424
0.690699 0.666493 0.539372
0.749735 0.743988 0.693177
0.858603 0.939310 1.000000
1.000000 1.000000 1.000000
0.535028 0.522965 0.426870
0.566489 0.533269 0.447304
0.609899 0.583415 0.462055
0.651179 0.630456 0.476424
0.688086 0.663265 0.511132
0.730218 0.702530 0.602321
0.799012 0.800755 0.801553
0.927744 1.000000 1.000000
1.000000 1.000000 1.000000
0.574066 0.558878 0.461960
0.607421 0.575584 0.486058
0.650006 0.623120 0.508810
0.690699 0.666493 0.539372
0.730218 0.702530 0.602321
0.781122 0.759872 0.737653
0.867807 0.898979 1.000000
1.000000 1.000000 1.000000
1.000000 1.000000 1.000000
0.623023 0.615561 0.551764
0.659498 0.640263 0.589004
0.704456 0.692085 0.631804
0.749735 0.743988 0.693177
0.799012 0.800755 0.801553
0.867807 0.898979 1.000000
0.983473 1.000000 1.000000
1.000000 1.000000 1.000000
1.000000 1.000000 1.000000
0.703335 0.745520 0.747845
0.747117 0.787765 0.811558
0.800606 0.858722 0.890309
0.858603 0.939310 1.000000
0.927744 1.000000 1.000000
1.000000 1.000000 1.000000
1.000000 1.000000 1.000000
1.000000 1.000000 1.000000
1.000000 1.000000 1.000000
0.848278 1.000000 1.000000
0.906512 1.000000 1.000000
0.977652 1.000000 1.000000
1.000000 1.000000 1.000000
1.000000 1.000000 1.000000
1.000000 1.000000 1.000000
1.000000 1.000000 1.000000
1.000000 1.000000 1.000000
1.000000 1.000000 1.000000
0.497933 0.664080 0.400078
0.484428 0.534297 0.429279
0.508793 0.519116 0.462916
0.548067 0.551731 0.494725
0.591131 0.597150 0.533861
0.638701 0.652199 0.604902
0.703335 0.745520 0.747845
0.809430 0.937573 1.000000
0.993222 1.000000 1.000000
0.484428 0.534297 0.429279
0.494672 0.475600 0.463028
0.533158 0.503935 0.496553
0.579887 0.560448 0.527448
0.626698 0.618101 0.568722
0.677269 0.681675 0.648808
0.747117 0.787765 0.811558
0.863597 1.000000 1.000000
1.000000 1.000000 1.000000
0.508793 0.519116 0.462916
0.533158 0.503935 0.496553
0.578113 0.553517 0.527880
0.626616 0.616960 0.558342
0.673468 0.675184 0.604807
0.725306 0.740921 0.699560
0.800606 0.858722 0.890309
0.929685 1.000000 1.000000
1.000000 1.000000 1.000000
0.548067 0.551731 0.494725
0.579887 0.560448 0.527448
0.626616 0.616960 0.558342
0.674175 0.678323 0.592709
0.720320 0.733407 0.651271
0.774651 0.802901 0.770169
0.858603 0.939310 1.000000
1.000000 1.000000 1.000000
1.000000 1.000000 1.000000
0.591131 0.597150 0.533861
0.626698 0.618101 0.568722
0.673468 0.675184 0.604807
0.720320 0.733407 0.651271
0.767972 0.789597 0.732692
0.828981 0.872395 0.889066
0.927744 1.000000 1.000000
1.000000 1.000000 1.000000
1.000000 1.000000 1.000000
0.638701 0.652199 0.604902
0.677269 0.681675 0.648808
0.725306 0.740921 0.699560
0.774651 0.802901 0.770169
0.828981 0.872395 0.889066
0.903815 0.985999 1.000000
1.000000 1.000000 1.000000
1.000000 1.000000 1.000000
1.000000 1.000000 1.000000
0.703335 0.745520 0.747845
0.747117 0.787765 0.811558
0.800606 0.858722 0.890309
0.858603 0.939310 1.000000
0.927744 1.000000 1.000000
1.000000 1.000000 1.000000
1.000000 1.000000 1.000000
1.000000 1.000000 1.000000
1.000000 1.000000 1.000000
0.809430 0.937573 1.000000
0.863597 1.000000 1.000000
0.929685 1.000000 1.000000
1.000000 1.000000 1.000000
1.000000 1.000000 1.000000
1.000000 1.000000 1.000000
1.000000 1.000000 1.000000
1.000000 1.000000 1.000000
1.000000 1.000000 1.000000
0.993222 1.000000 1.000000
1.000000 1.000000 1.000000
1.000000 1.000000 1.000000
1.000000 1.000000 1.000000
1.000000 1.000000 1.000000
1.000000 1.000000 1.000000
1.000000 1.000000 1.000000
1.000000 1.000000 1.000000
1.000000 1.000000 1.000000
0.559844 0.746149 0.535884
0.557113 0.646630 0.580314
0.589531 0.652702 0.633518
0.637098 0.705511 0.693085
0.691653 0.778020 0.772027
0.756874 0.875010 0.898776
0.848278 1.000000 1.000000
0.993222 1.000000 1.000000
1.000000 1.000000 1.000000
0.557113 0.646630 0.580314
0.576277 0.612367 0.630818
0.621949 0.658774 0.686721
0.677091 0.734951 0.749470
0.736500 0.821817 0.835931
0.806815 0.932105 0.978392
0.906512 1.000000 1.000000
1.000000 1.000000 1.000000
1.000000 1.000000 1.000000
0.589531 0.652702 0.633518
0.621949 0.658774 0.686721
0.674210 0.725898 0.744521
0.732233 0.811129 0.812219
0.793776 0.903339 0.910537
0.868437 1.000000 1.000000
0.977652 1.000000 1.000000
1.000000 1.000000 1.000000
1.000000 1.000000 1.000000
0.637098 0.705511 0.693085
0.677091 0.734951 0.749470
0.732233 0.811129 0.812219
0.791403 0.899053 0.890488
0.855319 0.995548 1.000000
0.936539 1.000000 1.000000
1.000000 1.000000 1.000000
1.000000 1.000000 1.000000
1.000000 1.000000 1.000000
0.691653 0.778020 0.772027
0.736500 0.821817 0.835931
0.793776 0.903339 0.910537
0.855319 0.995548 1.000000
0.924807 1.000000 1.000000
1.000000 1.000000 1.000000
1.000000 1.000000 1.000000
1.000000 1.000000 1.000000
1.000000 1.000000 1.000000
0.756874 0.875010 0.898776
0.806815 0.932105 0.978392
0.868437 1.000000 1.000000
0.936539 1.000000 1.000000
1.000000 1.000000 1.000000
1.000000 1.000000 1.000000
1.000000 1.000000 1.000000
1.000000 1.000000 1.000000
1.000000 1.000000 1.000000
0.848278 1.000000 1.000000
0.906512 1.000000 1.000000
0.977652 1.000000 1.000000
1.000000 1.000000 1.000000
1.000000 1.000000 1.000000
1.000000 1.000000 1.000000
1.000000 1.000000 1.000000
1.000000 1.000000 1.000000
1.000000 1.000000 1.000000
0.993222 1.000000 1.000000
1.000000 1.000000 1.000000
1.000000 1.000000 1.000000
1.000000 1.000000 1.000000
1.000000 1.000000 1.000000
1.000000 1.000000 1.000000
1.000000 1.000000 1.000000
1.000000 1.000000 1.000000
1.000000 1.000000 1.000000
1.000000 1.000000 1.000000
1.000000 1.000000 1.000000
1.000000 1.000000 1.000000
1.000000 1.000000 1.000000
1.000000 1.000000 1.000000
1.000000 1.000000 1.000000
1.000000 1.000000 1.000000
1.000000 1.000000 1.000000
1.000000 1.000000 1.000000
