lrplugin/MindfulLensFilmEngine.lrplugin/profiles/luts/cinestill_800t.cube
# Generated from ColorChecker fit
LUT_3D_SIZE 5
DOMAIN_MIN 0.0 0.0 0.0
DOMAIN_MAX 1.0 1.0 1.0
0.153522 0.000000 0.084655
0.000000 0.000000 0.000000
0.000000 0.145058 0.194403
0.000000 0.400290 0.724017
0.000000 0.304413 1.000000
0.000000 0.000000 0.193738
0.000000 0.000000 0.119961
0.000000 0.000000 0.309546
0.000000 0.000000 0.596920
0.000000 0.000000 0.926638
0.000000 0.361014 0.000000
0.000000 0.361742 0.000000
0.000000 0.295583 0.197794
0.000000 0.288120 0.484403
0.000000 0.000000 0.528597
0.000000 0.000000 0.000000
0.000000 0.107022 0.000000
0.000000 0.288840 0.223999
0.084896 0.549990 0.796135
0.000000 0.530379 0.905563
0.000000 0.000000 0.000000
0.000000 0.000000 0.000000
0.000000 0.000000 1.000000
0.000000 0.000000 1.000000
0.000000 0.000000 1.000000
0.697543 0.050407 0.429006
0.420924 0.413197 0.000000
0.237150 0.750447 0.000000
0.247583 1.000000 0.127099
0.426526 1.000000 0.762342
0.577070 0.345767 0.651587
0.362168 0.305593 0.263565
0.242929 0.248099 0.231119
0.253487 0.285889 0.369865
0.300923 0.031307 0.605540
0.218474 0.833984 0.404997
0.198184 0.669650 0.141511
0.250771 0.507987 0.280628
0.343145 0.476185 0.498679
0.315160 0.201174 0.582121
0.000000 0.347752 0.000000
0.000000 0.378184 0.000000
0.142648 0.443049 0.361797
0.427595 0.684124 0.886842
0.409344 0.742923 1.000000
0.000000 0.000000 0.000000
0.000000 0.000000 0.174063
0.000000 0.000000 1.000000
0.149321 0.000000 1.000000
0.255028 0.000000 1.000000
0.882687 0.000000 0.589654
0.674126 0.162196 0.036951
0.591730 0.824994 0.000000
0.771185 1.000000 0.033264
1.000000 1.000000 0.564568
1.000000 0.263060 1.000000
0.721786 0.314733 0.429273
0.551522 0.328007 0.281803
0.590530 0.417096 0.355460
0.780213 0.195949 0.557166
0.906339 1.000000 0.983700
0.641624 0.828277 0.388149
0.506764 0.545057 0.317170
0.502996 0.397941 0.428280
0.504495 0.015463 0.489121
0.380092 0.946827 0.740023
0.339679 0.695482 0.160874
0.392564 0.508919 0.271007
0.472756 0.530520 0.588656
0.387207 0.403406 0.742181
0.000000 0.000000 0.860201
0.000000 0.000000 0.382430
0.000000 0.000000 0.823114
0.195433 0.000000 1.000000
0.153040 0.000000 1.000000
0.000000 0.000000 0.000000
0.063745 0.000000 0.000000
0.550507 0.000000 0.000000
1.000000 1.000000 0.295418
1.000000 1.000000 1.000000
0.539128 0.000000 0.362230
0.579160 0.000000 0.085120
0.751519 0.019672 0.277622
1.000000 0.638757 0.717717
1.000000 0.864820 1.000000
1.000000 0.562410 0.953633
0.917842 0.645813 0.382555
0.915050 0.676234 0.434551
1.000000 0.784078 0.748325
1.000000 0.599486 1.000000
1.000000 1.000000 1.000000
1.000000 1.000000 0.432358
1.000000 1.000000 0.389868
1.000000 1.000000 0.687802
1.000000 1.000000 0.935706
0.510356 0.000000 1.000000
0.633151 0.000000 0.833142
0.814088 0.000000 0.787002
0.954274 0.000000 1.000000
0.827761 0.075906 1.000000
0.000000 0.000000 0.000000
0.000000 0.000000 0.000000
0.000000 0.000000 0.000000
0.502144 0.000000 0.000000
1.000000 1.000000 1.000000
0.000000 0.000000 0.000000
0.000000 0.000000 0.000000
0.000000 0.000000 0.000000
0.822157 0.000000 0.458462
1.000000 1.000000 1.000000
0.000000 0.000000 0.000000
0.000000 0.000000 0.000000
0.173957 0.000000 0.000000
1.000000 0.546245 0.771746
1.000000 1.000000 1.000000
0.000000 0.000000 0.235643
0.413096 0.221606 0.000000
0.985875 0.973762 0.000000
1.000000 1.000000 0.808321
1.000000 1.000000 1.000000
0.525558 0.000000 1.000000
1.000000 0.000000 0.765369
1.000000 0.237451 0.669619
1.000000 1.000000 1.000000
1.000000 1.000000 1.000000
