lrplugin/MindfulLensFilmEngine.lrplugin/profiles/luts/cinestill_800t.cube
# Generated from ColorChecker fit
LUT_3D_SIZE 33
DOMAIN_MIN 0.0 0.0 0.0
DOMAIN_MAX 1.0 1.0 1.0
0.153522 0.000000 0.084655
0.130763 0.000000 0.048768
0.105715 0.000000 0.019729
0.078833 0.000000 0.000000
0.050543 0.000000 0.000000
0.021239 0.000000 0.000000
0.000000 0.000000 0.000000
0.000000 0.000000 0.000000
0.000000 0.000000 0.000000
0.000000 0.000000 0.000000
0.000000 0.000000 0.000000
0.000000 0.007524 0.020398
0.000000 0.031521 0.045933
0.000000 0.057206 0.076126
0.000000 0.084708 0.110938
0.000000 0.114031 0.150358
0.000000 0.145058 0.194403
0.000000 0.177551 0.243115
0.000000 0.211148 0.296564
0.000000 0.245365 0.354846
0.000000 0.279598 0.418085
0.000000 0.313117 0.486431
0.000000 0.345074 0.560061
0.000000 0.374497 0.639179
0.000000 0.400290 0.724017
0.000000 0.421239 0.814831
0.000000 0.436005 0.911908
0.000000 0.443127 1.000000
0.000000 0.441022 1.000000
0.000000 0.427987 1.000000
0.000000 0.402193 1.000000
0.000000 0.361692 1.000000
0.000000 0.304413 1.000000
0.140858 0.000000 0.126417
0.119494 0.000000 0.090631
0.095960 0.000000 0.061740
0.070694 0.000000 0.039374
0.044108 0.000000 0.023194
0.016578 0.000000 0.012885
0.000000 0.000000 0.008161
0.000000 0.000000 0.008761
0.000000 0.000000 0.014453
0.000000 0.000000 0.025029
0.000000 0.000000 0.040311
0.000000 0.000000 0.060145
0.000000 0.000000 0.084406
0.000000 0.000000 0.112996
0.000000 0.008585 0.145842
0.000000 0.032565 0.182900
0.000000 0.058232 0.224151
0.000000 0.085347 0.269604
0.000000 0.113555 0.319294
0.000000 0.142374 0.373285
0.000000 0.171203 0.431665
0.000000 0.199318 0.494551
0.000000 0.225872 0.562086
0.000000 0.249898 0.634440
0.000000 0.270304 0.711811
0.000000 0.285878 0.794421
0.000000 0.295285 0.882522
0.000000 0.297068 0.976391
0.000000 0.289648 1.000000
0.000000 0.271324 1.000000
0.000000 0.240273 1.000000
0.000000 0.194548 1.000000
0.000000 0.132083 1.000000
0.124701 0.000000 0.160818
0.104933 0.000000 0.125223
0.083107 0.000000 0.096582
0.059647 0.000000 0.074495
0.034945 0.000000 0.058585
0.009364 0.000000 0.048505
0.000000 0.000000 0.043935
0.000000 0.000000 0.044579
0.000000 0.000000 0.050172
0.000000 0.000000 0.060472
0.000000 0.000000 0.075266
0.000000 0.000000 0.094367
0.000000 0.000000 0.117616
0.000000 0.000000 0.144880
0.000000 0.000000 0.176053
0.000000 0.000000 0.211056
0.000000 0.000000 0.249837
0.000000 0.006303 0.292371
0.000000 0.029514 0.338659
0.000000 0.053330 0.388729
0.000000 0.077155 0.442638
0.000000 0.100267 0.500467
0.000000 0.121823 0.562326
0.000000 0.140859 0.628351
0.000000 0.156287 0.698704
0.000000 0.166899 0.773575
0.000000 0.171363 0.853182
0.000000 0.168226 0.937768
0.000000 0.155913 1.000000
0.000000 0.132725 1.000000
0.000000 0.096843 1.000000
0.000000 0.046325 1.000000
0.000000 0.000000 1.000000
0.105293 0.000000 0.187403
0.087329 0.000000 0.152098
0.067412 0.000000 0.123823
0.045952 0.000000 0.102143
0.023324 0.000000 0.086650
0.000000 0.000000 0.076962
0.000000 0.000000 0.072723
0.000000 0.000000 0.073605
0.000000 0.000000 0.079308
0.000000 0.000000 0.089556
0.000000 0.000000 0.104103
0.000000 0.000000 0.122728
0.000000 0.000000 0.145237
0.000000 0.000000 0.171463
0.000000 0.000000 0.201267
0.000000 0.000000 0.234535
0.000000 0.000000 0.271181
0.000000 0.000000 0.311146
0.000000 0.000000 0.354398
0.000000 0.000000 0.400931
0.000000 0.000000 0.450766
0.000000 0.017089 0.503953
0.000000 0.034061 0.560565
0.000000 0.048524 0.620705
0.000000 0.059394 0.684502
0.000000 0.065467 0.752112
0.000000 0.065414 0.823718
0.000000 0.057785 0.899528
0.000000 0.041009 0.979780
0.000000 0.013391 1.000000
0.000000 0.000000 1.000000
0.000000 0.000000 1.000000
0.000000 0.000000 1.000000
0.082809 0.000000 0.205810
0.066862 0.000000 0.170904
0.049064 0.000000 0.143121
0.029806 0.000000 0.121991
0.009448 0.000000 0.107072
0.000000 0.000000 0.097948
0.000000 0.000000 0.094229
0.000000 0.000000 0.095554
0.000000 0.000000 0.101587
0.000000 0.000000 0.112020
0.000000 0.000000 0.126572
0.000000 0.000000 0.144987
0.000000 0.000000 0.167039
0.000000 0.000000 0.192526
0.000000 0.000000 0.221275
0.000000 0.000000 0.253138
0.000000 0.000000 0.287996
0.000000 0.000000 0.325755
0.000000 0.000000 0.366348
0.000000 0.000000 0.409736
0.000000 0.000000 0.455908
0.000000 0.000000 0.504875
0.000000 0.000000 0.556682
0.000000 0.000000 0.611394
0.000000 0.000000 0.669107
0.000000 0.000000 0.729943
0.000000 0.000000 0.794050
0.000000 0.000000 0.861605
0.000000 0.000000 0.932809
0.000000 0.000000 1.000000
0.000000 0.000000 1.000000
0.000000 0.000000 1.000000
0.000000 0.000000 1.000000
0.057358 0.000000 0.215772
0.043650 0.000000 0.181386
0.028186 0.000000 0.154232
0.011340 0.000000 0.133804
0.000000 0.000000 0.119627
0.000000 0.000000 0.111251
0.000000 0.000000 0.108252
0.000000 0.000000 0.110234
0.000000 0.000000 0.116829
0.000000 0.000000 0.127694
0.000000 0.000000 0.142513
0.000000 0.000000 0.160997
0.000000 0.000000 0.182886
0.000000 0.000000 0.207944
0.000000 0.000000 0.235964
0.000000 0.000000 0.266764
0.000000 0.000000 0.300190
0.000000 0.000000 0.336115
0.000000 0.000000 0.374438
0.000000 0.000000 0.415086
0.000000 0.000000 0.458013
0.000000 0.000000 0.503199
0.000000 0.000000 0.550650
0.000000 0.000000 0.600401
0.000000 0.000000 0.652513
0.000000 0.000000 0.707074
0.000000 0.000000 0.764198
0.000000 0.000000 0.824027
0.000000 0.000000 0.886730
0.000000 0.000000 0.952501
0.000000 0.000000 1.000000
0.000000 0.000000 1.000000
0.000000 0.000000 1.000000
0.028983 0.000000 0.217117
0.017744 0.000000 0.183383
0.004837 0.000000 0.157005
0.000000 0.000000 0.137443
0.000000 0.000000 0.124187
0.000000 0.000000 0.116753
0.000000 0.000000 0.114685
0.000000 0.000000 0.117551
0.000000 0.000000 0.124950
0.000000 0.000000 0.136504
0.000000 0.000000 0.151864
0.000000 0.000000 0.170707
0.000000 0.000000 0.192738
0.000000 0.000000 0.217688
0.000000 0.000000 0.245314
0.000000 0.000000 0.275403
0.000000 0.000000 0.307765
0.000000 0.000000 0.342240
0.000000 0.000000 0.378693
0.000000 0.000000 0.417017
0.000000 0.000000 0.457130
0.000000 0.000000 0.498980
0.000000 0.000000 0.542539
0.000000 0.000000 0.587807
0.000000 0.000000 0.634812
0.000000 0.000000 0.683607
0.000000 0.000000 0.734273
0.000000 0.000000 0.786917
0.000000 0.000000 0.841675
0.000000 0.000000 0.898707
0.000000 0.000000 0.958201
0.000000 0.000000 1.000000
0.000000 0.000000 1.000000
0.000000 0.000000 0.209767
0.000000 0.000000 0.176828
0.000000 0.000000 0.151384
0.000000 0.000000 0.132862
0.000000 0.000000 0.120717
0.000000 0.000000 0.114432
0.000000 0.000000 0.113516
0.000000 0.000000 0.117504
0.000000 0.000000 0.125959
0.000000 0.000000 0.138471
0.000000 0.000000 0.154656
0.000000 0.000000 0.174158
0.000000 0.000000 0.196647
0.000000 0.000000 0.221820
0.000000 0.000000 0.249402
0.000000 0.000000 0.279142
0.000000 0.000000 0.310820
0.000000 0.000000 0.344240
0.000000 0.000000 0.379232
0.000000 0.000000 0.415657
0.000000 0.000000 0.453399
0.000000 0.000000 0.492370
0.000000 0.000000 0.532511
0.000000 0.000000 0.573785
0.000000 0.000000 0.616188
0.000000 0.000000 0.659738
0.000000 0.000000 0.704482
0.000000 0.000000 0.750494
0.000000 0.000000 0.797874
0.000000 0.000000 0.846750
0.000000 0.000000 0.897275
0.000000 0.000000 0.949631
0.000000 0.000000 1.000000
0.000000 0.000000 0.193738
0.000000 0.000000 0.161749
0.000000 0.000000 0.137409
0.000000 0.000000 0.120112
0.000000 0.000000 0.109280
0.000000 0.000000 0.104360
0.000000 0.000000 0.104828
0.000000 0.000000 0.110186
0.000000 0.000000 0.119961
0.000000 0.000000 0.133711
0.000000 0.000000 0.151017
0.000000 0.000000 0.171489
0.000000 0.000000 0.194763
0.000000 0.000000 0.220502
0.000000 0.000000 0.248396
0.000000 0.000000 0.278163
0.000000 0.000000 0.309546
0.000000 0.000000 0.342316
0.000000 0.000000 0.376270
0.000000 0.000000 0.411233
0.000000 0.000000 0.447056
0.000000 0.000000 0.483618
0.000000 0.000000 0.520823
0.000000 0.000000 0.558605
0.000000 0.000000 0.596920
0.000000 0.000000 0.635757
0.000000 0.000000 0.675126
0.000000 0.000000 0.715069
0.000000 0.000000 0.755650
0.000000 0.000000 0.796964
0.000000 0.000000 0.839131
0.000000 0.000000 0.882298
0.000000 0.000000 0.926638
0.000000 0.000000 0.169143
0.000000 0.000000 0.138268
0.000000 0.000000 0.115212
0.000000 0.000000 0.099337
0.000000 0.000000 0.090029
0.000000 0.000000 0.086702
0.000000 0.000000 0.088798
0.000000 0.000000 0.095784
0.000000 0.000000 0.107156
0.000000 0.000000 0.122434
0.000000 0.000000 0.141167
0.000000 0.000000 0.162931
0.000000 0.000000 0.187327
0.000000 0.000000 0.213986
0.000000 0.000000 0.242563
0.000000 0.000000 0.272741
0.000000 0.000000 0.304230
0.000000 0.000000 0.336766
0.000000 0.000000 0.370114
0.000000 0.000000 0.404063
0.000000 0.000000 0.438431
0.000000 0.000000 0.473063
0.000000 0.000000 0.507829
0.000000 0.000000 0.542628
0.000000 0.000000 0.577384
0.000000 0.000000 0.612049
0.000000 0.000000 0.646602
0.000000 0.000000 0.681049
0.000000 0.000000 0.715421
0.000000 0.000000 0.749779
0.000000 0.000000 0.784209
0.000000 0.000000 0.818823
0.000000 0.000000 0.853761
0.000000 0.000000 0.136189
0.000000 0.014407 0.106602
0.000000 0.024489 0.085023
0.000000 0.027743 0.070776
0.000000 0.025555 0.063215
0.000000 0.019185 0.061720
0.000000 0.009774 0.065698
0.000000 0.000000 0.074583
0.000000 0.000000 0.087836
0.000000 0.000000 0.104944
0.000000 0.000000 0.125421
0.000000 0.000000 0.148810
0.000000 0.000000 0.174679
0.000000 0.000000 0.202622
0.000000 0.000000 0.232261
0.000000 0.000000 0.263246
0.000000 0.000000 0.295253
0.000000 0.000000 0.327983
0.000000 0.000000 0.361168
0.000000 0.000000 0.394562
0.000000 0.000000 0.427950
0.000000 0.000000 0.461142
0.000000 0.000000 0.493975
0.000000 0.000000 0.526313
0.000000 0.000000 0.558047
0.000000 0.000000 0.589094
0.000000 0.000000 0.619400
0.000000 0.000000 0.648936
0.000000 0.000000 0.677700
0.000000 0.000000 0.705718
0.000000 0.000000 0.733042
0.000000 0.000000 0.759751
0.000000 0.000000 0.785952
0.000000 0.061982 0.095174
0.000000 0.079579 0.067064
0.000000 0.088803 0.047163
0.000000 0.091162 0.034762
0.000000 0.088045 0.029182
0.000000 0.080717 0.029769
0.000000 0.070322 0.035894
0.000000 0.057880 0.046959
0.000000 0.044293 0.062390
0.000000 0.030335 0.081641
0.000000 0.016663 0.104191
0.000000 0.003809 0.129549
0.000000 0.000000 0.157249
0.000000 0.000000 0.186851
0.000000 0.000000 0.217945
0.000000 0.000000 0.250144
0.000000 0.000000 0.283091
0.000000 0.000000 0.316454
0.000000 0.000000 0.349929
0.000000 0.000000 0.383239
0.000000 0.000000 0.416133
0.000000 0.000000 0.448386
0.000000 0.000000 0.479803
0.000000 0.000000 0.510213
0.000000 0.000000 0.539473
0.000000 0.000000 0.567467
0.000000 0.000000 0.594106
0.000000 0.000000 0.619327
0.000000 0.000000 0.643094
0.000000 0.000000 0.665400
0.000000 0.000000 0.686262
0.000000 0.000000 0.705724
0.000000 0.000000 0.723861
0.000000 0.129372 0.046496
0.000000 0.146593 0.020060
0.000000 0.155403 0.002050
0.000000 0.157314 0.000000
0.000000 0.153719 0.000000
0.000000 0.145886 0.000000
0.000000 0.134963 0.000000
0.000000 0.121974 0.013385
0.000000 0.107822 0.031302
0.000000 0.093288 0.053019
0.000000 0.079030 0.077981
0.000000 0.065585 0.105663
0.000000 0.053366 0.135564
0.000000 0.042667 0.167213
0.000000 0.033657 0.200162
0.000000 0.026383 0.233994
0.000000 0.020773 0.268315
0.000000 0.016628 0.302760
0.000000 0.013630 0.336991
0.000000 0.011340 0.370697
0.000000 0.009193 0.403593
0.000000 0.006506 0.435420
0.000000 0.002470 0.465949
0.000000 0.000000 0.494975
0.000000 0.000000 0.522321
0.000000 0.000000 0.547837
0.000000 0.000000 0.571400
0.000000 0.000000 0.592912
0.000000 0.000000 0.612306
0.000000 0.000000 0.629537
0.000000 0.000000 0.644590
0.000000 0.000000 0.657476
0.000000 0.000000 0.668234
0.000000 0.195811 0.000000
0.000000 0.213108 0.000000
0.000000 0.221958 0.000000
0.000000 0.223880 0.000000
0.000000 0.220266 0.000000
0.000000 0.212392 0.000000
0.000000 0.201406 0.000000
0.000000 0.188338 0.000000
0.000000 0.174094 0.000000
0.000000 0.159458 0.019666
0.000000 0.145091 0.047390
0.000000 0.131535 0.077762
0.000000 0.119207 0.110247
0.000000 0.108403 0.144339
0.000000 0.099295 0.179558
0.000000 0.091936 0.215450
0.000000 0.086254 0.251590
0.000000 0.082058 0.287577
0.000000 0.079031 0.323041
0.000000 0.076737 0.357634
0.000000 0.074616 0.391040
0.000000 0.071988 0.422964
0.000000 0.068047 0.453144
0.000000 0.061870 0.481341
0.000000 0.052408 0.507343
0.000000 0.038490 0.530967
0.000000 0.018826 0.552056
0.000000 0.000000 0.570478
0.000000 0.000000 0.586130
0.000000 0.000000 0.598936
0.000000 0.000000 0.608846
0.000000 0.000000 0.615836
0.000000 0.000000 0.619912
0.000000 0.258622 0.000000
0.000000 0.276456 0.000000
0.000000 0.285811 0.000000
0.000000 0.288209 0.000000
0.000000 0.285049 0.000000
0.000000 0.277605 0.000000
0.000000 0.267033 0.000000
0.000000 0.254365 0.000000
0.000000 0.240510 0.000000
0.000000 0.226256 0.000000
0.000000 0.212269 0.013114
0.000000 0.199092 0.046552
0.000000 0.187147 0.082014
0.000000 0.176733 0.118957
0.000000 0.168027 0.156869
0.000000 0.161084 0.195262
0.000000 0.155836 0.233676
0.000000 0.152095 0.271677
0.000000 0.149549 0.308859
0.000000 0.147765 0.344844
0.000000 0.146186 0.379277
0.000000 0.144135 0.411833
0.000000 0.140812 0.442214
0.000000 0.135295 0.470147
0.000000 0.126539 0.495387
0.000000 0.113379 0.517716
0.000000 0.094525 0.536943
0.000000 0.068567 0.552904
0.000000 0.033972 0.565459
0.000000 0.000000 0.574500
0.000000 0.000000 0.579943
0.000000 0.000000 0.581729
0.000000 0.000000 0.579830
0.000000 0.314800 0.000000
0.000000 0.333642 0.000000
0.000000 0.343977 0.000000
0.000000 0.347329 0.000000
0.000000 0.345100 0.000000
0.000000 0.338571 0.000000
0.000000 0.328898 0.000000
0.000000 0.317118 0.000000
0.000000 0.304143 0.000000
0.000000 0.290766 0.000000
0.000000 0.277656 0.000000
0.000000 0.265358 0.012833
0.000000 0.254299 0.051674
0.000000 0.244781 0.091889
0.000000 0.236985 0.132929
0.000000 0.230970 0.174273
0.000000 0.226671 0.215427
0.000000 0.223903 0.255924
0.000000 0.222358 0.295324
0.000000 0.221606 0.333212
0.000000 0.221095 0.369203
0.000000 0.220150 0.402936
0.000000 0.217976 0.434078
0.000000 0.213654 0.462324
0.000000 0.206142 0.487395
0.000000 0.194279 0.509037
0.000000 0.176779 0.527027
0.000000 0.152234 0.541165
0.000000 0.119117 0.551279
0.000000 0.075775 0.557226
0.000000 0.020436 0.558888
0.000000 0.000000 0.556173
0.000000 0.000000 0.549017
0.000000 0.361014 0.000000
0.000000 0.381345 0.000000
0.000000 0.393143 0.000000
0.000000 0.397936 0.000000
0.000000 0.397130 0.000000
0.000000 0.392007 0.000000
0.000000 0.383729 0.000000
0.000000 0.373335 0.000000
0.000000 0.361742 0.000000
0.000000 0.349746 0.000000
0.000000 0.338018 0.000000
0.000000 0.327110 0.000000
0.000000 0.317450 0.020134
0.000000 0.309344 0.064050
0.000000 0.302976 0.108664
0.000000 0.298409 0.153421
0.000000 0.295583 0.197794
0.000000 0.294315 0.241280
0.000000 0.294301 0.283405
0.000000 0.295114 0.323722
0.000000 0.296207 0.361810
0.000000 0.296908 0.397276
0.000000 0.296424 0.429752
0.000000 0.293840 0.458899
0.000000 0.288120 0.484403
0.000000 0.278104 0.505978
0.000000 0.262510 0.523365
0.000000 0.239935 0.536331
0.000000 0.208854 0.544671
0.000000 0.167618 0.548206
0.000000 0.114459 0.546784
0.000000 0.047482 0.540280
0.000000 0.000000 0.528597
0.000000 0.393606 0.000000
0.000000 0.415917 0.000000
0.000000 0.429672 0.000000
0.000000 0.436402 0.000000
0.000000 0.437517 0.000000
0.000000 0.434303 0.000000
0.000000 0.427925 0.000000
0.000000 0.419426 0.000000
0.000000 0.409726 0.000000
0.000000 0.399624 0.000000
0.000000 0.389796 0.000000
0.000000 0.380797 0.000000
0.000000 0.373058 0.000000
0.000000 0.366889 0.036452
0.000000 0.362478 0.085097
0.000000 0.359891 0.133740
0.000000 0.359071 0.181819
0.000000 0.359840 0.228798
0.000000 0.361897 0.274169
0.000000 0.364818 0.317450
0.000000 0.368060 0.358188
0.000000 0.370954 0.395953
0.000000 0.372711 0.430346
0.000000 0.372421 0.460991
0.000000 0.369049 0.487543
0.000000 0.361440 0.509680
0.000000 0.348315 0.527110
0.000000 0.328276 0.539566
0.000000 0.299799 0.546808
0.000000 0.261241 0.548624
0.000000 0.210835 0.544828
0.000000 0.146693 0.535261
0.000000 0.066804 0.519791
0.000000 0.408590 0.000000
0.000000 0.433382 0.000000
0.000000 0.449597 0.000000
0.000000 0.458772 0.000000
0.000000 0.462317 0.000000
0.000000 0.461524 0.000000
0.000000 0.457561 0.000000
0.000000 0.451474 0.000000
0.000000 0.444188 0.000000
0.000000 0.436504 0.000000
0.000000 0.429103 0.000000
0.000000 0.422542 0.000000
0.000000 0.417256 0.000000
0.000000 0.413559 0.010201
0.000000 0.411644 0.063344
0.000000 0.411577 0.116356
0.000000 0.413308 0.168641
0.000000 0.416660 0.219628
0.000000 0.421337 0.268775
0.000000 0.426919 0.315568
0.000000 0.432864 0.359517
0.000000 0.438510 0.400160
0.008002 0.443070 0.437062
0.012062 0.445636 0.469816
0.011402 0.445179 0.498041
0.005500 0.440547 0.521382
0.000000 0.430464 0.539511
0.000000 0.413535 0.552129
0.000000 0.388241 0.558962
0.000000 0.352942 0.559763
0.000000 0.305874 0.554312
0.000000 0.245153 0.542416
0.000000 0.168771 0.523910
0.000000 0.401654 0.000000
0.000000 0.429437 0.000000
0.000000 0.448627 0.000000
0.000000 0.460761 0.000000
0.000000 0.467256 0.000000
0.000000 0.469406 0.000000
0.000000 0.468383 0.000000
0.000000 0.465236 0.000000
0.000000 0.460894 0.000000
0.000000 0.456162 0.000000
0.000000 0.451723 0.000000
0.000000 0.448140 0.000000
0.000000 0.445849 0.000000
0.000000 0.445170 0.000000
0.000000 0.446297 0.044618
0.000000 0.449302 0.102493
0.000000 0.454137 0.159493
0.000000 0.460629 0.215014
0.000000 0.468485 0.268480
0.000000 0.477289 0.319341
0.000000 0.486504 0.367074
0.014966 0.495469 0.411184
0.026041 0.503403 0.451201
0.032547 0.509400 0.486684
0.033978 0.512434 0.517218
0.029796 0.511358 0.542414
0.019434 0.504899 0.561911
0.002291 0.491666 0.575374
0.000000 0.470143 0.582496
0.000000 0.438693 0.582997
0.000000 0.395557 0.576622
0.000000 0.338853 0.563144
0.000000 0.266579 0.542364
0.000000 0.368159 0.000000
0.000000 0.399454 0.000000
0.000000 0.422141 0.000000
0.000000 0.437761 0.000000
0.000000 0.447735 0.000000
0.000000 0.453359 0.000000
0.000000 0.455811 0.000000
0.000000 0.456142 0.000000
0.000000 0.455284 0.000000
0.000000 0.454047 0.000000
0.000000 0.453117 0.000000
0.000000 0.453059 0.000000
0.000000 0.454317 0.000000
0.000000 0.457210 0.000000
0.000000 0.461937 0.030222
0.000000 0.468574 0.093467
0.000000 0.477075 0.155704
0.000000 0.487274 0.216296
0.000000 0.498878 0.274633
0.000000 0.511477 0.330130
0.008134 0.524536 0.382232
0.026610 0.537399 0.430408
0.040665 0.549286 0.474156
0.049807 0.559297 0.512999
0.053514 0.566409 0.546489
0.051231 0.569478 0.574203
0.042374 0.567236 0.595746
0.026326 0.558293 0.610749
0.002440 0.541139 0.618871
0.000000 0.514139 0.619797
0.000000 0.475539 0.613239
0.000000 0.423459 0.598936
0.000000 0.355901 0.576655
0.000000 0.303140 0.000000
0.000000 0.338476 0.000000
0.000000 0.365193 0.000000
0.000000 0.384835 0.000000
0.000000 0.398826 0.000000
0.000000 0.408467 0.000000
0.000000 0.414937 0.000000
0.000000 0.419293 0.000000
0.000000 0.422470 0.000000
0.000000 0.425281 0.000000
0.000000 0.428416 0.000000
0.000000 0.432443 0.000000
0.000000 0.437809 0.000000
0.000000 0.444839 0.000000
0.000000 0.453733 0.021559
0.000000 0.464573 0.090689
0.000000 0.477315 0.158696
0.000000 0.491795 0.224906
0.000000 0.507727 0.288677
0.000000 0.524703 0.349391
0.011857 0.542190 0.406456
0.033851 0.559537 0.459310
0.051091 0.575969 0.507415
0.063067 0.590588 0.550260
0.069242 0.602374 0.587364
0.069043 0.610187 0.618270
0.061870 0.612763 0.642548
0.047090 0.608715 0.659796
0.024040 0.596537 0.669639
0.000000 0.574598 0.671727
0.000000 0.541147 0.665738
0.000000 0.494308 0.651379
0.000000 0.432085 0.628381
0.000000 0.201303 0.000000
0.000000 0.241220 0.000000
0.000000 0.272510 0.000000
0.000000 0.296719 0.000000
0.000000 0.315276 0.000000
0.000000 0.329484 0.000000
0.000000 0.340527 0.000000
0.000000 0.349465 0.000000
0.000000 0.357237 0.000000
0.000000 0.364659 0.000000
0.000000 0.372424 0.000000
0.000000 0.381105 0.000000
0.000000 0.391152 0.000000
0.000000 0.402892 0.000000
0.000000 0.416532 0.020124
0.000000 0.432153 0.095667
0.000000 0.449719 0.169985
0.000000 0.469067 0.242373
0.000000 0.489915 0.312153
0.000000 0.511859 0.378673
0.010103 0.534369 0.441308
0.035834 0.556799 0.499461
0.056469 0.578374 0.552560
0.071485 0.598203 0.600061
0.080326 0.615270 0.641448
0.082404 0.628436 0.676231
0.077101 0.636441 0.703944
0.063769 0.637904 0.724154
0.041728 0.631320 0.736448
0.010267 0.615062 0.740446
0.000000 0.587382 0.735791
0.000000 0.546410 0.722154
0.000000 0.490152 0.699234
0.000000 0.057027 0.000000
0.000000 0.102076 0.000000
0.000000 0.138491 0.000000
0.000000 0.167823 0.000000
0.000000 0.191503 0.000000
0.000000 0.210841 0.000000
0.000000 0.227021 0.000000
0.000000 0.241108 0.000000
0.000000 0.254044 0.000000
0.000000 0.266649 0.000000
0.000000 0.279620 0.000000
0.000000 0.293533 0.000000
0.000000 0.308842 0.000000
0.000000 0.325877 0.000000
0.000000 0.344848 0.027505
0.000000 0.365842 0.109999
0.000000 0.388824 0.191184
0.000000 0.413636 0.270320
0.000000 0.439999 0.346694
0.000000 0.467511 0.419621
0.001945 0.495649 0.488443
0.031636 0.523768 0.552527
0.055886 0.551098 0.611269
0.074154 0.576750 0.664091
0.085866 0.599712 0.710441
0.090420 0.618850 0.749795
0.087181 0.632907 0.781656
0.075484 0.640504 0.805553
0.054633 0.640140 0.821043
0.023901 0.630194 0.827710
0.000000 0.608919 0.825162
0.000000 0.574449 0.813038
0.000000 0.524794 0.791001
0.000000 0.000000 0.000000
0.000000 0.000000 0.000000
0.000000 0.000000 0.000000
0.000000 0.000000 0.000000
0.000000 0.021601 0.000000
0.000000 0.046638 0.000000
0.000000 0.068529 0.000000
0.000000 0.088342 0.000000
0.000000 0.107022 0.000000
0.000000 0.125393 0.000000
0.000000 0.144155 0.000000
0.000000 0.163888 0.000000
0.000000 0.185050 0.000000
0.000000 0.207974 0.000000
0.000000 0.232874 0.045389
0.000000 0.259839 0.135383
0.000000 0.288840 0.223999
0.000000 0.319721 0.310462
0.000000 0.352206 0.394028
0.000000 0.385899 0.473975
0.000000 0.420279 0.549611
0.020271 0.454703 0.620270
0.048361 0.488408 0.685314
0.070099 0.520506 0.744131
0.084896 0.549990 0.796135
0.092133 0.575727 0.840768
0.091158 0.596467 0.877498
0.081291 0.610832 0.905822
0.061818 0.617327 0.925261
0.031995 0.614331 0.935365
0.000000 0.600104 0.935710
0.000000 0.572782 0.925900
0.000000 0.530379 0.905563
0.000000 0.000000 0.000000
0.000000 0.000000 0.000000
0.000000 0.000000 0.000000
0.000000 0.000000 0.000000
0.000000 0.000000 0.000000
0.000000 0.000000 0.000000
0.000000 0.000000 0.000000
0.000000 0.000000 0.000000
0.000000 0.000000 0.000000
0.000000 0.000000 0.000000
0.000000 0.000000 0.000000
0.000000 0.000000 0.000000
0.000000 0.013620 0.000000
0.000000 0.043036 0.000000
0.000000 0.074471 0.075554
0.000000 0.108018 0.173608
0.000000 0.143649 0.270231
0.000000 0.181215 0.364614
0.000000 0.220441 0.455977
0.000000 0.260936 0.543567
0.000000 0.302181 0.626657
0.000686 0.343538 0.704546
0.032848 0.384246 0.776563
0.058283 0.423423 0.842060
0.076385 0.460063 0.900420
0.086518 0.493039 0.951049
0.088015 0.521102 0.993382
0.080178 0.542880 1.000000
0.062278 0.556879 1.000000
0.033555 0.561485 1.000000
0.000000 0.554958 1.000000
0.000000 0.535439 1.000000
0.000000 0.500946 1.000000
0.000000 0.000000 0.000000
0.000000 0.000000 0.000000
0.000000 0.000000 0.000000
0.000000 0.000000 0.000000
0.000000 0.000000 0.000000
0.000000 0.000000 0.000000
0.000000 0.000000 0.000000
0.000000 0.000000 0.000000
0.000000 0.000000 0.000000
0.000000 0.000000 0.000000
0.000000 0.000000 0.000000
0.000000 0.000000 0.000000
0.000000 0.000000 0.000000
0.000000 0.000000 0.012586
0.000000 0.000000 0.119873
0.000000 0.000000 0.226559
0.000000 0.000000 0.331776
0.000000 0.000000 0.434681
0.000000 0.038279 0.534461
0.000000 0.086205 0.630327
0.000000 0.134949 0.721520
0.000000 0.183876 0.807305
0.008237 0.232227 0.886975
0.037601 0.279125 0.959851
0.059235 0.323566 1.000000
0.072485 0.364429 1.000000
0.076669 0.400466 1.000000
