lrplugin/MindfulLensFilmEngine.lrplugin/profiles/luts/cinestill_800t.cube
# Generated from ColorChecker fit
LUT_3D_SIZE 9
DOMAIN_MIN 0.0 0.0 0.0
DOMAIN_MAX 1.0 1.0 1.0
0.153522 0.000000 0.084655
0.050543 0.000000 0.000000
0.000000 0.000000 0.000000
0.000000 0.031521 0.045933
0.000000 0.145058 0.194403
0.000000 0.279598 0.418085
0.000000 0.400290 0.724017
0.000000 0.441022 1.000000
0.000000 0.304413 1.000000
0.082809 0.000000 0.205810
0.009448 0.000000 0.107072
0.000000 0.000000 0.101587
0.000000 0.000000 0.167039
0.000000 0.000000 0.287996
0.000000 0.000000 0.455908
0.000000 0.000000 0.669107
0.000000 0.000000 0.932809
0.000000 0.000000 1.000000
0.000000 0.000000 0.193738
0.000000 0.000000 0.109280
0.000000 0.000000 0.119961
0.000000 0.000000 0.194763
0.000000 0.000000 0.309546
0.000000 0.000000 0.447056
0.000000 0.000000 0.596920
0.000000 0.000000 0.755650
0.000000 0.000000 0.926638
0.000000 0.129372 0.046496
0.000000 0.153719 0.000000
0.000000 0.107822 0.031302
0.000000 0.053366 0.135564
0.000000 0.020773 0.268315
0.000000 0.009193 0.403593
0.000000 0.000000 0.522321
0.000000 0.000000 0.612306
0.000000 0.000000 0.668234
0.000000 0.361014 0.000000
0.000000 0.397130 0.000000
0.000000 0.361742 0.000000
0.000000 0.317450 0.020134
0.000000 0.295583 0.197794
0.000000 0.296207 0.361810
0.000000 0.288120 0.484403
0.000000 0.208854 0.544671
0.000000 0.000000 0.528597
0.000000 0.368159 0.000000
0.000000 0.447735 0.000000
0.000000 0.455284 0.000000
0.000000 0.454317 0.000000
0.000000 0.477075 0.155704
0.008134 0.524536 0.382232
0.053514 0.566409 0.546489
0.002440 0.541139 0.618871
0.000000 0.355901 0.576655
0.000000 0.000000 0.000000
0.000000 0.021601 0.000000
0.000000 0.107022 0.000000
0.000000 0.185050 0.000000
0.000000 0.288840 0.223999
0.000000 0.420279 0.549611
0.084896 0.549990 0.796135
0.061818 0.617327 0.925261
0.000000 0.530379 0.905563
0.000000 0.000000 0.000000
0.000000 0.000000 0.000000
0.000000 0.000000 0.000000
0.000000 0.000000 0.006812
0.000000 0.000000 0.508860
0.000000 0.000000 0.972930
0.000000 0.000000 1.000000
0.012301 0.084832 1.000000
0.000000 0.138031 1.000000
0.000000 0.000000 0.000000
0.000000 0.000000 0.000000
0.000000 0.000000 0.000000
0.000000 0.000000 0.457965
0.000000 0.000000 1.000000
0.000000 0.000000 1.000000
0.000000 0.000000 1.000000
0.000000 0.000000 1.000000
0.000000 0.000000 1.000000
0.466562 0.000000 0.250750
0.349793 0.163555 0.052073
0.226591 0.285298 0.000000
0.119393 0.408233 0.000000
0.042693 0.560148 0.016848
0.003047 0.737560 0.165698
0.000000 0.905722 0.398877
0.021426 0.998621 0.729131
0.052855 0.918977 1.000000
0.410072 0.030120 0.401094
0.313106 0.120586 0.215451
0.214322 0.151335 0.133172
0.131954 0.182330 0.130764
0.076296 0.242269 0.191618
0.049701 0.328580 0.306010
0.046580 0.407429 0.471095
0.053405 0.413714 0.690915
0.048705 0.251065 0.976391
0.300766 0.189246 0.426609
0.238200 0.218649 0.259591
0.176830 0.187212 0.201150
0.130688 0.155810 0.219088
0.105868 0.154050 0.288093
0.100520 0.180275 0.389733
0.104854 0.201562 0.512460
0.101140 0.153718 0.651609
0.063706 0.000000 0.809397
0.138480 0.433476 0.323080
0.126727 0.432396 0.183077
0.117583 0.370088 0.160894
0.120881 0.308339 0.215628
0.138511 0.277668 0.313261
0.164422 0.277329 0.426656
0.184624 0.275310 0.535561
0.177183 0.208331 0.626604
0.112227 0.000000 0.693298
0.000000 0.651258 0.110519
0.000000 0.652781 0.008725
0.023267 0.593425 0.038021
0.091033 0.535886 0.148801
0.164543 0.511598 0.298341
0.233543 0.520725 0.450799
0.279841 0.532166 0.577218
0.277303 0.483553 0.655522
0.191853 0.281253 0.670517
0.000000 0.647338 0.000000
0.000000 0.687059 0.000000
0.000000 0.666984 0.000000
0.012862 0.650724 0.071253
0.157497 0.670620 0.298780
0.283232 0.727750 0.520411
0.367672 0.791924 0.698483
0.380482 0.801686 0.802215
0.283385 0.664314 0.807708
0.000000 0.142767 0.000000
0.000000 0.258787 0.000000
0.000000 0.316832 0.000000
0.000000 0.381422 0.059863
0.074121 0.485811 0.394259
0.272053 0.631989 0.717973
0.408499 0.790677 0.984637
0.448919 0.901331 1.000000
0.350837 0.872140 1.000000
0.000000 0.000000 0.000000
0.000000 0.000000 0.000000
0.000000 0.000000 0.000000
0.000000 0.000000 0.215739
0.000000 0.000000 0.688686
0.141789 0.000000 1.000000
0.345918 0.180822 1.000000
0.428029 0.437391 1.000000
0.341440 0.562140 1.000000
0.000000 0.000000 0.000000
0.000000 0.000000 0.000000
0.000000 0.000000 0.080732
0.000000 0.000000 0.664219
0.000000 0.000000 1.000000
0.000000 0.000000 1.000000
0.106743 0.000000 1.000000
0.246440 0.000000 1.000000
0.185641 0.000000 1.000000
0.697543 0.050407 0.429006
0.558926 0.260662 0.145950
0.420924 0.413197 0.000000
0.308118 0.567163 0.000000
0.237150 0.750447 0.000000
0.216719 0.959666 0.000000
0.247583 1.000000 0.127099
0.322560 1.000000 0.387238
0.426526 1.000000 0.762342
0.666552 0.153335 0.598727
0.533290 0.246804 0.329093
0.405996 0.282300 0.171466
0.305052 0.319888 0.101177
0.242895 0.388364 0.100443
0.224024 0.485258 0.158361
0.244996 0.576837 0.270913
0.294427 0.598097 0.440963
0.352992 0.452772 0.678256
0.577070 0.345767 0.651587
0.464758 0.354424 0.397303
0.362168 0.305593 0.263565
0.285479 0.260249 0.217000
0.242929 0.248099 0.231119
0.234813 0.267587 0.286316
0.253487 0.285889 0.369865
0.283366 0.238914 0.475926
0.300923 0.031307 0.605540
0.432253 0.607338 0.581097
0.358303 0.565666 0.346890
0.296229 0.467726 0.245799
0.258007 0.375403 0.235744
0.247674 0.319318 0.281532
0.261325 0.298825 0.354851
0.287113 0.282011 0.434271
0.305251 0.205699 0.505246
0.288010 0.000000 0.560112
0.218474 0.833984 0.404997
0.202114 0.778974 0.198397
0.198184 0.669650 0.141511
0.214458 0.568811 0.183554
0.250771 0.507987 0.280628
0.299016 0.487446 0.395714
0.343145 0.476185 0.498679
0.359169 0.411939 0.566271
0.315160 0.201174 0.582121
0.000000 0.837942 0.165259
0.000000 0.809092 0.000000
0.041254 0.728618 0.000000
0.129869 0.660231 0.110804
0.229072 0.636375 0.281580
0.326556 0.658226 0.464881
0.402071 0.695695 0.621867
0.427427 0.687427 0.720581
0.366492 0.540801 0.735949
0.000000 0.347752 0.000000
0.000000 0.387066 0.000000
0.000000 0.378184 0.000000
0.000000 0.385726 0.092099
0.142648 0.443049 0.361797
0.305832 0.552241 0.642559
0.427595 0.684124 0.886842
0.475543 0.778255 1.000000
0.409344 0.742923 1.000000
0.000000 0.000000 0.000000
0.000000 0.000000 0.000000
0.000000 0.000000 0.000000
0.000000 0.000000 0.226273
0.000000 0.000000 0.622913
0.181945 0.000000 1.000000
0.366633 0.101359 1.000000
0.452252 0.346815 1.000000
0.394267 0.472441 1.000000
0.000000 0.000000 0.000000
0.000000 0.000000 0.000000
0.000000 0.000000 0.174063
0.000000 0.000000 0.636394
0.000000 0.000000 1.000000
0.000000 0.000000 1.000000
0.149321 0.000000 1.000000
0.289505 0.000000 1.000000
0.255028 0.000000 1.000000
0.862926 0.000000 0.579496
0.719372 0.175848 0.244343
0.580130 0.389111 0.020537
0.471924 0.599986 0.000000
0.413543 0.836458 0.000000
0.415830 1.000000 0.000000
0.481689 1.000000 0.000000
0.606083 1.000000 0.212758
0.776034 1.000000 0.538025
0.883370 0.115632 0.778226
0.726090 0.239321 0.449263
0.579214 0.302724 0.239484
0.465267 0.366005 0.123044
0.398833 0.458062 0.080984
0.386557 0.576527 0.101225
0.427140 0.687763 0.178572
0.511342 0.726871 0.314715
0.621986 0.597681 0.518222
0.838002 0.392586 0.867632
0.683590 0.400938 0.543124
0.544074 0.351096 0.349665
0.437779 0.304134 0.252706
0.375087 0.289862 0.224582
0.358441 0.306822 0.244511
0.382340 0.322292 0.298591
0.433344 0.272281 0.379807
0.490072 0.061534 0.488024
0.733301 0.718931 0.838952
0.600167 0.650333 0.519963
0.484822 0.526367 0.347919
0.401389 0.409019 0.279565
0.356049 0.329010 0.278531
0.347042 0.285796 0.315328
0.364668 0.247564 0.367353
0.391283 0.151235 0.418881
0.401306 0.000000 0.461075
0.558959 0.998094 0.707653
0.467330 0.893439 0.398051
0.394784 0.736978 0.255316
0.351240 0.591609 0.227492
0.338679 0.488965 0.269501
0.351138 0.429412 0.343150
0.374717 0.382050 0.417130
0.387570 0.284712 0.467013
0.359913 0.043964 0.475254
0.287884 1.000000 0.513433
0.259805 0.952491 0.219884
0.250500 0.807672 0.117158
0.265690 0.679155 0.144588
0.303151 0.599484 0.248395
0.352721 0.569936 0.381680
0.396295 0.560524 0.504428
0.407829 0.509991 0.583507
0.353337 0.325817 0.592666
0.000000 0.610082 0.320219
0.000000 0.566024 0.052194
0.011729 0.479492 0.002973
0.106312 0.415207 0.103185
0.212856 0.406625 0.290347
0.316996 0.455935 0.508853
0.396427 0.534059 0.709983
0.420902 0.580656 0.851900
0.352234 0.504114 0.899650
0.000000 0.000000 0.216172
0.000000 0.000000 0.000000
0.000000 0.000000 0.006523
0.000000 0.000000 0.199846
0.014399 0.000000 0.494718
0.192387 0.000000 0.826831
0.325352 0.000000 1.000000
0.378845 0.166589 1.000000
0.310477 0.251245 1.000000
0.000000 0.000000 0.313679
0.000000 0.000000 0.136312
0.000000 0.000000 0.245799
0.000000 0.000000 0.555362
0.000000 0.000000 0.985104
0.000000 0.000000 1.000000
0.116524 0.000000 1.000000
0.216928 0.000000 1.000000
0.165154 0.000000 1.000000
0.882687 0.000000 0.589654
0.776079 0.000000 0.256437
0.674126 0.162196 0.036951
0.605699 0.484685 0.000000
0.591730 0.824994 0.000000
0.645209 1.000000 0.000000
0.771185 1.000000 0.033264
0.966766 1.000000 0.245372
1.000000 1.000000 0.564568
0.995162 0.000000 0.846470
0.851113 0.039393 0.504591
0.718551 0.182691 0.287605
0.622147 0.319596 0.168492
0.578630 0.479106 0.127117
0.596788 0.658954 0.150226
0.677469 0.825605 0.231448
0.813580 0.914258 0.371296
0.990086 0.828846 0.577163
1.000000 0.263060 1.000000
0.868964 0.320376 0.645128
0.721786 0.314733 0.429273
0.611796 0.307307 0.317778
0.551522 0.328007 0.281803
0.545552 0.375478 0.299389
0.590530 0.417096 0.355460
0.675163 0.388971 0.441822
0.780213 0.195949 0.557166
1.000000 0.722542 1.000000
0.841246 0.669509 0.669815
0.697261 0.557951 0.456522
0.589894 0.449955 0.358106
0.527474 0.376342 0.337021
0.510383 0.336668 0.362603
0.531068 0.299221 0.411070
0.574031 0.201022 0.465524
0.615834 0.000000 0.515951
0.906339 1.000000 0.983700
0.762790 1.000000 0.594646
0.641624 0.828277 0.388149
0.554907 0.665979 0.311074
0.506764 0.545057 0.317170
0.493380 0.465978 0.367067
0.502996 0.397941 0.428280
0.515914 0.278880 0.475204
0.504495 0.015463 0.489121
0.711361 1.000000 0.862351
0.611642 1.000000 0.459848
0.534737 0.957943 0.267180
0.488513 0.790119 0.222510
0.472891 0.671400 0.270879
0.479854 0.603163 0.364213
0.493443 0.555519 0.461321
0.489759 0.467315 0.527895
0.436960 0.246129 0.536509
0.380092 0.946827 0.740023
0.349062 0.841560 0.329876
0.339679 0.695482 0.160874
0.355606 0.573417 0.162472
0.392564 0.508919 0.271007
0.438334 0.504279 0.429701
0.472756 0.530520 0.588656
0.467728 0.527399 0.704860
0.387207 0.403406 0.742181
0.000000 0.000000 0.702601
0.000000 0.000000 0.293419
0.002743 0.000000 0.160718
0.104297 0.000000 0.225249
0.215711 0.000000 0.414645
0.320564 0.000000 0.663422
0.394494 0.000000 0.912977
0.405198 0.136505 1.000000
0.312431 0.167175 1.000000
0.000000 0.000000 0.860201
0.000000 0.000000 0.463391
0.000000 0.000000 0.382430
0.000000 0.000000 0.529361
0.000000 0.000000 0.823114
0.061503 0.000000 1.000000
0.195433 0.000000 1.000000
0.240761 0.000000 1.000000
0.153040 0.000000 1.000000
0.580320 0.000000 0.274279
0.577510 0.000000 0.018780
0.576347 0.000000 0.000000
0.607847 0.085554 0.000000
0.695088 0.609178 0.000000
0.853203 1.000000 0.000000
1.000000 1.000000 0.174434
1.000000 1.000000 0.452124
1.000000 1.000000 0.830763
0.840083 0.000000 0.637703
0.771484 0.000000 0.351068
0.712104 0.000000 0.193570
0.688757 0.065881 0.137012
0.720319 0.365545 0.160084
0.817723 0.675420 0.248356
0.983962 0.962070 0.394280
1.000000 1.000000 0.597194
1.000000 1.000000 0.863315
1.000000 0.000000 0.905585
0.898664 0.000000 0.578752
0.798057 0.073826 0.399575
0.735254 0.175917 0.331153
0.724929 0.297515 0.343467
0.773812 0.437362 0.413385
0.880696 0.562936 0.524653
1.000000 0.610449 0.667903
1.000000 0.484844 0.840649
1.000000 0.458764 1.000000
0.973984 0.492616 0.691325
0.850960 0.460729 0.488238
0.765909 0.425290 0.409748
0.729303 0.417220 0.417133
0.743674 0.436176 0.478553
0.803610 0.450546 0.569050
0.895760 0.397452 0.670551
0.998831 0.182751 0.771865
1.000000 1.000000 1.000000
0.995597 0.989660 0.702508
0.870779 0.862726 0.476082
0.782505 0.739928 0.392125
0.737044 0.653099 0.403208
0.732726 0.602806 0.468787
0.759938 0.558350 0.555200
0.801128 0.457765 0.635667
0.830801 0.207818 0.690293
1.000000 1.000000 1.000000
0.944870 1.000000 0.650256
0.840700 1.000000 0.403862
0.770044 0.962061 0.321837
0.734969 0.849887 0.348048
0.729603 0.784497 0.433245
0.740132 0.736102 0.535061
0.744803 0.643647 0.618011
0.713919 0.414813 0.653494
0.868722 1.000000 1.000000
0.786384 1.000000 0.596750
0.727121 0.987189 0.336561
0.696740 0.850219 0.266670
0.693109 0.768625 0.322239
0.706154 0.744795 0.445314
0.717858 0.749855 0.584821
0.702267 0.723661 0.696572
0.625482 0.574804 0.743259
0.477265 0.284547 1.000000
0.467937 0.228386 0.628404
0.479656 0.138004 0.363394
0.514026 0.079236 0.318640
0.564714 0.086651 0.420600
0.617443 0.163548 0.602613
0.649997 0.281965 0.804901
0.632218 0.382669 0.974571
0.526008 0.375164 1.000000
0.000000 0.000000 1.000000
0.000000 0.000000 0.855863
0.031134 0.000000 0.597806
0.156547 0.000000 0.593993
0.286245 0.000000 0.762176
0.401750 0.000000 1.000000
0.476645 0.000000 1.000000
0.476570 0.000000 1.000000
0.359224 0.000000 1.000000
0.000000 0.000000 0.000000
0.000000 0.000000 0.000000
0.063745 0.000000 0.000000
0.280291 0.000000 0.000000
0.550507 0.000000 0.000000
0.891673 0.770798 0.000000
1.000000 1.000000 0.295418
1.000000 1.000000 0.727421
1.000000 1.000000 1.000000
0.159802 0.000000 0.000000
0.253844 0.000000 0.000000
0.351483 0.000000 0.000000
0.481680 0.000000 0.000000
0.665454 0.000000 0.028488
0.915885 0.455112 0.265966
1.000000 0.955174 0.559170
1.000000 1.000000 0.906260
1.000000 1.000000 1.000000
0.539128 0.000000 0.362230
0.553991 0.000000 0.146796
0.579160 0.000000 0.085120
0.639397 0.000000 0.139127
0.751519 0.019672 0.277622
0.924405 0.342590 0.476294
1.000000 0.638757 0.717717
1.000000 0.844486 0.991346
1.000000 0.864820 1.000000
0.837254 0.000000 0.706047
0.794343 0.000000 0.406738
0.766850 0.019261 0.287061
0.775334 0.148412 0.300233
0.832410 0.293861 0.406358
0.942756 0.455365 0.572419
1.000000 0.601411 0.772284
1.000000 0.669224 0.986702
1.000000 0.564761 1.000000
1.000000 0.562410 0.953633
0.976374 0.638426 0.563326
0.917842 0.645813 0.382555
0.894596 0.647771 0.355831
0.915050 0.676234 0.434551
0.979680 0.731870 0.576995
1.000000 0.784078 0.748325
1.000000 0.770994 0.920585
1.000000 0.599486 1.000000
1.000000 1.000000 1.000000
1.000000 1.000000 0.652241
1.000000 1.000000 0.410083
0.985505 1.000000 0.347200
0.989577 1.000000 0.406283
1.000000 1.000000 0.536906
1.000000 1.000000 0.695526
1.000000 1.000000 0.845482
1.000000 0.831254 0.956997
1.000000 1.000000 1.000000
1.000000 1.000000 0.733391
1.000000 1.000000 0.432358
1.000000 1.000000 0.339855
1.000000 1.000000 0.389868
1.000000 1.000000 0.523267
1.000000 1.000000 0.687802
1.000000 1.000000 0.838109
1.000000 1.000000 0.935706
0.959093 0.649739 1.000000
0.935492 0.631841 0.890919
0.931752 0.574879 0.536320
0.951624 0.544787 0.423537
0.990919 0.576234 0.477850
1.000000 0.672621 0.631422
1.000000 0.806085 0.823301
1.000000 0.917494 0.999415
0.980601 0.916452 1.000000
0.510356 0.000000 1.000000
0.563268 0.000000 1.000000
0.633151 0.000000 0.833142
0.719554 0.000000 0.712220
0.814088 0.000000 0.787002
0.900418 0.000000 0.980948
0.954274 0.000000 1.000000
0.943440 0.000000 1.000000
0.827761 0.075906 1.000000
0.000000 0.000000 0.000000
0.000000 0.000000 0.000000
0.000000 0.000000 0.000000
0.000000 0.000000 0.000000
0.000000 0.000000 0.000000
0.515999 0.000000 0.000000
1.000000 0.924164 0.196237
1.000000 1.000000 0.893033
1.000000 1.000000 1.000000
0.000000 0.000000 0.000000
0.000000 0.000000 0.000000
0.000000 0.000000 0.000000
0.000000 0.000000 0.000000
0.159103 0.000000 0.000000
0.661313 0.000000 0.000774
1.000000 0.549245 0.545584
1.000000 1.000000 1.000000
1.000000 1.000000 1.000000
0.000000 0.000000 0.000000
0.000000 0.000000 0.000000
0.000000 0.000000 0.000000
0.058982 0.000000 0.000000
0.391023 0.000000 0.000000
0.782029 0.000000 0.305278
1.000000 0.409814 0.773562
1.000000 0.885165 1.000000
1.000000 1.000000 1.000000
0.000000 0.000000 0.000000
0.001801 0.000000 0.000000
0.169381 0.000000 0.000000
0.367588 0.000000 0.000000
0.611185 0.000000 0.119552
0.906991 0.151588 0.480807
1.000000 0.538000 0.879125
1.000000 0.831351 1.000000
1.000000 0.937698 1.000000
0.328769 0.000000 0.214761
0.419258 0.000000 0.000000
0.521921 0.000000 0.000000
0.655258 0.110136 0.014742
0.829832 0.363918 0.245499
1.000000 0.631451 0.547741
1.000000 0.882236 0.885453
1.000000 1.000000 1.000000
1.000000 1.000000 1.000000
0.712784 0.327257 0.670590
0.760144 0.533780 0.254299
0.822327 0.668676 0.096090
0.913635 0.796160 0.130595
1.000000 0.949175 0.299329
1.000000 1.000000 0.550690
1.000000 1.000000 0.839959
1.000000 1.000000 1.000000
1.000000 1.000000 1.000000
0.963595 0.868876 1.000000
0.995682 1.000000 0.547741
1.000000 1.000000 0.277956
1.000000 1.000000 0.233466
1.000000 1.000000 0.347082
1.000000 1.000000 0.558496
1.000000 1.000000 0.814285
1.000000 1.000000 1.000000
1.000000 1.000000 1.000000
1.000000 0.574429 1.000000
1.000000 0.696666 0.908345
1.000000 0.770937 0.528632
1.000000 0.863276 0.410824
1.000000 1.000000 0.479028
1.000000 1.000000 0.664232
1.000000 1.000000 0.904305
1.000000 1.000000 1.000000
1.000000 1.000000 1.000000
0.859311 0.000000 1.000000
0.951688 0.000000 1.000000
1.000000 0.000000 0.957016
1.000000 0.000000 0.774370
1.000000 0.000000 0.809670
1.000000 0.098545 0.985199
1.000000 0.458831 1.000000
1.000000 0.806153 1.000000
1.000000 1.000000 1.000000
0.000000 0.000000 0.000000
0.000000 0.000000 0.000000
0.000000 0.000000 0.000000
0.000000 0.000000 0.000000
0.000000 0.000000 0.000000
0.000000 0.000000 0.000000
0.502144 0.000000 0.000000
1.000000 0.970305 0.698094
1.000000 1.000000 1.000000
0.000000 0.000000 0.000000
0.000000 0.000000 0.000000
0.000000 0.000000 0.000000
0.000000 0.000000 0.000000
0.000000 0.000000 0.000000
0.000000 0.000000 0.000000
0.672932 0.000000 0.100350
1.000000 0.555306 1.000000
1.000000 1.000000 1.000000
0.000000 0.000000 0.000000
0.000000 0.000000 0.000000
0.000000 0.000000 0.000000
0.000000 0.000000 0.000000
0.000000 0.000000 0.000000
0.034901 0.000000 0.000000
0.822157 0.000000 0.458462
1.000000 0.412880 1.000000
1.000000 1.000000 1.000000
0.000000 0.000000 0.000000
0.000000 0.000000 0.000000
0.000000 0.000000 0.000000
0.000000 0.000000 0.000000
0.000000 0.000000 0.000000
0.339255 0.000000 0.000000
0.983803 0.000000 0.675291
1.000000 0.585153 1.000000
1.000000 1.000000 1.000000
0.000000 0.000000 0.000000
0.000000 0.000000 0.000000
0.000000 0.000000 0.000000
0.000000 0.000000 0.000000
0.173957 0.000000 0.000000
0.656008 0.000000 0.164435
1.000000 0.546245 0.771746
1.000000 1.000000 1.000000
1.000000 1.000000 1.000000
0.000000 0.000000 0.000000
0.000000 0.000000 0.000000
0.000000 0.000000 0.000000
0.236690 0.000000 0.000000
0.594739 0.297050 0.000000
0.983757 0.777703 0.277452
1.000000 1.000000 0.792966
1.000000 1.000000 1.000000
1.000000 1.000000 1.000000
0.000000 0.000000 0.235643
0.158091 0.000000 0.000000
0.413096 0.221606 0.000000
0.687590 0.585458 0.000000
0.985875 0.973762 0.000000
1.000000 1.000000 0.373303
1.000000 1.000000 0.808321
1.000000 1.000000 1.000000
1.000000 1.000000 1.000000
0.338125 0.000000 1.000000
0.564030 0.034925 0.435433
0.797369 0.367070 0.116824
1.000000 0.704424 0.078747
1.000000 1.000000 0.244131
1.000000 1.000000 0.542787
1.000000 1.000000 0.911410
1.000000 1.000000 1.000000
1.000000 1.000000 1.000000
0.525558 0.000000 1.000000
0.762096 0.000000 1.000000
1.000000 0.000000 0.765369
1.000000 0.000000 0.598133
1.000000 0.237451 0.669619
1.000000 0.737620 0.900932
1.000000 1.000000 1.000000
1.000000 1.000000 1.000000
1.000000 1.000000 1.000000
