lrplugin/MindfulLensFilmEngine.lrplugin/profiles/luts/colorplus_200.cube
# Generated from ColorChecker fit
LUT_3D_SIZE 33
DOMAIN_MIN 0.0 0.0 0.0
DOMAIN_MAX 1.0 1.0 1.0
0.054397 0.000000 0.179914
0.033314 0.000000 0.207154
0.018742 0.000000 0.236361
0.010946 0.000000 0.267498
0.010134 0.000000 0.300433
0.016459 0.000000 0.334943
0.030013 0.000626 0.370705
0.050832 0.012390 0.407306
0.078894 0.026025 0.444237
0.114118 0.041637 0.480892
0.156367 0.059191 0.516574
0.205446 0.078506 0.550490
0.261100 0.099259 0.581751
0.323020 0.120984 0.609375
0.390837 0.143071 0.632286
0.464124 0.164765 0.649312
0.542397 0.185169 0.659187
0.625114 0.203242 0.660551
0.711676 0.217800 0.651947
0.801425 0.227515 0.631827
0.893646 0.230916 0.598545
0.987566 0.226387 0.550363
1.000000 0.212170 0.485447
1.000000 0.186364 0.401869
1.000000 0.146921 0.297606
1.000000 0.091654 0.170541
1.000000 0.018229 0.018462
1.000000 0.000000 0.000000
1.000000 0.000000 0.000000
1.000000 0.000000 0.000000
1.000000 0.000000 0.000000
1.000000 0.000000 0.000000
1.000000 0.000000 0.000000
0.024981 0.000000 0.140883
0.006831 0.000000 0.171314
0.000000 0.000000 0.203830
0.000000 0.001449 0.238360
0.000000 0.015064 0.274741
0.000000 0.028943 0.312714
0.012320 0.043570 0.351925
0.033419 0.059282 0.391928
0.061167 0.076277 0.432179
0.095440 0.094607 0.472042
0.136058 0.114179 0.510786
0.182782 0.134760 0.547583
0.235316 0.155970 0.581514
0.293304 0.177289 0.611562
0.356335 0.198049 0.636619
0.423940 0.217444 0.655480
0.495591 0.234519 0.666845
0.570702 0.248180 0.669322
0.648631 0.257185 0.661421
0.728677 0.260154 0.641560
0.810081 0.255557 0.608061
0.892028 0.241727 0.559154
0.973643 0.216848 0.492970
1.000000 0.178964 0.407549
1.000000 0.125974 0.300835
1.000000 0.055633 0.170679
1.000000 0.000000 0.014833
1.000000 0.000000 0.000000
1.000000 0.000000 0.000000
1.000000 0.000000 0.000000
1.000000 0.000000 0.000000
1.000000 0.000000 0.000000
1.000000 0.000000 0.000000
0.000000 0.000000 0.099518
0.000000 0.000000 0.132998
0.000000 0.001758 0.168675
0.000000 0.021667 0.206448
0.000000 0.040821 0.246119
0.000000 0.059792 0.287397
0.000000 0.079008 0.329896
0.010686 0.098754 0.373135
0.038037 0.119168 0.416538
0.071268 0.140249 0.459436
0.110155 0.161851 0.501064
0.154417 0.183682 0.540563
0.203713 0.205310 0.576980
0.257647 0.226157 0.609265
0.315762 0.245503 0.636277
0.377545 0.262484 0.656778
0.442426 0.276092 0.669436
0.509777 0.285176 0.672823
0.578910 0.288441 0.665420
0.649083 0.284449 0.645610
0.719493 0.271618 0.611682
0.789280 0.248223 0.561833
0.857528 0.212394 0.494161
0.923262 0.162121 0.406674
0.985448 0.095246 0.297283
1.000000 0.009470 0.163803
1.000000 0.000000 0.003957
1.000000 0.000000 0.000000
1.000000 0.000000 0.000000
1.000000 0.000000 0.000000
1.000000 0.000000 0.000000
1.000000 0.000000 0.000000
1.000000 0.000000 0.000000
0.000000 0.000000 0.056495
0.000000 0.000000 0.092863
0.000000 0.008767 0.131539
0.000000 0.034795 0.172387
0.000000 0.059653 0.215178
0.000000 0.083856 0.259587
0.000000 0.107777 0.305195
0.000000 0.131644 0.351488
0.010399 0.155544 0.397858
0.042512 0.179417 0.443602
0.079585 0.203062 0.487923
0.121293 0.226135 0.529928
0.167252 0.248146 0.568631
0.217023 0.268463 0.602950
0.270106 0.286311 0.631710
0.325945 0.300770 0.653640
0.383926 0.310777 0.667376
0.443377 0.315126 0.671457
0.503568 0.312467 0.664330
0.563713 0.301307 0.644345
0.622965 0.280008 0.609760
0.680423 0.246791 0.558736
0.735125 0.199731 0.489341
0.786054 0.136761 0.399548
0.832133 0.055670 0.287235
0.872228 0.000000 0.150186
0.905149 0.000000 0.000000
0.929645 0.000000 0.000000
0.944410 0.000000 0.000000
0.948080 0.000000 0.000000
0.939230 0.000000 0.000000
0.916382 0.000000 0.000000
0.877997 0.000000 0.000000
0.000000 0.000000 0.012733
0.000000 0.000000 0.051813
0.000000 0.009394 0.093307
0.000000 0.041738 0.137048
0.000000 0.072469 0.182771
0.000000 0.102049 0.230121
0.000000 0.130794 0.278644
0.000000 0.158878 0.327794
0.000000 0.186333 0.376929
0.010228 0.213044 0.425315
0.045418 0.238754 0.472119
0.084496 0.263064 0.516418
0.127036 0.285430 0.557191
0.172552 0.305163 0.593324
0.220504 0.321434 0.623609
0.270291 0.333268 0.646742
0.321256 0.339546 0.661326
0.372684 0.339007 0.665866
0.423802 0.330247 0.658778
0.473779 0.311717 0.638377
0.521728 0.281724 0.602890
0.566701 0.238433 0.550443
0.607695 0.179864 0.479073
0.643649 0.103896 0.386718
0.673442 0.008262 0.271224
0.695899 0.000000 0.130343
0.709783 0.000000 0.000000
0.713803 0.000000 0.000000
0.706608 0.000000 0.000000
0.686791 0.000000 0.000000
0.652885 0.000000 0.000000
0.603366 0.000000 0.000000
0.536654 0.000000 0.000000
0.000000 0.000000 0.000000
0.000000 0.000000 0.010992
0.000000 0.004620 0.055109
0.000000 0.043479 0.101542
0.000000 0.080258 0.149996
0.000000 0.115364 0.200079
0.000000 0.149060 0.251307
0.000000 0.181462 0.303100
0.000000 0.212548 0.354783
0.000000 0.242147 0.405589
0.008871 0.269949 0.454652
0.045260 0.295498 0.501016
0.084311 0.318194 0.543627
0.125497 0.337296 0.581340
0.168233 0.351917 0.612910
0.211877 0.361028 0.637003
0.255727 0.363455 0.652188
0.299025 0.357881 0.656938
0.340954 0.342848 0.649634
0.380641 0.316750 0.628561
0.417155 0.277840 0.591910
0.449504 0.224229 0.537776
0.476644 0.153881 0.464162
0.497467 0.064618 0.368973
0.510813 0.000000 0.250024
0.515460 0.000000 0.105030
0.510130 0.000000 0.000000
0.493488 0.000000 0.000000
0.464139 0.000000 0.000000
0.420633 0.000000 0.000000
0.361460 0.000000 0.000000
0.285053 0.000000 0.000000
0.189789 0.000000 0.000000
0.000000 0.000000 0.000000
0.000000 0.000000 0.000000
0.000000 0.000000 0.018316
0.000000 0.041086 0.067227
0.000000 0.084094 0.118191
0.000000 0.124883 0.170785
0.000000 0.163659 0.224492
0.000000 0.200486 0.278697
0.000000 0.235283 0.332695
0.000000 0.267828 0.385683
0.000000 0.297753 0.436765
0.004959 0.324548 0.484949
0.040469 0.347557 0.529151
0.077266 0.365985 0.568190
0.114719 0.378888 0.600791
0.152143 0.385183 0.625585
0.188794 0.383642 0.641108
0.223870 0.372892 0.645802
0.256511 0.351418 0.638013
0.285801 0.317561 0.615993
0.310764 0.269519 0.577901
0.330367 0.205346 0.521800
0.343521 0.122953 0.445657
0.349076 0.020105 0.347347
0.345827 0.000000 0.224650
0.332509 0.000000 0.075250
0.307803 0.000000 0.000000
0.270328 0.000000 0.000000
0.218647 0.000000 0.000000
0.151266 0.000000 0.000000
0.066633 0.000000 0.000000
0.000000 0.000000 0.000000
0.000000 0.000000 0.000000
0.000000 0.000000 0.000000
0.000000 0.000000 0.000000
0.000000 0.000000 0.000000
0.000000 0.035710 0.035699
0.000000 0.085133 0.088939
0.000000 0.131766 0.143806
0.000000 0.175759 0.199748
0.000000 0.217121 0.256120
0.000000 0.255718 0.312183
0.000000 0.291270 0.367100
0.000000 0.323355 0.419943
0.000000 0.351407 0.469688
0.000000 0.374718 0.515215
0.029410 0.392433 0.555313
0.061528 0.403558 0.588673
0.092672 0.406951 0.613893
0.122056 0.401329 0.629476
0.148835 0.385266 0.633830
0.172104 0.357191 0.625270
0.190905 0.315389 0.602015
0.204218 0.258004 0.562189
0.210968 0.183034 0.503822
0.210020 0.088334 0.424851
0.200183 0.000000 0.323116
0.180209 0.000000 0.196363
0.148789 0.000000 0.042245
0.104559 0.000000 0.000000
0.046096 0.000000 0.000000
0.000000 0.000000 0.000000
0.000000 0.000000 0.000000
0.000000 0.000000 0.000000
0.000000 0.000000 0.000000
0.000000 0.000000 0.000000
0.000000 0.000000 0.000000
0.000000 0.000000 0.000000
0.000000 0.000000 0.000000
0.000000 0.028587 0.008801
0.000000 0.084616 0.064065
0.000000 0.137258 0.120949
0.000000 0.186610 0.178869
0.000000 0.232625 0.237145
0.000000 0.275113 0.295006
0.000000 0.313739 0.351584
0.000000 0.348027 0.405915
0.000000 0.377355 0.456943
0.000000 0.400960 0.503516
0.000000 0.417932 0.544389
0.010373 0.427220 0.578220
0.035193 0.427629 0.603575
0.057258 0.417822 0.618922
0.075679 0.396314 0.622639
0.089509 0.361482 0.613006
0.097745 0.311555 0.588208
0.099324 0.244620 0.546339
0.093129 0.158623 0.485395
0.077981 0.051362 0.403278
0.052645 0.000000 0.297797
0.015830 0.000000 0.166665
0.000000 0.000000 0.007501
0.000000 0.000000 0.000000
0.000000 0.000000 0.000000
0.000000 0.000000 0.000000
0.000000 0.000000 0.000000
0.000000 0.000000 0.000000
0.000000 0.000000 0.000000
0.000000 0.000000 0.000000
0.000000 0.000000 0.000000
0.000000 0.000000 0.000000
0.000000 0.000000 0.000000
0.000000 0.021032 0.000000
0.000000 0.083863 0.045638
0.000000 0.142688 0.104268
0.000000 0.197546 0.163890
0.000000 0.248336 0.223793
0.000000 0.294812 0.283170
0.000000 0.336586 0.341122
0.000000 0.373125 0.396652
0.000000 0.403752 0.448670
0.000000 0.427648 0.495993
0.000000 0.443850 0.537340
0.000000 0.451252 0.571339
0.000000 0.448601 0.596520
0.000000 0.434507 0.611322
0.006307 0.407429 0.614087
0.010645 0.365689 0.603062
0.008256 0.307461 0.576401
0.000000 0.230778 0.532162
0.000000 0.133529 0.468311
0.000000 0.013457 0.382716
0.000000 0.000000 0.273153
0.000000 0.000000 0.137302
0.000000 0.000000 0.000000
0.000000 0.000000 0.000000
0.000000 0.000000 0.000000
0.000000 0.000000 0.000000
0.000000 0.000000 0.000000
0.000000 0.000000 0.000000
0.000000 0.000000 0.000000
0.000000 0.000000 0.000000
0.000000 0.000000 0.000000
0.000000 0.000000 0.000000
0.000000 0.000000 0.000000
0.000000 0.014446 0.000000
0.000000 0.084282 0.035969
0.000000 0.149466 0.096057
0.000000 0.209983 0.157091
0.000000 0.265676 0.218325
0.000000 0.316244 0.278921
0.000000 0.361244 0.337945
0.000000 0.400086 0.394368
0.000000 0.432041 0.447068
0.000000 0.456233 0.494827
0.000000 0.471644 0.536333
0.000000 0.477113 0.570179
0.000000 0.471333 0.594864
0.000000 0.452855 0.608793
0.000000 0.420088 0.610274
0.000000 0.371295 0.597523
0.000000 0.304597 0.568661
0.000000 0.217971 0.521712
0.000000 0.109250 0.454608
0.000000 0.000000 0.365186
0.000000 0.000000 0.251188
0.000000 0.000000 0.110262
0.000000 0.000000 0.000000
0.000000 0.000000 0.000000
0.000000 0.000000 0.000000
0.000000 0.000000 0.000000
0.000000 0.000000 0.000000
0.000000 0.000000 0.000000
0.000000 0.000000 0.000000
0.000000 0.000000 0.000000
0.000000 0.000000 0.000000
0.000000 0.000000 0.000000
0.000000 0.000000 0.000000
0.000000 0.010312 0.000000
0.000000 0.087361 0.037612
0.000000 0.159087 0.098855
0.000000 0.225421 0.160993
0.000000 0.286150 0.223248
0.000000 0.340919 0.284749
0.000000 0.389227 0.344527
0.000000 0.430433 0.401522
0.000000 0.463750 0.454578
0.000000 0.488247 0.502444
0.000000 0.502852 0.543776
0.000000 0.506346 0.577134
0.000000 0.497371 0.600983
0.000000 0.474421 0.613695
0.000000 0.435850 0.613546
0.000000 0.379865 0.598719
0.000000 0.304532 0.567300
0.000000 0.207773 0.517283
0.000000 0.087366 0.446566
0.000000 0.000000 0.352952
0.000000 0.000000 0.234151
0.000000 0.000000 0.087776
0.000000 0.000000 0.000000
0.000000 0.000000 0.000000
0.000000 0.000000 0.000000
0.000000 0.000000 0.000000
0.000000 0.000000 0.000000
0.000000 0.000000 0.000000
0.000000 0.000000 0.000000
0.000000 0.000000 0.000000
0.000000 0.000000 0.000000
0.000000 0.000000 0.000000
0.000000 0.000000 0.000000
0.000000 0.010197 0.000000
0.000000 0.094672 0.053363
0.000000 0.173129 0.115443
0.000000 0.245443 0.178362
0.000000 0.311347 0.241311
0.000000 0.370429 0.303385
0.000000 0.422136 0.363583
0.000000 0.465769 0.420813
0.000000 0.500487 0.473884
0.000000 0.525304 0.521513
0.000000 0.539092 0.562322
0.000000 0.540579 0.594839
0.000000 0.528349 0.617496
0.000000 0.500842 0.628632
0.000000 0.456357 0.626491
0.000000 0.393045 0.609220
0.000000 0.308919 0.574875
0.000000 0.201844 0.521416
0.000000 0.069544 0.446707
0.000000 0.000000 0.348520
0.000000 0.000000 0.224530
0.000000 0.000000 0.072320
0.000000 0.000000 0.000000
0.000000 0.000000 0.000000
0.000000 0.000000 0.000000
0.000000 0.000000 0.000000
0.000000 0.000000 0.000000
0.000000 0.000000 0.000000
0.000000 0.000000 0.000000
0.000000 0.000000 0.000000
0.000000 0.000000 0.000000
0.000000 0.000000 0.000000
0.000000 0.000000 0.000000
0.000000 0.015750 0.025216
0.000000 0.107870 0.086264
0.000000 0.193251 0.148844
0.000000 0.271714 0.212205
0.000000 0.342937 0.275505
0.000000 0.406453 0.337806
0.000000 0.461653 0.398075
0.000000 0.507783 0.455184
0.000000 0.543947 0.507912
0.000000 0.569104 0.554943
0.000000 0.582071 0.594865
0.000000 0.581520 0.626173
0.000000 0.565981 0.647267
0.000000 0.533838 0.656451
0.000000 0.483335 0.651937
0.000000 0.412569 0.631840
0.000000 0.319495 0.594183
0.000000 0.201926 0.536891
0.000000 0.057528 0.457797
0.000000 0.000000 0.354640
0.000000 0.000000 0.225061
0.000000 0.000000 0.066610
0.000000 0.000000 0.000000
0.000000 0.000000 0.000000
0.000000 0.000000 0.000000
0.000000 0.000000 0.000000
0.000000 0.000000 0.000000
0.000000 0.000000 0.000000
0.000000 0.000000 0.000000
0.000000 0.000000 0.000000
0.000000 0.000000 0.000000
0.000000 0.000000 0.000000
0.000000 0.000000 0.019338
0.000000 0.028705 0.078373
0.000000 0.128692 0.139598
0.000000 0.221197 0.202325
0.000000 0.305984 0.265773
0.000000 0.382675 0.329065
0.000000 0.450749 0.391230
0.000000 0.509542 0.451202
0.000000 0.558244 0.507822
0.000000 0.595904 0.559834
0.000000 0.621427 0.605889
0.000000 0.633574 0.644543
0.000000 0.630961 0.674258
0.000000 0.612064 0.693399
0.000000 0.575212 0.700240
0.000000 0.518592 0.692959
0.000000 0.440248 0.669637
0.000000 0.338080 0.628264
0.000000 0.209843 0.566734
0.000000 0.053151 0.482846
0.000000 0.000000 0.374304
0.000000 0.000000 0.238719
0.000000 0.000000 0.073606
0.000000 0.000000 0.000000
0.000000 0.000000 0.000000
0.000000 0.000000 0.000000
0.000000 0.000000 0.000000
0.000000 0.000000 0.000000
0.000000 0.000000 0.000000
0.000000 0.000000 0.000000
0.000000 0.000000 0.000000
0.000000 0.000000 0.000000
0.000000 0.000000 0.040975
0.000000 0.000000 0.097006
0.000000 0.050875 0.155852
0.000000 0.158961 0.216889
0.000000 0.258793 0.279397
0.000000 0.350083 0.342559
0.000000 0.432398 0.405468
0.000000 0.505161 0.467118
0.000000 0.567651 0.526412
0.000000 0.619007 0.582156
0.000000 0.658219 0.633062
0.000000 0.684139 0.677748
0.000000 0.695471 0.714737
0.000000 0.690779 0.742457
0.000000 0.668480 0.759243
0.000000 0.626850 0.763333
0.000000 0.564021 0.752872
0.000000 0.477981 0.725910
0.000000 0.366575 0.680403
0.000000 0.227504 0.614212
0.000000 0.058326 0.525103
0.000000 0.000000 0.410748
0.000000 0.000000 0.268723
0.000000 0.000000 0.096512
0.000000 0.000000 0.000000
0.000000 0.000000 0.000000
0.000000 0.000000 0.000000
0.000000 0.000000 0.000000
0.000000 0.000000 0.000000
0.000000 0.000000 0.000000
0.000000 0.000000 0.000000
0.000000 0.000000 0.000000
0.000000 0.000000 0.095698
0.000000 0.000000 0.147723
0.000000 0.000000 0.203158
0.000000 0.084161 0.261439
0.000000 0.200579 0.321908
0.000000 0.307950 0.383811
0.000000 0.405929 0.446301
0.000000 0.494027 0.508435
0.000000 0.571614 0.569176
0.000000 0.637914 0.627392
0.000000 0.692008 0.681858
0.000000 0.732834 0.731252
0.000000 0.759187 0.774160
0.000000 0.769716 0.809070
0.000000 0.762930 0.834380
0.000000 0.737192 0.848389
0.000000 0.690722 0.849304
0.000000 0.621596 0.835236
0.000000 0.527748 0.804203
0.000000 0.406968 0.754127
0.000000 0.256900 0.682837
0.000000 0.075048 0.588065
0.000000 0.000000 0.467450
0.000000 0.000000 0.318537
0.000000 0.000000 0.138774
0.000000 0.000000 0.000000
0.000000 0.000000 0.000000
0.000000 0.000000 0.000000
0.000000 0.000000 0.000000
0.000000 0.000000 0.000000
0.000000 0.000000 0.000000
0.000000 0.000000 0.000000
0.000000 0.000000 0.000000
0.000000 0.000000 0.236408
0.000000 0.000000 0.287388
0.000000 0.000000 0.341838
0.000000 0.130544 0.399161
0.000000 0.255535 0.458665
0.000000 0.370659 0.519564
0.000000 0.475517 0.580977
0.000000 0.569565 0.641929
0.000000 0.652117 0.701349
0.012696 0.722342 0.758074
0.024401 0.779267 0.810843
0.029563 0.821773 0.858303
0.027193 0.848601 0.899007
0.016243 0.858345 0.931410
0.000000 0.849458 0.953875
0.000000 0.820248 0.964671
0.000000 0.768880 0.961971
0.000000 0.693376 0.943853
0.000000 0.591613 0.908301
0.000000 0.461325 0.853205
0.000000 0.300105 0.776361
0.000000 0.105398 0.675468
0.000000 0.000000 0.548132
0.000000 0.000000 0.391864
0.000000 0.000000 0.204081
0.000000 0.000000 0.000000
0.000000 0.000000 0.000000
0.000000 0.000000 0.000000
0.000000 0.000000 0.000000
0.000000 0.000000 0.000000
0.000000 0.000000 0.000000
0.000000 0.000000 0.000000
0.000000 0.000000 0.000000
0.000000 0.000000 0.414741
0.000000 0.000000 0.464275
0.000000 0.047881 0.517335
0.000000 0.192089 0.573290
0.000000 0.325898 0.631417
0.025271 0.448997 0.690895
0.056225 0.560930 0.750811
0.083333 0.661100 0.810157
0.105793 0.748763 0.867829
0.122746 0.823035 0.922630
0.133272 0.882887 0.973269
0.136399 0.927146 1.000000
0.131093 0.954496 1.000000
0.116263 0.963477 1.000000
0.090760 0.952486 1.000000
0.053380 0.919777 1.000000
0.002858 0.863460 1.000000
0.000000 0.781500 1.000000
0.000000 0.671720 1.000000
0.000000 0.531801 0.981651
0.000000 0.359276 0.898781
0.000000 0.151539 0.791293
0.000000 0.000000 0.656757
0.000000 0.000000 0.492654
0.000000 0.000000 0.296365
0.000000 0.000000 0.065181
0.000000 0.000000 0.000000
0.000000 0.000000 0.000000
0.000000 0.000000 0.000000
0.000000 0.000000 0.000000
0.000000 0.000000 0.000000
0.000000 0.000000 0.000000
0.000000 0.000000 0.000000
0.000000 0.000000 0.635259
0.000000 0.000000 0.682929
0.042644 0.116852 0.734177
0.084739 0.270944 0.788340
0.124484 0.413823 0.844659
0.161209 0.545122 0.902284
0.194182 0.664332 0.960267
0.222617 0.770799 1.000000
0.245668 0.863726 1.000000
0.262433 0.942173 1.000000
0.271951 1.000000 1.000000
0.273203 1.000000 1.000000
0.265113 1.000000 1.000000
0.246548 1.000000 1.000000
0.216315 1.000000 1.000000
0.173166 1.000000 1.000000
0.115793 0.976680 1.000000
0.042831 0.888193 1.000000
0.000000 0.770301 1.000000
0.000000 0.620628 1.000000
0.000000 0.436653 1.000000
0.000000 0.215715 0.939763
0.000000 0.000000 0.797534
0.000000 0.000000 0.625097
0.000000 0.000000 0.419801
0.000000 0.000000 0.178904
0.000000 0.000000 0.000000
0.000000 0.000000 0.000000
0.000000 0.000000 0.000000
0.000000 0.000000 0.000000
0.000000 0.000000 0.000000
0.000000 0.000000 0.000000
0.000000 0.000000 0.000000
0.101773 0.000000 0.902768
0.151867 0.029054 0.948140
0.200298 0.205083 0.997138
0.246468 0.369339 1.000000
0.289718 0.521544 1.000000
0.329334 0.661276 1.000000
0.364542 0.787970 1.000000
0.394512 0.900917 1.000000
0.418355 0.999265 1.000000
0.435125 1.000000 1.000000
0.443817 1.000000 1.000000
0.443371 1.000000 1.000000
0.432667 1.000000 1.000000
0.410527 1.000000 1.000000
0.375717 1.000000 1.000000
0.326944 1.000000 1.000000
0.262857 1.000000 1.000000
0.182049 1.000000 1.000000
0.083053 0.889668 1.000000
0.000000 0.730125 1.000000
0.000000 0.534561 1.000000
0.000000 0.300257 1.000000
0.000000 0.024351 0.974912
0.000000 0.000000 0.793627
0.000000 0.000000 0.578807
0.000000 0.000000 0.327676
0.000000 0.000000 0.037361
0.000000 0.000000 0.000000
0.000000 0.000000 0.000000
0.000000 0.000000 0.000000
0.000000 0.000000 0.000000
0.000000 0.000000 0.000000
0.000000 0.000000 0.000000
0.284099 0.000000 1.000000
0.339548 0.127594 1.000000
0.392845 0.314883 1.000000
0.443345 0.489590 1.000000
0.490347 0.651383 1.000000
0.533094 0.799785 1.000000
0.570769 0.934175 1.000000
0.602497 1.000000 1.000000
0.627348 1.000000 1.000000
0.644331 1.000000 1.000000
0.652399 1.000000 1.000000
0.650448 1.000000 1.000000
0.637313 1.000000 1.000000
0.611776 1.000000 1.000000
0.572557 1.000000 1.000000
0.518321 1.000000 1.000000
0.447673 1.000000 1.000000
0.359163 1.000000 1.000000
0.251281 1.000000 1.000000
0.122460 0.862694 1.000000
0.000000 0.655405 1.000000
0.000000 0.407575 1.000000
0.000000 0.116287 1.000000
0.000000 0.000000 1.000000
0.000000 0.000000 0.778044
0.000000 0.000000 0.516140
0.000000 0.000000 0.214307
0.000000 0.000000 0.000000
0.000000 0.000000 0.000000
0.000000 0.000000 0.000000
0.000000 0.000000 0.000000
0.000000 0.000000 0.000000
0.000000 0.000000 0.000000
0.504296 0.037743 1.000000
0.565388 0.249777 1.000000
0.623828 0.448642 1.000000
0.678929 0.634093 1.000000
0.729948 0.805741 1.000000
0.776081 0.963056 1.000000
0.816470 1.000000 1.000000
0.850197 1.000000 1.000000
0.876287 1.000000 1.000000
0.893707 1.000000 1.000000
0.901367 1.000000 1.000000
0.898118 1.000000 1.000000
0.882754 1.000000 1.000000
0.854011 1.000000 1.000000
0.810568 1.000000 1.000000
0.751045 1.000000 1.000000
0.674006 1.000000 1.000000
0.577956 1.000000 1.000000
0.461341 1.000000 1.000000
0.322552 1.000000 1.000000
0.159921 0.801675 1.000000
0.000000 0.540165 1.000000
0.000000 0.233317 1.000000
0.000000 0.000000 1.000000
0.000000 0.000000 1.000000
0.000000 0.000000 0.749186
0.000000 0.000000 0.435278
0.000000 0.000000 0.077657
0.000000 0.000000 0.000000
0.000000 0.000000 0.000000
0.000000 0.000000 0.000000
0.000000 0.000000 0.000000
0.000000 0.000000 0.000000
0.766021 0.173337 1.000000
0.833059 0.398072 1.000000
0.896937 0.608836 1.000000
0.956927 0.805328 1.000000
1.000000 0.987105 1.000000
1.000000 1.000000 1.000000
1.000000 1.000000 1.000000
1.000000 1.000000 1.000000
1.000000 1.000000 1.000000
1.000000 1.000000 1.000000
1.000000 1.000000 1.000000
1.000000 1.000000 1.000000
1.000000 1.000000 1.000000
1.000000 1.000000 1.000000
1.000000 1.000000 1.000000
1.000000 1.000000 1.000000
0.945766 1.000000 1.000000
0.842352 1.000000 1.000000
0.717173 1.000000 1.000000
0.568577 1.000000 1.000000
0.394852 0.975943 1.000000
0.194229 0.700605 1.000000
0.000000 0.378023 1.000000
0.000000 0.005026 1.000000
0.000000 0.000000 1.000000
0.000000 0.000000 1.000000
0.000000 0.000000 0.705387
0.000000 0.000000 0.334331
0.000000 0.000000 0.000000
0.000000 0.000000 0.000000
0.000000 0.000000 0.000000
0.000000 0.000000 0.000000
0.000000 0.000000 0.000000
1.000000 0.337243 1.000000
1.000000 0.575032 1.000000
1.000000 0.798023 1.000000
1.000000 1.000000 1.000000
1.000000 1.000000 1.000000
1.000000 1.000000 1.000000
1.000000 1.000000 1.000000
1.000000 1.000000 1.000000
1.000000 1.000000 1.000000
1.000000 1.000000 1.000000
1.000000 1.000000 1.000000
1.000000 1.000000 1.000000
1.000000 1.000000 1.000000
1.000000 1.000000 1.000000
1.000000 1.000000 1.000000
1.000000 1.000000 1.000000
1.000000 1.000000 1.000000
1.000000 1.000000 1.000000
1.000000 1.000000 1.000000
0.864638 1.000000 1.000000
0.679988 1.000000 1.000000
0.467102 0.891557 1.000000
0.224111 0.553072 1.000000
0.000000 0.162188 1.000000
0.000000 0.000000 1.000000
0.000000 0.000000 1.000000
0.000000 0.000000 1.000000
0.000000 0.000000 0.644908
0.000000 0.000000 0.211342
0.000000 0.000000 0.000000
0.000000 0.000000 0.000000
0.000000 0.000000 0.000000
0.000000 0.000000 0.000000
1.000000 0.532091 1.000000
1.000000 0.783292 1.000000
1.000000 1.000000 1.000000
1.000000 1.000000 1.000000
1.000000 1.000000 1.000000
1.000000 1.000000 1.000000
1.000000 1.000000 1.000000
1.000000 1.000000 1.000000
1.000000 1.000000 1.000000
1.000000 1.000000 1.000000
1.000000 1.000000 1.000000
1.000000 1.000000 1.000000
1.000000 1.000000 1.000000
1.000000 1.000000 1.000000
1.000000 1.000000 1.000000
1.000000 1.000000 1.000000
1.000000 1.000000 1.000000
1.000000 1.000000 1.000000
1.000000 1.000000 1.000000
1.000000 1.000000 1.000000
1.000000 1.000000 1.000000
0.794619 1.000000 1.000000
0.538152 0.761214 1.000000
0.248220 0.352254 1.000000
0.000000 0.000000 1.000000
0.000000 0.000000 1.000000
0.000000 0.000000 1.000000
0.000000 0.000000 1.000000
0.000000 0.000000 0.565942
0.000000 0.000000 0.064283
0.000000 0.000000 0.000000
0.000000 0.000000 0.000000
0.000000 0.000000 0.000000
1.000000 0.760594 1.000000
1.000000 1.000000 1.000000
1.000000 1.000000 1.000000
1.000000 1.000000 1.000000
1.000000 1.000000 1.000000
1.000000 1.000000 1.000000
1.000000 1.000000 1.000000
1.000000 1.000000 1.000000
1.000000 1.000000 1.000000
1.000000 1.000000 1.000000
1.000000 1.000000 1.000000
1.000000 1.000000 1.000000
1.000000 1.000000 1.000000
1.000000 1.000000 1.000000
1.000000 1.000000 1.000000
1.000000 1.000000 1.000000
1.000000 1.000000 1.000000
1.000000 1.000000 1.000000
1.000000 1.000000 1.000000
1.000000 1.000000 1.000000
1.000000 1.000000 1.000000
1.000000 1.000000 1.000000
0.911444 1.000000 1.000000
0.606781 0.578065 1.000000
0.265140 0.090922 1.000000
0.000000 0.000000 1.000000
0.000000 0.000000 1.000000
