lrplugin/MindfulLensFilmEngine.lrplugin/profiles/luts/colorplus_200.cube
# Generated from ColorChecker fit
LUT_3D_SIZE 5
DOMAIN_MIN 0.0 0.0 0.0
DOMAIN_MAX 1.0 1.0 1.0
0.054397 0.000000 0.179914
0.078894 0.026025 0.444237
0.542397 0.185169 0.659187
1.000000 0.146921 0.297606
1.000000 0.000000 0.000000
0.000000 0.000000 0.000000
0.000000 0.275113 0.295006
0.057258 0.417822 0.618922
0.015830 0.000000 0.166665
0.000000 0.000000 0.000000
0.000000 0.000000 0.095698
0.000000 0.571614 0.569176
0.000000 0.690722 0.849304
0.000000 0.000000 0.138774
0.000000 0.000000 0.000000
1.000000 0.337243 1.000000
1.000000 1.000000 1.000000
1.000000 1.000000 1.000000
0.000000 0.000000 1.000000
0.000000 0.000000 0.000000
1.000000 1.000000 1.000000
1.000000 1.000000 1.000000
1.000000 1.000000 1.000000
1.000000 1.000000 1.000000
0.000000 0.000000 1.000000
0.567234 0.328755 0.378849
0.379398 0.000000 0.145162
0.861895 0.000000 0.266795
1.000000 0.345108 0.366428
1.000000 0.517111 0.000000
0.311629 0.406406 0.253087
0.249532 0.346035 0.281228
0.531639 0.373203 0.592599
0.928873 0.219828 0.674804
0.975648 0.000000 0.000000
0.235824 0.401303 0.472727
0.297750 0.770712 0.527823
0.345509 0.780201 0.779215
0.000000 0.000000 0.579435
0.000000 0.000000 0.000000
1.000000 1.000000 1.000000
1.000000 1.000000 1.000000
1.000000 1.000000 1.000000
0.338498 0.397654 1.000000
0.000000 0.000000 0.000000
1.000000 1.000000 1.000000
1.000000 1.000000 1.000000
1.000000 1.000000 1.000000
1.000000 1.000000 1.000000
0.000000 0.000000 1.000000
0.864956 0.492542 0.572957
0.515242 0.000000 0.058747
1.000000 0.087274 0.262423
1.000000 1.000000 0.956505
1.000000 1.000000 1.000000
0.670310 0.677470 0.431044
0.434264 0.287617 0.225407
0.786229 0.395675 0.658042
1.000000 0.967132 1.000000
1.000000 1.000000 1.000000
0.494190 0.669571 0.382547
0.340658 0.558552 0.153648
0.430890 0.525772 0.468563
0.480712 0.310790 0.829666
0.000000 0.000000 0.351902
1.000000 1.000000 1.000000
1.000000 1.000000 1.000000
1.000000 1.000000 0.934630
0.294556 0.216313 0.520861
0.000000 0.000000 0.000000
1.000000 1.000000 1.000000
1.000000 1.000000 1.000000
1.000000 1.000000 1.000000
1.000000 1.000000 1.000000
0.000000 0.000000 0.000000
0.784861 0.146450 0.290342
0.542284 0.000000 0.000000
1.000000 0.926506 0.719874
1.000000 1.000000 1.000000
1.000000 1.000000 1.000000
0.888717 0.656524 0.301048
0.697886 0.392448 0.310419
1.000000 1.000000 1.000000
1.000000 1.000000 1.000000
1.000000 1.000000 1.000000
0.779045 0.789388 0.117110
0.579368 0.524119 0.011449
0.879740 0.802736 0.754997
1.000000 1.000000 1.000000
1.000000 1.000000 1.000000
1.000000 1.000000 0.971916
1.000000 1.000000 0.256325
0.994896 0.985799 0.273120
0.726538 0.629522 0.539439
0.000000 0.000000 0.184995
1.000000 1.000000 1.000000
1.000000 1.000000 1.000000
1.000000 1.000000 1.000000
1.000000 1.000000 0.618614
0.000000 0.000000 0.000000
0.000000 0.000000 0.000000
0.022576 0.000000 0.076738
1.000000 1.000000 1.000000
1.000000 1.000000 1.000000
1.000000 1.000000 1.000000
0.552126 0.025344 0.122157
0.844232 0.628618 1.000000
1.000000 1.000000 1.000000
1.000000 1.000000 1.000000
1.000000 1.000000 1.000000
0.917446 0.738926 0.317397
1.000000 0.931899 1.000000
1.000000 1.000000 1.000000
1.000000 1.000000 1.000000
1.000000 1.000000 1.000000
1.000000 1.000000 1.000000
1.000000 1.000000 0.945236
1.000000 1.000000 1.000000
1.000000 1.000000 1.000000
1.000000 1.000000 1.000000
1.000000 1.000000 1.000000
1.000000 1.000000 1.000000
1.000000 1.000000 1.000000
1.000000 1.000000 1.000000
1.000000 0.278701 0.793301
