lrplugin/MindfulLensFilmEngine.lrplugin/profiles/luts/colorplus_200.cube
# Generated from ColorChecker fit
LUT_3D_SIZE 9
DOMAIN_MIN 0.0 0.0 0.0
DOMAIN_MAX 1.0 1.0 1.0
0.054397 0.000000 0.179914
0.010134 0.000000 0.300433
0.078894 0.026025 0.444237
0.261100 0.099259 0.581751
0.542397 0.185169 0.659187
0.893646 0.230916 0.598545
1.000000 0.146921 0.297606
1.000000 0.000000 0.000000
1.000000 0.000000 0.000000
0.000000 0.000000 0.012733
0.000000 0.072469 0.182771
0.000000 0.186333 0.376929
0.127036 0.285430 0.557191
0.321256 0.339546 0.661326
0.521728 0.281724 0.602890
0.673442 0.008262 0.271224
0.706608 0.000000 0.000000
0.536654 0.000000 0.000000
0.000000 0.000000 0.000000
0.000000 0.084616 0.064065
0.000000 0.275113 0.295006
0.000000 0.400960 0.503516
0.057258 0.417822 0.618922
0.099324 0.244620 0.546339
0.015830 0.000000 0.166665
0.000000 0.000000 0.000000
0.000000 0.000000 0.000000
0.000000 0.000000 0.000000
0.000000 0.094672 0.053363
0.000000 0.370429 0.303385
0.000000 0.525304 0.521513
0.000000 0.500842 0.628632
0.000000 0.201844 0.521416
0.000000 0.000000 0.072320
0.000000 0.000000 0.000000
0.000000 0.000000 0.000000
0.000000 0.000000 0.095698
0.000000 0.200579 0.321908
0.000000 0.571614 0.569176
0.000000 0.759187 0.774160
0.000000 0.690722 0.849304
0.000000 0.256900 0.682837
0.000000 0.000000 0.138774
0.000000 0.000000 0.000000
0.000000 0.000000 0.000000
0.101773 0.000000 0.902768
0.289718 0.521544 1.000000
0.418355 0.999265 1.000000
0.432667 1.000000 1.000000
0.262857 1.000000 1.000000
0.000000 0.534561 1.000000
0.000000 0.000000 0.578807
0.000000 0.000000 0.000000
0.000000 0.000000 0.000000
1.000000 0.337243 1.000000
1.000000 1.000000 1.000000
1.000000 1.000000 1.000000
1.000000 1.000000 1.000000
1.000000 1.000000 1.000000
0.679988 1.000000 1.000000
0.000000 0.000000 1.000000
0.000000 0.000000 0.211342
0.000000 0.000000 0.000000
1.000000 1.000000 1.000000
1.000000 1.000000 1.000000
1.000000 1.000000 1.000000
1.000000 1.000000 1.000000
1.000000 1.000000 1.000000
1.000000 1.000000 1.000000
1.000000 0.620247 1.000000
0.000000 0.000000 1.000000
0.000000 0.000000 0.000000
1.000000 1.000000 1.000000
1.000000 1.000000 1.000000
1.000000 1.000000 1.000000
1.000000 1.000000 1.000000
1.000000 1.000000 1.000000
1.000000 1.000000 1.000000
1.000000 1.000000 1.000000
1.000000 0.000000 1.000000
0.000000 0.000000 1.000000
0.346825 0.158995 0.236857
0.242495 0.047515 0.206539
0.272509 0.000000 0.242042
0.444937 0.000000 0.323159
0.753068 0.039610 0.405467
1.000000 0.140837 0.420328
1.000000 0.199644 0.274892
1.000000 0.104305 0.000000
1.000000 0.000000 0.000000
0.227591 0.212179 0.152756
0.167515 0.202784 0.187557
0.212230 0.202758 0.288546
0.358718 0.233230 0.427070
0.589179 0.278584 0.550266
0.871031 0.286462 0.581054
1.000000 0.167758 0.418140
1.000000 0.000000 0.000000
1.000000 0.000000 0.000000
0.074263 0.172086 0.063109
0.057033 0.277223 0.144327
0.113026 0.357704 0.291168
0.228136 0.420536 0.466541
0.373474 0.435983 0.609139
0.505370 0.337564 0.633438
0.565372 0.022056 0.429705
0.480246 0.000000 0.000000
0.161976 0.000000 0.000000
0.000000 0.112780 0.072380
0.000000 0.346288 0.177179
0.066304 0.514766 0.346111
0.148638 0.611100 0.533642
0.205441 0.591433 0.670022
0.181954 0.375165 0.661288
0.008637 0.000000 0.389262
0.000000 0.000000 0.000000
0.000000 0.000000 0.000000
0.035593 0.129592 0.347226
0.115997 0.506701 0.448640
0.200441 0.772058 0.611768
0.252644 0.904427 0.782635
0.221540 0.845832 0.883049
0.041284 0.501551 0.810604
0.000000 0.000000 0.438681
0.000000 0.000000 0.000000
0.000000 0.000000 0.000000
0.427807 0.339121 1.000000
0.571081 0.876452 1.000000
0.680781 1.000000 1.000000
0.709538 1.000000 1.000000
0.595198 1.000000 1.000000
0.260827 0.840277 1.000000
0.000000 0.000000 0.782023
0.000000 0.000000 0.000000
0.000000 0.000000 0.000000
1.000000 0.879232 1.000000
1.000000 1.000000 1.000000
1.000000 1.000000 1.000000
1.000000 1.000000 1.000000
1.000000 1.000000 1.000000
1.000000 1.000000 1.000000
0.177503 0.268327 1.000000
0.000000 0.000000 0.460136
0.000000 0.000000 0.000000
1.000000 1.000000 1.000000
1.000000 1.000000 1.000000
1.000000 1.000000 1.000000
1.000000 1.000000 1.000000
1.000000 1.000000 1.000000
1.000000 1.000000 1.000000
1.000000 1.000000 1.000000
0.000000 0.000000 1.000000
0.000000 0.000000 0.000000
1.000000 1.000000 1.000000
1.000000 1.000000 1.000000
1.000000 1.000000 1.000000
1.000000 1.000000 1.000000
1.000000 1.000000 1.000000
1.000000 1.000000 1.000000
1.000000 1.000000 1.000000
1.000000 0.000000 1.000000
0.000000 0.000000 1.000000
0.567234 0.328755 0.378849
0.395534 0.087944 0.209142
0.379398 0.000000 0.145162
0.534541 0.000000 0.176065
0.861895 0.000000 0.266795
1.000000 0.116410 0.358078
1.000000 0.345108 0.366428
1.000000 0.523300 0.184145
1.000000 0.517111 0.000000
0.459491 0.417006 0.328441
0.335688 0.273486 0.236857
0.338780 0.171721 0.250896
0.473391 0.147436 0.351270
0.729368 0.199615 0.494480
1.000000 0.290495 0.612813
1.000000 0.345572 0.614338
1.000000 0.253596 0.382915
1.000000 0.000000 0.000000
0.311629 0.406406 0.253087
0.232476 0.371488 0.214863
0.249532 0.346035 0.281228
0.356334 0.351653 0.424454
0.531639 0.373203 0.592599
0.739421 0.358803 0.709506
0.928873 0.219828 0.674804
1.000000 0.000000 0.363910
0.975648 0.000000 0.000000
0.199475 0.369801 0.248535
0.165765 0.456187 0.234776
0.195563 0.513400 0.323645
0.271318 0.548926 0.478971
0.360699 0.533506 0.640372
0.416592 0.401136 0.723247
0.377102 0.049070 0.618786
0.165551 0.000000 0.193960
0.000000 0.000000 0.000000
0.235824 0.401303 0.472727
0.252391 0.623087 0.450405
0.297750 0.770712 0.527823
0.343263 0.837543 0.660369
0.345509 0.780201 0.779215
0.246287 0.518562 0.791322
0.000000 0.000000 0.579435
0.000000 0.000000 0.002085
0.000000 0.000000 0.000000
0.570438 0.616294 1.000000
0.646159 0.988960 1.000000
0.713940 1.000000 1.000000
0.734056 1.000000 1.000000
0.651998 1.000000 1.000000
0.398476 0.833419 1.000000
0.000000 0.003622 0.752100
0.000000 0.000000 0.000000
0.000000 0.000000 0.000000
1.000000 1.000000 1.000000
1.000000 1.000000 1.000000
1.000000 1.000000 1.000000
1.000000 1.000000 1.000000
1.000000 1.000000 1.000000
1.000000 1.000000 1.000000
0.338498 0.397654 1.000000
0.000000 0.000000 0.379618
0.000000 0.000000 0.000000
1.000000 1.000000 1.000000
1.000000 1.000000 1.000000
1.000000 1.000000 1.000000
1.000000 1.000000 1.000000
1.000000 1.000000 1.000000
1.000000 1.000000 1.000000
1.000000 1.000000 1.000000
0.055760 0.000000 1.000000
0.000000 0.000000 0.000000
1.000000 1.000000 1.000000
1.000000 1.000000 1.000000
1.000000 1.000000 1.000000
1.000000 1.000000 1.000000
1.000000 1.000000 1.000000
1.000000 1.000000 1.000000
1.000000 1.000000 1.000000
1.000000 0.195524 1.000000
0.000000 0.000000 1.000000
0.741579 0.448645 0.514180
0.508868 0.114899 0.233587
0.452838 0.000000 0.095993
0.596848 0.000000 0.099920
0.949477 0.000000 0.219674
1.000000 0.241264 0.405350
1.000000 0.684838 0.582824
1.000000 1.000000 0.653763
1.000000 1.000000 0.495615
0.647010 0.564471 0.471948
0.462723 0.315153 0.279885
0.427331 0.141692 0.230246
0.553103 0.094413 0.313110
0.837529 0.186896 0.494342
1.000000 0.395978 0.715592
1.000000 0.661752 0.894298
1.000000 0.887566 0.923682
1.000000 0.940027 0.672751
0.501873 0.571226 0.383116
0.360924 0.416511 0.248760
0.339065 0.307101 0.255324
0.437481 0.279199 0.384445
0.642571 0.332265 0.593547
0.925956 0.429016 0.815838
1.000000 0.495422 0.960313
1.000000 0.420714 0.911751
1.000000 0.057374 0.530719
0.374496 0.540539 0.334716
0.275838 0.491994 0.223110
0.264452 0.451852 0.249994
0.330434 0.442197 0.388562
0.449096 0.448368 0.587795
0.580971 0.418960 0.772461
0.671805 0.265825 0.843110
0.652568 0.000000 0.676082
0.439443 0.000000 0.123501
0.370176 0.565305 0.475971
0.316803 0.635886 0.348030
0.316869 0.671622 0.355219
0.349382 0.680475 0.462291
0.378566 0.633664 0.609787
0.353864 0.465662 0.714029
0.209936 0.074202 0.667129
0.000000 0.000000 0.336981
0.000000 0.000000 0.000000
0.631177 0.759686 1.000000
0.630125 0.963742 0.830806
0.646665 1.000000 0.774155
0.648714 1.000000 0.804659
0.589410 1.000000 0.854415
0.407106 0.690241 0.831305
0.025376 0.043063 0.618998
0.000000 0.000000 0.076948
0.000000 0.000000 0.000000
1.000000 1.000000 1.000000
1.000000 1.000000 1.000000
1.000000 1.000000 1.000000
1.000000 1.000000 1.000000
1.000000 1.000000 1.000000
0.940139 1.000000 1.000000
0.321608 0.316185 0.947543
0.000000 0.000000 0.140674
0.000000 0.000000 0.000000
1.000000 1.000000 1.000000
1.000000 1.000000 1.000000
1.000000 1.000000 1.000000
1.000000 1.000000 1.000000
1.000000 1.000000 1.000000
1.000000 1.000000 1.000000
1.000000 1.000000 1.000000
0.009533 0.000000 0.835047
0.000000 0.000000 0.000000
1.000000 1.000000 1.000000
1.000000 1.000000 1.000000
1.000000 1.000000 1.000000
1.000000 1.000000 1.000000
1.000000 1.000000 1.000000
1.000000 1.000000 1.000000
1.000000 1.000000 1.000000
1.000000 0.070520 1.000000
0.000000 0.000000 0.352482
0.864956 0.492542 0.572957
0.591251 0.120150 0.227033
0.515242 0.000000 0.058747
0.667933 0.000000 0.075987
1.000000 0.087274 0.262423
1.000000 0.578748 0.577515
1.000000 1.000000 0.956505
1.000000 1.000000 1.000000
1.000000 1.000000 1.000000
0.800353 0.646973 0.537255
0.572485 0.338078 0.287671
0.515408 0.140862 0.214680
0.649038 0.120245 0.317726
0.978508 0.304408 0.572039
1.000000 0.684785 0.928635
1.000000 1.000000 1.000000
1.000000 1.000000 1.000000
1.000000 1.000000 1.000000
0.670310 0.677470 0.431044
0.481352 0.441113 0.240916
0.434264 0.287617 0.225407
0.537874 0.267785 0.375520
0.786229 0.395675 0.658042
1.000000 0.648601 1.000000
1.000000 0.967132 1.000000
1.000000 1.000000 1.000000
1.000000 1.000000 1.000000
0.535657 0.654444 0.332638
0.382721 0.501054 0.160950
0.340721 0.395361 0.160981
0.407395 0.374047 0.315289
0.565702 0.437049 0.582222
0.783817 0.547561 0.895910
1.000000 0.632032 1.000000
1.000000 0.580169 1.000000
1.000000 0.244932 1.000000
0.494190 0.669571 0.382547
0.378432 0.610969 0.184153
0.340658 0.558552 0.153648
0.367521 0.534881 0.265150
0.430890 0.525772 0.468563
0.487851 0.480299 0.689577
0.480712 0.310790 0.829666
0.336994 0.000000 0.766092
0.000000 0.000000 0.351902
0.680676 0.835796 0.783473
0.607292 0.885194 0.509094
0.576926 0.892918 0.397847
0.565143 0.867405 0.415410
0.532724 0.780354 0.503242
0.425667 0.566715 0.578592
0.175191 0.124697 0.534493
0.000000 0.000000 0.239764
0.000000 0.000000 0.000000
1.000000 1.000000 1.000000
1.000000 1.000000 1.000000
1.000000 1.000000 1.000000
1.000000 1.000000 1.000000
1.000000 1.000000 0.934630
0.789207 0.947977 0.807197
0.294556 0.216313 0.520861
0.000000 0.000000 0.000000
0.000000 0.000000 0.000000
1.000000 1.000000 1.000000
1.000000 1.000000 1.000000
1.000000 1.000000 1.000000
1.000000 1.000000 1.000000
1.000000 1.000000 1.000000
1.000000 1.000000 1.000000
1.000000 0.749463 1.000000
0.000000 0.000000 0.152974
0.000000 0.000000 0.000000
1.000000 1.000000 1.000000
1.000000 1.000000 1.000000
1.000000 1.000000 1.000000
1.000000 1.000000 1.000000
1.000000 1.000000 1.000000
1.000000 1.000000 1.000000
1.000000 1.000000 1.000000
1.000000 0.000000 1.000000
0.000000 0.000000 0.000000
0.901593 0.414039 0.507100
0.620574 0.075184 0.158453
0.558162 0.000000 0.019451
0.753005 0.000956 0.107346
1.000000 0.416123 0.415174
1.000000 1.000000 0.911759
1.000000 1.000000 1.000000
1.000000 1.000000 1.000000
1.000000 1.000000 1.000000
0.898862 0.636631 0.500151
0.657976 0.332276 0.253058
0.609674 0.177137 0.214093
0.781518 0.250736 0.392067
1.000000 0.595848 0.771574
1.000000 1.000000 1.000000
1.000000 1.000000 1.000000
1.000000 1.000000 1.000000
1.000000 1.000000 1.000000
0.811395 0.715782 0.396529
0.601874 0.453830 0.208044
0.556901 0.314016 0.225245
0.692947 0.361738 0.448498
1.000000 0.625654 0.853956
1.000000 1.000000 1.000000
1.000000 1.000000 1.000000
1.000000 1.000000 1.000000
1.000000 1.000000 1.000000
0.692522 0.720684 0.265833
0.509640 0.510429 0.088881
0.461253 0.388884 0.114243
0.552745 0.407328 0.333844
0.774719 0.580296 0.715395
1.000000 0.885581 1.000000
1.000000 1.000000 1.000000
1.000000 1.000000 1.000000
1.000000 1.000000 1.000000
0.632542 0.741795 0.239855
0.475614 0.593922 0.023228
0.421113 0.494984 0.004617
0.463336 0.482138 0.167504
0.581796 0.555800 0.471157
0.741226 0.679639 0.850632
0.891577 0.780585 1.000000
0.968015 0.748819 1.000000
0.890929 0.437781 1.000000
0.758722 0.890842 0.512581
0.631105 0.817428 0.200943
0.571832 0.746824 0.082092
0.564111 0.702068 0.131070
0.576368 0.669454 0.298705
0.562247 0.598533 0.511607
0.460611 0.402111 0.672176
0.195540 0.000000 0.658594
0.000000 0.000000 0.324833
1.000000 1.000000 1.000000
1.000000 1.000000 0.874072
1.000000 1.000000 0.594585
1.000000 1.000000 0.468330
0.938836 1.000000 0.437692
0.750501 0.782212 0.420842
0.394201 0.270148 0.311735
0.000000 0.000000 0.000000
0.000000 0.000000 0.000000
1.000000 1.000000 1.000000
1.000000 1.000000 1.000000
1.000000 1.000000 1.000000
1.000000 1.000000 1.000000
1.000000 1.000000 1.000000
1.000000 1.000000 0.876054
0.917798 0.547306 0.429032
0.000000 0.000000 0.000000
0.000000 0.000000 0.000000
1.000000 1.000000 1.000000
1.000000 1.000000 1.000000
1.000000 1.000000 1.000000
1.000000 1.000000 1.000000
1.000000 1.000000 1.000000
1.000000 1.000000 1.000000
1.000000 1.000000 1.000000
0.992226 0.000000 0.200512
0.000000 0.000000 0.000000
0.784861 0.146450 0.290342
0.543865 0.000000 0.018634
0.542284 0.000000 0.000000
0.826413 0.231370 0.218891
1.000000 0.926506 0.719874
1.000000 1.000000 1.000000
1.000000 1.000000 1.000000
1.000000 1.000000 1.000000
1.000000 1.000000 1.000000
0.891017 0.485284 0.358241
0.681334 0.267478 0.190703
0.685928 0.238146 0.260197
0.940003 0.491406 0.584897
1.000000 1.000000 1.000000
1.000000 1.000000 1.000000
1.000000 1.000000 1.000000
1.000000 1.000000 1.000000
1.000000 1.000000 1.000000
0.888717 0.656524 0.301048
0.699741 0.442921 0.188674
0.697886 0.392448 0.310419
0.907270 0.585104 0.676014
1.000000 1.000000 1.000000
1.000000 1.000000 1.000000
1.000000 1.000000 1.000000
1.000000 1.000000 1.000000
1.000000 1.000000 1.000000
0.823793 0.728146 0.179646
0.648957 0.526902 0.069300
0.632072 0.457098 0.189232
0.786168 0.584612 0.540730
1.000000 0.938575 1.000000
1.000000 1.000000 1.000000
1.000000 1.000000 1.000000
1.000000 1.000000 1.000000
1.000000 1.000000 1.000000
0.779045 0.789388 0.117110
0.615823 0.610053 0.000000
0.579368 0.524119 0.011449
0.671621 0.583342 0.289729
0.879740 0.802736 0.754997
1.000000 1.000000 1.000000
1.000000 1.000000 1.000000
1.000000 1.000000 1.000000
1.000000 1.000000 1.000000
0.874241 0.950760 0.298712
0.724151 0.804274 0.016491
0.667627 0.706801 0.000000
0.695522 0.695978 0.095886
0.783907 0.772697 0.402101
0.894071 0.901105 0.808700
0.972521 1.000000 1.000000
0.950982 0.985868 1.000000
0.746397 0.686799 1.000000
1.000000 1.000000 0.971916
1.000000 1.000000 0.507527
1.000000 1.000000 0.256325
1.000000 1.000000 0.194273
0.994896 0.985799 0.273120
0.916359 0.871722 0.420402
0.726538 0.629522 0.539439
0.346073 0.135738 0.509340
0.000000 0.000000 0.184995
1.000000 1.000000 1.000000
1.000000 1.000000 1.000000
1.000000 1.000000 1.000000
1.000000 1.000000 0.882152
1.000000 1.000000 0.661187
1.000000 1.000000 0.475779
0.998311 0.622495 0.220806
0.256426 0.000000 0.000000
0.000000 0.000000 0.000000
1.000000 1.000000 1.000000
1.000000 1.000000 1.000000
1.000000 1.000000 1.000000
1.000000 1.000000 1.000000
1.000000 1.000000 1.000000
1.000000 1.000000 1.000000
1.000000 1.000000 0.618614
0.941007 0.000000 0.000000
0.000000 0.000000 0.000000
0.417263 0.000000 0.000000
0.277288 0.000000 0.000000
0.397435 0.000000 0.000000
0.831641 0.514801 0.457330
1.000000 1.000000 1.000000
1.000000 1.000000 1.000000
1.000000 1.000000 1.000000
1.000000 1.000000 1.000000
1.000000 1.000000 1.000000
0.694434 0.124487 0.130945
0.573838 0.093137 0.137079
0.689106 0.291234 0.406516
1.000000 0.827497 0.966795
1.000000 1.000000 1.000000
1.000000 1.000000 1.000000
1.000000 1.000000 1.000000
1.000000 1.000000 1.000000
1.000000 1.000000 1.000000
0.835006 0.449778 0.187890
0.721341 0.376361 0.243147
0.817268 0.508786 0.558324
1.000000 0.941649 1.000000
1.000000 1.000000 1.000000
1.000000 1.000000 1.000000
1.000000 1.000000 1.000000
1.000000 1.000000 1.000000
1.000000 1.000000 1.000000
0.877311 0.645436 0.141235
0.762170 0.536973 0.186421
0.828336 0.604399 0.487213
1.000000 0.928188 1.000000
1.000000 1.000000 1.000000
1.000000 1.000000 1.000000
1.000000 1.000000 1.000000
1.000000 1.000000 1.000000
1.000000 1.000000 1.000000
0.896650 0.799482 0.105342
0.775670 0.664387 0.077128
0.805693 0.668878 0.299280
0.996305 0.879308 0.774013
1.000000 1.000000 1.000000
1.000000 1.000000 1.000000
1.000000 1.000000 1.000000
1.000000 1.000000 1.000000
1.000000 1.000000 1.000000
1.000000 1.000000 0.256765
0.878151 0.869283 0.087691
0.869693 0.814295 0.162818
0.978418 0.908475 0.475916
1.000000 1.000000 0.996542
1.000000 1.000000 1.000000
1.000000 1.000000 1.000000
1.000000 1.000000 1.000000
1.000000 1.000000 1.000000
1.000000 1.000000 0.834252
1.000000 1.000000 0.452729
1.000000 1.000000 0.308312
1.000000 1.000000 0.386329
1.000000 1.000000 0.647896
1.000000 1.000000 1.000000
1.000000 1.000000 1.000000
1.000000 1.000000 1.000000
0.937845 1.000000 1.000000
1.000000 1.000000 1.000000
1.000000 1.000000 1.000000
1.000000 1.000000 1.000000
1.000000 1.000000 0.793801
1.000000 1.000000 0.717803
1.000000 1.000000 0.728906
1.000000 1.000000 0.731354
0.916475 0.555050 0.605175
0.113613 0.000000 0.206187
1.000000 1.000000 1.000000
1.000000 1.000000 1.000000
1.000000 1.000000 1.000000
1.000000 1.000000 1.000000
1.000000 1.000000 1.000000
1.000000 1.000000 1.000000
1.000000 1.000000 0.614754
1.000000 0.204918 0.000000
0.000000 0.000000 0.000000
0.000000 0.000000 0.000000
0.000000 0.000000 0.000000
0.022576 0.000000 0.076738
0.681313 0.797685 0.891186
1.000000 1.000000 1.000000
1.000000 1.000000 1.000000
1.000000 1.000000 1.000000
1.000000 1.000000 1.000000
1.000000 1.000000 1.000000
0.195867 0.000000 0.000000
0.235900 0.000000 0.150472
0.533283 0.283466 0.728390
1.000000 1.000000 1.000000
1.000000 1.000000 1.000000
1.000000 1.000000 1.000000
1.000000 1.000000 1.000000
1.000000 1.000000 1.000000
1.000000 1.000000 1.000000
0.552126 0.025344 0.122157
0.582198 0.201845 0.453620
0.844232 0.628618 1.000000
1.000000 1.000000 1.000000
1.000000 1.000000 1.000000
1.000000 1.000000 1.000000
1.000000 1.000000 1.000000
1.000000 1.000000 1.000000
1.000000 1.000000 1.000000
0.770051 0.420879 0.239577
0.779918 0.506863 0.546269
0.994342 0.814900 1.000000
1.000000 1.000000 1.000000
1.000000 1.000000 1.000000
1.000000 1.000000 1.000000
1.000000 1.000000 1.000000
1.000000 1.000000 1.000000
1.000000 1.000000 1.000000
0.917446 0.738926 0.317397
0.900902 0.741668 0.529931
1.000000 0.931899 1.000000
1.000000 1.000000 1.000000
1.000000 1.000000 1.000000
1.000000 1.000000 1.000000
1.000000 1.000000 1.000000
1.000000 1.000000 1.000000
1.000000 1.000000 1.000000
1.000000 1.000000 0.523455
1.000000 1.000000 0.568312
1.000000 1.000000 0.879127
1.000000 1.000000 1.000000
1.000000 1.000000 1.000000
1.000000 1.000000 1.000000
1.000000 1.000000 1.000000
1.000000 1.000000 1.000000
1.000000 1.000000 1.000000
1.000000 1.000000 1.000000
1.000000 1.000000 0.887315
1.000000 1.000000 0.945236
1.000000 1.000000 1.000000
1.000000 1.000000 1.000000
1.000000 1.000000 1.000000
1.000000 1.000000 1.000000
1.000000 1.000000 1.000000
1.000000 1.000000 1.000000
1.000000 1.000000 1.000000
1.000000 1.000000 1.000000
1.000000 1.000000 1.000000
1.000000 1.000000 1.000000
1.000000 1.000000 1.000000
1.000000 1.000000 1.000000
1.000000 1.000000 1.000000
1.000000 1.000000 1.000000
1.000000 1.000000 1.000000
1.000000 1.000000 1.000000
1.000000 1.000000 1.000000
1.000000 1.000000 1.000000
1.000000 1.000000 1.000000
1.000000 1.000000 1.000000
1.000000 1.000000 1.000000
1.000000 1.000000 1.000000
1.000000 1.000000 1.000000
1.000000 0.278701 0.793301
