lrplugin/MindfulLensFilmEngine.lrplugin/profiles/luts/crimson.cube
# Generated from ColorChecker fit
LUT_3D_SIZE 5
DOMAIN_MIN 0.0 0.0 0.0
DOMAIN_MAX 1.0 1.0 1.0
0.022014 0.000000 0.009363
0.000000 0.000000 0.274786
0.000000 0.000000 0.648696
0.000000 0.048193 0.601442
0.000000 0.000000 0.000000
0.000000 0.000000 0.113071
0.000000 0.000000 0.331009
0.000000 0.220473 0.646276
0.000000 0.180000 0.536341
0.000000 0.000000 0.000000
0.000000 0.000000 0.000000
0.000000 0.000000 0.216382
0.000000 0.424921 0.571564
0.000000 0.178522 0.514286
0.000000 0.000000 0.000000
0.000000 0.000000 0.082982
0.000000 0.000000 0.525768
0.183085 0.000000 1.000000
0.000000 0.000000 1.000000
0.000000 0.000000 0.186658
0.000000 0.000000 1.000000
0.311154 0.000000 1.000000
1.000000 0.000000 1.000000
0.478341 0.000000 1.000000
0.000000 0.000000 1.000000
0.408276 0.311648 0.037576
0.224500 0.154494 0.067939
0.334456 0.161445 0.346990
0.492574 0.239934 0.376304
0.316188 0.066606 0.000000
0.244200 0.236416 0.256997
0.210334 0.303070 0.307951
0.347396 0.391822 0.575902
0.271411 0.240841 0.569543
0.000000 0.000000 0.000000
0.065749 0.081367 0.253337
0.219971 0.546596 0.378157
0.390373 0.805818 0.705062
0.054578 0.427932 0.749865
0.000000 0.000000 0.000000
0.000000 0.000000 0.512524
0.341164 0.000000 0.838967
0.638815 0.604046 1.000000
0.105176 0.114408 1.000000
0.000000 0.000000 0.747325
0.000000 0.000000 1.000000
0.858364 0.000000 1.000000
1.000000 0.000000 1.000000
0.883008 0.000000 1.000000
0.000000 0.000000 1.000000
0.689538 0.539870 0.213885
0.419811 0.224538 0.079066
0.647395 0.271219 0.296623
1.000000 0.545180 0.399356
1.000000 0.680897 0.000000
0.555697 0.575755 0.350132
0.325063 0.276600 0.265269
0.474313 0.216099 0.480556
0.562438 0.090252 0.535913
0.011338 0.000000 0.000000
0.415450 0.594618 0.282295
0.278642 0.564589 0.272159
0.372347 0.563753 0.526726
0.117153 0.118847 0.593037
0.000000 0.000000 0.000000
0.225533 0.000000 0.461846
0.324959 0.191839 0.625688
0.473584 0.530102 1.000000
0.000000 0.000000 1.000000
0.000000 0.000000 0.423660
0.139385 0.000000 1.000000
0.705128 0.000000 1.000000
1.000000 0.000000 1.000000
0.488222 0.000000 1.000000
0.000000 0.000000 1.000000
0.873989 0.538959 0.392899
0.671366 0.382820 0.290632
1.000000 0.892815 0.607916
1.000000 1.000000 0.908773
1.000000 1.000000 0.370797
0.798511 0.689101 0.434120
0.490425 0.270330 0.372462
0.863901 0.412983 0.657594
1.000000 0.770892 0.860660
1.000000 0.767102 0.166373
0.720491 0.862884 0.279701
0.378230 0.512612 0.254918
0.573537 0.532949 0.520946
0.669966 0.408465 0.656048
0.000000 0.000000 0.000000
0.553325 0.066365 0.346659
0.335853 0.228304 0.429501
0.480012 0.483940 0.763952
0.210952 0.148576 0.935401
0.000000 0.000000 0.142800
0.407114 0.000000 1.000000
0.561069 0.000000 1.000000
0.868774 0.000000 1.000000
0.416976 0.000000 1.000000
0.000000 0.000000 1.000000
0.657629 0.000000 0.060563
0.881853 0.596318 0.316439
1.000000 1.000000 1.000000
1.000000 1.000000 1.000000
1.000000 1.000000 1.000000
0.792329 0.334997 0.181939
0.732794 0.365782 0.430366
1.000000 1.000000 1.000000
1.000000 1.000000 1.000000
1.000000 1.000000 1.000000
0.924246 0.759250 0.105569
0.668797 0.586728 0.314307
1.000000 1.000000 0.803447
1.000000 1.000000 1.000000
1.000000 1.000000 0.674461
0.923438 0.247037 0.214013
0.647594 0.393103 0.425308
1.000000 1.000000 0.857272
1.000000 1.000000 1.000000
0.956134 1.000000 0.463217
0.856667 0.000000 1.000000
0.823620 0.000000 1.000000
1.000000 0.000000 1.000000
1.000000 0.429339 1.000000
0.091918 0.000000 1.000000
