lrplugin/MindfulLensFilmEngine.lrplugin/profiles/luts/crimson.cube
# Generated from ColorChecker fit
LUT_3D_SIZE 9
DOMAIN_MIN 0.0 0.0 0.0
DOMAIN_MAX 1.0 1.0 1.0
0.022014 0.000000 0.009363
0.000000 0.000000 0.110506
0.000000 0.000000 0.274786
0.000000 0.000000 0.472227
0.000000 0.000000 0.648696
0.000000 0.012688 0.725913
0.000000 0.048193 0.601442
0.000000 0.022510 0.148698
0.000000 0.000000 0.000000
0.000000 0.000000 0.103913
0.000000 0.000000 0.191583
0.000000 0.000000 0.340027
0.000000 0.000000 0.519711
0.000000 0.062832 0.676950
0.000000 0.117396 0.733908
0.000000 0.104003 0.588593
0.000000 0.000000 0.114867
0.000000 0.000000 0.000000
0.000000 0.000000 0.113071
0.000000 0.000000 0.192311
0.000000 0.000000 0.331009
0.000000 0.106105 0.500078
0.000000 0.220473 0.646276
0.000000 0.261469 0.692212
0.000000 0.180000 0.536341
0.000000 0.000000 0.052967
0.000000 0.000000 0.000000
0.000000 0.000000 0.050509
0.000000 0.000000 0.131017
0.000000 0.006410 0.270717
0.000000 0.227195 0.440965
0.000000 0.370547 0.588966
0.000000 0.391215 0.637773
0.000000 0.229526 0.486287
0.000000 0.000000 0.009257
0.000000 0.000000 0.000000
0.000000 0.000000 0.000000
0.000000 0.000000 0.060279
0.000000 0.000000 0.216382
0.000000 0.246929 0.404260
0.000000 0.424921 0.571564
0.000000 0.425536 0.641791
0.000000 0.178522 0.514286
0.000000 0.000000 0.064245
0.000000 0.000000 0.000000
0.000000 0.000000 0.000000
0.000000 0.000000 0.066925
0.000000 0.000000 0.259488
0.000000 0.042730 0.486102
0.024074 0.268055 0.694863
0.000000 0.255930 0.809713
0.000000 0.000000 0.730443
0.000000 0.000000 0.332692
0.000000 0.000000 0.000000
0.000000 0.000000 0.082982
0.000000 0.000000 0.272033
0.000000 0.000000 0.525768
0.062517 0.000000 0.816880
0.183085 0.000000 1.000000
0.080484 0.000000 1.000000
0.000000 0.000000 1.000000
0.000000 0.000000 0.963606
0.000000 0.000000 0.186658
0.000000 0.000000 0.555273
0.000000 0.000000 0.830934
0.000000 0.000000 1.000000
0.321390 0.000000 1.000000
0.493794 0.000000 1.000000
0.398726 0.000000 1.000000
0.000000 0.000000 1.000000
0.000000 0.000000 1.000000
0.000000 0.000000 1.000000
0.000000 0.000000 1.000000
0.000000 0.000000 1.000000
0.311154 0.000000 1.000000
0.777225 0.000000 1.000000
1.000000 0.000000 1.000000
0.962155 0.000000 1.000000
0.478341 0.000000 1.000000
0.000000 0.000000 1.000000
0.000000 0.000000 1.000000
0.240976 0.136677 0.010271
0.130430 0.098112 0.043919
0.092983 0.076697 0.157420
0.114356 0.085133 0.322747
0.171702 0.121697 0.487722
0.233605 0.170242 0.576012
0.260080 0.200195 0.487136
0.202576 0.166560 0.096459
0.003970 0.009917 0.000000
0.133490 0.021527 0.148936
0.075000 0.056057 0.180364
0.083572 0.102090 0.287996
0.136275 0.161749 0.444252
0.201613 0.222731 0.597398
0.239518 0.258309 0.671547
0.201358 0.227333 0.566662
0.029928 0.074227 0.158554
0.000000 0.000000 0.000000
0.033678 0.000000 0.208386
0.026501 0.091508 0.240854
0.078351 0.212222 0.346928
0.157648 0.324954 0.499471
0.224244 0.406824 0.647196
0.229423 0.420525 0.714660
0.115900 0.314327 0.602272
0.000000 0.022076 0.186287
0.000000 0.000000 0.000000
0.000000 0.000000 0.200139
0.000000 0.123582 0.241564
0.072558 0.333245 0.355044
0.179191 0.507939 0.513890
0.245791 0.614203 0.667256
0.214993 0.604151 0.740147
0.020862 0.415476 0.633416
0.000000 0.000000 0.223762
0.000000 0.000000 0.000000
0.000000 0.000000 0.169965
0.000000 0.043991 0.232918
0.073722 0.363909 0.367425
0.213914 0.616489 0.547241
0.284746 0.757690 0.721967
0.220200 0.729048 0.817052
0.000000 0.457675 0.733793
0.000000 0.000000 0.349336
0.000000 0.000000 0.000000
0.000000 0.000000 0.197883
0.000000 0.000000 0.299591
0.101670 0.175560 0.473401
0.287123 0.528987 0.693512
0.371891 0.722704 0.909970
0.281308 0.687670 1.000000
0.000000 0.340417 1.000000
0.000000 0.000000 0.675613
0.000000 0.000000 0.000000
0.000000 0.000000 0.398163
0.000000 0.000000 0.560508
0.188518 0.000000 0.796551
0.436414 0.096410 1.000000
0.550304 0.367260 1.000000
0.446872 0.345069 1.000000
0.034232 0.000000 1.000000
0.000000 0.000000 1.000000
0.000000 0.000000 0.649880
0.000000 0.000000 0.919327
0.000000 0.000000 1.000000
0.378680 0.000000 1.000000
0.711680 0.000000 1.000000
0.875357 0.000000 1.000000
0.777745 0.000000 1.000000
0.318307 0.000000 1.000000
0.000000 0.000000 1.000000
0.000000 0.000000 1.000000
0.000000 0.000000 1.000000
0.168028 0.000000 1.000000
0.728861 0.000000 1.000000
1.000000 0.000000 1.000000
1.000000 0.000000 1.000000
1.000000 0.000000 1.000000
0.862988 0.000000 1.000000
0.000000 0.000000 1.000000
0.000000 0.000000 1.000000
0.408276 0.311648 0.037576
0.269678 0.215788 0.005615
0.224500 0.154494 0.067939
0.254897 0.137833 0.198473
0.334456 0.161445 0.346990
0.428198 0.206548 0.439111
0.492574 0.239934 0.376304
0.475465 0.213972 0.035887
0.316188 0.066606 0.000000
0.320356 0.237102 0.184135
0.222441 0.192029 0.158785
0.212242 0.177043 0.222790
0.263267 0.191628 0.350519
0.340452 0.220848 0.492189
0.400166 0.235339 0.573867
0.390211 0.191317 0.497467
0.249820 0.030570 0.140751
0.000000 0.000000 0.000000
0.244200 0.236416 0.256997
0.187258 0.259631 0.239738
0.210334 0.303070 0.307951
0.278284 0.355639 0.436452
0.347396 0.391822 0.575902
0.365388 0.371678 0.652813
0.271411 0.240841 0.569543
0.000000 0.000000 0.204299
0.000000 0.000000 0.000000
0.161377 0.222626 0.265525
0.151178 0.338666 0.262493
0.211303 0.459686 0.342098
0.297956 0.564013 0.479603
0.358776 0.615553 0.626114
0.332830 0.563784 0.708587
0.150620 0.343762 0.629826
0.000000 0.000000 0.268484
0.000000 0.000000 0.000000
0.065749 0.081367 0.253337
0.113544 0.321804 0.275320
0.219971 0.546596 0.378157
0.332585 0.723493 0.537554
0.390373 0.805818 0.705062
0.323754 0.732472 0.808082
0.054578 0.427932 0.749865
0.000000 0.000000 0.409507
0.000000 0.000000 0.000000
0.000000 0.000000 0.298297
0.085993 0.074310 0.360742
0.253455 0.436103 0.503304
0.404766 0.713415 0.702135
0.470263 0.848992 0.909232
0.371715 0.771154 1.000000
0.022321 0.393799 1.000000
0.000000 0.000000 0.737819
0.000000 0.000000 0.014921
0.000000 0.000000 0.512524
0.092453 0.000000 0.635530
0.341164 0.000000 0.838967
0.549389 0.385716 1.000000
0.638815 0.604046 1.000000
0.522561 0.545838 1.000000
0.105176 0.114408 1.000000
0.000000 0.000000 1.000000
0.000000 0.000000 0.747325
0.000000 0.000000 1.000000
0.169148 0.000000 1.000000
0.524801 0.000000 1.000000
0.813636 0.000000 1.000000
0.948692 0.000000 1.000000
0.834436 0.000000 1.000000
0.366767 0.000000 1.000000
0.000000 0.000000 1.000000
0.000000 0.000000 1.000000
0.000000 0.000000 1.000000
0.364598 0.000000 1.000000
0.858364 0.000000 1.000000
1.000000 0.000000 1.000000
1.000000 0.000000 1.000000
1.000000 0.000000 1.000000
0.883008 0.000000 1.000000
0.000000 0.000000 1.000000
0.000000 0.000000 1.000000
0.554203 0.444463 0.107665
0.377953 0.287288 0.019970
0.321237 0.188734 0.038711
0.362646 0.156233 0.139764
0.472204 0.182788 0.274854
0.611364 0.246983 0.371552
0.733013 0.312974 0.333280
0.781471 0.330495 0.039305
0.692486 0.234854 0.000000
0.474032 0.397287 0.237588
0.324982 0.264144 0.162917
0.290099 0.186308 0.188468
0.339325 0.160628 0.290561
0.434032 0.169532 0.421367
0.527026 0.181022 0.508902
0.562542 0.148677 0.457032
0.476249 0.011650 0.145470
0.195247 0.000000 0.000000
0.409459 0.431556 0.298670
0.288933 0.344832 0.236722
0.275212 0.304717 0.269829
0.329587 0.297483 0.374759
0.404781 0.294978 0.504125
0.444948 0.254624 0.586391
0.385675 0.119422 0.525866
0.153978 0.000000 0.202708
0.000000 0.000000 0.000000
0.339343 0.461262 0.298124
0.254147 0.450380 0.253251
0.266397 0.472028 0.299318
0.328733 0.501900 0.413535
0.385229 0.501265 0.548962
0.371389 0.416966 0.634506
0.214148 0.181423 0.574922
0.000000 0.000000 0.250816
0.000000 0.000000 0.000000
0.254838 0.372996 0.277412
0.217256 0.474414 0.258623
0.265765 0.588904 0.327706
0.344355 0.681580 0.462316
0.388449 0.703129 0.615958
0.324901 0.589819 0.717985
0.071995 0.263489 0.673596
0.000000 0.000000 0.363841
0.000000 0.000000 0.000000
0.159391 0.025941 0.312246
0.187189 0.283157 0.333205
0.287725 0.528604 0.440017
0.396341 0.716815 0.610781
0.439807 0.787903 0.799449
0.336329 0.667551 0.935817
0.000000 0.267024 0.925530
0.000000 0.000000 0.650084
0.000000 0.000000 0.000000
0.068745 0.000000 0.512590
0.185167 0.000000 0.591616
0.358978 0.136980 0.755524
0.516870 0.460498 0.982859
0.576964 0.615512 1.000000
0.448815 0.517128 1.000000
0.033407 0.066028 1.000000
0.000000 0.000000 1.000000
0.000000 0.000000 0.629447
0.010936 0.000000 1.000000
0.244704 0.000000 1.000000
0.518518 0.000000 1.000000
0.750417 0.000000 1.000000
0.849874 0.018481 1.000000
0.717791 0.000000 1.000000
0.246505 0.000000 1.000000
0.000000 0.000000 1.000000
0.000000 0.000000 1.000000
0.026291 0.000000 1.000000
0.411610 0.000000 1.000000
0.817633 0.000000 1.000000
1.000000 0.000000 1.000000
1.000000 0.000000 1.000000
1.000000 0.000000 1.000000
0.708043 0.000000 1.000000
0.000000 0.000000 1.000000
0.000000 0.000000 1.000000
0.689538 0.539870 0.213885
0.478953 0.337547 0.088323
0.419811 0.224538 0.079066
0.487139 0.205639 0.163941
0.647395 0.271219 0.296623
0.858470 0.397225 0.406638
1.000000 0.545180 0.399356
1.000000 0.662179 0.155997
1.000000 0.680897 0.000000
0.613031 0.513990 0.314330
0.414053 0.304495 0.205785
0.361488 0.182164 0.206048
0.421713 0.141214 0.293389
0.552536 0.161435 0.421931
0.703197 0.208194 0.521642
0.814368 0.232435 0.498339
0.818152 0.170675 0.233687
0.638085 0.000000 0.000000
0.555697 0.575755 0.350132
0.370687 0.386361 0.256522
0.325063 0.276600 0.265269
0.376552 0.230108 0.355092
0.474313 0.216099 0.480556
0.558934 0.189359 0.572076
0.562438 0.090252 0.535913
0.408278 0.000000 0.254176
0.011338 0.000000 0.000000
0.493688 0.640116 0.326351
0.330485 0.505132 0.250247
0.297646 0.436868 0.271100
0.344246 0.408383 0.368074
0.410795 0.378308 0.496178
0.429231 0.290852 0.586273
0.322925 0.075801 0.545065
0.006682 0.000000 0.255110
0.000000 0.000000 0.000000
0.415450 0.594618 0.282295
0.287374 0.555390 0.230924
0.278642 0.564589 0.272159
0.329680 0.584691 0.385607
0.372347 0.563753 0.526726
0.329931 0.435403 0.626819
0.117153 0.118847 0.593037
0.000000 0.000000 0.308382
0.000000 0.000000 0.000000
0.321720 0.299404 0.291523
0.247570 0.404314 0.276767
0.279749 0.533975 0.351315
0.350031 0.640286 0.495218
0.381626 0.660723 0.664380
0.289171 0.518335 0.790547
0.000000 0.121750 0.781319
0.000000 0.000000 0.520139
0.000000 0.000000 0.000000
0.225533 0.000000 0.461846
0.229588 0.000000 0.500242
0.324959 0.191839 0.625688
0.434772 0.429015 0.818682
0.473584 0.530102 1.000000
0.347384 0.407570 1.000000
0.000000 0.000000 1.000000
0.000000 0.000000 1.000000
0.000000 0.000000 0.423660
0.152214 0.000000 0.935323
0.264233 0.000000 1.000000
0.450559 0.000000 1.000000
0.625668 0.000000 1.000000
0.695466 0.005370 1.000000
0.557294 0.000000 1.000000
0.099921 0.000000 1.000000
0.000000 0.000000 1.000000
0.000000 0.000000 1.000000
0.139385 0.000000 1.000000
0.394605 0.000000 1.000000
0.705128 0.000000 1.000000
0.976778 0.000000 1.000000
1.000000 0.000000 1.000000
0.983921 0.000000 1.000000
0.488222 0.000000 1.000000
0.000000 0.000000 1.000000
0.000000 0.000000 1.000000
0.805548 0.582919 0.326542
0.576861 0.371800 0.188971
0.537323 0.287326 0.175291
0.658394 0.331658 0.265281
0.902970 0.492530 0.414568
1.000000 0.743253 0.554628
1.000000 1.000000 0.592783
1.000000 1.000000 0.412207
1.000000 1.000000 0.000000
0.736348 0.579418 0.396356
0.501569 0.325474 0.277377
0.451243 0.197192 0.273507
0.548183 0.186151 0.364971
0.746633 0.269507 0.507841
0.992268 0.409993 0.634037
1.000000 0.555915 0.651329
1.000000 0.641157 0.443332
1.000000 0.585177 0.000000
0.689642 0.668381 0.405068
0.452164 0.403772 0.300815
0.392450 0.258458 0.303939
0.464660 0.213441 0.395109
0.614390 0.235297 0.530844
0.778663 0.276178 0.643508
0.885937 0.273814 0.641314
0.856101 0.151508 0.408326
0.600474 0.000000 0.000000
0.638872 0.765714 0.355580
0.407571 0.529635 0.266844
0.345345 0.401104 0.278802
0.397708 0.350543 0.372567
0.501603 0.333950 0.505103
0.585403 0.292898 0.609219
0.568917 0.154537 0.593575
0.363383 0.000000 0.342678
0.000000 0.000000 0.000000
0.569775 0.759920 0.285050
0.359004 0.598603 0.217276
0.306626 0.527705 0.244561
0.349502 0.507070 0.348464
0.415926 0.482116 0.486393
0.425623 0.383838 0.591603
0.289749 0.128805 0.573198
0.000000 0.000000 0.316130
0.000000 0.000000 0.000000
0.480380 0.512096 0.264883
0.309974 0.478810 0.228172
0.285280 0.513433 0.281934
0.334511 0.565230 0.408173
0.377310 0.569040 0.564742
0.324750 0.445279 0.685341
0.079340 0.099936 0.679520
0.000000 0.000000 0.432675
0.000000 0.000000 0.000000
0.381013 0.000000 0.400735
0.276284 0.010987 0.409843
0.302593 0.206056 0.505886
0.379499 0.379827 0.671315
0.417996 0.456562 0.864426
0.320509 0.346097 1.000000
0.000000 0.000000 1.000000
0.000000 0.000000 0.830554
0.000000 0.000000 0.234334
0.294291 0.000000 0.832513
0.286034 0.000000 0.906851
0.392140 0.000000 1.000000
0.523523 0.000000 1.000000
0.582523 0.000000 1.000000
0.462914 0.000000 1.000000
0.049904 0.000000 1.000000
0.000000 0.000000 1.000000
0.000000 0.000000 1.000000
0.255126 0.000000 1.000000
0.379613 0.000000 1.000000
0.599795 0.000000 1.000000
0.817933 0.000000 1.000000
0.927719 0.000000 1.000000
0.814277 0.000000 1.000000
0.354164 0.000000 1.000000
0.000000 0.000000 1.000000
0.000000 0.000000 1.000000
0.873989 0.538959 0.392899
0.656354 0.375582 0.277168
0.671366 0.382820 0.290632
0.886924 0.560198 0.415022
1.000000 0.892815 0.607916
1.000000 1.000000 0.802741
1.000000 1.000000 0.908773
1.000000 1.000000 0.811135
1.000000 1.000000 0.370797
0.823472 0.566081 0.442621
0.579934 0.319778 0.344636
0.564686 0.244271 0.365781
0.736975 0.328506 0.488232
1.000000 0.547003 0.670013
1.000000 0.859858 0.844996
1.000000 1.000000 0.922902
1.000000 1.000000 0.789297
1.000000 1.000000 0.305599
0.798511 0.689101 0.434120
0.533501 0.396918 0.348234
0.490425 0.270330 0.372462
0.619883 0.287705 0.489426
0.863901 0.412983 0.657594
1.000000 0.595681 0.811284
1.000000 0.770892 0.860660
1.000000 0.859284 0.691736
1.000000 0.767102 0.166373
0.769842 0.824882 0.368145
0.493267 0.530901 0.293368
0.430278 0.391933 0.320737
0.522819 0.375767 0.433320
0.704271 0.435763 0.590031
0.899444 0.510861 0.725631
1.000000 0.525573 0.750731
0.987350 0.389990 0.551790
0.686863 0.000000 0.000000
0.720491 0.862884 0.279701
0.447742 0.618223 0.219695
0.378230 0.512612 0.254918
0.445252 0.503260 0.368882
0.573537 0.532949 0.520946
0.679245 0.530040 0.646316
0.669966 0.408465 0.656048
0.444726 0.067736 0.437045
0.000000 0.000000 0.000000
0.645780 0.665162 0.238038
0.397725 0.527974 0.201123
0.340564 0.508494 0.253568
0.398942 0.553349 0.379330
0.488939 0.594743 0.538212
0.518064 0.550455 0.665866
0.385260 0.323843 0.673793
0.000000 0.000000 0.449341
0.000000 0.000000 0.000000
0.553325 0.066365 0.346659
0.356312 0.101844 0.345810
0.335853 0.228304 0.429501
0.407944 0.381794 0.582132
0.480012 0.483940 0.763952
0.450917 0.441942 0.911060
0.210952 0.148576 0.935401
0.000000 0.000000 0.724767
0.000000 0.000000 0.142800
0.463035 0.000000 0.743319
0.348893 0.000000 0.796165
0.394967 0.000000 0.929779
0.508605 0.000000 1.000000
0.588582 0.035935 1.000000
0.525110 0.046928 1.000000
0.199830 0.000000 1.000000
0.000000 0.000000 1.000000
0.000000 0.000000 0.888334
0.407114 0.000000 1.000000
0.413150 0.000000 1.000000
0.561069 0.000000 1.000000
0.749568 0.000000 1.000000
0.868774 0.000000 1.000000
0.800246 0.000000 1.000000
0.416976 0.000000 1.000000
0.000000 0.000000 1.000000
0.000000 0.000000 1.000000
0.847105 0.353641 0.337179
0.682591 0.314730 0.285128
0.800020 0.497043 0.365294
1.000000 0.897467 0.561359
1.000000 1.000000 0.832853
1.000000 1.000000 1.000000
1.000000 1.000000 1.000000
1.000000 1.000000 1.000000
1.000000 1.000000 1.000000
0.834375 0.426787 0.389037
0.622041 0.260401 0.351466
0.687627 0.316584 0.434764
0.986817 0.581647 0.623059
1.000000 1.000000 0.876325
1.000000 1.000000 1.000000
1.000000 1.000000 1.000000
1.000000 1.000000 1.000000
1.000000 1.000000 0.893300
0.850009 0.597883 0.384890
0.595319 0.345953 0.354372
0.612531 0.312558 0.434424
0.848677 0.473428 0.609618
1.000000 0.789869 0.840374
1.000000 1.000000 1.000000
1.000000 1.000000 1.000000
1.000000 1.000000 1.000000
1.000000 1.000000 0.682121
0.862032 0.784748 0.323337
0.575929 0.496243 0.297099
0.553714 0.416856 0.372180
0.733769 0.511738 0.533599
1.000000 0.731618 0.742219
1.000000 1.000000 0.934756
1.000000 1.000000 1.000000
1.000000 1.000000 0.897673
1.000000 1.000000 0.420721
0.850763 0.877799 0.237227
0.549672 0.608722 0.217151
0.502457 0.533966 0.290193
0.638851 0.608104 0.441816
0.880017 0.771282 0.633329
1.000000 0.949224 0.801893
1.000000 1.000000 0.860513
1.000000 0.980174 0.698044
1.000000 0.612507 0.179190
0.808815 0.740046 0.193657
0.514639 0.553439 0.186282
0.462332 0.540975 0.264871
0.572975 0.646645 0.415333
0.759082 0.800019 0.599424
0.924599 0.916241 0.754747
0.964902 0.896031 0.794754
0.766801 0.625685 0.608745
0.208535 0.000000 0.061868
0.741095 0.207096 0.293979
0.481217 0.173038 0.310496
0.449203 0.287561 0.406874
0.557486 0.484079 0.569466
0.709928 0.681583 0.760473
0.801825 0.784638 0.917944
0.719903 0.683383 0.955774
0.342322 0.253537 0.763711
0.000000 0.000000 0.207345
0.664804 0.000000 0.673791
0.472086 0.000000 0.730049
0.491233 0.000000 0.861113
0.626024 0.000000 1.000000
0.771675 0.252324 1.000000
0.814829 0.397800 1.000000
0.633563 0.265709 1.000000
0.097386 0.000000 1.000000
0.000000 0.000000 0.788463
0.609435 0.000000 1.000000
0.522221 0.000000 1.000000
0.628874 0.000000 1.000000
0.824524 0.000000 1.000000
0.995736 0.000000 1.000000
1.000000 0.000000 1.000000
0.768253 0.000000 1.000000
0.099843 0.000000 1.000000
0.000000 0.000000 1.000000
0.657629 0.000000 0.060563
0.601225 0.135382 0.122023
0.881853 0.596318 0.316439
1.000000 1.000000 0.629446
1.000000 1.000000 1.000000
1.000000 1.000000 1.000000
1.000000 1.000000 1.000000
1.000000 1.000000 1.000000
1.000000 1.000000 1.000000
0.709522 0.094648 0.148473
0.581271 0.100640 0.218729
0.786366 0.387613 0.409309
1.000000 0.939243 0.706295
1.000000 1.000000 1.000000
1.000000 1.000000 1.000000
1.000000 1.000000 1.000000
1.000000 1.000000 1.000000
1.000000 1.000000 1.000000
0.792329 0.334997 0.181939
0.598730 0.211333 0.251781
0.732794 0.365782 0.430366
1.000000 0.771437 0.704217
1.000000 1.000000 1.000000
1.000000 1.000000 1.000000
1.000000 1.000000 1.000000
1.000000 1.000000 1.000000
1.000000 1.000000 1.000000
0.871367 0.592740 0.157406
0.624398 0.393275 0.222280
0.697415 0.463672 0.385363
1.000000 0.766445 0.633625
1.000000 1.000000 0.929881
1.000000 1.000000 1.000000
1.000000 1.000000 1.000000
1.000000 1.000000 1.000000
1.000000 1.000000 1.000000
0.924246 0.759250 0.105569
0.641366 0.544875 0.165576
0.668797 0.586728 0.314307
0.932706 0.836748 0.539177
1.000000 1.000000 0.803447
1.000000 1.000000 1.000000
1.000000 1.000000 1.000000
1.000000 1.000000 1.000000
1.000000 1.000000 0.674461
0.940870 0.698495 0.091372
0.645018 0.537136 0.151269
0.647804 0.612993 0.291453
0.866746 0.867423 0.499785
1.000000 1.000000 0.739972
1.000000 1.000000 0.951569
1.000000 1.000000 1.000000
1.000000 1.000000 0.926453
1.000000 1.000000 0.448092
0.923438 0.247037 0.214013
0.643031 0.213660 0.283210
0.647594 0.393103 0.425308
0.845995 0.716145 0.628611
1.000000 1.000000 0.857272
1.000000 1.000000 1.000000
1.000000 1.000000 1.000000
1.000000 1.000000 0.974642
0.956134 1.000000 0.463217
0.886442 0.000000 0.606938
0.655377 0.000000 0.699502
0.693617 0.000000 0.858628
0.901381 0.213183 1.000000
1.000000 0.685095 1.000000
1.000000 1.000000 1.000000
1.000000 1.000000 1.000000
1.000000 0.996331 1.000000
0.390857 0.273583 0.890523
0.856667 0.000000 1.000000
0.714321 0.000000 1.000000
0.823620 0.000000 1.000000
1.000000 0.000000 1.000000
1.000000 0.000000 1.000000
1.000000 0.262320 1.000000
1.000000 0.429339 1.000000
1.000000 0.148103 1.000000
0.091918 0.000000 1.000000
