lrplugin/MindfulLensFilmEngine.lrplugin/profiles/luts/crimson.cube
# Generated from ColorChecker fit
LUT_3D_SIZE 33
DOMAIN_MIN 0.0 0.0 0.0
DOMAIN_MAX 1.0 1.0 1.0
0.022014 0.000000 0.009363
0.000000 0.000000 0.027998
0.000000 0.000000 0.051112
0.000000 0.000000 0.078660
0.000000 0.000000 0.110506
0.000000 0.000000 0.146415
0.000000 0.000000 0.186061
0.000000 0.000000 0.229024
0.000000 0.000000 0.274786
0.000000 0.000000 0.322739
0.000000 0.000000 0.372179
0.000000 0.000000 0.422305
0.000000 0.000000 0.472227
0.000000 0.000000 0.520955
0.000000 0.000000 0.567409
0.000000 0.000000 0.610413
0.000000 0.000000 0.648696
0.000000 0.000000 0.680894
0.000000 0.000000 0.705547
0.000000 0.000000 0.721103
0.000000 0.012688 0.725913
0.000000 0.024738 0.718236
0.000000 0.035104 0.696234
0.000000 0.043152 0.657978
0.000000 0.048193 0.601442
0.000000 0.049480 0.524507
0.000000 0.046211 0.424960
0.000000 0.037526 0.300491
0.000000 0.022510 0.148698
0.000000 0.000190 0.000000
0.000000 0.000000 0.000000
0.000000 0.000000 0.000000
0.000000 0.000000 0.000000
0.000000 0.000000 0.040466
0.000000 0.000000 0.058275
0.000000 0.000000 0.080515
0.000000 0.000000 0.107143
0.000000 0.000000 0.138022
0.000000 0.000000 0.172923
0.000000 0.000000 0.211519
0.000000 0.000000 0.253392
0.000000 0.000000 0.298027
0.000000 0.000000 0.344817
0.000000 0.000000 0.393058
0.000000 0.000000 0.441954
0.000000 0.000000 0.490614
0.000000 0.000000 0.538051
0.000000 0.000000 0.583187
0.000000 0.000000 0.624847
0.000000 0.000000 0.661763
0.000000 0.000000 0.692570
0.000000 0.006810 0.715813
0.000000 0.020679 0.729939
0.000000 0.033268 0.733303
0.000000 0.044015 0.724164
0.000000 0.052301 0.700687
0.000000 0.057450 0.660944
0.000000 0.058732 0.602912
0.000000 0.055359 0.524471
0.000000 0.046486 0.423412
0.000000 0.031213 0.297426
0.000000 0.008584 0.144114
0.000000 0.000000 0.000000
0.000000 0.000000 0.000000
0.000000 0.000000 0.000000
0.000000 0.000000 0.000000
0.000000 0.000000 0.066829
0.000000 0.000000 0.083830
0.000000 0.000000 0.105218
0.000000 0.000000 0.130951
0.000000 0.000000 0.160895
0.000000 0.000000 0.194822
0.000000 0.000000 0.232407
0.000000 0.000000 0.273233
0.000000 0.000000 0.316787
0.000000 0.000000 0.362464
0.000000 0.000000 0.409562
0.000000 0.000000 0.457287
0.000000 0.000000 0.504748
0.000000 0.000000 0.550962
0.000000 0.000000 0.594851
0.000000 0.000000 0.635243
0.000000 0.001223 0.670870
0.000000 0.017317 0.700371
0.000000 0.032454 0.722291
0.000000 0.046143 0.735080
0.000000 0.057836 0.737093
0.000000 0.066929 0.726592
0.000000 0.072763 0.701745
0.000000 0.074620 0.660623
0.000000 0.071729 0.601206
0.000000 0.063261 0.521376
0.000000 0.048329 0.418925
0.000000 0.025992 0.291548
0.000000 0.000000 0.136844
0.000000 0.000000 0.000000
0.000000 0.000000 0.000000
0.000000 0.000000 0.000000
0.000000 0.000000 0.000000
0.000000 0.000000 0.088062
0.000000 0.000000 0.104292
0.000000 0.000000 0.124868
0.000000 0.000000 0.149752
0.000000 0.000000 0.178810
0.000000 0.000000 0.211815
0.000000 0.000000 0.248445
0.000000 0.000000 0.288285
0.000000 0.000000 0.330823
0.000000 0.000000 0.375456
0.000000 0.000000 0.421485
0.000000 0.000000 0.468115
0.000000 0.000000 0.514459
0.000000 0.000000 0.559535
0.000000 0.000000 0.602267
0.000000 0.011840 0.641484
0.000000 0.029958 0.675920
0.000000 0.046941 0.704217
0.000000 0.062312 0.724920
0.000000 0.075539 0.736481
0.000000 0.086033 0.737258
0.000000 0.093150 0.725514
0.000000 0.096187 0.699418
0.000000 0.094388 0.657044
0.000000 0.086938 0.596372
0.000000 0.072967 0.515289
0.000000 0.051548 0.411585
0.000000 0.021698 0.282958
0.000000 0.000000 0.127010
0.000000 0.000000 0.000000
0.000000 0.000000 0.000000
0.000000 0.000000 0.000000
0.000000 0.000000 0.000000
0.000000 0.000000 0.103913
0.000000 0.000000 0.119426
0.000000 0.000000 0.139249
0.000000 0.000000 0.163345
0.000000 0.000000 0.191583
0.000000 0.000000 0.223737
0.000000 0.000000 0.259488
0.000000 0.000000 0.298420
0.000000 0.000000 0.340027
0.000000 0.000000 0.383703
0.000000 0.000000 0.428753
0.000000 0.000000 0.474384
0.000000 0.000000 0.519711
0.000000 0.001025 0.563753
0.000000 0.022666 0.605435
0.000000 0.043403 0.643589
0.000000 0.062832 0.676950
0.000000 0.080491 0.704162
0.000000 0.095863 0.723772
0.000000 0.108375 0.734234
0.000000 0.117396 0.733908
0.000000 0.122240 0.721057
0.000000 0.122165 0.693852
0.000000 0.116371 0.650370
0.000000 0.104003 0.588593
0.000000 0.084150 0.506408
0.000000 0.055843 0.401609
0.000000 0.018058 0.271893
0.000000 0.000000 0.114867
0.000000 0.000000 0.000000
0.000000 0.000000 0.000000
0.000000 0.000000 0.000000
0.000000 0.000000 0.000000
0.000000 0.000000 0.114259
0.000000 0.000000 0.129128
0.000000 0.000000 0.148274
0.000000 0.000000 0.171664
0.000000 0.000000 0.199167
0.000000 0.000000 0.230560
0.000000 0.000000 0.265524
0.000000 0.000000 0.303647
0.000000 0.000000 0.344422
0.000000 0.000000 0.387247
0.000000 0.000000 0.431428
0.000000 0.000000 0.476174
0.000000 0.007052 0.520601
0.000000 0.032114 0.563730
0.000000 0.056088 0.604488
0.000000 0.078586 0.641709
0.000000 0.099162 0.674130
0.000000 0.117313 0.700396
0.000000 0.132482 0.719055
0.000000 0.144052 0.728565
0.000000 0.151353 0.727284
0.000000 0.153657 0.713481
0.000000 0.150179 0.685327
0.000000 0.140081 0.640900
0.000000 0.122464 0.578184
0.000000 0.096376 0.495069
0.000000 0.060808 0.389349
0.000000 0.014694 0.258724
0.000000 0.000000 0.100801
0.000000 0.000000 0.000000
0.000000 0.000000 0.000000
0.000000 0.000000 0.000000
0.000000 0.000000 0.000000
0.000000 0.000000 0.119114
0.000000 0.000000 0.133429
0.000000 0.000000 0.151994
0.000000 0.000000 0.174776
0.000000 0.000000 0.201648
0.000000 0.000000 0.232386
0.000000 0.000000 0.266675
0.000000 0.000000 0.304103
0.000000 0.000000 0.344167
0.000000 0.000000 0.386265
0.000000 0.000000 0.429704
0.000000 0.009245 0.473696
0.000000 0.038362 0.517359
0.000000 0.066214 0.559716
0.000000 0.092428 0.599695
0.000000 0.116573 0.636131
0.000000 0.138160 0.667764
0.000000 0.156648 0.693239
0.000000 0.171434 0.711109
0.000000 0.181865 0.719830
0.000000 0.187225 0.717764
0.000000 0.186748 0.703181
0.000000 0.179607 0.674255
0.000000 0.164921 0.629064
0.000000 0.141752 0.565595
0.000000 0.109105 0.481738
0.000000 0.065930 0.375290
0.000000 0.011119 0.243954
0.000000 0.000000 0.085337
0.000000 0.000000 0.000000
0.000000 0.000000 0.000000
0.000000 0.000000 0.000000
0.000000 0.000000 0.000000
0.000000 0.000000 0.118624
0.000000 0.000000 0.132495
0.000000 0.000000 0.150592
0.000000 0.000000 0.172884
0.000000 0.000000 0.199245
0.000000 0.000000 0.229454
0.000000 0.000000 0.263197
0.000000 0.000000 0.300065
0.000000 0.000000 0.339554
0.000000 0.000000 0.381066
0.000000 0.005524 0.423910
0.000000 0.039355 0.467299
0.000000 0.071750 0.510352
0.000000 0.102349 0.552094
0.000000 0.130737 0.591456
0.000000 0.156440 0.627273
0.000000 0.178931 0.658288
0.000000 0.197625 0.683148
0.000000 0.211881 0.700407
0.000000 0.221000 0.708522
0.000000 0.224229 0.705859
0.000000 0.220757 0.690687
0.000000 0.209718 0.661183
0.000000 0.190190 0.615428
0.000000 0.161191 0.551408
0.000000 0.121688 0.467017
0.000000 0.070588 0.360053
0.000000 0.006742 0.228221
0.000000 0.000000 0.069129
0.000000 0.000000 0.000000
0.000000 0.000000 0.000000
0.000000 0.000000 0.000000
0.000000 0.000000 0.000000
0.000000 0.000000 0.113071
0.000000 0.000000 0.126624
0.000000 0.000000 0.144384
0.000000 0.000000 0.166321
0.000000 0.000000 0.192311
0.000000 0.000000 0.222135
0.000000 0.000000 0.255480
0.000000 0.000000 0.291938
0.000000 0.000000 0.331009
0.000000 0.000000 0.372096
0.000000 0.032804 0.414509
0.000000 0.070428 0.457462
0.000000 0.106105 0.500078
0.000000 0.139433 0.541382
0.000000 0.169955 0.580307
0.000000 0.197159 0.615690
0.000000 0.220473 0.646276
0.000000 0.239272 0.670713
0.000000 0.252873 0.687557
0.000000 0.260537 0.695268
0.000000 0.261469 0.692212
0.000000 0.254818 0.676661
0.000000 0.239675 0.646792
0.000000 0.215076 0.600689
0.000000 0.180000 0.536341
0.000000 0.133370 0.451641
0.000000 0.074054 0.344391
0.000000 0.000861 0.212296
0.000000 0.000000 0.052967
0.000000 0.000000 0.000000
0.000000 0.000000 0.000000
0.000000 0.000000 0.000000
0.000000 0.000000 0.000000
0.000000 0.000000 0.102867
0.000000 0.000000 0.116248
0.000000 0.000000 0.133821
0.000000 0.000000 0.155557
0.000000 0.000000 0.181333
0.000000 0.000000 0.210934
0.000000 0.000000 0.244046
0.000000 0.000000 0.280266
0.000000 0.000000 0.319093
0.000000 0.016186 0.359932
0.000000 0.059749 0.402096
0.000000 0.101218 0.444800
0.000000 0.140207 0.487169
0.000000 0.176274 0.528229
0.000000 0.208920 0.566916
0.000000 0.237591 0.602068
0.000000 0.261675 0.632432
0.000000 0.280505 0.656657
0.000000 0.293357 0.673301
0.000000 0.299450 0.680827
0.000000 0.297949 0.677601
0.000000 0.287959 0.661897
0.000000 0.268532 0.631896
0.000000 0.238662 0.585681
0.000000 0.197288 0.521243
0.000000 0.143290 0.436479
0.000000 0.075494 0.329190
0.000000 0.000000 0.197084
0.000000 0.000000 0.037774
0.000000 0.000000 0.000000
0.000000 0.000000 0.000000
0.000000 0.000000 0.000000
0.000000 0.000000 0.000000
0.000000 0.000000 0.088562
0.000000 0.000000 0.101935
0.000000 0.000000 0.119488
0.000000 0.000000 0.141194
0.000000 0.000000 0.166933
0.000000 0.000000 0.196490
0.000000 0.000000 0.229554
0.000000 0.000000 0.265723
0.000000 0.000000 0.304498
0.000000 0.036977 0.345286
0.000000 0.084976 0.387401
0.000000 0.130369 0.430061
0.000000 0.172729 0.472391
0.000000 0.211573 0.513421
0.000000 0.246359 0.552086
0.000000 0.276493 0.587228
0.000000 0.301322 0.617594
0.000000 0.320136 0.641837
0.000000 0.332171 0.658515
0.000000 0.336605 0.666092
0.000000 0.332560 0.662938
0.000000 0.319101 0.647328
0.000000 0.295239 0.617443
0.000000 0.259926 0.571370
0.000000 0.212058 0.507101
0.000000 0.150477 0.422534
0.000000 0.073966 0.315472
0.000000 0.000000 0.183626
0.000000 0.000000 0.024609
0.000000 0.000000 0.000000
0.000000 0.000000 0.000000
0.000000 0.000000 0.000000
0.000000 0.000000 0.000000
0.000000 0.000000 0.070837
0.000000 0.000000 0.084384
0.000000 0.000000 0.102102
0.000000 0.000000 0.123969
0.000000 0.000000 0.149865
0.000000 0.000000 0.179576
0.000000 0.000000 0.212795
0.000000 0.000000 0.249119
0.000000 0.000000 0.288052
0.000000 0.054434 0.329004
0.000000 0.106997 0.371289
0.000000 0.156422 0.414127
0.000000 0.202239 0.456645
0.000000 0.243924 0.497875
0.000000 0.280895 0.536754
0.000000 0.312515 0.572125
0.000000 0.338089 0.602737
0.000000 0.356869 0.627244
0.000000 0.368047 0.644208
0.000000 0.370760 0.652092
0.000000 0.364089 0.649269
0.000000 0.347058 0.634016
0.000000 0.318636 0.604516
0.000000 0.277734 0.558856
0.000000 0.223208 0.495031
0.000000 0.153857 0.410941
0.000000 0.068422 0.304392
0.000000 0.000000 0.173093
0.000000 0.000000 0.014661
0.000000 0.000000 0.000000
0.000000 0.000000 0.000000
0.000000 0.000000 0.000000
0.000000 0.000000 0.000000
0.000000 0.000000 0.050509
0.000000 0.000000 0.064428
0.000000 0.000000 0.082517
0.000000 0.000000 0.104752
0.000000 0.000000 0.131017
0.000000 0.000000 0.161099
0.000000 0.000000 0.194692
0.000000 0.000000 0.231396
0.000000 0.006410 0.270717
0.000000 0.066934 0.312064
0.000000 0.124217 0.354756
0.000000 0.177808 0.398013
0.000000 0.227195 0.440965
0.000000 0.271814 0.482644
0.000000 0.311041 0.521989
0.000000 0.344197 0.557847
0.000000 0.370547 0.588966
0.000000 0.389300 0.614004
0.000000 0.399608 0.631521
0.000000 0.400567 0.639987
0.000000 0.391215 0.637773
0.000000 0.370537 0.623159
0.000000 0.337459 0.594329
0.000000 0.290850 0.549373
0.000000 0.229526 0.486287
0.000000 0.152244 0.402973
0.000000 0.057706 0.297237
0.000000 0.000000 0.166792
0.000000 0.000000 0.009257
0.000000 0.000000 0.000000
0.000000 0.000000 0.000000
0.000000 0.000000 0.000000
0.000000 0.000000 0.000000
0.000000 0.000000 0.028525
0.000000 0.000000 0.043036
0.000000 0.000000 0.061717
0.000000 0.000000 0.084548
0.000000 0.000000 0.111411
0.000000 0.000000 0.142098
0.000000 0.000000 0.176305
0.000000 0.000000 0.213632
0.000000 0.006787 0.253586
0.000000 0.072747 0.295581
0.000000 0.134933 0.338934
0.000000 0.192852 0.382870
0.000000 0.245951 0.426518
0.000000 0.293623 0.468913
0.000000 0.335204 0.508997
0.000000 0.369974 0.545616
0.000000 0.397157 0.577522
0.000000 0.415920 0.603374
0.000000 0.425373 0.621734
0.000000 0.424571 0.631072
0.000000 0.412512 0.629764
0.000000 0.388137 0.616088
0.000000 0.350333 0.588233
0.000000 0.297928 0.544289
0.000000 0.229695 0.482254
0.000000 0.144351 0.400031
0.000000 0.040554 0.295430
0.000000 0.000000 0.166164
0.000000 0.000000 0.009853
0.000000 0.000000 0.000000
0.000000 0.000000 0.000000
0.000000 0.000000 0.000000
0.000000 0.000000 0.000000
0.000000 0.000000 0.005971
0.000000 0.000000 0.021309
0.000000 0.000000 0.040823
0.000000 0.000000 0.064493
0.000000 0.000000 0.092204
0.000000 0.000000 0.123749
0.000000 0.000000 0.158826
0.000000 0.000000 0.197036
0.000000 0.000000 0.237889
0.000000 0.070036 0.280800
0.000000 0.137336 0.325088
0.000000 0.199772 0.369980
0.000000 0.256750 0.414605
0.000000 0.307624 0.458003
0.000000 0.351686 0.499114
0.000000 0.388176 0.536789
0.000000 0.416275 0.569780
0.000000 0.435110 0.596747
0.000000 0.443751 0.616255
0.000000 0.441209 0.626777
0.000000 0.426443 0.626687
0.000000 0.398352 0.614269
0.000000 0.355780 0.587710
0.000000 0.297516 0.545105
0.000000 0.222290 0.484451
0.000000 0.128778 0.403655
0.000000 0.015598 0.300527
0.000000 0.000000 0.172783
0.000000 0.000000 0.018044
0.000000 0.000000 0.000000
0.000000 0.000000 0.000000
0.000000 0.000000 0.000000
0.000000 0.000000 0.000000
0.000000 0.000000 0.000000
0.000000 0.000000 0.000483
0.000000 0.000000 0.021088
0.000000 0.000000 0.045859
0.000000 0.000000 0.074686
0.000000 0.000000 0.107360
0.000000 0.000000 0.143581
0.000000 0.000000 0.182954
0.000000 0.000000 0.224989
0.000000 0.056857 0.269103
0.000000 0.129508 0.314618
0.000000 0.196678 0.360760
0.000000 0.257733 0.406663
0.000000 0.311982 0.451366
0.000000 0.358679 0.493813
0.000000 0.397021 0.532855
0.000000 0.426149 0.567246
0.000000 0.445148 0.595649
0.000000 0.453045 0.616630
0.000000 0.448813 0.628663
0.000000 0.431367 0.630125
0.000000 0.399566 0.619300
0.000000 0.352213 0.594379
0.000000 0.288053 0.553456
0.000000 0.205778 0.494533
0.000000 0.104021 0.415516
0.000000 0.000000 0.314218
0.000000 0.000000 0.188356
0.000000 0.000000 0.035555
0.000000 0.000000 0.000000
0.000000 0.000000 0.000000
0.000000 0.000000 0.000000
0.000000 0.000000 0.000000
0.000000 0.000000 0.000000
0.000000 0.000000 0.000000
0.000000 0.000000 0.003898
0.000000 0.000000 0.030053
0.000000 0.000000 0.060279
0.000000 0.000000 0.094371
0.000000 0.000000 0.132030
0.000000 0.000000 0.172863
0.000000 0.000000 0.216382
0.000000 0.031158 0.262004
0.000000 0.109427 0.309055
0.000000 0.181575 0.356762
0.000000 0.246929 0.404260
0.000000 0.304756 0.450590
0.000000 0.354269 0.494699
0.000000 0.394624 0.535438
0.000000 0.424921 0.571564
0.000000 0.444201 0.601740
0.000000 0.451453 0.624537
0.000000 0.445607 0.638427
0.000000 0.425536 0.641791
0.000000 0.390059 0.632914
0.000000 0.337937 0.609989
0.000000 0.267875 0.571112
0.000000 0.178522 0.514286
0.000000 0.068470 0.437420
0.000000 0.000000 0.338327
0.000000 0.000000 0.214727
0.000000 0.000000 0.064245
0.000000 0.000000 0.000000
0.000000 0.000000 0.000000
0.000000 0.000000 0.000000
0.000000 0.000000 0.000000
0.000000 0.000000 0.000000
0.000000 0.000000 0.000000
0.000000 0.000000 0.000000
0.000000 0.000000 0.018613
0.000000 0.000000 0.050541
0.000000 0.000000 0.086358
0.000000 0.000000 0.125767
0.000000 0.000000 0.168375
0.000000 0.000000 0.213697
0.000000 0.000000 0.261152
0.000000 0.074960 0.310066
0.000000 0.152359 0.359669
0.000000 0.222263 0.409099
0.000000 0.283898 0.457397
0.000000 0.336437 0.503511
0.000000 0.378992 0.546295
0.000000 0.410623 0.584508
0.000000 0.430331 0.616815
0.000000 0.437062 0.641786
0.000000 0.429705 0.657899
0.000000 0.407093 0.663533
0.000000 0.368002 0.656978
0.000000 0.311152 0.636426
0.000000 0.235207 0.599976
0.000000 0.138774 0.545632
0.000000 0.020405 0.471305
0.000000 0.000000 0.374811
0.000000 0.000000 0.253870
0.000000 0.000000 0.106110
0.000000 0.000000 0.000000
0.000000 0.000000 0.000000
0.000000 0.000000 0.000000
0.000000 0.000000 0.000000
0.000000 0.000000 0.000000
0.000000 0.000000 0.000000
0.000000 0.000000 0.000000
0.000000 0.000000 0.013211
0.000000 0.000000 0.047164
0.000000 0.000000 0.085032
0.000000 0.000000 0.126519
0.000000 0.000000 0.171236
0.000000 0.000000 0.218699
0.000000 0.000000 0.268328
0.000000 0.023871 0.319452
0.000000 0.106820 0.371301
0.000000 0.181552 0.423016
0.000000 0.247253 0.473640
0.000000 0.303053 0.522122
0.000000 0.348024 0.567317
0.000000 0.381184 0.607988
0.000000 0.401493 0.642800
0.000000 0.407856 0.670326
0.000000 0.399119 0.689043
0.000000 0.374075 0.697335
0.000000 0.331459 0.693492
0.000000 0.269950 0.675708
0.000000 0.188169 0.642084
0.000000 0.084683 0.590626
0.000000 0.000000 0.519245
0.000000 0.000000 0.425761
0.000000 0.000000 0.307895
0.000000 0.000000 0.163276
0.000000 0.000000 0.000000
0.000000 0.000000 0.000000
0.000000 0.000000 0.000000
0.000000 0.000000 0.000000
0.000000 0.000000 0.000000
0.000000 0.000000 0.000000
0.000000 0.000000 0.000000
0.000000 0.000000 0.015656
0.000000 0.000000 0.051972
0.000000 0.000000 0.092234
0.000000 0.000000 0.136148
0.000000 0.000000 0.183326
0.000000 0.000000 0.233285
0.000000 0.000000 0.285449
0.000000 0.000000 0.339146
0.000000 0.042641 0.393610
0.000000 0.122507 0.447982
0.000000 0.192558 0.501308
0.000000 0.251883 0.552538
0.000000 0.299513 0.600531
0.000948 0.334424 0.644047
0.000000 0.355535 0.681757
0.000000 0.361708 0.712233
0.000000 0.351751 0.733957
0.000000 0.324413 0.745312
0.000000 0.278389 0.744589
0.000000 0.212315 0.729987
0.000000 0.124773 0.699606
0.000000 0.014288 0.651455
0.000000 0.000000 0.583447
0.000000 0.000000 0.493402
0.000000 0.000000 0.379045
0.000000 0.000000 0.238005
0.000000 0.000000 0.067820
0.000000 0.000000 0.000000
0.000000 0.000000 0.000000
0.000000 0.000000 0.000000
0.000000 0.000000 0.000000
0.000000 0.000000 0.000000
0.000000 0.000000 0.000000
0.000000 0.000000 0.027887
0.000000 0.000000 0.066925
0.000000 0.000000 0.109942
0.000000 0.000000 0.156649
0.000000 0.000000 0.206658
0.000000 0.000000 0.259488
0.000000 0.000000 0.314564
0.000000 0.000000 0.371216
0.000000 0.000000 0.428682
0.000000 0.042730 0.486102
0.000000 0.117444 0.542524
0.000000 0.180585 0.596902
0.016016 0.231144 0.648093
0.024074 0.268055 0.694863
0.020871 0.290196 0.735881
0.005211 0.296388 0.769723
0.000000 0.285396 0.794872
0.000000 0.255930 0.809713
0.000000 0.206641 0.812539
0.000000 0.136126 0.801549
0.000000 0.042925 0.774847
0.000000 0.000000 0.730443
0.000000 0.000000 0.666251
0.000000 0.000000 0.580093
0.000000 0.000000 0.469696
0.000000 0.000000 0.332692
0.000000 0.000000 0.166619
0.000000 0.000000 0.000000
0.000000 0.000000 0.000000
0.000000 0.000000 0.000000
0.000000 0.000000 0.000000
0.000000 0.000000 0.000000
0.000000 0.000000 0.014061
0.000000 0.000000 0.051979
0.000000 0.000000 0.094114
0.000000 0.000000 0.140268
0.000000 0.000000 0.190151
0.000000 0.000000 0.243378
0.000000 0.000000 0.299471
0.000000 0.000000 0.357856
0.000000 0.000000 0.417865
0.000000 0.000000 0.478736
0.000000 0.000000 0.539613
0.000000 0.019434 0.599544
0.024682 0.086711 0.657486
0.044195 0.140496 0.712297
0.052992 0.179684 0.762745
0.049877 0.203110 0.807501
0.033622 0.209555 0.845143
0.002966 0.197743 0.874153
0.000000 0.166340 0.892922
0.000000 0.113959 0.899742
0.000000 0.039154 0.892815
0.000000 0.000000 0.870245
0.000000 0.000000 0.830045
0.000000 0.000000 0.770132
0.000000 0.000000 0.688328
0.000000 0.000000 0.582361
0.000000 0.000000 0.449866
0.000000 0.000000 0.288382
0.000000 0.000000 0.095356
0.000000 0.000000 0.000000
0.000000 0.000000 0.000000
0.000000 0.000000 0.000000
0.000000 0.000000 0.011760
0.000000 0.000000 0.048771
0.000000 0.000000 0.090140
0.000000 0.000000 0.135766
0.000000 0.000000 0.185454
0.000000 0.000000 0.238916
0.000000 0.000000 0.295769
0.000000 0.000000 0.355535
0.000000 0.000000 0.417643
0.000000 0.000000 0.481427
0.000000 0.000000 0.546126
0.000000 0.000000 0.610887
0.026414 0.000000 0.674759
0.057664 0.000000 0.736699
0.078770 0.025040 0.795569
0.088535 0.066809 0.850139
0.085733 0.091804 0.899080
0.069099 0.098764 0.940972
0.037339 0.086372 0.974301
0.000000 0.053254 0.997456
0.000000 0.000000 1.000000
0.000000 0.000000 1.000000
0.000000 0.000000 0.988372
0.000000 0.000000 0.952853
0.000000 0.000000 0.897697
0.000000 0.000000 0.820731
0.000000 0.000000 0.719683
0.000000 0.000000 0.592190
0.000000 0.000000 0.435793
0.000000 0.000000 0.247939
0.000000 0.000000 0.025981
0.000000 0.000000 0.000000
0.000000 0.000000 0.022236
0.000000 0.000000 0.058659
0.000000 0.000000 0.099485
0.000000 0.000000 0.144712
0.000000 0.000000 0.194241
0.000000 0.000000 0.247880
0.000000 0.000000 0.305341
0.000000 0.000000 0.366243
0.000000 0.000000 0.430112
0.000000 0.000000 0.496376
0.000000 0.000000 0.564372
0.000000 0.000000 0.633341
0.020699 0.000000 0.702429
0.063945 0.000000 0.770691
0.097645 0.000000 0.837083
0.120603 0.000000 0.900470
0.131589 0.000000 0.959622
0.129343 0.000000 1.000000
0.112567 0.000000 1.000000
0.079932 0.000000 1.000000
0.030074 0.000000 1.000000
0.000000 0.000000 1.000000
0.000000 0.000000 1.000000
0.000000 0.000000 1.000000
0.000000 0.000000 1.000000
0.000000 0.000000 1.000000
0.000000 0.000000 0.980063
0.000000 0.000000 0.884440
0.000000 0.000000 0.762460
0.000000 0.000000 0.611664
0.000000 0.000000 0.429501
0.000000 0.000000 0.213327
0.000000 0.000000 0.000000
0.000000 0.000000 0.082982
0.000000 0.000000 0.123596
0.000000 0.000000 0.168659
0.000000 0.000000 0.218170
0.000000 0.000000 0.272033
0.000000 0.000000 0.330057
0.000000 0.000000 0.391956
0.000000 0.000000 0.457351
0.000000 0.000000 0.525768
0.000000 0.000000 0.596640
0.000000 0.000000 0.669302
0.007039 0.000000 0.742999
0.062517 0.000000 0.816880
0.109073 0.000000 0.889998
0.145512 0.000000 0.961314
0.170603 0.000000 1.000000
0.183085 0.000000 1.000000
0.181660 0.000000 1.000000
0.165000 0.000000 1.000000
0.131740 0.000000 1.000000
0.080484 0.000000 1.000000
0.009802 0.000000 1.000000
0.000000 0.000000 1.000000
0.000000 0.000000 1.000000
0.000000 0.000000 1.000000
0.000000 0.000000 1.000000
0.000000 0.000000 1.000000
0.000000 0.000000 1.000000
0.000000 0.000000 0.963606
0.000000 0.000000 0.818944
0.000000 0.000000 0.643010
0.000000 0.000000 0.433161
0.000000 0.000000 0.186658
0.000000 0.000000 0.163904
0.000000 0.000000 0.209144
0.000000 0.000000 0.258885
0.000000 0.000000 0.313125
0.000000 0.000000 0.371770
0.000000 0.000000 0.434632
0.000000 0.000000 0.501426
0.000000 0.000000 0.571774
0.000000 0.000000 0.645205
0.000000 0.000000 0.721153
0.000000 0.000000 0.798955
0.052877 0.000000 0.877858
0.112529 0.000000 0.957012
0.162714 0.000000 1.000000
0.202202 0.000000 1.000000
0.229730 0.000000 1.000000
0.244002 0.000000 1.000000
0.243686 0.000000 1.000000
0.227421 0.000000 1.000000
0.193808 0.000000 1.000000
0.141417 0.000000 1.000000
0.068784 0.000000 1.000000
0.000000 0.000000 1.000000
0.000000 0.000000 1.000000
0.000000 0.000000 1.000000
0.000000 0.000000 1.000000
0.000000 0.000000 1.000000
0.000000 0.000000 1.000000
0.000000 0.000000 1.000000
0.000000 0.000000 1.000000
0.000000 0.000000 0.891566
0.000000 0.000000 0.688601
0.000000 0.000000 0.449085
0.000000 0.000000 0.267688
0.000000 0.000000 0.318010
0.000000 0.000000 0.372887
0.000000 0.000000 0.432319
0.000000 0.000000 0.496214
0.000000 0.000000 0.564384
0.000000 0.000000 0.636547
0.000000 0.000000 0.712329
0.000000 0.000000 0.791257
0.000000 0.000000 0.872768
0.034539 0.000000 0.956202
0.107503 0.000000 1.000000
0.171677 0.000000 1.000000
0.225830 0.000000 1.000000
0.268700 0.000000 1.000000
0.298989 0.000000 1.000000
0.315367 0.000000 1.000000
0.316470 0.000000 1.000000
0.300900 0.000000 1.000000
0.267227 0.000000 1.000000
0.213986 0.000000 1.000000
0.139680 0.000000 1.000000
0.042776 0.000000 1.000000
0.000000 0.000000 1.000000
0.000000 0.000000 1.000000
0.000000 0.000000 1.000000
0.000000 0.000000 1.000000
