lrplugin/MindfulLensFilmEngine.lrplugin/profiles/luts/delta_3200_cc.cube
# Generated from ColorChecker fit
LUT_3D_SIZE 33
DOMAIN_MIN 0.0 0.0 0.0
DOMAIN_MAX 1.0 1.0 1.0
0.037159 0.018673 0.162939
0.050098 0.029544 0.165930
0.063036 0.040415 0.168921
0.075975 0.051286 0.171913
0.088913 0.062156 0.174904
0.101852 0.073027 0.177896
0.114790 0.083898 0.180887
0.127728 0.094769 0.183879
0.140667 0.105639 0.186870
0.153605 0.116510 0.189861
0.166544 0.127381 0.192853
0.179482 0.138252 0.195844
0.192421 0.149122 0.198836
0.205359 0.159993 0.201827
0.218297 0.170864 0.204819
0.231236 0.181735 0.207810
0.244174 0.192605 0.210801
0.257113 0.203476 0.213793
0.270051 0.214347 0.216784
0.282990 0.225218 0.219776
0.295928 0.236088 0.222767
0.308867 0.246959 0.225759
0.321805 0.257830 0.228750
0.334743 0.268700 0.231742
0.347682 0.279571 0.234733
0.360620 0.290442 0.237724
0.373559 0.301313 0.240716
0.386497 0.312183 0.243707
0.399436 0.323054 0.246699
0.412374 0.333925 0.249690
0.425312 0.344796 0.252682
0.438251 0.355666 0.255673
0.451189 0.366537 0.258664
0.050098 0.029544 0.165930
0.063036 0.040415 0.168921
0.075975 0.051286 0.171913
0.088913 0.062156 0.174904
0.101852 0.073027 0.177896
0.114790 0.083898 0.180887
0.127728 0.094769 0.183879
0.140667 0.105639 0.186870
0.153605 0.116510 0.189861
0.166544 0.127381 0.192853
0.179482 0.138252 0.195844
0.192421 0.149122 0.198836
0.205359 0.159993 0.201827
0.218297 0.170864 0.204819
0.231236 0.181735 0.207810
0.244174 0.192605 0.210801
0.257113 0.203476 0.213793
0.270051 0.214347 0.216784
0.282990 0.225218 0.219776
0.295928 0.236088 0.222767
0.308867 0.246959 0.225759
0.321805 0.257830 0.228750
0.334743 0.268700 0.231742
0.347682 0.279571 0.234733
0.360620 0.290442 0.237724
0.373559 0.301313 0.240716
0.386497 0.312183 0.243707
0.399436 0.323054 0.246699
0.412374 0.333925 0.249690
0.425312 0.344796 0.252682
0.438251 0.355666 0.255673
0.451189 0.366537 0.258664
0.464128 0.377408 0.261656
0.063036 0.040415 0.168921
0.075975 0.051286 0.171913
0.088913 0.062156 0.174904
0.101852 0.073027 0.177896
0.114790 0.083898 0.180887
0.127728 0.094769 0.183879
0.140667 0.105639 0.186870
0.153605 0.116510 0.189861
0.166544 0.127381 0.192853
0.179482 0.138252 0.195844
0.192421 0.149122 0.198836
0.205359 0.159993 0.201827
0.218297 0.170864 0.204819
0.231236 0.181735 0.207810
0.244174 0.192605 0.210801
0.257113 0.203476 0.213793
0.270051 0.214347 0.216784
0.282990 0.225218 0.219776
0.295928 0.236088 0.222767
0.308867 0.246959 0.225759
0.321805 0.257830 0.228750
0.334743 0.268700 0.231742
0.347682 0.279571 0.234733
0.360620 0.290442 0.237724
0.373559 0.301313 0.240716
0.386497 0.312183 0.243707
0.399436 0.323054 0.246699
0.412374 0.333925 0.249690
0.425312 0.344796 0.252682
0.438251 0.355666 0.255673
0.451189 0.366537 0.258664
0.464128 0.377408 0.261656
0.477066 0.388279 0.264647
0.075975 0.051286 0.171913
0.088913 0.062156 0.174904
0.101852 0.073027 0.177896
0.114790 0.083898 0.180887
0.127728 0.094769 0.183879
0.140667 0.105639 0.186870
0.153605 0.116510 0.189861
0.166544 0.127381 0.192853
0.179482 0.138252 0.195844
0.192421 0.149122 0.198836
0.205359 0.159993 0.201827
0.218297 0.170864 0.204819
0.231236 0.181735 0.207810
0.244174 0.192605 0.210801
0.257113 0.203476 0.213793
0.270051 0.214347 0.216784
0.282990 0.225218 0.219776
0.295928 0.236088 0.222767
0.308867 0.246959 0.225759
0.321805 0.257830 0.228750
0.334743 0.268700 0.231742
0.347682 0.279571 0.234733
0.360620 0.290442 0.237724
0.373559 0.301313 0.240716
0.386497 0.312183 0.243707
0.399436 0.323054 0.246699
0.412374 0.333925 0.249690
0.425312 0.344796 0.252682
0.438251 0.355666 0.255673
0.451189 0.366537 0.258664
0.464128 0.377408 0.261656
0.477066 0.388279 0.264647
0.490005 0.399149 0.267639
0.088913 0.062156 0.174904
0.101852 0.073027 0.177896
0.114790 0.083898 0.180887
0.127728 0.094769 0.183879
0.140667 0.105639 0.186870
0.153605 0.116510 0.189861
0.166544 0.127381 0.192853
0.179482 0.138252 0.195844
0.192421 0.149122 0.198836
0.205359 0.159993 0.201827
0.218297 0.170864 0.204819
0.231236 0.181735 0.207810
0.244174 0.192605 0.210801
0.257113 0.203476 0.213793
0.270051 0.214347 0.216784
0.282990 0.225218 0.219776
0.295928 0.236088 0.222767
0.308867 0.246959 0.225759
0.321805 0.257830 0.228750
0.334743 0.268700 0.231742
0.347682 0.279571 0.234733
0.360620 0.290442 0.237724
0.373559 0.301313 0.240716
0.386497 0.312183 0.243707
0.399436 0.323054 0.246699
0.412374 0.333925 0.249690
0.425312 0.344796 0.252682
0.438251 0.355666 0.255673
0.451189 0.366537 0.258664
0.464128 0.377408 0.261656
0.477066 0.388279 0.264647
0.490005 0.399149 0.267639
0.502943 0.410020 0.270630
0.101852 0.073027 0.177896
0.114790 0.083898 0.180887
0.127728 0.094769 0.183879
0.140667 0.105639 0.186870
0.153605 0.116510 0.189861
0.166544 0.127381 0.192853
0.179482 0.138252 0.195844
0.192421 0.149122 0.198836
0.205359 0.159993 0.201827
0.218297 0.170864 0.204819
0.231236 0.181735 0.207810
0.244174 0.192605 0.210801
0.257113 0.203476 0.213793
0.270051 0.214347 0.216784
0.282990 0.225218 0.219776
0.295928 0.236088 0.222767
0.308867 0.246959 0.225759
0.321805 0.257830 0.228750
0.334743 0.268700 0.231742
0.347682 0.279571 0.234733
0.360620 0.290442 0.237724
0.373559 0.301313 0.240716
0.386497 0.312183 0.243707
0.399436 0.323054 0.246699
0.412374 0.333925 0.249690
0.425312 0.344796 0.252682
0.438251 0.355666 0.255673
0.451189 0.366537 0.258664
0.464128 0.377408 0.261656
0.477066 0.388279 0.264647
0.490005 0.399149 0.267639
0.502943 0.410020 0.270630
0.515881 0.420891 0.273622
0.114790 0.083898 0.180887
0.127728 0.094769 0.183879
0.140667 0.105639 0.186870
0.153605 0.116510 0.189861
0.166544 0.127381 0.192853
0.179482 0.138252 0.195844
0.192421 0.149122 0.198836
0.205359 0.159993 0.201827
0.218297 0.170864 0.204819
0.231236 0.181735 0.207810
0.244174 0.192605 0.210801
0.257113 0.203476 0.213793
0.270051 0.214347 0.216784
0.282990 0.225218 0.219776
0.295928 0.236088 0.222767
0.308867 0.246959 0.225759
0.321805 0.257830 0.228750
0.334743 0.268700 0.231742
0.347682 0.279571 0.234733
0.360620 0.290442 0.237724
0.373559 0.301313 0.240716
0.386497 0.312183 0.243707
0.399436 0.323054 0.246699
0.412374 0.333925 0.249690
0.425312 0.344796 0.252682
0.438251 0.355666 0.255673
0.451189 0.366537 0.258664
0.464128 0.377408 0.261656
0.477066 0.388279 0.264647
0.490005 0.399149 0.267639
0.502943 0.410020 0.270630
0.515881 0.420891 0.273622
0.528820 0.431762 0.276613
0.127728 0.094769 0.183879
0.140667 0.105639 0.186870
0.153605 0.116510 0.189861
0.166544 0.127381 0.192853
0.179482 0.138252 0.195844
0.192421 0.149122 0.198836
0.205359 0.159993 0.201827
0.218297 0.170864 0.204819
0.231236 0.181735 0.207810
0.244174 0.192605 0.210801
0.257113 0.203476 0.213793
0.270051 0.214347 0.216784
0.282990 0.225218 0.219776
0.295928 0.236088 0.222767
0.308867 0.246959 0.225759
0.321805 0.257830 0.228750
0.334743 0.268700 0.231742
0.347682 0.279571 0.234733
0.360620 0.290442 0.237724
0.373559 0.301313 0.240716
0.386497 0.312183 0.243707
0.399436 0.323054 0.246699
0.412374 0.333925 0.249690
0.425312 0.344796 0.252682
0.438251 0.355666 0.255673
0.451189 0.366537 0.258664
0.464128 0.377408 0.261656
0.477066 0.388279 0.264647
0.490005 0.399149 0.267639
0.502943 0.410020 0.270630
0.515881 0.420891 0.273622
0.528820 0.431762 0.276613
0.541758 0.442632 0.279604
0.140667 0.105639 0.186870
0.153605 0.116510 0.189861
0.166544 0.127381 0.192853
0.179482 0.138252 0.195844
0.192421 0.149122 0.198836
0.205359 0.159993 0.201827
0.218297 0.170864 0.204819
0.231236 0.181735 0.207810
0.244174 0.192605 0.210801
0.257113 0.203476 0.213793
0.270051 0.214347 0.216784
0.282990 0.225218 0.219776
0.295928 0.236088 0.222767
0.308867 0.246959 0.225759
0.321805 0.257830 0.228750
0.334743 0.268700 0.231742
0.347682 0.279571 0.234733
0.360620 0.290442 0.237724
0.373559 0.301313 0.240716
0.386497 0.312183 0.243707
0.399436 0.323054 0.246699
0.412374 0.333925 0.249690
0.425312 0.344796 0.252682
0.438251 0.355666 0.255673
0.451189 0.366537 0.258664
0.464128 0.377408 0.261656
0.477066 0.388279 0.264647
0.490005 0.399149 0.267639
0.502943 0.410020 0.270630
0.515881 0.420891 0.273622
0.528820 0.431762 0.276613
0.541758 0.442632 0.279604
0.554697 0.453503 0.282596
0.153605 0.116510 0.189861
0.166544 0.127381 0.192853
0.179482 0.138252 0.195844
0.192421 0.149122 0.198836
0.205359 0.159993 0.201827
0.218297 0.170864 0.204819
0.231236 0.181735 0.207810
0.244174 0.192605 0.210801
0.257113 0.203476 0.213793
0.270051 0.214347 0.216784
0.282990 0.225218 0.219776
0.295928 0.236088 0.222767
0.308867 0.246959 0.225759
0.321805 0.257830 0.228750
0.334743 0.268700 0.231742
0.347682 0.279571 0.234733
0.360620 0.290442 0.237724
0.373559 0.301313 0.240716
0.386497 0.312183 0.243707
0.399436 0.323054 0.246699
0.412374 0.333925 0.249690
0.425312 0.344796 0.252682
0.438251 0.355666 0.255673
0.451189 0.366537 0.258664
0.464128 0.377408 0.261656
0.477066 0.388279 0.264647
0.490005 0.399149 0.267639
0.502943 0.410020 0.270630
0.515881 0.420891 0.273622
0.528820 0.431762 0.276613
0.541758 0.442632 0.279604
0.554697 0.453503 0.282596
0.567635 0.464374 0.285587
0.166544 0.127381 0.192853
0.179482 0.138252 0.195844
0.192421 0.149122 0.198836
0.205359 0.159993 0.201827
0.218297 0.170864 0.204819
0.231236 0.181735 0.207810
0.244174 0.192605 0.210801
0.257113 0.203476 0.213793
0.270051 0.214347 0.216784
0.282990 0.225218 0.219776
0.295928 0.236088 0.222767
0.308867 0.246959 0.225759
0.321805 0.257830 0.228750
0.334743 0.268700 0.231742
0.347682 0.279571 0.234733
0.360620 0.290442 0.237724
0.373559 0.301313 0.240716
0.386497 0.312183 0.243707
0.399436 0.323054 0.246699
0.412374 0.333925 0.249690
0.425312 0.344796 0.252682
0.438251 0.355666 0.255673
0.451189 0.366537 0.258664
0.464128 0.377408 0.261656
0.477066 0.388279 0.264647
0.490005 0.399149 0.267639
0.502943 0.410020 0.270630
0.515881 0.420891 0.273622
0.528820 0.431762 0.276613
0.541758 0.442632 0.279604
0.554697 0.453503 0.282596
0.567635 0.464374 0.285587
0.580574 0.475245 0.288579
0.179482 0.138252 0.195844
0.192421 0.149122 0.198836
0.205359 0.159993 0.201827
0.218297 0.170864 0.204819
0.231236 0.181735 0.207810
0.244174 0.192605 0.210801
0.257113 0.203476 0.213793
0.270051 0.214347 0.216784
0.282990 0.225218 0.219776
0.295928 0.236088 0.222767
0.308867 0.246959 0.225759
0.321805 0.257830 0.228750
0.334743 0.268700 0.231742
0.347682 0.279571 0.234733
0.360620 0.290442 0.237724
0.373559 0.301313 0.240716
0.386497 0.312183 0.243707
0.399436 0.323054 0.246699
0.412374 0.333925 0.249690
0.425312 0.344796 0.252682
0.438251 0.355666 0.255673
0.451189 0.366537 0.258664
0.464128 0.377408 0.261656
0.477066 0.388279 0.264647
0.490005 0.399149 0.267639
0.502943 0.410020 0.270630
0.515881 0.420891 0.273622
0.528820 0.431762 0.276613
0.541758 0.442632 0.279604
0.554697 0.453503 0.282596
0.567635 0.464374 0.285587
0.580574 0.475245 0.288579
0.593512 0.486115 0.291570
0.192421 0.149122 0.198836
0.205359 0.159993 0.201827
0.218297 0.170864 0.204819
0.231236 0.181735 0.207810
0.244174 0.192605 0.210801
0.257113 0.203476 0.213793
0.270051 0.214347 0.216784
0.282990 0.225218 0.219776
0.295928 0.236088 0.222767
0.308867 0.246959 0.225759
0.321805 0.257830 0.228750
0.334743 0.268700 0.231742
0.347682 0.279571 0.234733
0.360620 0.290442 0.237724
0.373559 0.301313 0.240716
0.386497 0.312183 0.243707
0.399436 0.323054 0.246699
0.412374 0.333925 0.249690
0.425312 0.344796 0.252682
0.438251 0.355666 0.255673
0.451189 0.366537 0.258664
0.464128 0.377408 0.261656
0.477066 0.388279 0.264647
0.490005 0.399149 0.267639
0.502943 0.410020 0.270630
0.515881 0.420891 0.273622
0.528820 0.431762 0.276613
0.541758 0.442632 0.279604
0.554697 0.453503 0.282596
0.567635 0.464374 0.285587
0.580574 0.475245 0.288579
0.593512 0.486115 0.291570
0.606450 0.496986 0.294562
0.205359 0.159993 0.201827
0.218297 0.170864 0.204819
0.231236 0.181735 0.207810
0.244174 0.192605 0.210801
0.257113 0.203476 0.213793
0.270051 0.214347 0.216784
0.282990 0.225218 0.219776
0.295928 0.236088 0.222767
0.308867 0.246959 0.225759
0.321805 0.257830 0.228750
0.334743 0.268700 0.231742
0.347682 0.279571 0.234733
0.360620 0.290442 0.237724
0.373559 0.301313 0.240716
0.386497 0.312183 0.243707
0.399436 0.323054 0.246699
0.412374 0.333925 0.249690
0.425312 0.344796 0.252682
0.438251 0.355666 0.255673
0.451189 0.366537 0.258664
0.464128 0.377408 0.261656
0.477066 0.388279 0.264647
0.490005 0.399149 0.267639
0.502943 0.410020 0.270630
0.515881 0.420891 0.273622
0.528820 0.431762 0.276613
0.541758 0.442632 0.279604
0.554697 0.453503 0.282596
0.567635 0.464374 0.285587
0.580574 0.475245 0.288579
0.593512 0.486115 0.291570
0.606450 0.496986 0.294562
0.619389 0.507857 0.297553
0.218297 0.170864 0.204819
0.231236 0.181735 0.207810
0.244174 0.192605 0.210801
0.257113 0.203476 0.213793
0.270051 0.214347 0.216784
0.282990 0.225218 0.219776
0.295928 0.236088 0.222767
0.308867 0.246959 0.225759
0.321805 0.257830 0.228750
0.334743 0.268700 0.231742
0.347682 0.279571 0.234733
0.360620 0.290442 0.237724
0.373559 0.301313 0.240716
0.386497 0.312183 0.243707
0.399436 0.323054 0.246699
0.412374 0.333925 0.249690
0.425312 0.344796 0.252682
0.438251 0.355666 0.255673
0.451189 0.366537 0.258664
0.464128 0.377408 0.261656
0.477066 0.388279 0.264647
0.490005 0.399149 0.267639
0.502943 0.410020 0.270630
0.515881 0.420891 0.273622
0.528820 0.431762 0.276613
0.541758 0.442632 0.279604
0.554697 0.453503 0.282596
0.567635 0.464374 0.285587
0.580574 0.475245 0.288579
0.593512 0.486115 0.291570
0.606450 0.496986 0.294562
0.619389 0.507857 0.297553
0.632327 0.518727 0.300544
0.231236 0.181735 0.207810
0.244174 0.192605 0.210801
0.257113 0.203476 0.213793
0.270051 0.214347 0.216784
0.282990 0.225218 0.219776
0.295928 0.236088 0.222767
0.308867 0.246959 0.225759
0.321805 0.257830 0.228750
0.334743 0.268700 0.231742
0.347682 0.279571 0.234733
0.360620 0.290442 0.237724
0.373559 0.301313 0.240716
0.386497 0.312183 0.243707
0.399436 0.323054 0.246699
0.412374 0.333925 0.249690
0.425312 0.344796 0.252682
0.438251 0.355666 0.255673
0.451189 0.366537 0.258664
0.464128 0.377408 0.261656
0.477066 0.388279 0.264647
0.490005 0.399149 0.267639
0.502943 0.410020 0.270630
0.515881 0.420891 0.273622
0.528820 0.431762 0.276613
0.541758 0.442632 0.279604
0.554697 0.453503 0.282596
0.567635 0.464374 0.285587
0.580574 0.475245 0.288579
0.593512 0.486115 0.291570
0.606450 0.496986 0.294562
0.619389 0.507857 0.297553
0.632327 0.518727 0.300544
0.645266 0.529598 0.303536
0.244174 0.192605 0.210801
0.257113 0.203476 0.213793
0.270051 0.214347 0.216784
0.282990 0.225218 0.219776
0.295928 0.236088 0.222767
0.308867 0.246959 0.225759
0.321805 0.257830 0.228750
0.334743 0.268700 0.231742
0.347682 0.279571 0.234733
0.360620 0.290442 0.237724
0.373559 0.301313 0.240716
0.386497 0.312183 0.243707
0.399436 0.323054 0.246699
0.412374 0.333925 0.249690
0.425312 0.344796 0.252682
0.438251 0.355666 0.255673
0.451189 0.366537 0.258664
0.464128 0.377408 0.261656
0.477066 0.388279 0.264647
0.490005 0.399149 0.267639
0.502943 0.410020 0.270630
0.515881 0.420891 0.273622
0.528820 0.431762 0.276613
0.541758 0.442632 0.279604
0.554697 0.453503 0.282596
0.567635 0.464374 0.285587
0.580574 0.475245 0.288579
0.593512 0.486115 0.291570
0.606450 0.496986 0.294562
0.619389 0.507857 0.297553
0.632327 0.518727 0.300544
0.645266 0.529598 0.303536
0.658204 0.540469 0.306527
0.257113 0.203476 0.213793
0.270051 0.214347 0.216784
0.282990 0.225218 0.219776
0.295928 0.236088 0.222767
0.308867 0.246959 0.225759
0.321805 0.257830 0.228750
0.334743 0.268700 0.231742
0.347682 0.279571 0.234733
0.360620 0.290442 0.237724
0.373559 0.301313 0.240716
0.386497 0.312183 0.243707
0.399436 0.323054 0.246699
0.412374 0.333925 0.249690
0.425312 0.344796 0.252682
0.438251 0.355666 0.255673
0.451189 0.366537 0.258664
0.464128 0.377408 0.261656
0.477066 0.388279 0.264647
0.490005 0.399149 0.267639
0.502943 0.410020 0.270630
0.515881 0.420891 0.273622
0.528820 0.431762 0.276613
0.541758 0.442632 0.279604
0.554697 0.453503 0.282596
0.567635 0.464374 0.285587
0.580574 0.475245 0.288579
0.593512 0.486115 0.291570
0.606450 0.496986 0.294562
0.619389 0.507857 0.297553
0.632327 0.518728 0.300544
0.645266 0.529598 0.303536
0.658204 0.540469 0.306527
0.671143 0.551340 0.309519
0.270051 0.214347 0.216784
0.282990 0.225218 0.219776
0.295928 0.236088 0.222767
0.308867 0.246959 0.225759
0.321805 0.257830 0.228750
0.334743 0.268700 0.231742
0.347682 0.279571 0.234733
0.360620 0.290442 0.237724
0.373559 0.301313 0.240716
0.386497 0.312183 0.243707
0.399436 0.323054 0.246699
0.412374 0.333925 0.249690
0.425312 0.344796 0.252682
0.438251 0.355666 0.255673
0.451189 0.366537 0.258664
0.464128 0.377408 0.261656
0.477066 0.388279 0.264647
0.490005 0.399149 0.267639
0.502943 0.410020 0.270630
0.515881 0.420891 0.273622
0.528820 0.431762 0.276613
0.541758 0.442632 0.279604
0.554697 0.453503 0.282596
0.567635 0.464374 0.285587
0.580574 0.475245 0.288579
0.593512 0.486115 0.291570
0.606450 0.496986 0.294562
0.619389 0.507857 0.297553
0.632327 0.518727 0.300544
0.645266 0.529598 0.303536
0.658204 0.540469 0.306527
0.671143 0.551340 0.309519
0.684081 0.562211 0.312510
0.282990 0.225218 0.219776
0.295928 0.236088 0.222767
0.308867 0.246959 0.225759
0.321805 0.257830 0.228750
0.334743 0.268700 0.231742
0.347682 0.279571 0.234733
0.360620 0.290442 0.237724
0.373559 0.301313 0.240716
0.386497 0.312183 0.243707
0.399436 0.323054 0.246699
0.412374 0.333925 0.249690
0.425312 0.344796 0.252682
0.438251 0.355666 0.255673
0.451189 0.366537 0.258664
0.464128 0.377408 0.261656
0.477066 0.388279 0.264647
0.490005 0.399149 0.267639
0.502943 0.410020 0.270630
0.515881 0.420891 0.273622
0.528820 0.431762 0.276613
0.541758 0.442632 0.279604
0.554697 0.453503 0.282596
0.567635 0.464374 0.285587
0.580574 0.475245 0.288579
0.593512 0.486115 0.291570
0.606450 0.496986 0.294562
0.619389 0.507857 0.297553
0.632327 0.518727 0.300544
0.645266 0.529598 0.303536
0.658204 0.540469 0.306527
0.671143 0.551340 0.309519
0.684081 0.562210 0.312510
0.697020 0.573081 0.315502
0.295928 0.236088 0.222767
0.308867 0.246959 0.225759
0.321805 0.257830 0.228750
0.334743 0.268700 0.231742
0.347682 0.279571 0.234733
0.360620 0.290442 0.237724
0.373559 0.301313 0.240716
0.386497 0.312183 0.243707
0.399436 0.323054 0.246699
0.412374 0.333925 0.249690
0.425312 0.344796 0.252682
0.438251 0.355666 0.255673
0.451189 0.366537 0.258664
0.464128 0.377408 0.261656
0.477066 0.388279 0.264647
0.490005 0.399149 0.267639
0.502943 0.410020 0.270630
0.515881 0.420891 0.273622
0.528820 0.431762 0.276613
0.541758 0.442632 0.279604
0.554697 0.453503 0.282596
0.567635 0.464374 0.285587
0.580574 0.475245 0.288579
0.593512 0.486115 0.291570
0.606450 0.496986 0.294562
0.619389 0.507857 0.297553
0.632327 0.518727 0.300544
0.645266 0.529598 0.303536
0.658204 0.540469 0.306527
0.671143 0.551340 0.309519
0.684081 0.562211 0.312510
0.697020 0.573081 0.315502
0.709958 0.583952 0.318493
0.308867 0.246959 0.225759
0.321805 0.257830 0.228750
0.334743 0.268700 0.231742
0.347682 0.279571 0.234733
0.360620 0.290442 0.237724
0.373559 0.301313 0.240716
0.386497 0.312183 0.243707
0.399436 0.323054 0.246699
0.412374 0.333925 0.249690
0.425312 0.344796 0.252682
0.438251 0.355666 0.255673
0.451189 0.366537 0.258664
0.464128 0.377408 0.261656
0.477066 0.388279 0.264647
0.490005 0.399149 0.267639
0.502943 0.410020 0.270630
0.515881 0.420891 0.273622
0.528820 0.431762 0.276613
0.541758 0.442632 0.279604
0.554697 0.453503 0.282596
0.567635 0.464374 0.285587
0.580574 0.475245 0.288579
0.593512 0.486115 0.291570
0.606450 0.496986 0.294562
0.619389 0.507857 0.297553
0.632327 0.518728 0.300544
0.645266 0.529598 0.303536
0.658204 0.540469 0.306527
0.671143 0.551340 0.309519
0.684081 0.562211 0.312510
0.697019 0.573081 0.315502
0.709958 0.583952 0.318493
0.722896 0.594823 0.321485
0.321805 0.257830 0.228750
0.334743 0.268700 0.231742
0.347682 0.279571 0.234733
0.360620 0.290442 0.237724
0.373559 0.301313 0.240716
0.386497 0.312183 0.243707
0.399436 0.323054 0.246699
0.412374 0.333925 0.249690
0.425312 0.344796 0.252682
0.438251 0.355666 0.255673
0.451189 0.366537 0.258664
0.464128 0.377408 0.261656
0.477066 0.388279 0.264647
0.490005 0.399149 0.267639
0.502943 0.410020 0.270630
0.515881 0.420891 0.273622
0.528820 0.431762 0.276613
0.541758 0.442632 0.279604
0.554697 0.453503 0.282596
0.567635 0.464374 0.285587
0.580574 0.475245 0.288579
0.593512 0.486115 0.291570
0.606450 0.496986 0.294562
0.619389 0.507857 0.297553
0.632327 0.518727 0.300544
0.645266 0.529598 0.303536
0.658204 0.540469 0.306527
0.671143 0.551340 0.309519
0.684081 0.562211 0.312510
0.697020 0.573081 0.315502
0.709958 0.583952 0.318493
0.722896 0.594823 0.321485
0.735835 0.605693 0.324476
0.334743 0.268700 0.231742
0.347682 0.279571 0.234733
0.360620 0.290442 0.237724
0.373559 0.301313 0.240716
0.386497 0.312183 0.243707
0.399436 0.323054 0.246699
0.412374 0.333925 0.249690
0.425312 0.344796 0.252682
0.438251 0.355666 0.255673
0.451189 0.366537 0.258664
0.464128 0.377408 0.261656
0.477066 0.388279 0.264647
0.490005 0.399149 0.267639
0.502943 0.410020 0.270630
0.515881 0.420891 0.273622
0.528820 0.431762 0.276613
0.541758 0.442632 0.279604
0.554697 0.453503 0.282596
0.567635 0.464374 0.285587
0.580574 0.475245 0.288579
0.593512 0.486115 0.291570
0.606450 0.496986 0.294562
0.619389 0.507857 0.297553
0.632327 0.518727 0.300544
0.645266 0.529598 0.303536
0.658204 0.540469 0.306527
0.671143 0.551340 0.309519
0.684081 0.562210 0.312510
0.697020 0.573081 0.315502
0.709958 0.583952 0.318493
0.722896 0.594823 0.321485
0.735835 0.605693 0.324476
0.748773 0.616564 0.327467
0.347682 0.279571 0.234733
0.360620 0.290442 0.237724
0.373559 0.301313 0.240716
0.386497 0.312183 0.243707
0.399436 0.323054 0.246699
0.412374 0.333925 0.249690
0.425312 0.344796 0.252682
0.438251 0.355666 0.255673
0.451189 0.366537 0.258664
0.464128 0.377408 0.261656
0.477066 0.388279 0.264647
0.490005 0.399149 0.267639
0.502943 0.410020 0.270630
0.515881 0.420891 0.273622
0.528820 0.431762 0.276613
0.541758 0.442632 0.279604
0.554697 0.453503 0.282596
0.567635 0.464374 0.285587
0.580574 0.475245 0.288579
0.593512 0.486115 0.291570
0.606450 0.496986 0.294562
0.619389 0.507857 0.297553
0.632327 0.518727 0.300544
0.645266 0.529598 0.303536
0.658204 0.540469 0.306527
0.671143 0.551340 0.309519
0.684081 0.562211 0.312510
0.697020 0.573081 0.315502
0.709958 0.583952 0.318493
0.722896 0.594823 0.321485
0.735835 0.605693 0.324476
0.748773 0.616564 0.327467
0.761712 0.627435 0.330459
0.360620 0.290442 0.237724
0.373559 0.301313 0.240716
0.386497 0.312183 0.243707
0.399436 0.323054 0.246699
0.412374 0.333925 0.249690
0.425312 0.344796 0.252682
0.438251 0.355666 0.255673
0.451189 0.366537 0.258664
0.464128 0.377408 0.261656
0.477066 0.388279 0.264647
0.490005 0.399149 0.267639
0.502943 0.410020 0.270630
0.515881 0.420891 0.273622
0.528820 0.431762 0.276613
0.541758 0.442632 0.279604
0.554697 0.453503 0.282596
0.567635 0.464374 0.285587
0.580574 0.475245 0.288579
0.593512 0.486115 0.291570
0.606450 0.496986 0.294562
0.619389 0.507857 0.297553
0.632327 0.518728 0.300544
0.645266 0.529598 0.303536
0.658204 0.540469 0.306527
0.671143 0.551340 0.309519
0.684081 0.562211 0.312510
0.697020 0.573081 0.315502
0.709958 0.583952 0.318493
0.722896 0.594823 0.321485
0.735835 0.605693 0.324476
0.748773 0.616564 0.327467
0.761712 0.627435 0.330459
0.774650 0.638306 0.333450
0.373559 0.301313 0.240716
0.386497 0.312183 0.243707
0.399436 0.323054 0.246699
0.412374 0.333925 0.249690
0.425312 0.344796 0.252682
0.438251 0.355666 0.255673
0.451189 0.366537 0.258664
0.464128 0.377408 0.261656
0.477066 0.388279 0.264647
0.490005 0.399149 0.267639
0.502943 0.410020 0.270630
0.515881 0.420891 0.273622
0.528820 0.431762 0.276613
0.541758 0.442632 0.279604
0.554697 0.453503 0.282596
0.567635 0.464374 0.285587
0.580574 0.475245 0.288579
0.593512 0.486115 0.291570
0.606450 0.496986 0.294562
0.619389 0.507857 0.297553
0.632327 0.518727 0.300544
0.645266 0.529598 0.303536
0.658204 0.540469 0.306527
0.671143 0.551340 0.309519
0.684081 0.562211 0.312510
0.697020 0.573081 0.315502
0.709958 0.583952 0.318493
