lrplugin/MindfulLensFilmEngine.lrplugin/profiles/luts/delta_3200_cc.cube
# Generated from ColorChecker fit
LUT_3D_SIZE 9
DOMAIN_MIN 0.0 0.0 0.0
DOMAIN_MAX 1.0 1.0 1.0
0.037159 0.018673 0.162939
0.088913 0.062156 0.174904
0.140667 0.105639 0.186870
0.192421 0.149122 0.198836
0.244174 0.192605 0.210801
0.295928 0.236088 0.222767
0.347682 0.279571 0.234733
0.399436 0.323054 0.246699
0.451189 0.366537 0.258664
0.088913 0.062156 0.174904
0.140667 0.105639 0.186870
0.192421 0.149122 0.198836
0.244174 0.192605 0.210801
0.295928 0.236088 0.222767
0.347682 0.279571 0.234733
0.399436 0.323054 0.246699
0.451189 0.366537 0.258664
0.502943 0.410020 0.270630
0.140667 0.105639 0.186870
0.192421 0.149122 0.198836
0.244174 0.192605 0.210801
0.295928 0.236088 0.222767
0.347682 0.279571 0.234733
0.399436 0.323054 0.246699
0.451189 0.366537 0.258664
0.502943 0.410020 0.270630
0.554697 0.453503 0.282596
0.192421 0.149122 0.198836
0.244174 0.192605 0.210801
0.295928 0.236088 0.222767
0.347682 0.279571 0.234733
0.399436 0.323054 0.246699
0.451189 0.366537 0.258664
0.502943 0.410020 0.270630
0.554697 0.453503 0.282596
0.606450 0.496986 0.294562
0.244174 0.192605 0.210801
0.295928 0.236088 0.222767
0.347682 0.279571 0.234733
0.399436 0.323054 0.246699
0.451189 0.366537 0.258664
0.502943 0.410020 0.270630
0.554697 0.453503 0.282596
0.606450 0.496986 0.294562
0.658204 0.540469 0.306527
0.295928 0.236088 0.222767
0.347682 0.279571 0.234733
0.399436 0.323054 0.246699
0.451189 0.366537 0.258664
0.502943 0.410020 0.270630
0.554697 0.453503 0.282596
0.606450 0.496986 0.294562
0.658204 0.540469 0.306527
0.709958 0.583952 0.318493
0.347682 0.279571 0.234733
0.399436 0.323054 0.246699
0.451189 0.366537 0.258664
0.502943 0.410020 0.270630
0.554697 0.453503 0.282596
0.606450 0.496986 0.294562
0.658204 0.540469 0.306527
0.709958 0.583952 0.318493
0.761712 0.627435 0.330459
0.399436 0.323054 0.246699
0.451189 0.366537 0.258664
0.502943 0.410020 0.270630
0.554697 0.453503 0.282596
0.606450 0.496986 0.294562
0.658204 0.540469 0.306527
0.709958 0.583952 0.318493
0.761712 0.627435 0.330459
0.813465 0.670918 0.342425
0.451189 0.366537 0.258664
0.502943 0.410020 0.270630
0.554697 0.453503 0.282596
0.606450 0.496986 0.294562
0.658204 0.540469 0.306527
0.709958 0.583952 0.318493
0.761712 0.627435 0.330459
0.813465 0.670918 0.342425
0.865219 0.714401 0.354390
0.088913 0.062156 0.174904
0.140667 0.105639 0.186870
0.192421 0.149122 0.198836
0.244174 0.192605 0.210801
0.295928 0.236088 0.222767
0.347682 0.279571 0.234733
0.399436 0.323054 0.246699
0.451189 0.366537 0.258664
0.502943 0.410020 0.270630
0.140667 0.105639 0.186870
0.192421 0.149122 0.198836
0.244174 0.192605 0.210801
0.295928 0.236088 0.222767
0.347682 0.279571 0.234733
0.399436 0.323054 0.246699
0.451189 0.366537 0.258664
0.502943 0.410020 0.270630
0.554697 0.453503 0.282596
0.192421 0.149122 0.198836
0.244174 0.192605 0.210801
0.295928 0.236088 0.222767
0.347682 0.279571 0.234733
0.399436 0.323054 0.246699
0.451189 0.366537 0.258664
0.502943 0.410020 0.270630
0.554697 0.453503 0.282596
0.606450 0.496986 0.294562
0.244174 0.192605 0.210801
0.295928 0.236088 0.222767
0.347682 0.279571 0.234733
0.399436 0.323054 0.246699
0.451189 0.366537 0.258664
0.502943 0.410020 0.270630
0.554697 0.453503 0.282596
0.606450 0.496986 0.294562
0.658204 0.540469 0.306527
0.295928 0.236088 0.222767
0.347682 0.279571 0.234733
0.399436 0.323054 0.246699
0.451189 0.366537 0.258664
0.502943 0.410020 0.270630
0.554697 0.453503 0.282596
0.606450 0.496986 0.294562
0.658204 0.540469 0.306527
0.709958 0.583952 0.318493
0.347682 0.279571 0.234733
0.399436 0.323054 0.246699
0.451189 0.366537 0.258664
0.502943 0.410020 0.270630
0.554697 0.453503 0.282596
0.606450 0.496986 0.294562
0.658204 0.540469 0.306527
0.709958 0.583952 0.318493
0.761712 0.627435 0.330459
0.399436 0.323054 0.246699
0.451189 0.366537 0.258664
0.502943 0.410020 0.270630
0.554697 0.453503 0.282596
0.606450 0.496986 0.294562
0.658204 0.540469 0.306527
0.709958 0.583952 0.318493
0.761712 0.627435 0.330459
0.813465 0.670918 0.342425
0.451189 0.366537 0.258664
0.502943 0.410020 0.270630
0.554697 0.453503 0.282596
0.606450 0.496986 0.294562
0.658204 0.540469 0.306527
0.709958 0.583952 0.318493
0.761712 0.627435 0.330459
0.813465 0.670918 0.342425
0.865219 0.714401 0.354390
0.502943 0.410020 0.270630
0.554697 0.453503 0.282596
0.606450 0.496986 0.294562
0.658204 0.540469 0.306527
0.709958 0.583952 0.318493
0.761712 0.627435 0.330459
0.813465 0.670918 0.342425
0.865219 0.714401 0.354390
0.916973 0.757884 0.366356
0.140667 0.105639 0.186870
0.192421 0.149122 0.198836
0.244174 0.192605 0.210801
0.295928 0.236088 0.222767
0.347682 0.279571 0.234733
0.399436 0.323054 0.246699
0.451189 0.366537 0.258664
0.502943 0.410020 0.270630
0.554697 0.453503 0.282596
0.192421 0.149122 0.198836
0.244174 0.192605 0.210801
0.295928 0.236088 0.222767
0.347682 0.279571 0.234733
0.399436 0.323054 0.246699
0.451189 0.366537 0.258664
0.502943 0.410020 0.270630
0.554697 0.453503 0.282596
0.606450 0.496986 0.294562
0.244174 0.192605 0.210801
0.295928 0.236088 0.222767
0.347682 0.279571 0.234733
0.399436 0.323054 0.246699
0.451189 0.366537 0.258664
0.502943 0.410020 0.270630
0.554697 0.453503 0.282596
0.606450 0.496986 0.294562
0.658204 0.540469 0.306527
0.295928 0.236088 0.222767
0.347682 0.279571 0.234733
0.399436 0.323054 0.246699
0.451189 0.366537 0.258664
0.502943 0.410020 0.270630
0.554697 0.453503 0.282596
0.606450 0.496986 0.294562
0.658204 0.540469 0.306527
0.709958 0.583952 0.318493
0.347682 0.279571 0.234733
0.399436 0.323054 0.246699
0.451189 0.366537 0.258664
0.502943 0.410020 0.270630
0.554697 0.453503 0.282596
0.606450 0.496986 0.294562
0.658204 0.540469 0.306527
0.709958 0.583952 0.318493
0.761712 0.627435 0.330459
0.399436 0.323054 0.246699
0.451189 0.366537 0.258664
0.502943 0.410020 0.270630
0.554697 0.453503 0.282596
0.606450 0.496986 0.294562
0.658204 0.540469 0.306527
0.709958 0.583952 0.318493
0.761712 0.627435 0.330459
0.813465 0.670918 0.342425
0.451189 0.366537 0.258664
0.502943 0.410020 0.270630
0.554697 0.453503 0.282596
0.606450 0.496986 0.294562
0.658204 0.540469 0.306527
0.709958 0.583952 0.318493
0.761712 0.627435 0.330459
0.813465 0.670918 0.342425
0.865219 0.714401 0.354390
0.502943 0.410020 0.270630
0.554697 0.453503 0.282596
0.606450 0.496986 0.294562
0.658204 0.540469 0.306527
0.709958 0.583952 0.318493
0.761712 0.627435 0.330459
0.813465 0.670918 0.342425
0.865219 0.714401 0.354390
0.916973 0.757884 0.366356
0.554697 0.453503 0.282596
0.606450 0.496986 0.294562
0.658204 0.540469 0.306527
0.709958 0.583952 0.318493
0.761712 0.627435 0.330459
0.813465 0.670918 0.342425
0.865219 0.714401 0.354390
0.916973 0.757884 0.366356
0.968727 0.801367 0.378322
0.192421 0.149122 0.198836
0.244174 0.192605 0.210801
0.295928 0.236088 0.222767
0.347682 0.279571 0.234733
0.399436 0.323054 0.246699
0.451189 0.366537 0.258664
0.502943 0.410020 0.270630
0.554697 0.453503 0.282596
0.606450 0.496986 0.294562
0.244174 0.192605 0.210801
0.295928 0.236088 0.222767
0.347682 0.279571 0.234733
0.399436 0.323054 0.246699
0.451189 0.366537 0.258664
0.502943 0.410020 0.270630
0.554697 0.453503 0.282596
0.606450 0.496986 0.294562
0.658204 0.540469 0.306527
0.295928 0.236088 0.222767
0.347682 0.279571 0.234733
0.399436 0.323054 0.246699
0.451189 0.366537 0.258664
0.502943 0.410020 0.270630
0.554697 0.453503 0.282596
0.606450 0.496986 0.294562
0.658204 0.540469 0.306527
0.709958 0.583952 0.318493
0.347682 0.279571 0.234733
0.399436 0.323054 0.246699
0.451189 0.366537 0.258664
0.502943 0.410020 0.270630
0.554697 0.453503 0.282596
0.606450 0.496986 0.294562
0.658204 0.540469 0.306527
0.709958 0.583952 0.318493
0.761712 0.627435 0.330459
0.399436 0.323054 0.246699
0.451189 0.366537 0.258664
0.502943 0.410020 0.270630
0.554697 0.453503 0.282596
0.606450 0.496986 0.294562
0.658204 0.540469 0.306527
0.709958 0.583952 0.318493
0.761712 0.627435 0.330459
0.813465 0.670918 0.342425
0.451189 0.366537 0.258664
0.502943 0.410020 0.270630
0.554697 0.453503 0.282596
0.606450 0.496986 0.294562
0.658204 0.540469 0.306527
0.709958 0.583952 0.318493
0.761712 0.627435 0.330459
0.813465 0.670918 0.342425
0.865219 0.714401 0.354390
0.502943 0.410020 0.270630
0.554697 0.453503 0.282596
0.606450 0.496986 0.294562
0.658204 0.540469 0.306527
0.709958 0.583952 0.318493
0.761712 0.627435 0.330459
0.813465 0.670918 0.342425
0.865219 0.714401 0.354390
0.916973 0.757884 0.366356
0.554697 0.453503 0.282596
0.606450 0.496986 0.294562
0.658204 0.540469 0.306527
0.709958 0.583952 0.318493
0.761712 0.627435 0.330459
0.813465 0.670918 0.342425
0.865219 0.714401 0.354390
0.916973 0.757884 0.366356
0.968727 0.801367 0.378322
0.606450 0.496986 0.294562
0.658204 0.540469 0.306527
0.709958 0.583952 0.318493
0.761712 0.627435 0.330459
0.813465 0.670918 0.342425
0.865219 0.714401 0.354390
0.916973 0.757884 0.366356
0.968727 0.801367 0.378322
1.000000 0.844850 0.390287
0.244174 0.192605 0.210801
0.295928 0.236088 0.222767
0.347682 0.279571 0.234733
0.399436 0.323054 0.246699
0.451189 0.366537 0.258664
0.502943 0.410020 0.270630
0.554697 0.453503 0.282596
0.606450 0.496986 0.294562
0.658204 0.540469 0.306527
0.295928 0.236088 0.222767
0.347682 0.279571 0.234733
0.399436 0.323054 0.246699
0.451189 0.366537 0.258664
0.502943 0.410020 0.270630
0.554697 0.453503 0.282596
0.606450 0.496986 0.294562
0.658204 0.540469 0.306527
0.709958 0.583952 0.318493
0.347682 0.279571 0.234733
0.399436 0.323054 0.246699
0.451189 0.366537 0.258664
0.502943 0.410020 0.270630
0.554697 0.453503 0.282596
0.606450 0.496986 0.294562
0.658204 0.540469 0.306527
0.709958 0.583952 0.318493
0.761712 0.627435 0.330459
0.399436 0.323054 0.246699
0.451189 0.366537 0.258664
0.502943 0.410020 0.270630
0.554697 0.453503 0.282596
0.606450 0.496986 0.294562
0.658204 0.540469 0.306527
0.709958 0.583952 0.318493
0.761712 0.627435 0.330459
0.813465 0.670918 0.342425
0.451189 0.366537 0.258664
0.502943 0.410020 0.270630
0.554697 0.453503 0.282596
0.606450 0.496986 0.294562
0.658204 0.540469 0.306527
0.709958 0.583952 0.318493
0.761712 0.627435 0.330459
0.813465 0.670918 0.342425
0.865219 0.714401 0.354390
0.502943 0.410020 0.270630
0.554697 0.453503 0.282596
0.606450 0.496986 0.294562
0.658204 0.540469 0.306527
0.709958 0.583952 0.318493
0.761712 0.627435 0.330459
0.813465 0.670918 0.342425
0.865219 0.714401 0.354390
0.916973 0.757884 0.366356
0.554697 0.453503 0.282596
0.606450 0.496986 0.294562
0.658204 0.540469 0.306527
0.709958 0.583952 0.318493
0.761712 0.627435 0.330459
0.813465 0.670918 0.342425
0.865219 0.714401 0.354390
0.916973 0.757884 0.366356
0.968727 0.801367 0.378322
0.606450 0.496986 0.294562
0.658204 0.540469 0.306527
0.709958 0.583952 0.318493
0.761712 0.627435 0.330459
0.813465 0.670918 0.342425
0.865219 0.714401 0.354390
0.916973 0.757884 0.366356
0.968727 0.801367 0.378322
1.000000 0.844850 0.390287
0.658204 0.540469 0.306527
0.709958 0.583952 0.318493
0.761712 0.627435 0.330459
0.813465 0.670918 0.342425
0.865219 0.714401 0.354390
0.916973 0.757884 0.366356
0.968727 0.801367 0.378322
1.000000 0.844850 0.390287
1.000000 0.888333 0.402253
0.295928 0.236088 0.222767
0.347682 0.279571 0.234733
0.399436 0.323054 0.246699
0.451189 0.366537 0.258664
0.502943 0.410020 0.270630
0.554697 0.453503 0.282596
0.606450 0.496986 0.294562
0.658204 0.540469 0.306527
0.709958 0.583952 0.318493
0.347682 0.279571 0.234733
0.399436 0.323054 0.246699
0.451189 0.366537 0.258664
0.502943 0.410020 0.270630
0.554697 0.453503 0.282596
0.606450 0.496986 0.294562
0.658204 0.540469 0.306527
0.709958 0.583952 0.318493
0.761712 0.627435 0.330459
0.399436 0.323054 0.246699
0.451189 0.366537 0.258664
0.502943 0.410020 0.270630
0.554697 0.453503 0.282596
0.606450 0.496986 0.294562
0.658204 0.540469 0.306527
0.709958 0.583952 0.318493
0.761712 0.627435 0.330459
0.813465 0.670918 0.342425
0.451189 0.366537 0.258664
0.502943 0.410020 0.270630
0.554697 0.453503 0.282596
0.606450 0.496986 0.294562
0.658204 0.540469 0.306527
0.709958 0.583952 0.318493
0.761712 0.627435 0.330459
0.813465 0.670918 0.342425
0.865219 0.714401 0.354390
0.502943 0.410020 0.270630
0.554697 0.453503 0.282596
0.606450 0.496986 0.294562
0.658204 0.540469 0.306527
0.709958 0.583952 0.318493
0.761712 0.627435 0.330459
0.813465 0.670918 0.342425
0.865219 0.714401 0.354390
0.916973 0.757884 0.366356
0.554697 0.453503 0.282596
0.606450 0.496986 0.294562
0.658204 0.540469 0.306527
0.709958 0.583952 0.318493
0.761712 0.627435 0.330459
0.813465 0.670918 0.342425
0.865219 0.714401 0.354390
0.916973 0.757884 0.366356
0.968727 0.801367 0.378322
0.606450 0.496986 0.294562
0.658204 0.540469 0.306527
0.709958 0.583952 0.318493
0.761712 0.627435 0.330459
0.813465 0.670918 0.342425
0.865219 0.714401 0.354390
0.916973 0.757884 0.366356
0.968727 0.801367 0.378322
1.000000 0.844850 0.390287
0.658204 0.540469 0.306527
0.709958 0.583952 0.318493
0.761712 0.627435 0.330459
0.813465 0.670918 0.342425
0.865219 0.714401 0.354390
0.916973 0.757884 0.366356
0.968727 0.801367 0.378322
1.000000 0.844850 0.390287
1.000000 0.888333 0.402253
0.709958 0.583952 0.318493
0.761712 0.627435 0.330459
0.813465 0.670918 0.342425
0.865219 0.714401 0.354390
0.916973 0.757884 0.366356
0.968727 0.801367 0.378322
1.000000 0.844850 0.390287
1.000000 0.888333 0.402253
1.000000 0.931816 0.414219
0.347682 0.279571 0.234733
0.399436 0.323054 0.246699
0.451189 0.366537 0.258664
0.502943 0.410020 0.270630
0.554697 0.453503 0.282596
0.606450 0.496986 0.294562
0.658204 0.540469 0.306527
0.709958 0.583952 0.318493
0.761712 0.627435 0.330459
0.399436 0.323054 0.246699
0.451189 0.366537 0.258664
0.502943 0.410020 0.270630
0.554697 0.453503 0.282596
0.606450 0.496986 0.294562
0.658204 0.540469 0.306527
0.709958 0.583952 0.318493
0.761712 0.627435 0.330459
0.813465 0.670918 0.342425
0.451189 0.366537 0.258664
0.502943 0.410020 0.270630
0.554697 0.453503 0.282596
0.606450 0.496986 0.294562
0.658204 0.540469 0.306527
0.709958 0.583952 0.318493
0.761712 0.627435 0.330459
0.813465 0.670918 0.342425
0.865219 0.714401 0.354390
0.502943 0.410020 0.270630
0.554697 0.453503 0.282596
0.606450 0.496986 0.294562
0.658204 0.540469 0.306527
0.709958 0.583952 0.318493
0.761712 0.627435 0.330459
0.813465 0.670918 0.342425
0.865219 0.714401 0.354390
0.916973 0.757884 0.366356
0.554697 0.453503 0.282596
0.606450 0.496986 0.294562
0.658204 0.540469 0.306527
0.709958 0.583952 0.318493
0.761712 0.627435 0.330459
0.813465 0.670918 0.342425
0.865219 0.714401 0.354390
0.916973 0.757884 0.366356
0.968727 0.801367 0.378322
0.606450 0.496986 0.294562
0.658204 0.540469 0.306527
0.709958 0.583952 0.318493
0.761712 0.627435 0.330459
0.813465 0.670918 0.342425
0.865219 0.714401 0.354390
0.916973 0.757884 0.366356
0.968727 0.801367 0.378322
1.000000 0.844850 0.390287
0.658204 0.540469 0.306527
0.709958 0.583952 0.318493
0.761712 0.627435 0.330459
0.813465 0.670918 0.342425
0.865219 0.714401 0.354390
0.916973 0.757884 0.366356
0.968727 0.801367 0.378322
1.000000 0.844850 0.390287
1.000000 0.888333 0.402253
0.709958 0.583952 0.318493
0.761712 0.627435 0.330459
0.813465 0.670918 0.342425
0.865219 0.714401 0.354390
0.916973 0.757884 0.366356
0.968727 0.801367 0.378322
1.000000 0.844850 0.390287
1.000000 0.888333 0.402253
1.000000 0.931816 0.414219
0.761712 0.627435 0.330459
0.813465 0.670918 0.342425
0.865219 0.714401 0.354390
0.916973 0.757884 0.366356
0.968727 0.801367 0.378322
1.000000 0.844850 0.390287
1.000000 0.888333 0.402253
1.000000 0.931816 0.414219
1.000000 0.975299 0.426185
0.399436 0.323054 0.246699
0.451189 0.366537 0.258664
0.502943 0.410020 0.270630
0.554697 0.453503 0.282596
0.606450 0.496986 0.294562
0.658204 0.540469 0.306527
0.709958 0.583952 0.318493
0.761712 0.627435 0.330459
0.813465 0.670918 0.342425
0.451189 0.366537 0.258664
0.502943 0.410020 0.270630
0.554697 0.453503 0.282596
0.606450 0.496986 0.294562
0.658204 0.540469 0.306527
0.709958 0.583952 0.318493
0.761712 0.627435 0.330459
0.813465 0.670918 0.342425
0.865219 0.714401 0.354390
0.502943 0.410020 0.270630
0.554697 0.453503 0.282596
0.606450 0.496986 0.294562
0.658204 0.540469 0.306527
0.709958 0.583952 0.318493
0.761712 0.627435 0.330459
0.813465 0.670918 0.342425
0.865219 0.714401 0.354390
0.916973 0.757884 0.366356
0.554697 0.453503 0.282596
0.606450 0.496986 0.294562
0.658204 0.540469 0.306527
0.709958 0.583952 0.318493
0.761712 0.627435 0.330459
0.813465 0.670918 0.342425
0.865219 0.714401 0.354390
0.916973 0.757884 0.366356
0.968727 0.801367 0.378322
0.606450 0.496986 0.294562
0.658204 0.540469 0.306527
0.709958 0.583952 0.318493
0.761712 0.627435 0.330459
0.813465 0.670918 0.342425
0.865219 0.714401 0.354390
0.916973 0.757884 0.366356
0.968727 0.801367 0.378322
1.000000 0.844850 0.390287
0.658204 0.540469 0.306527
0.709958 0.583952 0.318493
0.761712 0.627435 0.330459
0.813465 0.670918 0.342425
0.865219 0.714401 0.354390
0.916973 0.757884 0.366356
0.968727 0.801367 0.378322
1.000000 0.844850 0.390287
1.000000 0.888333 0.402253
0.709958 0.583952 0.318493
0.761712 0.627435 0.330459
0.813465 0.670918 0.342425
0.865219 0.714401 0.354390
0.916973 0.757884 0.366356
0.968727 0.801367 0.378322
1.000000 0.844850 0.390287
1.000000 0.888333 0.402253
1.000000 0.931816 0.414219
0.761712 0.627435 0.330459
0.813465 0.670918 0.342425
0.865219 0.714401 0.354390
0.916973 0.757884 0.366356
0.968727 0.801367 0.378322
1.000000 0.844850 0.390287
1.000000 0.888333 0.402253
1.000000 0.931816 0.414219
1.000000 0.975299 0.426185
0.813465 0.670918 0.342425
0.865219 0.714401 0.354390
0.916973 0.757884 0.366356
0.968727 0.801367 0.378322
1.000000 0.844850 0.390287
1.000000 0.888333 0.402253
1.000000 0.931816 0.414219
1.000000 0.975299 0.426185
1.000000 1.000000 0.438150
0.451189 0.366537 0.258664
0.502943 0.410020 0.270630
0.554697 0.453503 0.282596
0.606450 0.496986 0.294562
0.658204 0.540469 0.306527
0.709958 0.583952 0.318493
0.761712 0.627435 0.330459
0.813465 0.670918 0.342425
0.865219 0.714401 0.354390
0.502943 0.410020 0.270630
0.554697 0.453503 0.282596
0.606450 0.496986 0.294562
0.658204 0.540469 0.306527
0.709958 0.583952 0.318493
0.761712 0.627435 0.330459
0.813465 0.670918 0.342425
0.865219 0.714401 0.354390
0.916973 0.757884 0.366356
0.554697 0.453503 0.282596
0.606450 0.496986 0.294562
0.658204 0.540469 0.306527
0.709958 0.583952 0.318493
0.761712 0.627435 0.330459
0.813465 0.670918 0.342425
0.865219 0.714401 0.354390
0.916973 0.757884 0.366356
0.968727 0.801367 0.378322
0.606450 0.496986 0.294562
0.658204 0.540469 0.306527
0.709958 0.583952 0.318493
0.761712 0.627435 0.330459
0.813465 0.670918 0.342425
0.865219 0.714401 0.354390
0.916973 0.757884 0.366356
0.968727 0.801367 0.378322
1.000000 0.844850 0.390287
0.658204 0.540469 0.306527
0.709958 0.583952 0.318493
0.761712 0.627435 0.330459
0.813465 0.670918 0.342425
0.865219 0.714401 0.354390
0.916973 0.757884 0.366356
0.968727 0.801367 0.378322
1.000000 0.844850 0.390287
1.000000 0.888333 0.402253
0.709958 0.583952 0.318493
0.761712 0.627435 0.330459
0.813465 0.670918 0.342425
0.865219 0.714401 0.354390
0.916973 0.757884 0.366356
0.968727 0.801367 0.378322
1.000000 0.844850 0.390287
1.000000 0.888333 0.402253
1.000000 0.931816 0.414219
0.761712 0.627435 0.330459
0.813465 0.670918 0.342425
0.865219 0.714401 0.354390
0.916973 0.757884 0.366356
0.968727 0.801367 0.378322
1.000000 0.844850 0.390287
1.000000 0.888333 0.402253
1.000000 0.931816 0.414219
1.000000 0.975299 0.426185
0.813465 0.670918 0.342425
0.865219 0.714401 0.354390
0.916973 0.757884 0.366356
0.968727 0.801367 0.378322
1.000000 0.844850 0.390287
1.000000 0.888333 0.402253
1.000000 0.931816 0.414219
1.000000 0.975299 0.426185
1.000000 1.000000 0.438150
0.865219 0.714401 0.354390
0.916973 0.757884 0.366356
0.968727 0.801367 0.378322
1.000000 0.844850 0.390287
1.000000 0.888333 0.402253
1.000000 0.931816 0.414219
1.000000 0.975299 0.426185
1.000000 1.000000 0.438150
1.000000 1.000000 0.450116
