lrplugin/MindfulLensFilmEngine.lrplugin/profiles/luts/delta_3200_cc.cube
# Generated from ColorChecker fit
LUT_3D_SIZE 5
DOMAIN_MIN 0.0 0.0 0.0
DOMAIN_MAX 1.0 1.0 1.0
0.037159 0.018673 0.162939
0.140667 0.105639 0.186870
0.244174 0.192605 0.210801
0.347682 0.279571 0.234733
0.451189 0.366537 0.258664
0.140667 0.105639 0.186870
0.244174 0.192605 0.210801
0.347682 0.279571 0.234733
0.451189 0.366537 0.258664
0.554697 0.453503 0.282596
0.244174 0.192605 0.210801
0.347682 0.279571 0.234733
0.451189 0.366537 0.258664
0.554697 0.453503 0.282596
0.658204 0.540469 0.306527
0.347682 0.279571 0.234733
0.451189 0.366537 0.258664
0.554697 0.453503 0.282596
0.658204 0.540469 0.306527
0.761712 0.627435 0.330459
0.451189 0.366537 0.258664
0.554697 0.453503 0.282596
0.658204 0.540469 0.306527
0.761712 0.627435 0.330459
0.865219 0.714401 0.354390
0.140667 0.105639 0.186870
0.244174 0.192605 0.210801
0.347682 0.279571 0.234733
0.451189 0.366537 0.258664
0.554697 0.453503 0.282596
0.244174 0.192605 0.210801
0.347682 0.279571 0.234733
0.451189 0.366537 0.258664
0.554697 0.453503 0.282596
0.658204 0.540469 0.306527
0.347682 0.279571 0.234733
0.451189 0.366537 0.258664
0.554697 0.453503 0.282596
0.658204 0.540469 0.306527
0.761712 0.627435 0.330459
0.451189 0.366537 0.258664
0.554697 0.453503 0.282596
0.658204 0.540469 0.306527
0.761712 0.627435 0.330459
0.865219 0.714401 0.354390
0.554697 0.453503 0.282596
0.658204 0.540469 0.306527
0.761712 0.627435 0.330459
0.865219 0.714401 0.354390
0.968727 0.801367 0.378322
0.244174 0.192605 0.210801
0.347682 0.279571 0.234733
0.451189 0.366537 0.258664
0.554697 0.453503 0.282596
0.658204 0.540469 0.306527
0.347682 0.279571 0.234733
0.451189 0.366537 0.258664
0.554697 0.453503 0.282596
0.658204 0.540469 0.306527
0.761712 0.627435 0.330459
0.451189 0.366537 0.258664
0.554697 0.453503 0.282596
0.658204 0.540469 0.306527
0.761712 0.627435 0.330459
0.865219 0.714401 0.354390
0.554697 0.453503 0.282596
0.658204 0.540469 0.306527
0.761712 0.627435 0.330459
0.865219 0.714401 0.354390
0.968727 0.801367 0.378322
0.658204 0.540469 0.306527
0.761712 0.627435 0.330459
0.865219 0.714401 0.354390
0.968727 0.801367 0.378322
1.000000 0.888333 0.402253
0.347682 0.279571 0.234733
0.451189 0.366537 0.258664
0.554697 0.453503 0.282596
0.658204 0.540469 0.306527
0.761712 0.627435 0.330459
0.451189 0.366537 0.258664
0.554697 0.453503 0.282596
0.658204 0.540469 0.306527
0.761712 0.627435 0.330459
0.865219 0.714401 0.354390
0.554697 0.453503 0.282596
0.658204 0.540469 0.306527
0.761712 0.627435 0.330459
0.865219 0.714401 0.354390
0.968727 0.801367 0.378322
0.658204 0.540469 0.306527
0.761712 0.627435 0.330459
0.865219 0.714401 0.354390
0.968727 0.801367 0.378322
1.000000 0.888333 0.402253
0.761712 0.627435 0.330459
0.865219 0.714401 0.354390
0.968727 0.801367 0.378322
1.000000 0.888333 0.402253
1.000000 0.975299 0.426185
0.451189 0.366537 0.258664
0.554697 0.453503 0.282596
0.658204 0.540469 0.306527
0.761712 0.627435 0.330459
0.865219 0.714401 0.354390
0.554697 0.453503 0.282596
0.658204 0.540469 0.306527
0.761712 0.627435 0.330459
0.865219 0.714401 0.354390
0.968727 0.801367 0.378322
0.658204 0.540469 0.306527
0.761712 0.627435 0.330459
0.865219 0.714401 0.354390
0.968727 0.801367 0.378322
1.000000 0.888333 0.402253
0.761712 0.627435 0.330459
0.865219 0.714401 0.354390
0.968727 0.801367 0.378322
1.000000 0.888333 0.402253
1.000000 0.975299 0.426185
0.865219 0.714401 0.354390
0.968727 0.801367 0.378322
1.000000 0.888333 0.402253
1.000000 0.975299 0.426185
1.000000 1.000000 0.450116
