lrplugin/MindfulLensFilmEngine.lrplugin/profiles/luts/eastman_cn_ii_100.cube
# Generated from ColorChecker fit
LUT_3D_SIZE 5
DOMAIN_MIN 0.0 0.0 0.0
DOMAIN_MAX 1.0 1.0 1.0
0.544482 0.286653 0.361175
0.000000 0.000000 0.000000
0.000000 0.000000 0.000000
0.000000 0.000000 0.000000
0.000000 0.000000 0.000000
0.761915 0.489082 1.000000
0.455627 0.420736 0.881419
0.094681 0.356686 0.626959
0.000000 0.335122 0.352526
0.000000 0.730704 0.000000
0.500313 0.542850 1.000000
0.779792 0.951153 1.000000
0.890363 1.000000 1.000000
0.531819 1.000000 0.586656
0.000000 1.000000 0.000000
0.000000 0.000000 0.322686
0.561521 0.627515 1.000000
0.912164 1.000000 1.000000
0.460866 0.925203 0.712843
0.000000 0.569959 0.000000
0.000000 0.000000 0.125890
0.081712 0.000000 1.000000
0.530519 0.000000 1.000000
0.000000 0.000000 1.000000
0.000000 0.000000 0.000000
0.210730 0.176855 0.000000
0.000000 0.000000 0.000000
0.000000 0.000000 0.000000
0.000000 0.000000 0.130072
0.000000 0.000000 1.000000
0.448032 0.413446 0.447830
0.251553 0.276745 0.286766
0.256688 0.216800 0.423821
0.087779 0.207473 0.752567
0.000000 0.559096 1.000000
0.231816 0.503446 0.138455
0.358207 0.653807 0.417196
0.479536 0.721388 0.636232
0.262495 0.640005 0.576263
0.000000 0.679938 0.000000
0.000000 0.000000 0.000000
0.306678 0.541888 0.511449
0.428215 0.638471 1.000000
0.000000 0.131094 0.735309
0.000000 0.000000 0.000000
0.000000 0.000000 0.000000
0.621138 0.000000 1.000000
0.716432 0.000000 1.000000
0.000000 0.000000 1.000000
0.000000 0.000000 0.901170
0.421093 0.222276 0.000000
0.256477 0.151170 0.000000
0.739116 0.303652 0.251792
1.000000 0.629305 1.000000
1.000000 1.000000 1.000000
0.670129 0.508132 0.409009
0.429141 0.268438 0.339436
0.797235 0.308378 0.690918
1.000000 0.537489 1.000000
1.000000 1.000000 1.000000
0.441348 0.621680 0.000000
0.294861 0.491454 0.211765
0.458349 0.441497 0.529194
0.565405 0.341296 0.723305
0.539470 0.396806 0.551443
0.128414 0.290400 0.000000
0.336831 0.562776 0.345656
0.295189 0.460647 0.916252
0.000000 0.000000 0.776442
0.000000 0.000000 0.000000
0.409240 0.000000 0.246017
1.000000 0.000000 1.000000
1.000000 0.000000 1.000000
0.000000 0.000000 1.000000
0.000000 0.000000 1.000000
0.694524 0.184464 0.229077
0.888533 0.541218 0.218673
1.000000 1.000000 1.000000
1.000000 1.000000 1.000000
1.000000 1.000000 1.000000
1.000000 0.584761 0.672997
0.860930 0.471076 0.622104
1.000000 0.970324 1.000000
1.000000 1.000000 1.000000
1.000000 1.000000 1.000000
0.858735 0.759250 0.211096
0.567725 0.589430 0.383508
1.000000 0.793348 0.663288
1.000000 1.000000 0.942286
1.000000 1.000000 1.000000
0.749881 0.662162 0.000000
0.735391 0.865592 0.668000
0.844643 0.948154 1.000000
0.720485 0.674958 0.940328
0.295609 0.147581 0.000000
1.000000 0.000000 1.000000
1.000000 0.750449 1.000000
1.000000 0.900709 1.000000
1.000000 0.000000 1.000000
0.000000 0.000000 1.000000
0.106682 0.000000 0.000000
0.966768 0.903354 0.000000
1.000000 1.000000 0.592101
1.000000 1.000000 1.000000
1.000000 1.000000 1.000000
0.776528 0.268081 0.102306
0.976162 0.773047 0.068405
1.000000 1.000000 0.601967
1.000000 1.000000 1.000000
1.000000 1.000000 1.000000
0.770512 0.590977 0.019599
0.711482 0.886197 0.055642
1.000000 1.000000 0.232858
1.000000 1.000000 0.498669
1.000000 1.000000 0.721565
0.968845 0.787763 0.195161
1.000000 1.000000 0.791283
1.000000 1.000000 1.000000
1.000000 1.000000 0.682015
1.000000 1.000000 0.000000
1.000000 0.521000 1.000000
1.000000 1.000000 1.000000
1.000000 1.000000 1.000000
1.000000 1.000000 1.000000
1.000000 1.000000 1.000000
