lrplugin/MindfulLensFilmEngine.lrplugin/profiles/luts/eastman_cn_ii_100.cube
# Generated from ColorChecker fit
LUT_3D_SIZE 33
DOMAIN_MIN 0.0 0.0 0.0
DOMAIN_MAX 1.0 1.0 1.0
0.544482 0.286653 0.361175
0.416203 0.220818 0.240508
0.293384 0.155742 0.125593
0.174531 0.090714 0.016538
0.058219 0.025107 0.000000
0.000000 0.000000 0.000000
0.000000 0.000000 0.000000
0.000000 0.000000 0.000000
0.000000 0.000000 0.000000
0.000000 0.000000 0.000000
0.000000 0.000000 0.000000
0.000000 0.000000 0.000000
0.000000 0.000000 0.000000
0.000000 0.000000 0.000000
0.000000 0.000000 0.000000
0.000000 0.000000 0.000000
0.000000 0.000000 0.000000
0.000000 0.000000 0.000000
0.000000 0.000000 0.000000
0.000000 0.000000 0.000000
0.000000 0.000000 0.000000
0.000000 0.000000 0.000000
0.000000 0.000000 0.000000
0.000000 0.000000 0.000000
0.000000 0.000000 0.000000
0.000000 0.000000 0.000000
0.000000 0.000000 0.000000
0.000000 0.000000 0.000000
0.000000 0.000000 0.000000
0.000000 0.000000 0.000000
0.000000 0.000000 0.000000
0.000000 0.000000 0.000000
0.000000 0.000000 0.000000
0.587701 0.308007 0.529313
0.468703 0.247697 0.415885
0.355603 0.188697 0.308011
0.246916 0.130287 0.205770
0.141228 0.071831 0.109221
0.037196 0.012773 0.018405
0.000000 0.000000 0.000000
0.000000 0.000000 0.000000
0.000000 0.000000 0.000000
0.000000 0.000000 0.000000
0.000000 0.000000 0.000000
0.000000 0.000000 0.000000
0.000000 0.000000 0.000000
0.000000 0.000000 0.000000
0.000000 0.000000 0.000000
0.000000 0.000000 0.000000
0.000000 0.000000 0.000000
0.000000 0.000000 0.000000
0.000000 0.000000 0.000000
0.000000 0.000000 0.000000
0.000000 0.000000 0.000000
0.000000 0.000000 0.000000
0.000000 0.000000 0.000000
0.000000 0.000000 0.000000
0.000000 0.000000 0.000000
0.000000 0.000000 0.000000
0.000000 0.000000 0.000000
0.000000 0.000000 0.000000
0.000000 0.000000 0.000000
0.000000 0.000000 0.000000
0.000000 0.000000 0.000000
0.000000 0.000000 0.000000
0.000000 0.000000 0.000000
0.627983 0.330984 0.684128
0.518220 0.276401 0.577921
0.414728 0.223619 0.477046
0.316032 0.171906 0.381555
0.220730 0.120617 0.291479
0.127488 0.069186 0.206832
0.035044 0.017130 0.127607
0.000000 0.000000 0.053778
0.000000 0.000000 0.000000
0.000000 0.000000 0.000000
0.000000 0.000000 0.000000
0.000000 0.000000 0.000000
0.000000 0.000000 0.000000
0.000000 0.000000 0.000000
0.000000 0.000000 0.000000
0.000000 0.000000 0.000000
0.000000 0.000000 0.000000
0.000000 0.000000 0.000000
0.000000 0.000000 0.000000
0.000000 0.000000 0.000000
0.000000 0.000000 0.000000
0.000000 0.000000 0.000000
0.000000 0.000000 0.000000
0.000000 0.000000 0.000000
0.000000 0.000000 0.000000
0.000000 0.000000 0.000000
0.000000 0.000000 0.000000
0.000000 0.000000 0.000000
0.000000 0.000000 0.000000
0.000000 0.000000 0.000000
0.000000 0.000000 0.000000
0.000000 0.000000 0.000000
0.000000 0.000000 0.000000
0.664419 0.355495 0.824385
0.563866 0.306847 0.725422
0.469892 0.260427 0.631547
0.381035 0.215493 0.542783
0.295901 0.171391 0.459136
0.213169 0.127544 0.380590
0.131586 0.083460 0.307111
0.049972 0.038730 0.238646
0.000000 0.000000 0.175123
0.000000 0.000000 0.116449
0.000000 0.000000 0.062513
0.000000 0.000000 0.013185
0.000000 0.000000 0.000000
0.000000 0.000000 0.000000
0.000000 0.000000 0.000000
0.000000 0.000000 0.000000
0.000000 0.000000 0.000000
0.000000 0.000000 0.000000
0.000000 0.000000 0.000000
0.000000 0.000000 0.000000
0.000000 0.000000 0.000000
0.000000 0.000000 0.000000
0.000000 0.000000 0.000000
0.000000 0.000000 0.000000
0.000000 0.000000 0.000000
0.000000 0.000000 0.000000
0.000000 0.000000 0.000000
0.000000 0.000000 0.000000
0.000000 0.000000 0.000000
0.000000 0.000000 0.000000
0.000000 0.000000 0.000000
0.000000 0.000000 0.000000
0.000000 0.000000 0.000000
0.696169 0.381324 0.949046
0.604821 0.338822 0.857392
0.520298 0.298912 0.770559
0.441149 0.260844 0.688543
0.365989 0.223951 0.611320
0.293508 0.187650 0.538849
0.222464 0.151438 0.471068
0.151686 0.114894 0.407896
0.080076 0.077681 0.349233
0.006603 0.039542 0.294959
0.000000 0.000304 0.244935
0.000000 0.000000 0.199004
0.000000 0.000000 0.156988
0.000000 0.000000 0.118691
0.000000 0.000000 0.083897
0.000000 0.000000 0.052371
0.000000 0.000000 0.023858
0.000000 0.000000 0.000000
0.000000 0.000000 0.000000
0.000000 0.000000 0.000000
0.000000 0.000000 0.000000
0.000000 0.000000 0.000000
0.000000 0.000000 0.000000
0.000000 0.000000 0.000000
0.000000 0.000000 0.000000
0.000000 0.000000 0.000000
0.000000 0.000000 0.000000
0.000000 0.000000 0.000000
0.000000 0.000000 0.000000
0.000000 0.000000 0.000000
0.000000 0.000000 0.000000
0.000000 0.000000 0.000000
0.000000 0.000000 0.000000
0.722461 0.408129 1.000000
0.640336 0.371988 0.973034
0.565219 0.338740 0.893327
0.495668 0.307626 0.818120
0.430310 0.277972 0.747361
0.367843 0.249181 0.680981
0.307037 0.220743 0.618890
0.246732 0.192226 0.560981
0.185838 0.163283 0.507125
0.123337 0.133649 0.457175
0.058280 0.103140 0.410965
0.000000 0.071654 0.368310
0.000000 0.039172 0.329004
0.000000 0.005757 0.292824
0.000000 0.000000 0.259526
0.000000 0.000000 0.228847
0.000000 0.000000 0.200506
0.000000 0.000000 0.174202
0.000000 0.000000 0.149613
0.000000 0.000000 0.126401
0.000000 0.000000 0.104206
0.000000 0.000000 0.082650
0.000000 0.000000 0.061336
0.000000 0.000000 0.039846
0.000000 0.000000 0.017745
0.000000 0.000000 0.000000
0.000000 0.000000 0.000000
0.000000 0.000000 0.000000
0.000000 0.000000 0.000000
0.000000 0.000000 0.000000
0.000000 0.000000 0.000000
0.000000 0.000000 0.000000
0.000000 0.000000 0.000000
0.742593 0.435442 1.000000
0.669731 0.405878 1.000000
0.603997 0.379448 0.999293
0.543957 0.355383 0.930998
0.488249 0.332997 0.866783
0.435582 0.311686 0.806552
0.384736 0.290927 0.750186
0.334561 0.270282 0.697552
0.283977 0.249392 0.648492
0.231978 0.227982 0.602833
0.177624 0.205858 0.560380
0.120051 0.182910 0.520921
0.058461 0.159108 0.484224
0.000000 0.134505 0.450035
0.000000 0.109236 0.418086
0.000000 0.083520 0.388084
0.000000 0.057655 0.359722
0.000000 0.032023 0.332669
0.000000 0.007088 0.306579
0.000000 0.000000 0.281084
0.000000 0.000000 0.255797
0.000000 0.000000 0.230312
0.000000 0.000000 0.204205
0.000000 0.000000 0.177031
0.000000 0.000000 0.148327
0.000000 0.000000 0.117609
0.000000 0.000000 0.084375
0.000000 0.000000 0.048104
0.000000 0.000000 0.008255
0.000000 0.000000 0.000000
0.000000 0.043176 0.000000
0.000000 0.106882 0.000000
0.000000 0.186404 0.000000
0.755932 0.462667 1.000000
0.692396 0.439903 1.000000
0.636042 0.420450 1.000000
0.585448 0.403531 1.000000
0.539261 0.388448 0.969312
0.496202 0.374588 0.915328
0.455059 0.361420 0.864765
0.414693 0.348493 0.817459
0.374037 0.335440 0.773227
0.332091 0.321977 0.731867
0.287929 0.307900 0.693157
0.240694 0.293087 0.656857
0.189602 0.277501 0.622707
0.133937 0.261183 0.590427
0.073055 0.244261 0.559720
0.006383 0.226941 0.530267
0.000000 0.209513 0.501731
0.000000 0.192350 0.473756
0.000000 0.175904 0.445967
0.000000 0.160712 0.417968
0.000000 0.147393 0.389346
0.000000 0.136647 0.359667
0.000000 0.129257 0.328479
0.000000 0.126087 0.295309
0.000000 0.128084 0.259667
0.000000 0.136277 0.221042
0.000000 0.151778 0.178903
0.000000 0.175780 0.132703
0.000000 0.209558 0.081873
0.000000 0.254470 0.025826
0.000000 0.311955 0.000000
0.000000 0.383536 0.000000
0.000000 0.470817 0.000000
0.761915 0.489082 1.000000
0.707789 0.473343 1.000000
0.660836 0.461031 1.000000
0.619644 0.451357 1.000000
0.582871 0.443616 1.000000
0.549248 0.437184 1.000000
0.517573 0.431519 0.962632
0.486719 0.426162 0.920751
0.455627 0.420736 0.881419
0.423309 0.414946 0.844408
0.388849 0.408579 0.809468
0.351401 0.401505 0.776332
0.310190 0.393673 0.744711
0.264510 0.385119 0.714299
0.213729 0.375957 0.684769
0.157283 0.366386 0.655778
0.094681 0.356686 0.626959
0.025501 0.347218 0.597929
0.000000 0.338427 0.568285
0.000000 0.330839 0.537605
0.000000 0.325063 0.505447
0.000000 0.321789 0.471350
0.000000 0.321791 0.434833
0.000000 0.325923 0.395398
0.000000 0.335122 0.352526
0.000000 0.350408 0.305678
0.000000 0.372882 0.254297
0.000000 0.403728 0.197807
0.000000 0.444210 0.135611
0.000000 0.495678 0.067096
0.000000 0.559562 0.000000
0.000000 0.637372 0.000000
0.000000 0.730704 0.000000
0.760050 0.513838 1.000000
0.715439 0.505354 1.000000
0.677928 0.500349 1.000000
0.646116 0.498026 1.000000
0.618672 0.497668 1.000000
0.594336 0.498643 1.000000
0.571917 0.500399 1.000000
0.550298 0.502467 1.000000
0.528430 0.504461 0.973357
0.505336 0.506075 0.940786
0.480111 0.507086 0.909686
0.451918 0.507354 0.879759
0.419992 0.506821 0.850691
0.383639 0.505511 0.822147
0.342236 0.503528 0.793774
0.295231 0.501062 0.765198
0.242141 0.498383 0.736029
0.182556 0.495842 0.705853
0.116135 0.493875 0.674242
0.042608 0.492997 0.640744
0.000000 0.493808 0.604890
0.000000 0.496989 0.566192
0.000000 0.503303 0.524143
0.000000 0.513594 0.478215
0.000000 0.528790 0.427861
0.000000 0.549901 0.372517
0.000000 0.578018 0.311597
0.000000 0.614316 0.244498
0.000000 0.660049 0.170595
0.000000 0.716556 0.089247
0.000000 0.785258 0.000000
0.000000 0.867656 0.000000
0.000000 0.965335 0.000000
0.749911 0.535961 1.000000
0.714942 0.534964 1.000000
0.686938 0.537437 1.000000
0.664507 0.542572 1.000000
0.646328 0.549644 1.000000
0.631151 0.558009 1.000000
0.617797 0.567107 1.000000
0.605158 0.576459 1.000000
0.592196 0.585668 1.000000
0.577945 0.594419 1.000000
0.561508 0.602481 0.994380
0.542060 0.609701 0.967751
0.518846 0.616014 0.941301
0.491183 0.621431 0.914668
0.458458 0.626050 0.887470
0.420129 0.630049 0.859308
0.375724 0.633688 0.829762
0.324841 0.637310 0.798392
0.267153 0.641339 0.764741
0.202398 0.646282 0.728330
0.130390 0.652728 0.688664
0.051009 0.661349 0.645226
0.000000 0.672898 0.597480
0.000000 0.688209 0.544873
0.000000 0.708201 0.486830
0.000000 0.733873 0.422758
0.000000 0.766308 0.352045
0.000000 0.806668 0.274059
0.000000 0.856201 0.188150
0.000000 0.916235 0.093646
0.000000 0.988179 0.000000
0.000000 1.000000 0.000000
0.000000 1.000000 0.000000
0.731143 0.554350 1.000000
0.705967 0.561076 1.000000
0.687555 0.571200 1.000000
0.674526 0.583906 1.000000
0.665570 0.598456 1.000000
0.659447 0.614199 1.000000
0.654989 0.630564 1.000000
0.651097 0.647062 1.000000
0.646745 0.663286 1.000000
0.640975 0.678913 1.000000
0.632903 0.693699 1.000000
0.621713 0.707485 1.000000
0.606660 0.720193 1.000000
0.587073 0.731827 0.992754
0.562347 0.742473 0.966794
0.531951 0.752301 0.939084
0.495424 0.761559 0.909177
0.452375 0.770582 0.876606
0.402485 0.779784 0.840885
0.345505 0.789662 0.801510
0.281257 0.800795 0.757956
0.209634 0.813845 0.709679
0.130599 0.829556 0.656116
0.044186 0.848752 0.596686
0.000000 0.872342 0.530787
0.000000 0.901315 0.457798
0.000000 0.936745 0.377079
0.000000 0.979784 0.287971
0.000000 1.000000 0.189796
0.000000 1.000000 0.081856
0.000000 1.000000 0.000000
0.000000 1.000000 0.000000
0.000000 1.000000 0.000000
0.703461 0.567775 1.000000
0.688249 0.582465 1.000000
0.679536 0.600419 1.000000
0.675954 0.620809 1.000000
0.676201 0.642892 1.000000
0.679049 0.666003 1.000000
0.683339 0.689563 1.000000
0.687984 0.713073 1.000000
0.691966 0.736116 1.000000
0.694340 0.758359 1.000000
0.694230 0.779550 1.000000
0.690832 0.799518 1.000000
0.683411 0.818176 1.000000
0.671305 0.835518 1.000000
0.653922 0.851621 1.000000
0.630738 0.866644 1.000000
0.601305 0.880826 0.975492
0.565242 0.894493 0.941755
0.522239 0.908048 0.903977
0.472059 0.921978 0.861626
0.414533 0.936854 0.814150
0.349564 0.953326 0.760978
0.277126 0.972129 0.701519
0.197265 0.994079 0.635164
0.110094 1.000000 0.561284
0.015800 1.000000 0.479230
0.000000 1.000000 0.388335
0.000000 1.000000 0.287912
0.000000 1.000000 0.177255
0.000000 1.000000 0.055639
0.000000 1.000000 0.000000
0.000000 1.000000 0.000000
0.000000 1.000000 0.000000
0.666650 0.574882 1.000000
0.661593 0.597780 1.000000
0.662710 0.623744 1.000000
0.668639 0.651940 1.000000
0.678092 0.681611 1.000000
0.689849 0.712085 1.000000
0.702762 0.742772 1.000000
0.715754 0.773163 1.000000
0.727819 0.802833 1.000000
0.738020 0.831438 1.000000
0.745492 0.858715 1.000000
0.749442 0.884485 1.000000
0.749145 0.908651 1.000000
0.743950 0.931197 1.000000
0.733273 0.952190 1.000000
0.716604 0.971779 1.000000
0.693502 0.990194 1.000000
0.663598 1.000000 0.995295
0.626593 1.000000 0.955514
0.582258 1.000000 0.910219
0.530437 1.000000 0.858830
0.471041 1.000000 0.800748
0.404057 1.000000 0.735356
0.329538 1.000000 0.662016
0.247610 1.000000 0.580071
0.158470 1.000000 0.488847
0.062384 1.000000 0.387647
0.000000 1.000000 0.275757
0.000000 1.000000 0.152444
0.000000 1.000000 0.016955
0.000000 1.000000 0.000000
0.000000 1.000000 0.000000
0.000000 1.000000 0.000000
0.620561 0.574190 1.000000
0.625876 0.605543 1.000000
0.636973 0.639704 1.000000
0.652502 0.675826 1.000000
0.671184 0.713146 1.000000
0.691810 0.750981 1.000000
0.713243 0.788731 1.000000
0.734415 0.825878 1.000000
0.754331 0.861985 1.000000
0.772064 0.896700 1.000000
0.786760 0.929750 1.000000
0.797636 0.960946 1.000000
0.803978 0.990181 1.000000
0.805143 1.000000 1.000000
0.800560 1.000000 1.000000
0.789728 1.000000 1.000000
0.772218 1.000000 1.000000
0.747669 1.000000 1.000000
0.715793 1.000000 0.997195
0.676372 1.000000 0.949028
0.629259 1.000000 0.893776
0.574379 1.000000 0.830813
0.511724 1.000000 0.759492
0.441361 1.000000 0.679148
0.363426 1.000000 0.589099
0.278125 1.000000 0.488639
0.185736 1.000000 0.377048
0.086607 1.000000 0.253582
0.000000 1.000000 0.117481
0.000000 1.000000 0.000000
0.000000 1.000000 0.000000
0.000000 1.000000 0.000000
0.000000 1.000000 0.000000
0.565118 0.564091 1.000000
0.581042 0.604150 1.000000
0.602292 0.646696 1.000000
0.627530 0.690872 1.000000
0.655487 0.735906 1.000000
0.684965 0.781103 1.000000
0.714835 0.825855 1.000000
0.744042 0.869634 1.000000
0.771599 0.911993 1.000000
0.796592 0.952570 1.000000
0.818176 0.991084 1.000000
0.835577 1.000000 1.000000
0.848093 1.000000 1.000000
0.855092 1.000000 1.000000
0.856012 1.000000 1.000000
0.850362 1.000000 1.000000
0.837724 1.000000 1.000000
0.817747 1.000000 1.000000
0.790155 1.000000 1.000000
0.754738 1.000000 0.979991
0.711361 1.000000 0.920969
0.659957 1.000000 0.853192
0.600532 1.000000 0.775989
0.533161 1.000000 0.688666
0.457990 1.000000 0.590512
0.375237 1.000000 0.480796
0.285188 1.000000 0.358768
0.188204 1.000000 0.223658
0.084713 1.000000 0.074678
0.000000 1.000000 0.000000
0.000000 1.000000 0.000000
0.000000 1.000000 0.000000
0.000000 1.000000 0.000000
0.500313 0.542850 1.000000
0.527104 0.591870 1.000000
0.558703 0.642994 1.000000
0.593781 0.695355 1.000000
0.631081 0.748169 1.000000
0.669413 0.800734 1.000000
0.707662 0.852431 1.000000
0.744780 0.902723 1.000000
0.779792 0.951153 1.000000
0.811793 0.997348 1.000000
0.839950 1.000000 1.000000
0.863499 1.000000 1.000000
0.881747 1.000000 1.000000
0.894073 1.000000 1.000000
0.899926 1.000000 1.000000
0.898826 1.000000 1.000000
0.890363 1.000000 1.000000
0.874198 1.000000 1.000000
0.850064 1.000000 1.000000
0.817764 1.000000 1.000000
0.777171 1.000000 0.942583
0.728229 1.000000 0.870106
0.670954 1.000000 0.787108
0.605432 1.000000 0.692872
0.531819 1.000000 0.586656
0.450342 1.000000 0.467704
0.361301 1.000000 0.335236
0.265063 1.000000 0.188457
0.162069 1.000000 0.026549
0.052829 1.000000 0.000000
0.000000 1.000000 0.000000
0.000000 1.000000 0.000000
0.000000 1.000000 0.000000
0.426208 0.508607 1.000000
0.464146 0.566847 1.000000
0.506310 0.626744 1.000000
0.551382 0.687423 1.000000
0.598114 0.748089 1.000000
0.645327 0.808032 1.000000
0.691915 0.866621 1.000000
0.736843 0.923310 1.000000
0.779144 0.977632 1.000000
0.817925 1.000000 1.000000
0.852362 1.000000 1.000000
0.881702 1.000000 1.000000
0.905262 1.000000 1.000000
0.922432 1.000000 1.000000
0.932670 1.000000 1.000000
0.935508 1.000000 1.000000
0.930545 1.000000 1.000000
0.917454 1.000000 1.000000
0.895977 1.000000 1.000000
0.865926 1.000000 1.000000
0.827187 1.000000 0.960996
0.779714 1.000000 0.883970
0.723532 1.000000 0.795309
0.658737 1.000000 0.694266
0.585497 1.000000 0.580074
0.504050 1.000000 0.451947
0.414703 1.000000 0.309079
0.317837 1.000000 0.150646
0.213900 1.000000 0.000000
0.103415 1.000000 0.000000
0.000000 1.000000 0.000000
0.000000 1.000000 0.000000
0.000000 1.000000 0.000000
0.342933 0.459374 0.946935
0.392320 0.527095 0.987935
0.445289 0.595966 1.000000
0.500529 0.665100 1.000000
0.556804 0.733694 1.000000
0.612946 0.801027 1.000000
0.667858 0.866459 1.000000
0.720515 0.929433 1.000000
0.769962 0.989474 1.000000
0.815316 1.000000 1.000000
0.855762 1.000000 1.000000
0.890558 1.000000 1.000000
0.919032 1.000000 1.000000
0.940583 1.000000 1.000000
0.954682 1.000000 1.000000
0.960868 1.000000 1.000000
0.958752 1.000000 1.000000
0.948017 1.000000 1.000000
0.928416 1.000000 1.000000
0.899772 1.000000 1.000000
0.861979 1.000000 0.978779
0.815002 1.000000 0.897400
0.758877 1.000000 0.803249
0.693712 1.000000 0.695549
0.619682 1.000000 0.573506
0.537037 1.000000 0.436308
0.446095 1.000000 0.283121
0.347245 1.000000 0.113093
0.240949 1.000000 0.000000
0.127737 1.000000 0.000000
0.008212 1.000000 0.000000
0.000000 1.000000 0.000000
0.000000 1.000000 0.000000
0.250688 0.393036 0.847798
0.311850 0.470505 0.902116
0.375883 0.548553 0.954505
0.441489 0.626284 1.000000
0.507440 0.702885 1.000000
0.572580 0.777624 1.000000
0.635821 0.849852 1.000000
0.696150 0.919003 1.000000
0.752622 0.984592 1.000000
0.804362 1.000000 1.000000
0.850568 1.000000 1.000000
0.890507 1.000000 1.000000
0.923519 1.000000 1.000000
0.949012 1.000000 1.000000
0.966466 1.000000 1.000000
0.975433 1.000000 1.000000
0.975533 1.000000 1.000000
0.966460 1.000000 1.000000
0.947976 1.000000 1.000000
0.919915 1.000000 1.000000
0.882182 1.000000 0.998704
0.834752 1.000000 0.913210
0.777672 1.000000 0.813781
0.711058 1.000000 0.699616
0.635098 1.000000 0.569892
0.550050 1.000000 0.423768
0.456244 1.000000 0.260385
0.354080 1.000000 0.078861
0.244028 1.000000 0.000000
0.126631 1.000000 0.000000
0.002499 1.000000 0.000000
0.000000 1.000000 0.000000
0.000000 1.000000 0.000000
0.149743 0.307353 0.743397
0.223026 0.394840 0.811768
0.298406 0.482272 0.877578
0.374596 0.568745 0.940381
0.450378 0.653434 0.999715
0.524607 0.735600 1.000000
0.596206 0.814583 1.000000
0.664171 0.889807 1.000000
0.727567 0.960776 1.000000
0.785530 1.000000 1.000000
0.837269 1.000000 1.000000
0.882061 1.000000 1.000000
0.919256 1.000000 1.000000
0.948272 1.000000 1.000000
0.968600 1.000000 1.000000
0.979802 1.000000 1.000000
0.981509 1.000000 1.000000
0.973424 1.000000 1.000000
0.955320 1.000000 1.000000
0.927042 1.000000 1.000000
0.888505 1.000000 1.000000
0.839694 1.000000 0.934410
0.780666 1.000000 0.829960
0.711548 1.000000 0.709563
0.632538 1.000000 0.572368
0.543906 1.000000 0.417507
0.445990 1.000000 0.244091
0.339200 1.000000 0.051214
0.224019 1.000000 0.000000
0.100998 1.000000 0.000000
0.000000 1.000000 0.000000
0.000000 1.000000 0.000000
0.000000 1.000000 0.000000
0.040438 0.199958 0.636058
0.126209 0.297736 0.719261
0.213240 0.394763 0.799247
0.300255 0.490126 0.875543
0.386046 0.582991 0.947658
0.469477 0.672607 1.000000
0.549483 0.758306 1.000000
0.625069 0.839501 1.000000
0.695311 0.915688 1.000000
0.759356 0.986446 1.000000
0.816423 1.000000 1.000000
0.865798 1.000000 1.000000
0.906843 1.000000 1.000000
0.938985 1.000000 1.000000
0.961728 1.000000 1.000000
0.974640 1.000000 1.000000
0.977366 1.000000 1.000000
0.969618 1.000000 1.000000
0.951180 1.000000 1.000000
0.921907 1.000000 1.000000
0.881723 1.000000 1.000000
0.830625 1.000000 0.964209
0.768679 1.000000 0.855037
0.696024 1.000000 0.728683
0.612868 1.000000 0.584269
0.519489 1.000000 0.420899
0.416238 1.000000 0.237658
0.303536 1.000000 0.033612
0.181873 1.000000 0.000000
0.051812 1.000000 0.000000
0.000000 1.000000 0.000000
0.000000 1.000000 0.000000
0.000000 1.000000 0.000000
0.000000 0.068357 0.528311
0.021829 0.176702 0.627165
0.120838 0.283540 0.722123
0.218940 0.387945 0.812686
0.314938 0.489075 0.898335
0.407706 0.586169 0.978530
0.496190 0.678549 1.000000
0.579405 0.765619 1.000000
0.656438 0.846864 1.000000
0.726445 0.921853 1.000000
0.788656 0.990236 1.000000
0.842368 1.000000 1.000000
0.886951 1.000000 1.000000
0.921846 1.000000 1.000000
0.946564 1.000000 1.000000
0.960686 1.000000 1.000000
0.963865 1.000000 1.000000
0.955825 1.000000 1.000000
0.936359 1.000000 1.000000
0.905333 1.000000 1.000000
0.862682 1.000000 1.000000
0.808412 1.000000 1.000000
0.742601 1.000000 0.892461
0.665397 1.000000 0.760466
0.577019 1.000000 0.609128
0.477755 1.000000 0.437522
0.367967 1.000000 0.244704
0.248085 1.000000 0.029714
0.118610 1.000000 0.000000
0.000000 1.000000 0.000000
0.000000 1.000000 0.000000
0.000000 1.000000 0.000000
0.000000 1.000000 0.000000
0.000000 0.000000 0.422879
0.000000 0.029123 0.538246
0.021722 0.145988 0.649016
0.131195 0.259592 0.754661
0.237620 0.369080 0.854636
0.339883 0.473684 0.948374
0.436938 0.572714 1.000000
0.527812 0.665565 1.000000
0.611600 0.751712 1.000000
0.687472 0.830715 1.000000
0.754665 0.902214 1.000000
0.812488 0.965930 1.000000
0.860321 1.000000 1.000000
0.897616 1.000000 1.000000
0.923892 1.000000 1.000000
0.938743 1.000000 1.000000
0.941832 1.000000 1.000000
0.932892 1.000000 1.000000
0.911727 1.000000 1.000000
0.878213 1.000000 1.000000
0.832297 1.000000 1.000000
0.773993 1.000000 1.000000
0.703391 1.000000 0.945878
0.620649 1.000000 0.808603
0.525994 1.000000 0.650676
0.419729 1.000000 0.471146
0.302222 1.000000 0.269043
0.173915 1.000000 0.043376
0.035321 0.987649 0.000000
0.000000 0.957496 0.000000
0.000000 0.929899 0.000000
0.000000 0.906221 0.000000
0.000000 0.887911 0.000000
0.000000 0.000000 0.322686
0.000000 0.000000 0.455470
0.000000 0.000000 0.582932
0.037632 0.102331 0.704518
0.154728 0.220275 0.819654
0.266663 0.332423 0.927746
0.372405 0.438076 1.000000
0.470988 0.536618 1.000000
0.561521 0.627515 1.000000
0.643180 0.710318 1.000000
0.715216 0.784655 1.000000
0.776946 0.850239 1.000000
0.827763 0.906866 1.000000
0.867126 0.954413 1.000000
0.894567 0.992839 1.000000
0.909689 1.000000 1.000000
0.912164 1.000000 1.000000
0.901739 1.000000 1.000000
0.878226 1.000000 1.000000
0.841511 1.000000 1.000000
0.791552 1.000000 1.000000
0.728374 1.000000 1.000000
0.652077 0.994103 1.000000
0.562827 0.962158 0.876980
0.460866 0.925203 0.712843
0.346503 0.884099 0.525745
0.220118 0.839793 0.314688
0.082165 0.793311 0.078654
0.000000 0.745762 0.000000
0.000000 0.698337 0.000000
0.000000 0.652311 0.000000
0.000000 0.609039 0.000000
0.000000 0.569959 0.000000
0.000000 0.000000 0.230854
0.000000 0.000000 0.381999
0.000000 0.000000 0.527076
0.000000 0.000000 0.665502
0.066964 0.039801 0.796676
0.188773 0.159531 0.919976
0.303338 0.271783 1.000000
0.409704 0.375930 1.000000
0.506990 0.471430 1.000000
0.594383 0.557820 1.000000
0.671144 0.634722 1.000000
0.736600 0.701839 1.000000
0.790154 0.758957 1.000000
0.831276 0.805941 1.000000
0.859509 0.842743 1.000000
0.874465 0.869392 1.000000
0.875829 0.886004 1.000000
0.863353 0.892774 1.000000
0.836865 0.889980 1.000000
0.796258 0.877982 1.000000
0.741501 0.857222 1.000000
0.672631 0.828226 1.000000
0.589755 0.791599 1.000000
0.493053 0.748031 0.969682
0.382775 0.698292 0.799755
0.259241 0.643235 0.605486
0.122842 0.583795 0.385849
0.000000 0.520991 0.139800
0.000000 0.455921 0.000000
0.000000 0.389766 0.000000
0.000000 0.323792 0.000000
0.000000 0.259343 0.000000
0.000000 0.197848 0.000000
0.000000 0.000000 0.150701
0.000000 0.000000 0.321195
0.000000 0.000000 0.484851
0.000000 0.000000 0.641059
0.000000 0.000000 0.789190
0.107008 0.000000 0.928595
0.230554 0.070858 1.000000
0.344799 0.180528 1.000000
0.448869 0.280484 1.000000
0.541964 0.370255 1.000000
0.623353 0.449454 1.000000
0.692376 0.517771 1.000000
0.748444 0.574984 1.000000
0.791039 0.620950 1.000000
0.819712 0.655608 1.000000
0.834088 0.678980 1.000000
0.833861 0.691170 1.000000
0.818794 0.692364 1.000000
0.788724 0.682830 1.000000
0.743556 0.662920 1.000000
0.683268 0.633064 1.000000
0.607908 0.593779 1.000000
0.517594 0.545661 1.000000
0.412515 0.489389 1.000000
0.292932 0.425723 0.915737
0.159175 0.355508 0.714736
0.011647 0.279669 0.486937
