lrplugin/MindfulLensFilmEngine.lrplugin/profiles/luts/eastman_cn_ii_100.cube
# Generated from ColorChecker fit
LUT_3D_SIZE 9
DOMAIN_MIN 0.0 0.0 0.0
DOMAIN_MAX 1.0 1.0 1.0
0.544482 0.286653 0.361175
0.058219 0.025107 0.000000
0.000000 0.000000 0.000000
0.000000 0.000000 0.000000
0.000000 0.000000 0.000000
0.000000 0.000000 0.000000
0.000000 0.000000 0.000000
0.000000 0.000000 0.000000
0.000000 0.000000 0.000000
0.696169 0.381324 0.949046
0.365989 0.223951 0.611320
0.080076 0.077681 0.349233
0.000000 0.000000 0.156988
0.000000 0.000000 0.023858
0.000000 0.000000 0.000000
0.000000 0.000000 0.000000
0.000000 0.000000 0.000000
0.000000 0.000000 0.000000
0.761915 0.489082 1.000000
0.582871 0.443616 1.000000
0.455627 0.420736 0.881419
0.310190 0.393673 0.744711
0.094681 0.356686 0.626959
0.000000 0.325063 0.505447
0.000000 0.335122 0.352526
0.000000 0.444210 0.135611
0.000000 0.730704 0.000000
0.703461 0.567775 1.000000
0.676201 0.642892 1.000000
0.691966 0.736116 1.000000
0.683411 0.818176 1.000000
0.601305 0.880826 0.975492
0.414533 0.936854 0.814150
0.110094 1.000000 0.561284
0.000000 1.000000 0.177255
0.000000 1.000000 0.000000
0.500313 0.542850 1.000000
0.631081 0.748169 1.000000
0.779792 0.951153 1.000000
0.881747 1.000000 1.000000
0.890363 1.000000 1.000000
0.777171 1.000000 0.942583
0.531819 1.000000 0.586656
0.162069 1.000000 0.026549
0.000000 1.000000 0.000000
0.149743 0.307353 0.743397
0.450378 0.653434 0.999715
0.727567 0.960776 1.000000
0.919256 1.000000 1.000000
0.981509 1.000000 1.000000
0.888505 1.000000 1.000000
0.632538 1.000000 0.572368
0.224019 1.000000 0.000000
0.000000 1.000000 0.000000
0.000000 0.000000 0.322686
0.154728 0.220275 0.819654
0.561521 0.627515 1.000000
0.827763 0.906866 1.000000
0.912164 1.000000 1.000000
0.791552 1.000000 1.000000
0.460866 0.925203 0.712843
0.000000 0.745762 0.000000
0.000000 0.569959 0.000000
0.000000 0.000000 0.039702
0.000000 0.000000 0.835632
0.325649 0.000000 1.000000
0.656860 0.086395 1.000000
0.737517 0.174314 1.000000
0.547095 0.048026 1.000000
0.083180 0.000000 1.000000
0.000000 0.000000 0.218377
0.000000 0.000000 0.000000
0.000000 0.000000 0.125890
0.000000 0.000000 1.000000
0.081712 0.000000 1.000000
0.473903 0.000000 1.000000
0.530519 0.000000 1.000000
0.233682 0.000000 1.000000
0.000000 0.000000 1.000000
0.000000 0.000000 1.000000
0.000000 0.000000 0.000000
0.296842 0.204748 0.000000
0.000000 0.011735 0.000000
0.000000 0.000000 0.000000
0.000000 0.000000 0.000000
0.000000 0.000000 0.000000
0.000000 0.000000 0.000000
0.000000 0.000000 0.000000
0.000000 0.000000 0.000000
0.000000 0.000000 0.236149
0.462529 0.315103 0.486187
0.204389 0.182146 0.221364
0.025669 0.071782 0.050679
0.000000 0.000000 0.000000
0.000000 0.000000 0.000000
0.000000 0.000000 0.055570
0.000000 0.000000 0.188887
0.000000 0.000000 0.355400
0.000000 0.000000 0.528120
0.531817 0.425500 0.758786
0.382935 0.368847 0.597285
0.315232 0.343784 0.502447
0.256644 0.319519 0.464898
0.153226 0.286291 0.470326
0.000000 0.255368 0.499488
0.000000 0.259048 0.528208
0.000000 0.350657 0.527376
0.000000 0.604551 0.462950
0.481650 0.507958 0.762968
0.449892 0.544803 0.723602
0.484761 0.606268 0.717578
0.516841 0.659061 0.728463
0.494835 0.690917 0.734894
0.385557 0.710601 0.710573
0.173939 0.747907 0.624269
0.000000 0.853660 0.439816
0.000000 1.000000 0.116119
0.306741 0.502099 0.539078
0.405566 0.650574 0.651391
0.540159 0.800739 0.757873
0.643752 0.916797 0.835040
0.667693 0.983982 0.854473
0.581444 1.000000 0.782818
0.372585 1.000000 0.581790
0.046809 1.000000 0.208171
0.000000 1.000000 0.000000
0.019566 0.315138 0.178161
0.268030 0.594321 0.482424
0.505096 0.836300 0.735837
0.666641 1.000000 0.907862
0.706660 1.000000 0.963023
0.597265 1.000000 0.860913
0.328679 0.981616 0.556194
0.000000 0.883663 0.000000
0.000000 0.834148 0.000000
0.000000 0.000000 0.000000
0.073123 0.251803 0.369175
0.421004 0.589650 0.814673
0.632537 0.794633 1.000000
0.664363 0.846979 1.000000
0.491239 0.747942 1.000000
0.106039 0.519808 0.753601
0.000000 0.205892 0.027926
0.000000 0.000000 0.000000
0.000000 0.000000 0.000000
0.000000 0.000000 0.514819
0.347084 0.000000 1.000000
0.606236 0.137618 1.000000
0.611192 0.141681 1.000000
0.339356 0.000000 1.000000
0.000000 0.000000 1.000000
0.000000 0.000000 0.563729
0.000000 0.000000 0.000000
0.000000 0.000000 0.000000
0.000000 0.000000 1.000000
0.360302 0.000000 1.000000
0.670300 0.000000 1.000000
0.635305 0.000000 1.000000
0.235367 0.000000 1.000000
0.000000 0.000000 1.000000
0.000000 0.000000 1.000000
0.000000 0.000000 0.347866
0.210730 0.176855 0.000000
0.000000 0.025993 0.000000
0.000000 0.000000 0.000000
0.000000 0.000000 0.000000
0.000000 0.000000 0.000000
0.000000 0.000000 0.000000
0.000000 0.000000 0.130072
0.000000 0.000000 0.666195
0.000000 0.000000 1.000000
0.384366 0.302520 0.241489
0.156584 0.168346 0.030046
0.052827 0.076409 0.000000
0.000000 0.000000 0.000000
0.000000 0.000000 0.058793
0.000000 0.000000 0.276793
0.000000 0.000000 0.580367
0.000000 0.000000 0.950931
0.000000 0.074553 1.000000
0.448032 0.413446 0.447830
0.289789 0.320724 0.326465
0.251553 0.276745 0.286766
0.259191 0.246697 0.322830
0.256688 0.216800 0.423821
0.206146 0.194299 0.573967
0.087779 0.207473 0.752567
0.000000 0.305627 0.933984
0.000000 0.559096 1.000000
0.393877 0.495824 0.396138
0.320254 0.470262 0.387081
0.346310 0.483986 0.424941
0.400560 0.499680 0.496760
0.429636 0.501062 0.584647
0.398286 0.492874 0.665777
0.289371 0.500891 0.712394
0.103871 0.571916 0.691804
0.000000 0.773780 0.566385
0.231816 0.503446 0.138455
0.263491 0.571694 0.274665
0.358207 0.653807 0.417196
0.447130 0.709967 0.546033
0.479536 0.721388 0.636232
0.422821 0.690310 0.657913
0.262495 0.640005 0.576263
0.002182 0.614771 0.351538
0.000000 0.679938 0.000000
0.000000 0.357701 0.000000
0.152775 0.547352 0.102690
0.326117 0.709483 0.387732
0.443367 0.801776 0.605580
0.456452 0.802938 0.724235
0.335413 0.712710 0.706762
0.068406 0.551858 0.511296
0.000000 0.362179 0.091035
0.000000 0.206499 0.000000
0.000000 0.000000 0.000000
0.039151 0.287166 0.035325
0.306678 0.541888 0.511449
0.451508 0.666921 0.861030
0.428215 0.638471 1.000000
0.209487 0.453774 1.000000
0.000000 0.131094 0.735309
0.000000 0.000000 0.138842
0.000000 0.000000 0.000000
0.000000 0.000000 0.000000
0.000000 0.000000 0.287443
0.374295 0.009492 1.000000
0.551553 0.164816 1.000000
0.480421 0.088342 1.000000
0.136235 0.000000 1.000000
0.000000 0.000000 1.000000
0.000000 0.000000 0.774208
0.000000 0.000000 0.000000
0.000000 0.000000 0.000000
0.096178 0.000000 1.000000
0.621138 0.000000 1.000000
0.841267 0.000000 1.000000
0.716432 0.000000 1.000000
0.224616 0.000000 1.000000
0.000000 0.000000 1.000000
0.000000 0.000000 1.000000
0.000000 0.000000 0.901170
0.267573 0.190687 0.000000
0.028699 0.072071 0.000000
0.000000 0.003506 0.000000
0.000000 0.000000 0.000000
0.033621 0.000000 0.000000
0.064515 0.000000 0.218288
0.049695 0.000000 0.799586
0.000000 0.000000 1.000000
0.000000 0.221011 1.000000
0.449699 0.334419 0.202892
0.226103 0.189873 0.029755
0.180585 0.115357 0.000000
0.234300 0.074544 0.062874
0.326517 0.052134 0.273447
0.414619 0.053857 0.608018
0.474107 0.106473 1.000000
0.498596 0.257769 1.000000
0.499817 0.576564 1.000000
0.505169 0.446892 0.344828
0.313551 0.309696 0.246644
0.290216 0.246547 0.243057
0.358964 0.218614 0.331635
0.461712 0.208095 0.505016
0.558490 0.218216 0.750903
0.627446 0.273234 1.000000
0.664842 0.418434 1.000000
0.685056 0.720131 1.000000
0.441337 0.528472 0.236852
0.303995 0.432849 0.239269
0.308831 0.399326 0.300107
0.382292 0.386570 0.409880
0.468943 0.374274 0.554171
0.531461 0.363163 0.713629
0.550641 0.374991 0.863970
0.525392 0.452539 0.975975
0.472739 0.659619 1.000000
0.283325 0.547122 0.000000
0.228150 0.528237 0.082097
0.272741 0.543543 0.237888
0.346193 0.549202 0.393537
0.395715 0.522406 0.527571
0.386634 0.461376 0.613583
0.302389 0.385363 0.620237
0.144539 0.334644 0.511258
0.000000 0.370530 0.245442
0.074017 0.438404 0.000000
0.134499 0.532365 0.000000
0.236026 0.616644 0.192300
0.310340 0.644900 0.429233
0.307297 0.591822 0.582571
0.194872 0.453128 0.618852
0.000000 0.245565 0.499683
0.000000 0.006910 0.181737
0.000000 0.000000 0.000000
0.000000 0.105478 0.000000
0.089288 0.349335 0.000000
0.270527 0.523675 0.349939
0.352171 0.579652 0.714297
0.286724 0.489453 0.927229
0.044807 0.246293 0.948222
0.000000 0.000000 0.731825
0.000000 0.000000 0.227658
0.000000 0.000000 0.000000
0.000000 0.000000 0.000000
0.176532 0.000000 0.216985
0.465855 0.137279 0.948103
0.566893 0.227044 1.000000
0.434798 0.089827 1.000000
0.042835 0.000000 1.000000
0.000000 0.000000 1.000000
0.000000 0.000000 0.939967
0.000000 0.000000 0.000000
0.000000 0.000000 0.000000
0.498010 0.000000 1.000000
0.929384 0.000000 1.000000
1.000000 0.000000 1.000000
0.870083 0.000000 1.000000
0.313119 0.000000 1.000000
0.000000 0.000000 1.000000
0.000000 0.000000 1.000000
0.000000 0.000000 1.000000
0.421093 0.222276 0.000000
0.218361 0.142481 0.000000
0.256477 0.151170 0.000000
0.451877 0.210500 0.000000
0.739116 0.303652 0.251792
1.000000 0.434840 0.790347
1.000000 0.629305 1.000000
1.000000 0.933319 1.000000
1.000000 1.000000 1.000000
0.618838 0.389961 0.317776
0.388765 0.242366 0.172313
0.400273 0.200746 0.164057
0.572449 0.224754 0.301106
0.842493 0.295070 0.586625
1.000000 0.413402 1.000000
1.000000 0.602490 1.000000
1.000000 0.906101 1.000000
1.000000 1.000000 1.000000
0.670129 0.508132 0.409009
0.436630 0.334533 0.321496
0.429141 0.268438 0.339436
0.569394 0.266994 0.463873
0.797235 0.308378 0.690918
1.000000 0.391798 1.000000
1.000000 0.537489 1.000000
1.000000 0.786715 1.000000
1.000000 1.000000 1.000000
0.597524 0.591326 0.256187
0.390113 0.434463 0.255688
0.376832 0.370667 0.323041
0.482057 0.354583 0.452234
0.648284 0.361886 0.632322
0.836122 0.389278 0.847429
1.000000 0.454494 1.000000
1.000000 0.596294 1.000000
1.000000 0.874469 1.000000
0.441348 0.621680 0.000000
0.295135 0.525233 0.061055
0.294861 0.491454 0.211765
0.367552 0.472485 0.373811
0.458349 0.441497 0.529194
0.530509 0.392691 0.654980
0.565405 0.341296 0.723305
0.562524 0.323572 0.701370
0.539470 0.396806 0.551443
0.259693 0.548927 0.000000
0.215381 0.557520 0.000000
0.252511 0.582418 0.153206
0.300756 0.573261 0.386931
0.307904 0.500716 0.550585
0.239859 0.356483 0.614182
0.080640 0.153286 0.542801
0.000000 0.000000 0.296587
0.000000 0.000000 0.000000
0.128414 0.290400 0.000000
0.232304 0.449598 0.000000
0.336831 0.562776 0.345656
0.374314 0.577071 0.700618
0.295189 0.460647 0.916252
0.068006 0.202698 0.955519
0.000000 0.000000 0.776442
0.000000 0.000000 0.332114
0.000000 0.000000 0.000000
0.141134 0.000000 0.000000
0.445123 0.087341 0.326362
0.652634 0.319345 1.000000
0.698636 0.371673 1.000000
0.536209 0.209988 1.000000
0.136552 0.000000 1.000000
0.000000 0.000000 1.000000
0.000000 0.000000 1.000000
0.000000 0.000000 0.084629
0.409240 0.000000 0.246017
0.970820 0.000000 1.000000
1.000000 0.000000 1.000000
1.000000 0.000000 1.000000
1.000000 0.000000 1.000000
0.584865 0.000000 1.000000
0.000000 0.000000 1.000000
0.000000 0.000000 1.000000
0.000000 0.000000 1.000000
0.597307 0.235977 0.149976
0.433405 0.218052 0.008687
0.589081 0.335198 0.042149
0.978703 0.545549 0.268987
1.000000 0.828268 0.702895
1.000000 1.000000 1.000000
1.000000 1.000000 1.000000
1.000000 1.000000 1.000000
1.000000 1.000000 1.000000
0.824391 0.436630 0.492952
0.592686 0.309786 0.368977
0.675516 0.333014 0.392422
0.989898 0.461945 0.574857
1.000000 0.673240 0.922920
1.000000 0.964586 1.000000
1.000000 1.000000 1.000000
1.000000 1.000000 1.000000
1.000000 1.000000 1.000000
0.882108 0.567777 0.559033
0.613732 0.382326 0.474125
0.638543 0.345985 0.503456
0.876203 0.411882 0.651543
1.000000 0.554174 0.917969
1.000000 0.768046 1.000000
1.000000 1.000000 1.000000
1.000000 1.000000 1.000000
1.000000 1.000000 1.000000
0.808221 0.658128 0.384653
0.539905 0.465324 0.371293
0.527117 0.404705 0.433144
0.692167 0.426895 0.567667
0.975480 0.503549 0.767392
1.000000 0.627349 1.000000
1.000000 0.812007 1.000000
1.000000 1.000000 1.000000
1.000000 1.000000 1.000000
0.658262 0.703992 0.056946
0.432329 0.556031 0.158345
0.407959 0.507367 0.290077
0.510108 0.506121 0.442551
0.681849 0.521443 0.601241
0.884369 0.543515 0.746688
1.000000 0.583544 0.854500
1.000000 0.673769 0.895351
1.000000 0.867457 0.834983
0.505524 0.669274 0.000000
0.369896 0.619295 0.000000
0.365557 0.619762 0.233548
0.420110 0.616292 0.446216
0.479274 0.575533 0.600267
0.506885 0.485162 0.669186
0.484893 0.353885 0.621527
0.413365 0.211437 0.420909
0.310482 0.108582 0.026020
0.441069 0.485478 0.000000
0.449263 0.587564 0.047047
0.502163 0.675280 0.473549
0.530020 0.691741 0.799385
0.481200 0.601093 0.995922
0.322185 0.388508 1.000000
0.037574 0.060191 0.861888
0.000000 0.000000 0.449382
0.000000 0.000000 0.000000
0.573724 0.051707 0.000000
0.784852 0.360882 0.597925
0.937796 0.574908 1.000000
0.965453 0.634399 1.000000
0.818837 0.500995 1.000000
0.467077 0.157368 1.000000
0.000000 0.000000 1.000000
0.000000 0.000000 1.000000
0.000000 0.000000 0.313104
1.000000 0.000000 0.730008
1.000000 0.000000 1.000000
1.000000 0.187233 1.000000
1.000000 0.313793 1.000000
1.000000 0.145712 1.000000
1.000000 0.000000 1.000000
0.224594 0.000000 1.000000
0.000000 0.000000 1.000000
0.000000 0.000000 1.000000
0.694524 0.184464 0.229077
0.587650 0.267937 0.131717
0.888533 0.541218 0.218673
1.000000 0.958421 0.512045
1.000000 1.000000 1.000000
1.000000 1.000000 1.000000
1.000000 1.000000 1.000000
1.000000 1.000000 1.000000
1.000000 1.000000 1.000000
0.971256 0.430229 0.594667
0.758275 0.364414 0.490441
0.942232 0.500918 0.541774
1.000000 0.791353 0.763710
1.000000 1.000000 1.000000
1.000000 1.000000 1.000000
1.000000 1.000000 1.000000
1.000000 1.000000 1.000000
1.000000 1.000000 1.000000
1.000000 0.584761 0.672997
0.771857 0.428484 0.587074
0.860930 0.471076 0.622104
1.000000 0.661644 0.786076
1.000000 0.970324 1.000000
1.000000 1.000000 1.000000
1.000000 1.000000 1.000000
1.000000 1.000000 1.000000
1.000000 1.000000 1.000000
0.991510 0.690942 0.512196
0.686959 0.503973 0.480475
0.708785 0.496458 0.529252
0.977230 0.615002 0.659462
1.000000 0.827237 0.867107
1.000000 1.000000 1.000000
1.000000 1.000000 1.000000
1.000000 1.000000 1.000000
1.000000 1.000000 1.000000
0.858735 0.759250 0.211096
0.579913 0.602302 0.280205
0.567725 0.589430 0.383508
0.745060 0.664735 0.514886
1.000000 0.793348 0.663288
1.000000 0.961427 0.812728
1.000000 1.000000 0.942286
1.000000 1.000000 1.000000
1.000000 1.000000 1.000000
0.742770 0.767765 0.000000
0.544814 0.702492 0.146522
0.537441 0.729954 0.355860
0.646187 0.791749 0.534069
0.814703 0.850505 0.663040
1.000000 0.889877 0.719734
1.000000 0.914551 0.676178
1.000000 0.950242 0.499463
1.000000 1.000000 0.151752
0.749881 0.662162 0.000000
0.693524 0.751162 0.290387
0.735391 0.865592 0.668000
0.803665 0.944548 0.949428
0.844643 0.948154 1.000000
0.822740 0.857563 1.000000
0.720485 0.674958 0.940328
0.538521 0.423551 0.536072
0.295609 0.147581 0.000000
1.000000 0.355718 0.214804
1.000000 0.662529 0.973462
1.000000 0.911504 1.000000
1.000000 1.000000 1.000000
1.000000 1.000000 1.000000
1.000000 0.782474 1.000000
0.645202 0.376314 1.000000
0.058869 0.000000 1.000000
0.000000 0.000000 0.496404
1.000000 0.000000 1.000000
1.000000 0.318410 1.000000
1.000000 0.750449 1.000000
1.000000 0.959509 1.000000
1.000000 0.900709 1.000000
1.000000 0.550196 1.000000
1.000000 0.000000 1.000000
0.129122 0.000000 1.000000
0.000000 0.000000 1.000000
0.583349 0.008729 0.008889
0.567210 0.249606 0.000000
1.000000 0.743180 0.103004
1.000000 1.000000 0.463349
1.000000 1.000000 1.000000
1.000000 1.000000 1.000000
1.000000 1.000000 1.000000
1.000000 1.000000 1.000000
1.000000 1.000000 1.000000
0.936629 0.314882 0.448606
0.778236 0.366851 0.366833
1.000000 0.681538 0.446686
1.000000 1.000000 0.706683
1.000000 1.000000 1.000000
1.000000 1.000000 1.000000
1.000000 1.000000 1.000000
1.000000 1.000000 1.000000
1.000000 1.000000 1.000000
1.000000 0.506338 0.588432
0.810296 0.436740 0.502320
1.000000 0.623921 0.541801
1.000000 1.000000 0.718339
1.000000 1.000000 1.000000
1.000000 1.000000 1.000000
1.000000 1.000000 1.000000
1.000000 1.000000 1.000000
1.000000 1.000000 1.000000
1.000000 0.640149 0.488196
0.737158 0.517270 0.437060
0.843229 0.629266 0.469636
1.000000 0.918719 0.590333
1.000000 1.000000 0.798627
1.000000 1.000000 1.000000
1.000000 1.000000 1.000000
1.000000 1.000000 1.000000
1.000000 1.000000 1.000000
0.939732 0.740967 0.258426
0.650358 0.634035 0.292310
0.702141 0.724111 0.362178
1.000000 0.951273 0.465382
1.000000 1.000000 0.594345
1.000000 1.000000 0.736554
1.000000 1.000000 0.874564
1.000000 1.000000 0.985995
1.000000 1.000000 1.000000
0.874986 0.801044 0.060348
0.659196 0.780229 0.240027
0.702735 0.902591 0.402112
0.929070 1.000000 0.536902
1.000000 1.000000 0.629764
1.000000 1.000000 0.661130
1.000000 1.000000 0.606501
1.000000 1.000000 0.436444
1.000000 1.000000 0.116591
0.964994 0.780227 0.105891
0.890738 0.916642 0.502869
0.977676 1.000000 0.822827
1.000000 1.000000 1.000000
1.000000 1.000000 1.000000
1.000000 1.000000 1.000000
1.000000 1.000000 0.923359
1.000000 1.000000 0.508227
1.000000 1.000000 0.000000
1.000000 0.605964 0.657683
1.000000 0.971664 1.000000
1.000000 1.000000 1.000000
1.000000 1.000000 1.000000
1.000000 1.000000 1.000000
1.000000 1.000000 1.000000
1.000000 1.000000 1.000000
1.000000 1.000000 1.000000
1.000000 0.881140 0.566866
1.000000 0.173299 1.000000
1.000000 0.841283 1.000000
1.000000 1.000000 1.000000
1.000000 1.000000 1.000000
1.000000 1.000000 1.000000
1.000000 1.000000 1.000000
1.000000 1.000000 1.000000
1.000000 0.741627 1.000000
0.739169 0.000000 1.000000
0.106682 0.000000 0.000000
0.230493 0.108853 0.000000
0.966768 0.903354 0.000000
1.000000 1.000000 0.000000
1.000000 1.000000 0.592101
1.000000 1.000000 1.000000
1.000000 1.000000 1.000000
1.000000 1.000000 1.000000
1.000000 1.000000 1.000000
0.569997 0.023034 0.000000
0.517568 0.266019 0.000000
1.000000 0.840273 0.000000
1.000000 1.000000 0.202230
1.000000 1.000000 0.707965
1.000000 1.000000 1.000000
1.000000 1.000000 1.000000
1.000000 1.000000 1.000000
1.000000 1.000000 1.000000
0.776528 0.268081 0.102306
0.600639 0.359144 0.021275
0.976162 0.773047 0.068405
1.000000 1.000000 0.258635
1.000000 1.000000 0.601967
1.000000 1.000000 1.000000
1.000000 1.000000 1.000000
1.000000 1.000000 1.000000
1.000000 1.000000 1.000000
0.809652 0.444454 0.121469
0.568681 0.460397 0.054309
0.824134 0.774785 0.072003
1.000000 1.000000 0.182433
1.000000 1.000000 0.388550
1.000000 1.000000 0.688368
1.000000 1.000000 1.000000
1.000000 1.000000 1.000000
1.000000 1.000000 1.000000
0.770512 0.590977 0.019599
0.528433 0.609543 0.019771
0.711482 0.886197 0.055642
1.000000 1.000000 0.128039
1.000000 1.000000 0.232858
1.000000 1.000000 0.361058
1.000000 1.000000 0.498669
1.000000 1.000000 0.626784
1.000000 1.000000 0.721565
0.778018 0.714073 0.000000
0.604400 0.813948 0.101317
0.768306 1.000000 0.213707
1.000000 1.000000 0.300566
1.000000 1.000000 0.350733
1.000000 1.000000 0.348114
1.000000 1.000000 0.271683
1.000000 1.000000 0.095480
1.000000 1.000000 0.000000
0.968845 0.787763 0.195161
0.938854 1.000000 0.533300
1.000000 1.000000 0.791283
1.000000 1.000000 0.955827
1.000000 1.000000 1.000000
1.000000 1.000000 0.926808
1.000000 1.000000 0.682015
1.000000 1.000000 0.241325
1.000000 1.000000 0.000000
1.000000 0.753666 0.970542
1.000000 1.000000 1.000000
1.000000 1.000000 1.000000
1.000000 1.000000 1.000000
1.000000 1.000000 1.000000
1.000000 1.000000 1.000000
1.000000 1.000000 1.000000
1.000000 1.000000 1.000000
1.000000 1.000000 0.416263
1.000000 0.521000 1.000000
1.000000 1.000000 1.000000
1.000000 1.000000 1.000000
1.000000 1.000000 1.000000
1.000000 1.000000 1.000000
1.000000 1.000000 1.000000
1.000000 1.000000 1.000000
1.000000 1.000000 1.000000
1.000000 1.000000 1.000000
