lrplugin/MindfulLensFilmEngine.lrplugin/profiles/luts/ektar_100_cc.cube
# Generated from ColorChecker fit
LUT_3D_SIZE 33
DOMAIN_MIN 0.0 0.0 0.0
DOMAIN_MAX 1.0 1.0 1.0
0.000000 0.000000 0.032022
0.000000 0.000000 0.057707
0.000000 0.000000 0.085637
0.000000 0.000000 0.115790
0.000000 0.000000 0.148070
0.000000 0.000000 0.182302
0.000000 0.000000 0.218237
0.000000 0.000000 0.255550
0.000000 0.000000 0.293841
0.000000 0.000000 0.332631
0.000000 0.000000 0.371367
0.000000 0.000000 0.409420
0.000000 0.000000 0.446084
0.000000 0.000000 0.480579
0.000000 0.000000 0.512047
0.029129 0.002062 0.539555
0.058051 0.026630 0.562094
0.084109 0.047601 0.578577
0.105587 0.063231 0.587845
0.120626 0.071621 0.588659
0.127228 0.070715 0.579707
0.123248 0.058302 0.559599
0.106402 0.032014 0.526869
0.074263 0.000000 0.479978
0.024263 0.000000 0.417307
0.000000 0.000000 0.337163
0.000000 0.000000 0.237777
0.000000 0.000000 0.117304
0.000000 0.000000 0.000000
0.000000 0.000000 0.000000
0.000000 0.000000 0.000000
0.000000 0.000000 0.000000
0.000000 0.000000 0.000000
0.051073 0.000000 0.120135
0.016686 0.000000 0.144636
0.000000 0.000000 0.171403
0.000000 0.000000 0.200383
0.000000 0.000000 0.231447
0.000000 0.000000 0.264389
0.000000 0.000000 0.298930
0.000000 0.000000 0.334710
0.000000 0.000000 0.371299
0.000000 0.000000 0.408185
0.000000 0.000000 0.444785
0.000000 0.010267 0.480437
0.016188 0.034635 0.514403
0.041868 0.060044 0.545872
0.068243 0.085334 0.573954
0.093985 0.109187 0.597683
0.117626 0.130131 0.616019
0.137555 0.146537 0.627845
0.152017 0.156620 0.631967
0.159117 0.158438 0.627117
0.156817 0.149895 0.611949
0.142936 0.128735 0.585042
0.115153 0.092550 0.544900
0.071002 0.038774 0.489948
0.007878 0.000000 0.418539
0.000000 0.000000 0.328947
0.000000 0.000000 0.219372
0.000000 0.000000 0.087935
0.000000 0.000000 0.000000
0.000000 0.000000 0.000000
0.000000 0.000000 0.000000
0.000000 0.000000 0.000000
0.000000 0.000000 0.000000
0.102577 0.050336 0.193225
0.071048 0.036793 0.216752
0.044755 0.026428 0.242561
0.024039 0.019758 0.270568
0.009100 0.017141 0.300612
0.000000 0.018780 0.332455
0.000000 0.024721 0.365785
0.000000 0.034855 0.400213
0.006140 0.048916 0.435274
0.018109 0.066483 0.470428
0.034067 0.086976 0.505056
0.053220 0.109664 0.538467
0.074629 0.133654 0.569891
0.097215 0.157901 0.598483
0.119755 0.181202 0.623324
0.140884 0.202199 0.643414
0.159096 0.219376 0.657683
0.172741 0.231064 0.664981
0.180030 0.235434 0.664082
0.179028 0.230503 0.653687
0.167659 0.214133 0.632419
0.143706 0.184027 0.598823
0.104810 0.137735 0.551372
0.048466 0.072648 0.488461
0.000000 0.000000 0.408409
0.000000 0.000000 0.309459
0.000000 0.000000 0.189778
0.000000 0.000000 0.047457
0.000000 0.000000 0.000000
0.000000 0.000000 0.000000
0.000000 0.000000 0.000000
0.000000 0.000000 0.000000
0.000000 0.000000 0.000000
0.139302 0.101987 0.252010
0.110558 0.093952 0.274781
0.086755 0.088761 0.299845
0.068198 0.086889 0.327087
0.055050 0.088651 0.356313
0.047330 0.094208 0.387254
0.044916 0.103566 0.419567
0.047543 0.116572 0.452830
0.054806 0.132919 0.486547
0.066155 0.152144 0.520145
0.080899 0.173626 0.552974
0.098205 0.196590 0.584312
0.117097 0.220103 0.613356
0.136459 0.243077 0.639230
0.155029 0.264267 0.660981
0.171405 0.282273 0.677581
0.184044 0.295539 0.687925
0.191259 0.302351 0.690832
0.191221 0.300840 0.685046
0.181959 0.288981 0.669233
0.161360 0.264594 0.641986
0.127169 0.225340 0.601820
0.076987 0.168725 0.547173
0.008275 0.092102 0.476410
0.000000 0.000000 0.387817
0.000000 0.000000 0.279606
0.000000 0.000000 0.149912
0.000000 0.000000 0.000000
0.000000 0.000000 0.000000
0.000000 0.000000 0.000000
0.000000 0.000000 0.000000
0.000000 0.000000 0.000000
0.000000 0.000000 0.000000
0.162947 0.142844 0.297424
0.136918 0.140341 0.319663
0.115531 0.140337 0.344203
0.099055 0.143263 0.370894
0.087613 0.149393 0.399513
0.081188 0.158847 0.429759
0.079621 0.171588 0.461255
0.082608 0.187421 0.493548
0.089706 0.205999 0.526111
0.100329 0.226814 0.558338
0.113747 0.249205 0.589549
0.129091 0.272354 0.618988
0.145346 0.295288 0.645822
0.161358 0.316875 0.669143
0.175829 0.335829 0.687966
0.187319 0.350709 0.701230
0.194246 0.359914 0.707799
0.194887 0.361691 0.706461
0.187374 0.354129 0.695927
0.169700 0.335160 0.674833
0.139713 0.302562 0.641737
0.095120 0.253954 0.595125
0.033487 0.186802 0.533402
0.000000 0.098414 0.454901
0.000000 0.000000 0.357878
0.000000 0.000000 0.240511
0.000000 0.000000 0.100904
0.000000 0.000000 0.000000
0.000000 0.000000 0.000000
0.000000 0.000000 0.000000
0.000000 0.000000 0.000000
0.000000 0.000000 0.000000
0.000000 0.000000 0.000000
0.175397 0.174369 0.330613
0.152018 0.177419 0.352555
0.132979 0.182611 0.376798
0.118509 0.190333 0.403163
0.108695 0.200818 0.431392
0.103483 0.214144 0.461155
0.102673 0.230231 0.492041
0.105928 0.248845 0.523568
0.112765 0.269593 0.555175
0.122560 0.291928 0.586224
0.134546 0.315146 0.616005
0.147816 0.338388 0.643729
0.161319 0.360637 0.668531
0.173861 0.380721 0.689471
0.184108 0.397312 0.705533
0.190582 0.408926 0.715624
0.191663 0.413921 0.718577
0.185591 0.410501 0.713146
0.170460 0.396714 0.698012
0.144226 0.370450 0.671778
0.104698 0.329445 0.632973
0.049547 0.271276 0.580047
0.000000 0.193367 0.511376
0.000000 0.092983 0.425260
0.000000 0.000000 0.319924
0.000000 0.000000 0.193514
0.000000 0.000000 0.044102
0.000000 0.000000 0.000000
0.000000 0.000000 0.000000
0.000000 0.000000 0.000000
0.000000 0.000000 0.000000
0.000000 0.000000 0.000000
0.000000 0.000000 0.000000
0.178725 0.198143 0.352943
0.157937 0.206765 0.374828
0.141181 0.217159 0.399010
0.128648 0.229673 0.425278
0.120389 0.244497 0.453344
0.116310 0.261668 0.482844
0.116176 0.281063 0.513337
0.119610 0.302406 0.544308
0.126094 0.325263 0.575164
0.134964 0.349045 0.605237
0.145417 0.373006 0.633782
0.156507 0.396244 0.659981
0.167146 0.417701 0.682937
0.176103 0.436164 0.701677
0.182006 0.450261 0.715153
0.183339 0.458467 0.722242
0.178446 0.459099 0.721743
0.165526 0.450318 0.712380
0.142639 0.430130 0.692802
0.107701 0.396384 0.661579
0.058485 0.346772 0.617208
0.000000 0.278832 0.558109
0.000000 0.189944 0.482626
0.000000 0.077332 0.389026
0.000000 0.000000 0.275502
0.000000 0.000000 0.140169
0.000000 0.000000 0.000000
0.000000 0.000000 0.000000
0.000000 0.000000 0.000000
0.000000 0.000000 0.000000
0.000000 0.000000 0.000000
0.000000 0.000000 0.000000
0.000000 0.000000 0.000000
0.175194 0.215872 0.365993
0.156941 0.230081 0.388069
0.142407 0.245681 0.412433
0.131748 0.262980 0.438844
0.124974 0.282125 0.466979
0.121955 0.303110 0.496444
0.122419 0.325772 0.526767
0.125950 0.349792 0.557400
0.131992 0.374694 0.587718
0.139845 0.399846 0.617022
0.148668 0.424463 0.644536
0.157477 0.447598 0.669408
0.165147 0.468154 0.690710
0.170408 0.484873 0.707438
0.171852 0.496344 0.718512
0.167924 0.500998 0.722777
0.156931 0.497110 0.718999
0.137036 0.482801 0.705873
0.106259 0.456034 0.682012
0.062478 0.414615 0.645958
0.003431 0.356196 0.596175
0.000000 0.278271 0.531051
0.000000 0.178180 0.448898
0.000000 0.053104 0.347952
0.000000 0.000000 0.226373
0.000000 0.000000 0.082245
0.000000 0.000000 0.000000
0.000000 0.000000 0.000000
0.000000 0.000000 0.000000
0.000000 0.000000 0.000000
0.000000 0.000000 0.000000
0.000000 0.000000 0.000000
0.000000 0.000000 0.000000
0.167252 0.229381 0.371558
0.151484 0.249190 0.394080
0.139119 0.270000 0.418878
0.130273 0.292073 0.445676
0.124920 0.315517 0.474122
0.122893 0.340284 0.503788
0.123880 0.366169 0.534172
0.127430 0.392809 0.564692
0.132948 0.419689 0.594693
0.139697 0.446135 0.623445
0.146798 0.471316 0.650137
0.153230 0.494249 0.673888
0.157828 0.513790 0.693737
0.159289 0.528642 0.708649
0.156162 0.537350 0.717511
0.146859 0.538305 0.719137
0.129646 0.529740 0.712262
0.102650 0.509733 0.695547
0.063854 0.476205 0.667575
0.011098 0.426921 0.626856
0.000000 0.359490 0.571822
0.000000 0.271365 0.500828
0.000000 0.159844 0.412155
0.000000 0.022066 0.304008
0.000000 0.000000 0.174515
0.000000 0.000000 0.021728
0.000000 0.000000 0.000000
0.000000 0.000000 0.000000
0.000000 0.000000 0.000000
0.000000 0.000000 0.000000
0.000000 0.000000 0.000000
0.000000 0.000000 0.000000
0.000000 0.000000 0.000000
0.157538 0.240621 0.371647
0.144210 0.266040 0.394879
0.133963 0.292057 0.420368
0.126876 0.318893 0.447807
0.122885 0.346613 0.476812
0.121784 0.375126 0.506924
0.123227 0.404186 0.537606
0.126722 0.433390 0.568247
0.131638 0.462178 0.598161
0.137201 0.489835 0.626582
0.142492 0.515490 0.652672
0.146454 0.538115 0.675515
0.147886 0.556526 0.694120
0.145443 0.569384 0.707418
0.137641 0.575192 0.714267
0.122852 0.572299 0.713447
0.099305 0.558895 0.703663
0.065089 0.533017 0.683542
0.018149 0.492544 0.651638
0.000000 0.435200 0.606427
0.000000 0.358551 0.546309
0.000000 0.260008 0.469609
0.000000 0.136827 0.374575
0.000000 0.000000 0.259380
0.000000 0.000000 0.122121
0.000000 0.000000 0.000000
0.000000 0.000000 0.000000
0.000000 0.000000 0.000000
0.000000 0.000000 0.000000
0.000000 0.000000 0.000000
0.000000 0.000000 0.000000
0.000000 0.000000 0.000000
0.000000 0.000000 0.000000
0.148878 0.251661 0.368485
0.137949 0.282699 0.392699
0.129774 0.313920 0.419146
0.124395 0.345503 0.447487
0.121711 0.377472 0.477307
0.121479 0.409694 0.508114
0.123313 0.441880 0.539341
0.126685 0.473586 0.570345
0.130926 0.504210 0.600406
0.135224 0.532995 0.628728
0.138624 0.559028 0.654441
0.140029 0.581239 0.676598
0.138202 0.598403 0.694174
0.131760 0.609137 0.706070
0.119182 0.611904 0.711112
0.098801 0.605010 0.708047
0.068810 0.586604 0.695549
0.027259 0.554681 0.672214
0.000000 0.507076 0.636563
0.000000 0.441473 0.587040
0.000000 0.355396 0.522015
0.000000 0.246215 0.439779
0.000000 0.111141 0.338550
0.000000 0.000000 0.216468
0.000000 0.000000 0.071598
0.000000 0.000000 0.000000
0.000000 0.000000 0.000000
0.000000 0.000000 0.000000
0.000000 0.000000 0.000000
0.000000 0.000000 0.000000
0.000000 0.000000 0.000000
0.000000 0.000000 0.000000
0.000000 0.000000 0.000000
0.144285 0.264696 0.364514
0.135719 0.301358 0.389988
0.129576 0.337776 0.417666
0.125861 0.374089 0.447178
0.124434 0.410277 0.478077
0.125015 0.446167 0.509838
0.127181 0.481428 0.541864
0.130367 0.515573 0.573478
0.133864 0.547958 0.603930
0.136824 0.577785 0.632393
0.138255 0.604098 0.657963
0.137021 0.625786 0.679661
0.131848 0.641582 0.696432
0.121316 0.650061 0.707144
0.103865 0.649643 0.710592
0.077791 0.638593 0.705491
0.041250 0.615019 0.690483
0.000000 0.576872 0.664132
0.000000 0.521947 0.624927
0.000000 0.447885 0.571282
0.000000 0.352168 0.501532
0.000000 0.232124 0.413939
0.000000 0.084924 0.306688
0.000000 0.000000 0.177887
0.000000 0.000000 0.025570
0.000000 0.000000 0.000000
0.000000 0.000000 0.000000
0.000000 0.000000 0.000000
0.000000 0.000000 0.000000
0.000000 0.000000 0.000000
0.000000 0.000000 0.000000
0.000000 0.000000 0.000000
0.000000 0.000000 0.000000
0.146961 0.282042 0.362389
0.140727 0.324329 0.389409
0.136580 0.365936 0.418601
0.134488 0.406958 0.449560
0.134273 0.447335 0.481808
0.135618 0.486850 0.514790
0.138062 0.525130 0.547876
0.141002 0.561648 0.580357
0.143692 0.595717 0.611452
0.145246 0.626496 0.640300
0.144635 0.652990 0.665968
0.140685 0.674043 0.687444
0.132084 0.688347 0.703641
0.117375 0.694435 0.713396
0.094959 0.690687 0.715471
0.063097 0.675324 0.708550
0.019905 0.646412 0.691243
0.000000 0.601861 0.662082
0.000000 0.539425 0.619525
0.000000 0.456700 0.561952
0.000000 0.351129 0.487669
0.000000 0.219996 0.394905
0.000000 0.060432 0.281813
0.000000 0.000000 0.146470
0.000000 0.000000 0.000000
0.000000 0.000000 0.000000
0.000000 0.000000 0.000000
0.000000 0.000000 0.000000
0.000000 0.000000 0.000000
0.000000 0.000000 0.000000
0.000000 0.000000 0.000000
0.000000 0.000000 0.000000
0.000000 0.000000 0.000000
0.160298 0.306135 0.364982
0.156368 0.354049 0.393843
0.154187 0.400833 0.424836
0.153681 0.446541 0.457526
0.154639 0.491071 0.491403
0.156703 0.534165 0.525880
0.159374 0.575408 0.560294
0.162014 0.614230 0.593906
0.163839 0.649902 0.625902
0.163924 0.681543 0.655390
0.161201 0.708114 0.681404
0.154463 0.728418 0.702902
0.142356 0.741104 0.718764
0.123388 0.744665 0.727796
0.095922 0.737438 0.728726
0.058180 0.717601 0.720209
0.008241 0.683180 0.700821
0.000000 0.632042 0.669064
0.000000 0.561899 0.623363
0.000000 0.470307 0.562067
0.000000 0.354664 0.483450
0.000000 0.212214 0.385708
0.000000 0.040045 0.266964
0.000000 0.000000 0.125261
0.000000 0.000000 0.000000
0.000000 0.000000 0.000000
0.000000 0.000000 0.000000
0.000000 0.000000 0.000000
0.000000 0.000000 0.000000
0.000000 0.000000 0.000000
0.000000 0.000000 0.000000
0.000000 0.000000 0.000000
0.000000 0.000000 0.000000
0.187871 0.339537 0.375380
0.186225 0.393073 0.406382
0.185982 0.445020 0.439473
0.187034 0.495389 0.474186
0.189127 0.544037 0.509979
0.191870 0.590661 0.546231
0.194725 0.634807 0.582250
0.197015 0.675861 0.617265
0.197920 0.713054 0.650428
0.196476 0.745462 0.680818
0.191580 0.772004 0.707435
0.181985 0.791442 0.729206
0.166300 0.802382 0.744979
0.142995 0.803276 0.753528
0.110397 0.792418 0.753551
0.066689 0.767946 0.743669
0.009913 0.727841 0.722427
0.000000 0.669931 0.688295
0.000000 0.591884 0.639667
0.000000 0.491215 0.574859
0.000000 0.365280 0.492113
0.000000 0.211282 0.389595
0.000000 0.026265 0.265394
0.000000 0.000000 0.117524
0.000000 0.000000 0.000000
0.000000 0.000000 0.000000
0.000000 0.000000 0.000000
0.000000 0.000000 0.000000
0.000000 0.000000 0.000000
0.000000 0.000000 0.000000
0.000000 0.000000 0.000000
0.000000 0.000000 0.000000
0.000000 0.000000 0.000000
0.233448 0.384929 0.396884
0.234069 0.444083 0.430338
0.235744 0.501177 0.465831
0.238325 0.556178 0.502866
0.241524 0.608902 0.540867
0.244910 0.659006 0.579185
0.247908 0.705992 0.617093
0.249804 0.749205 0.653789
0.249740 0.787833 0.688394
0.246714 0.820912 0.719954
0.239586 0.847316 0.747439
0.227070 0.865768 0.769741
0.207740 0.874832 0.785680
0.180026 0.872916 0.793996
0.142218 0.858273 0.793355
0.092462 0.828999 0.782347
0.028762 0.783035 0.759485
0.000000 0.718163 0.723207
0.000000 0.632013 0.671874
0.000000 0.522056 0.603774
0.000000 0.385607 0.517113
0.000000 0.219827 0.410028
0.000000 0.021717 0.280575
0.000000 0.000000 0.126736
0.000000 0.000000 0.000000
0.000000 0.000000 0.000000
0.000000 0.000000 0.000000
0.000000 0.000000 0.000000
0.000000 0.000000 0.000000
0.000000 0.000000 0.000000
0.000000 0.000000 0.000000
0.000000 0.000000 0.000000
0.000000 0.000000 0.000000
0.300983 0.445116 0.433013
0.303859 0.509881 0.469234
0.307434 0.572100 0.507442
0.311524 0.631704 0.547105
0.315802 0.688462 0.587617
0.319801 0.741992 0.628297
0.322907 0.791753 0.668386
0.324369 0.837047 0.707050
0.323291 0.877024 0.743378
0.318634 0.910673 0.776385
0.309220 0.936830 0.805009
0.293726 0.954173 0.828110
0.270687 0.961226 0.844475
0.238496 0.956355 0.852814
0.195406 0.937771 0.851761
0.139525 0.903528 0.839873
0.068820 0.851523 0.815633
0.000000 0.779500 0.777445
0.000000 0.685045 0.723641
0.000000 0.565586 0.652473
0.000000 0.418398 0.562120
0.000000 0.240598 0.450684
0.000000 0.029147 0.316190
0.000000 0.000000 0.156588
0.000000 0.000000 0.000000
0.000000 0.000000 0.000000
0.000000 0.000000 0.000000
0.000000 0.000000 0.000000
0.000000 0.000000 0.000000
0.000000 0.000000 0.000000
0.000000 0.000000 0.000000
0.000000 0.000000 0.000000
0.000000 0.000000 0.000000
0.394619 0.523025 0.487498
0.399741 0.593389 0.526812
0.405205 0.660713 0.568053
0.410787 0.724885 0.610659
0.416124 0.785633 0.653992
0.420709 0.842532 0.697338
0.423893 0.895000 0.739907
0.424886 0.942297 0.780833
0.422754 0.983531 0.819174
0.416422 1.000000 0.853912
0.404673 1.000000 0.883953
0.386146 1.000000 0.908128
0.359340 1.000000 0.925189
0.322610 1.000000 0.933816
0.274171 1.000000 0.932609
0.212092 0.994418 0.920096
0.134305 0.936192 0.894726
0.038595 0.856824 0.854874
0.000000 0.753857 0.798836
0.000000 0.624681 0.724836
0.000000 0.466525 0.631019
0.000000 0.276467 0.515456
0.000000 0.051424 0.376140
0.000000 0.000000 0.210990
0.000000 0.000000 0.017847
0.000000 0.000000 0.000000
0.000000 0.000000 0.000000
0.000000 0.000000 0.000000
0.000000 0.000000 0.000000
0.000000 0.000000 0.000000
0.000000 0.000000 0.000000
0.000000 0.000000 0.000000
0.000000 0.000000 0.000000
0.518685 0.621705 0.564289
0.526052 0.697655 0.607027
0.533396 0.770059 0.651628
0.540459 0.838762 0.697499
0.546838 0.903453 0.743969
0.551988 0.963662 0.790293
0.555224 1.000000 0.835649
0.555718 1.000000 0.879140
0.552497 1.000000 0.919790
0.544450 1.000000 0.956552
0.530321 1.000000 0.988298
0.508714 1.000000 1.000000
0.478087 1.000000 1.000000
0.436760 1.000000 1.000000
0.382908 1.000000 1.000000
0.314566 1.000000 1.000000
0.229624 1.000000 1.000000
0.125832 0.953137 0.959569
0.000797 0.841453 0.901545
0.000000 0.702339 0.824954
0.000000 0.532986 0.727910
0.000000 0.330427 0.608452
0.000000 0.091540 0.464541
0.000000 0.000000 0.294064
0.000000 0.000000 0.094830
0.000000 0.000000 0.000000
0.000000 0.000000 0.000000
0.000000 0.000000 0.000000
0.000000 0.000000 0.000000
0.000000 0.000000 0.000000
0.000000 0.000000 0.000000
0.000000 0.000000 0.000000
0.000000 0.000000 0.000000
0.677699 0.744327 0.667548
0.687313 0.825847 0.714050
0.696537 0.903304 0.762346
0.705073 0.976500 0.811811
0.712481 1.000000 0.861744
0.718181 1.000000 0.911365
0.721448 1.000000 0.959823
0.721417 1.000000 1.000000
0.717077 1.000000 1.000000
0.707281 1.000000 1.000000
0.690733 1.000000 1.000000
0.666000 1.000000 1.000000
0.631504 1.000000 1.000000
0.585526 1.000000 1.000000
0.526204 1.000000 1.000000
0.451535 1.000000 1.000000
0.359371 1.000000 1.000000
0.247426 1.000000 1.000000
0.113268 0.950955 1.000000
0.000000 0.801682 0.957136
0.000000 0.620898 0.857109
0.000000 0.405594 0.733995
0.000000 0.152606 0.585723
0.000000 0.000000 0.410148
0.000000 0.000000 0.205049
0.000000 0.000000 0.000000
0.000000 0.000000 0.000000
0.000000 0.000000 0.000000
0.000000 0.000000 0.000000
0.000000 0.000000 0.000000
0.000000 0.000000 0.000000
0.000000 0.000000 0.000000
0.000000 0.000000 0.000000
0.876369 0.894185 0.801655
0.888237 0.981256 0.852268
0.899342 1.000000 0.904602
0.909349 1.000000 0.957998
0.917781 1.000000 1.000000
0.924018 1.000000 1.000000
0.927300 1.000000 1.000000
0.926722 1.000000 1.000000
0.921239 1.000000 1.000000
0.909662 1.000000 1.000000
0.890661 1.000000 1.000000
0.862764 1.000000 1.000000
0.824355 1.000000 1.000000
0.773677 1.000000 1.000000
0.708832 1.000000 1.000000
0.627777 1.000000 1.000000
0.528330 1.000000 1.000000
0.408164 1.000000 1.000000
0.264811 1.000000 1.000000
0.095661 0.925954 1.000000
0.000000 0.733503 1.000000
0.000000 0.505207 0.896624
0.000000 0.237860 0.744234
0.000000 0.000000 0.563798
0.000000 0.000000 0.353064
0.000000 0.000000 0.109703
0.000000 0.000000 0.000000
0.000000 0.000000 0.000000
0.000000 0.000000 0.000000
0.000000 0.000000 0.000000
0.000000 0.000000 0.000000
0.000000 0.000000 0.000000
0.000000 0.000000 0.000000
1.000000 1.000000 0.971204
1.000000 1.000000 1.000000
1.000000 1.000000 1.000000
1.000000 1.000000 1.000000
1.000000 1.000000 1.000000
1.000000 1.000000 1.000000
1.000000 1.000000 1.000000
1.000000 1.000000 1.000000
1.000000 1.000000 1.000000
1.000000 1.000000 1.000000
1.000000 1.000000 1.000000
1.000000 1.000000 1.000000
1.000000 1.000000 1.000000
1.000000 1.000000 1.000000
0.935753 1.000000 1.000000
0.848260 1.000000 1.000000
0.741471 1.000000 1.000000
0.613022 1.000000 1.000000
0.460408 1.000000 1.000000
0.280979 1.000000 1.000000
0.071947 0.874164 1.000000
0.000000 0.632626 1.000000
0.000000 0.350658 0.944834
0.000000 0.024855 0.759782
0.000000 0.000000 0.543653
0.000000 0.000000 0.294087
0.000000 0.000000 0.008646
0.000000 0.000000 0.000000
0.000000 0.000000 0.000000
0.000000 0.000000 0.000000
0.000000 0.000000 0.000000
0.000000 0.000000 0.000000
0.000000 0.000000 0.000000
1.000000 1.000000 1.000000
1.000000 1.000000 1.000000
1.000000 1.000000 1.000000
1.000000 1.000000 1.000000
1.000000 1.000000 1.000000
1.000000 1.000000 1.000000
1.000000 1.000000 1.000000
1.000000 1.000000 1.000000
1.000000 1.000000 1.000000
1.000000 1.000000 1.000000
1.000000 1.000000 1.000000
1.000000 1.000000 1.000000
1.000000 1.000000 1.000000
1.000000 1.000000 1.000000
1.000000 1.000000 1.000000
1.000000 1.000000 1.000000
1.000000 1.000000 1.000000
0.867164 1.000000 1.000000
0.705225 1.000000 1.000000
0.515452 1.000000 1.000000
0.295015 1.000000 1.000000
0.040946 0.791333 1.000000
0.000000 0.494480 1.000000
0.000000 0.152360 1.000000
0.000000 0.000000 0.781809
0.000000 0.000000 0.526279
0.000000 0.000000 0.234028
0.000000 0.000000 0.000000
0.000000 0.000000 0.000000
0.000000 0.000000 0.000000
0.000000 0.000000 0.000000
0.000000 0.000000 0.000000
0.000000 0.000000 0.000000
1.000000 1.000000 1.000000
1.000000 1.000000 1.000000
1.000000 1.000000 1.000000
1.000000 1.000000 1.000000
1.000000 1.000000 1.000000
1.000000 1.000000 1.000000
1.000000 1.000000 1.000000
1.000000 1.000000 1.000000
1.000000 1.000000 1.000000
1.000000 1.000000 1.000000
1.000000 1.000000 1.000000
1.000000 1.000000 1.000000
1.000000 1.000000 1.000000
1.000000 1.000000 1.000000
1.000000 1.000000 1.000000
1.000000 1.000000 1.000000
1.000000 1.000000 1.000000
1.000000 1.000000 1.000000
1.000000 1.000000 1.000000
0.804440 1.000000 1.000000
0.572533 1.000000 1.000000
0.305892 0.984933 1.000000
0.001368 0.672929 1.000000
0.000000 0.314214 1.000000
0.000000 0.000000 1.000000
0.000000 0.000000 0.811495
0.000000 0.000000 0.512678
0.000000 0.000000 0.173709
0.000000 0.000000 0.000000
0.000000 0.000000 0.000000
0.000000 0.000000 0.000000
0.000000 0.000000 0.000000
0.000000 0.000000 0.000000
1.000000 1.000000 1.000000
1.000000 1.000000 1.000000
1.000000 1.000000 1.000000
1.000000 1.000000 1.000000
1.000000 1.000000 1.000000
1.000000 1.000000 1.000000
1.000000 1.000000 1.000000
1.000000 1.000000 1.000000
1.000000 1.000000 1.000000
1.000000 1.000000 1.000000
1.000000 1.000000 1.000000
1.000000 1.000000 1.000000
1.000000 1.000000 1.000000
1.000000 1.000000 1.000000
1.000000 1.000000 1.000000
1.000000 1.000000 1.000000
1.000000 1.000000 1.000000
1.000000 1.000000 1.000000
1.000000 1.000000 1.000000
1.000000 1.000000 1.000000
0.910055 1.000000 1.000000
0.630775 1.000000 1.000000
0.312470 0.889729 1.000000
0.000000 0.514139 1.000000
0.000000 0.086697 1.000000
0.000000 0.000000 1.000000
0.000000 0.000000 0.850034
0.000000 0.000000 0.503864
0.000000 0.000000 0.113968
0.000000 0.000000 0.000000
0.000000 0.000000 0.000000
0.000000 0.000000 0.000000
0.000000 0.000000 0.000000
1.000000 1.000000 1.000000
1.000000 1.000000 1.000000
1.000000 1.000000 1.000000
1.000000 1.000000 1.000000
1.000000 1.000000 1.000000
1.000000 1.000000 1.000000
1.000000 1.000000 1.000000
1.000000 1.000000 1.000000
1.000000 1.000000 1.000000
1.000000 1.000000 1.000000
1.000000 1.000000 1.000000
1.000000 1.000000 1.000000
1.000000 1.000000 1.000000
1.000000 1.000000 1.000000
1.000000 1.000000 1.000000
1.000000 1.000000 1.000000
1.000000 1.000000 1.000000
1.000000 1.000000 1.000000
1.000000 1.000000 1.000000
1.000000 1.000000 1.000000
1.000000 1.000000 1.000000
1.000000 1.000000 1.000000
0.689189 1.000000 1.000000
0.313493 0.755977 1.000000
0.000000 0.309868 1.000000
0.000000 0.000000 1.000000
0.000000 0.000000 1.000000
0.000000 0.000000 0.898633
0.000000 0.000000 0.500864
0.000000 0.000000 0.055652
0.000000 0.000000 0.000000
0.000000 0.000000 0.000000
0.000000 0.000000 0.000000
1.000000 1.000000 1.000000
1.000000 1.000000 1.000000
1.000000 1.000000 1.000000
1.000000 1.000000 1.000000
1.000000 1.000000 1.000000
1.000000 1.000000 1.000000
1.000000 1.000000 1.000000
1.000000 1.000000 1.000000
1.000000 1.000000 1.000000
1.000000 1.000000 1.000000
1.000000 1.000000 1.000000
1.000000 1.000000 1.000000
1.000000 1.000000 1.000000
1.000000 1.000000 1.000000
1.000000 1.000000 1.000000
1.000000 1.000000 1.000000
1.000000 1.000000 1.000000
1.000000 1.000000 1.000000
1.000000 1.000000 1.000000
1.000000 1.000000 1.000000
1.000000 1.000000 1.000000
1.000000 1.000000 1.000000
1.000000 1.000000 1.000000
0.746671 1.000000 1.000000
0.307596 0.578623 1.000000
0.000000 0.054743 1.000000
0.000000 0.000000 1.000000
