lrplugin/MindfulLensFilmEngine.lrplugin/profiles/luts/ektachrome_cc.cube
# Generated from ColorChecker fit
LUT_3D_SIZE 9
DOMAIN_MIN 0.0 0.0 0.0
DOMAIN_MAX 1.0 1.0 1.0
0.281395 0.000000 0.542306
0.086215 0.000000 0.284586
0.000000 0.000000 0.201122
0.000000 0.000000 0.239743
0.000000 0.000000 0.377571
0.000000 0.000000 0.621018
0.000000 0.000000 1.000000
0.000000 0.000000 1.000000
0.000000 0.000000 1.000000
0.000000 0.000000 0.000000
0.000000 0.038566 0.000000
0.000000 0.053380 0.011815
0.000000 0.027670 0.193506
0.000000 0.000000 0.427400
0.000000 0.000000 0.705463
0.000000 0.000000 1.000000
0.000000 0.000000 1.000000
0.098837 0.000000 1.000000
0.000000 0.000000 0.000000
0.000000 0.027421 0.000000
0.000000 0.154078 0.000000
0.000000 0.236623 0.045606
0.000000 0.272590 0.354617
0.014417 0.264934 0.653423
0.044429 0.222032 0.948836
0.076765 0.157684 1.000000
0.163215 0.091110 1.000000
0.000000 0.000000 0.000000
0.000000 0.000000 0.000000
0.000000 0.170219 0.000000
0.000000 0.335916 0.000000
0.000000 0.431936 0.181535
0.000000 0.447996 0.486461
0.000000 0.379230 0.726249
0.000000 0.226198 0.922558
0.000000 0.000000 1.000000
0.000000 0.000000 0.000000
0.000000 0.000000 0.000000
0.000000 0.215990 0.000000
0.000000 0.436069 0.000000
0.000000 0.557104 0.010492
0.000000 0.555570 0.306169
0.000000 0.413364 0.482038
0.000000 0.117804 0.545311
0.000000 0.000000 0.532493
0.000000 0.000000 0.000000
0.000000 0.112241 0.000000
0.000000 0.446754 0.000000
0.000000 0.688776 0.000000
0.000000 0.796119 0.023851
0.000000 0.732017 0.294159
0.000000 0.465126 0.397066
0.000000 0.000000 0.325337
0.000000 0.000000 0.101029
0.180083 0.300711 0.000000
0.303517 0.710030 0.000000
0.466820 1.000000 0.000000
0.571583 1.000000 0.098983
0.538580 1.000000 0.483998
0.307766 1.000000 0.712069
0.000000 0.716380 0.732223
0.000000 0.000000 0.522776
0.000000 0.000000 0.091339
1.000000 1.000000 0.394694
1.000000 1.000000 0.581209
1.000000 1.000000 0.963806
1.000000 1.000000 1.000000
1.000000 1.000000 1.000000
1.000000 1.000000 1.000000
0.739226 1.000000 1.000000
0.000000 0.307267 1.000000
0.000000 0.000000 0.842837
1.000000 1.000000 1.000000
1.000000 1.000000 1.000000
1.000000 1.000000 1.000000
1.000000 1.000000 1.000000
1.000000 1.000000 1.000000
1.000000 1.000000 1.000000
1.000000 1.000000 1.000000
1.000000 1.000000 1.000000
0.000000 0.000000 1.000000
0.672924 0.203686 0.828479
0.347672 0.031261 0.432068
0.073621 0.000000 0.200966
0.000000 0.000000 0.084153
0.000000 0.000000 0.059908
0.000000 0.000000 0.135796
0.000000 0.000000 0.348681
0.000000 0.000000 0.764715
0.000000 0.000000 1.000000
0.368373 0.292006 0.417634
0.222444 0.223627 0.224212
0.135116 0.149523 0.179493
0.071759 0.071917 0.218015
0.016929 0.000000 0.303606
0.000000 0.000000 0.429387
0.000000 0.000000 0.617772
0.036874 0.000000 0.920468
0.245338 0.088759 1.000000
0.043573 0.251680 0.032496
0.030411 0.278308 0.000000
0.081739 0.308567 0.095473
0.149357 0.331442 0.255816
0.204246 0.341338 0.424806
0.236573 0.338084 0.581118
0.255684 0.326930 0.732719
0.290108 0.318545 0.916869
0.387558 0.329025 1.000000
0.000000 0.167915 0.000000
0.000000 0.276841 0.000000
0.000000 0.392488 0.000000
0.135273 0.490600 0.219938
0.243493 0.552340 0.445141
0.292813 0.564298 0.611874
0.279009 0.518481 0.713658
0.217039 0.412322 0.773304
0.141042 0.248672 0.842920
0.000000 0.167090 0.000000
0.000000 0.341941 0.000000
0.017890 0.520333 0.000000
0.177515 0.664768 0.212788
0.277372 0.743172 0.466270
0.280483 0.728891 0.622566
0.169050 0.600695 0.660750
0.000000 0.342773 0.589187
0.000000 0.000000 0.445536
0.210625 0.416759 0.000000
0.263404 0.637493 0.000000
0.389278 0.852318 0.099558
0.499331 1.000000 0.416796
0.523830 1.000000 0.669874
0.412225 0.981080 0.794126
0.133148 0.719117 0.754179
0.000000 0.251777 0.543952
0.000000 0.000000 0.186656
1.000000 1.000000 0.441946
1.000000 1.000000 0.533509
1.000000 1.000000 0.796899
1.000000 1.000000 1.000000
1.000000 1.000000 1.000000
0.975925 1.000000 1.000000
0.453884 1.000000 1.000000
0.000000 0.322389 0.897059
0.000000 0.000000 0.324991
1.000000 1.000000 1.000000
1.000000 1.000000 1.000000
1.000000 1.000000 1.000000
1.000000 1.000000 1.000000
1.000000 1.000000 1.000000
1.000000 1.000000 1.000000
1.000000 1.000000 1.000000
0.326261 0.778834 1.000000
0.000000 0.000000 1.000000
1.000000 1.000000 1.000000
1.000000 1.000000 1.000000
1.000000 1.000000 1.000000
1.000000 1.000000 1.000000
1.000000 1.000000 1.000000
1.000000 1.000000 1.000000
1.000000 1.000000 1.000000
1.000000 1.000000 1.000000
0.000000 0.000000 1.000000
0.951515 0.364654 0.965500
0.509652 0.079500 0.473899
0.162187 0.000000 0.154371
0.000000 0.000000 0.000000
0.000000 0.000000 0.000000
0.000000 0.000000 0.000000
0.000000 0.000000 0.039117
0.000000 0.000000 0.417864
0.000000 0.000000 1.000000
0.717556 0.503734 0.645068
0.443893 0.310009 0.354504
0.271951 0.151436 0.220914
0.163024 0.027110 0.179990
0.097588 0.000000 0.196714
0.075301 0.000000 0.265364
0.115005 0.000000 0.409506
0.254722 0.043983 0.682002
0.551659 0.267112 1.000000
0.461235 0.512330 0.359457
0.307032 0.400854 0.216774
0.260363 0.333593 0.223046
0.268950 0.296402 0.299515
0.299696 0.280560 0.396718
0.338689 0.282766 0.494484
0.391199 0.305143 0.601935
0.481676 0.355234 0.757484
0.653754 0.446005 1.000000
0.275236 0.480505 0.132613
0.186450 0.438430 0.083910
0.209500 0.443364 0.183217
0.278536 0.467922 0.337330
0.346890 0.490142 0.482338
0.387078 0.493484 0.583624
0.390797 0.466829 0.635861
0.368927 0.404481 0.663018
0.351530 0.306164 0.718354
0.327485 0.539497 0.068509
0.244770 0.550306 0.059136
0.276682 0.604649 0.203904
0.343800 0.661902 0.395161
0.385885 0.686862 0.554552
0.361879 0.649748 0.633010
0.249909 0.526201 0.610765
0.047282 0.297285 0.497335
0.000000 0.000000 0.331535
0.861147 0.861715 0.351142
0.719854 0.905223 0.325699
0.694469 0.982523 0.467604
0.691999 1.000000 0.654759
0.638633 1.000000 0.794361
0.479743 0.905630 0.822898
0.179882 0.633664 0.706150
0.000000 0.180382 0.439191
0.000000 0.000000 0.046388
1.000000 1.000000 1.000000
1.000000 1.000000 1.000000
1.000000 1.000000 1.000000
1.000000 1.000000 1.000000
1.000000 1.000000 1.000000
1.000000 1.000000 1.000000
0.467309 0.980793 1.000000
0.000000 0.241683 0.747365
0.000000 0.000000 0.120944
1.000000 1.000000 1.000000
1.000000 1.000000 1.000000
1.000000 1.000000 1.000000
1.000000 1.000000 1.000000
1.000000 1.000000 1.000000
1.000000 1.000000 1.000000
1.000000 1.000000 1.000000
0.265641 0.710268 1.000000
0.000000 0.000000 0.893257
1.000000 1.000000 1.000000
1.000000 1.000000 1.000000
1.000000 1.000000 1.000000
1.000000 1.000000 1.000000
1.000000 1.000000 1.000000
1.000000 1.000000 1.000000
1.000000 1.000000 1.000000
1.000000 1.000000 1.000000
0.000000 0.000000 1.000000
1.000000 0.447786 0.936538
0.592347 0.088453 0.409206
0.222869 0.000000 0.076424
0.000000 0.000000 0.000000
0.000000 0.000000 0.000000
0.000000 0.000000 0.000000
0.000000 0.000000 0.156024
0.233316 0.000000 0.651223
0.805317 0.196442 1.000000
0.937669 0.631896 0.679572
0.569271 0.345806 0.340121
0.355378 0.136470 0.181630
0.253206 0.000000 0.140943
0.239154 0.000000 0.184198
0.308802 0.000000 0.306825
0.476914 0.067375 0.533547
0.777435 0.289783 0.918379
1.000000 0.646086 1.000000
0.729332 0.676985 0.453586
0.458347 0.454814 0.243373
0.347602 0.318167 0.207607
0.340744 0.249772 0.268683
0.400597 0.237779 0.378294
0.509172 0.275760 0.517421
0.667658 0.362711 0.696342
0.896431 0.503046 0.954624
1.000000 0.706604 1.000000
0.580766 0.677971 0.281845
0.350965 0.506731 0.141482
0.285630 0.423513 0.176127
0.314835 0.397808 0.293729
0.387834 0.404524 0.431533
0.473064 0.423993 0.556075
0.558145 0.441970 0.663185
0.649878 0.449630 0.777983
0.774247 0.443571 0.954884
0.663904 0.770950 0.267644
0.413756 0.633980 0.136991
0.330790 0.581266 0.188984
0.331506 0.569054 0.317125
0.351588 0.559015 0.444213
0.345900 0.518239 0.522336
0.288491 0.419241 0.532876
0.172590 0.239955 0.486508
0.010609 0.000000 0.423201
1.000000 1.000000 0.594297
0.888594 1.000000 0.412467
0.719652 0.961355 0.427997
0.622024 0.929774 0.519942
0.517823 0.863848 0.596654
0.348341 0.717426 0.595775
0.074055 0.449783 0.484239
0.000000 0.025613 0.258275
0.000000 0.000000 0.000000
1.000000 1.000000 1.000000
1.000000 1.000000 1.000000
1.000000 1.000000 1.000000
1.000000 1.000000 1.000000
1.000000 1.000000 1.000000
0.776290 1.000000 1.000000
0.205438 0.730030 0.776122
0.000000 0.000000 0.351383
0.000000 0.000000 0.000000
1.000000 1.000000 1.000000
1.000000 1.000000 1.000000
1.000000 1.000000 1.000000
1.000000 1.000000 1.000000
1.000000 1.000000 1.000000
1.000000 1.000000 1.000000
1.000000 1.000000 1.000000
0.000000 0.395162 1.000000
0.000000 0.000000 0.248897
1.000000 1.000000 1.000000
1.000000 1.000000 1.000000
1.000000 1.000000 1.000000
1.000000 1.000000 1.000000
1.000000 1.000000 1.000000
1.000000 1.000000 1.000000
1.000000 1.000000 1.000000
1.000000 1.000000 1.000000
0.000000 0.000000 1.000000
1.000000 0.431108 0.750683
0.597264 0.065406 0.263038
0.285454 0.000000 0.008134
0.150139 0.000000 0.000000
0.177210 0.000000 0.035628
0.371742 0.000000 0.310796
0.757993 0.004963 0.804246
1.000000 0.464966 1.000000
1.000000 1.000000 1.000000
1.000000 0.666178 0.560703
0.627635 0.349959 0.236581
0.442731 0.152825 0.133116
0.427919 0.067615 0.188309
0.555521 0.092594 0.369449
0.817037 0.231446 0.673123
1.000000 0.493279 1.000000
1.000000 0.892622 1.000000
1.000000 1.000000 1.000000
0.876196 0.746989 0.384908
0.540963 0.470789 0.160179
0.428343 0.322148 0.151100
0.477904 0.280667 0.281223
0.648393 0.331368 0.503394
0.917741 0.464697 0.799749
1.000000 0.676519 1.000000
1.000000 0.968124 1.000000
1.000000 1.000000 1.000000
0.759667 0.773317 0.245884
0.432646 0.524004 0.055671
0.332387 0.404455 0.083176
0.384885 0.381033 0.237504
0.535317 0.425518 0.457055
0.748042 0.515116 0.709518
1.000000 0.632452 0.991876
1.000000 0.765574 1.000000
1.000000 0.907952 1.000000
0.855851 0.886111 0.246244
0.473326 0.646885 0.024919
0.320201 0.533361 0.030458
0.308899 0.498659 0.157517
0.371026 0.501323 0.330049
0.457369 0.505314 0.501298
0.537896 0.480020 0.653798
0.601762 0.400246 0.799380
0.657299 0.246224 0.979166
1.000000 1.000000 0.568623
0.908884 1.000000 0.249812
0.632363 0.883651 0.174084
0.485222 0.804666 0.221652
0.385493 0.726233 0.302018
0.270392 0.599076 0.353981
0.096318 0.379339 0.345630
0.000000 0.028591 0.274346
0.000000 0.000000 0.166805
1.000000 1.000000 1.000000
1.000000 1.000000 0.992259
1.000000 1.000000 0.775218
1.000000 1.000000 0.690321
0.883933 1.000000 0.632627
0.487025 1.000000 0.526485
0.000000 0.531701 0.325537
0.000000 0.000000 0.012720
0.000000 0.000000 0.000000
1.000000 1.000000 1.000000
1.000000 1.000000 1.000000
1.000000 1.000000 1.000000
1.000000 1.000000 1.000000
1.000000 1.000000 1.000000
1.000000 1.000000 1.000000
0.548214 1.000000 0.931713
0.000000 0.097956 0.351947
0.000000 0.000000 0.000000
1.000000 1.000000 1.000000
1.000000 1.000000 1.000000
1.000000 1.000000 1.000000
1.000000 1.000000 1.000000
1.000000 1.000000 1.000000
1.000000 1.000000 1.000000
1.000000 1.000000 1.000000
0.513641 1.000000 1.000000
0.000000 0.000000 0.631428
0.935386 0.263496 0.442947
0.507228 0.000000 0.086365
0.361045 0.000000 0.016429
0.459468 0.000000 0.186740
0.784312 0.066856 0.580191
1.000000 0.422026 1.000000
1.000000 0.969235 1.000000
1.000000 1.000000 1.000000
1.000000 1.000000 1.000000
0.975125 0.567115 0.353940
0.629360 0.312261 0.125321
0.572664 0.219548 0.172771
0.754095 0.278689 0.435444
1.000000 0.484820 0.881785
1.000000 0.838498 1.000000
1.000000 1.000000 1.000000
1.000000 1.000000 1.000000
1.000000 1.000000 1.000000
0.911471 0.694537 0.249370
0.592804 0.450229 0.079096
0.568788 0.376243 0.181390
0.774910 0.449052 0.480959
1.000000 0.650550 0.931801
1.000000 0.968055 1.000000
1.000000 1.000000 1.000000
1.000000 1.000000 1.000000
1.000000 1.000000 1.000000
0.849135 0.750394 0.151143
0.496968 0.503358 0.000000
0.443523 0.428557 0.062697
0.610717 0.489221 0.342948
0.939648 0.654007 0.749154
1.000000 0.896990 1.000000
1.000000 1.000000 1.000000
1.000000 1.000000 1.000000
1.000000 1.000000 1.000000
0.968071 0.880493 0.161191
0.516501 0.613787 0.000000
0.366216 0.514959 0.000000
0.425559 0.534001 0.121097
0.622058 0.626325 0.432780
0.902421 0.752769 0.806573
1.000000 0.879591 1.000000
1.000000 0.978469 1.000000
1.000000 1.000000 1.000000
1.000000 1.000000 0.461469
0.901296 0.964828 0.041041
0.581456 0.815095 0.000000
0.458723 0.759366 0.000000
0.447053 0.739814 0.161640
0.479583 0.704035 0.364662
0.508635 0.605045 0.573425
0.505709 0.401286 0.786465
0.461491 0.056617 1.000000
1.000000 1.000000 1.000000
1.000000 1.000000 0.665917
1.000000 1.000000 0.347203
1.000000 1.000000 0.224733
0.723858 1.000000 0.194717
0.426007 0.960600 0.182661
0.069929 0.580179 0.143362
0.000000 0.011891 0.060908
0.000000 0.000000 0.000000
1.000000 1.000000 1.000000
1.000000 1.000000 1.000000
1.000000 1.000000 1.000000
1.000000 1.000000 1.000000
1.000000 1.000000 0.871022
1.000000 1.000000 0.598831
0.290285 1.000000 0.273489
0.000000 0.053938 0.000000
0.000000 0.000000 0.000000
1.000000 1.000000 1.000000
1.000000 1.000000 1.000000
1.000000 1.000000 1.000000
1.000000 1.000000 1.000000
1.000000 1.000000 1.000000
1.000000 1.000000 1.000000
1.000000 1.000000 1.000000
0.000000 0.812252 0.614441
0.000000 0.000000 0.000000
0.494525 0.000000 0.074261
0.286377 0.000000 0.000000
0.442057 0.000000 0.194161
0.920121 0.265843 0.743262
1.000000 0.788063 1.000000
1.000000 1.000000 1.000000
1.000000 1.000000 1.000000
1.000000 1.000000 1.000000
1.000000 1.000000 1.000000
0.737972 0.266089 0.150684
0.566135 0.193351 0.113701
0.765142 0.326537 0.423913
1.000000 0.652234 1.000000
1.000000 1.000000 1.000000
1.000000 1.000000 1.000000
1.000000 1.000000 1.000000
1.000000 1.000000 1.000000
1.000000 1.000000 1.000000
0.826117 0.462669 0.168841
0.633110 0.365433 0.137953
0.816453 0.482008 0.452264
1.000000 0.785739 1.000000
1.000000 1.000000 1.000000
1.000000 1.000000 1.000000
1.000000 1.000000 1.000000
1.000000 1.000000 1.000000
1.000000 1.000000 1.000000
0.867681 0.563903 0.149959
0.590719 0.428753 0.049312
0.694105 0.509032 0.298945
1.000000 0.764845 0.810273
1.000000 1.000000 1.000000
1.000000 1.000000 1.000000
1.000000 1.000000 1.000000
1.000000 1.000000 1.000000
1.000000 1.000000 1.000000
1.000000 0.720454 0.195289
0.617623 0.530306 0.000000
0.571453 0.550936 0.063709
0.812382 0.729209 0.438544
1.000000 1.000000 0.999045
1.000000 1.000000 1.000000
1.000000 1.000000 1.000000
1.000000 1.000000 1.000000
1.000000 1.000000 1.000000
1.000000 1.000000 0.486107
0.967721 0.858260 0.015385
0.697097 0.792221 0.000000
0.700973 0.859666 0.101477
0.889226 0.999639 0.452625
1.000000 1.000000 0.920884
1.000000 1.000000 1.000000
1.000000 1.000000 1.000000
1.000000 1.000000 1.000000
1.000000 1.000000 1.000000
1.000000 1.000000 0.511176
1.000000 1.000000 0.146623
1.000000 1.000000 0.058125
0.921793 1.000000 0.143049
0.835787 1.000000 0.328053
0.756638 1.000000 0.569089
0.638197 0.684835 0.851400
0.453500 0.115284 1.000000
1.000000 1.000000 1.000000
1.000000 1.000000 1.000000
1.000000 1.000000 1.000000
1.000000 1.000000 0.647566
1.000000 1.000000 0.408645
1.000000 1.000000 0.259851
0.573075 1.000000 0.142686
0.000000 0.469245 0.027949
0.000000 0.000000 0.000000
1.000000 1.000000 1.000000
1.000000 1.000000 1.000000
1.000000 1.000000 1.000000
1.000000 1.000000 1.000000
1.000000 1.000000 1.000000
1.000000 1.000000 1.000000
1.000000 1.000000 0.614298
0.031962 0.969431 0.065371
0.000000 0.000000 0.000000
0.000000 0.000000 0.000000
0.000000 0.000000 0.000000
0.502224 0.000000 0.660101
1.000000 0.775462 1.000000
1.000000 1.000000 1.000000
1.000000 1.000000 1.000000
1.000000 1.000000 1.000000
1.000000 1.000000 1.000000
1.000000 1.000000 1.000000
0.262762 0.000000 0.068256
0.410962 0.000000 0.335003
1.000000 0.434538 1.000000
1.000000 1.000000 1.000000
1.000000 1.000000 1.000000
1.000000 1.000000 1.000000
1.000000 1.000000 1.000000
1.000000 1.000000 1.000000
1.000000 1.000000 1.000000
0.592411 0.000000 0.291110
0.662433 0.159549 0.500497
1.000000 0.611848 1.000000
1.000000 1.000000 1.000000
1.000000 1.000000 1.000000
1.000000 1.000000 1.000000
1.000000 1.000000 1.000000
1.000000 1.000000 1.000000
1.000000 1.000000 1.000000
0.815129 0.139395 0.420588
0.742005 0.254995 0.491276
1.000000 0.629945 1.000000
1.000000 1.000000 1.000000
1.000000 1.000000 1.000000
1.000000 1.000000 1.000000
1.000000 1.000000 1.000000
1.000000 1.000000 1.000000
1.000000 1.000000 1.000000
1.000000 0.343204 0.557263
0.832345 0.362906 0.407160
1.000000 0.637014 0.710852
1.000000 1.000000 1.000000
1.000000 1.000000 1.000000
1.000000 1.000000 1.000000
1.000000 1.000000 1.000000
1.000000 1.000000 1.000000
1.000000 1.000000 1.000000
1.000000 0.773397 0.881730
1.000000 0.676308 0.427996
1.000000 0.822411 0.448798
1.000000 1.000000 0.827812
1.000000 1.000000 1.000000
1.000000 1.000000 1.000000
1.000000 1.000000 1.000000
1.000000 1.000000 1.000000
1.000000 1.000000 1.000000
1.000000 1.000000 1.000000
1.000000 1.000000 0.813654
1.000000 1.000000 0.475055
1.000000 1.000000 0.508037
1.000000 1.000000 0.811120
1.000000 1.000000 1.000000
1.000000 1.000000 1.000000
1.000000 1.000000 1.000000
1.000000 1.000000 1.000000
1.000000 1.000000 1.000000
1.000000 1.000000 1.000000
1.000000 1.000000 1.000000
1.000000 1.000000 0.745532
1.000000 1.000000 0.638398
1.000000 1.000000 0.720730
1.000000 1.000000 0.935186
1.000000 1.000000 1.000000
1.000000 0.700646 1.000000
1.000000 1.000000 1.000000
1.000000 1.000000 1.000000
1.000000 1.000000 1.000000
1.000000 1.000000 1.000000
1.000000 1.000000 1.000000
1.000000 1.000000 0.984397
1.000000 1.000000 0.707589
1.000000 1.000000 0.504592
0.000000 0.208040 0.362202
0.000000 0.000000 0.000000
0.000000 0.000000 0.271843
0.496592 0.000000 1.000000
1.000000 1.000000 1.000000
1.000000 1.000000 1.000000
1.000000 1.000000 1.000000
1.000000 1.000000 1.000000
1.000000 1.000000 1.000000
1.000000 1.000000 1.000000
0.000000 0.000000 0.249901
0.118162 0.000000 0.948427
1.000000 0.475145 1.000000
1.000000 1.000000 1.000000
1.000000 1.000000 1.000000
1.000000 1.000000 1.000000
1.000000 1.000000 1.000000
1.000000 1.000000 1.000000
1.000000 1.000000 1.000000
0.163944 0.000000 0.789888
0.662645 0.000000 1.000000
1.000000 0.709016 1.000000
1.000000 1.000000 1.000000
1.000000 1.000000 1.000000
1.000000 1.000000 1.000000
1.000000 1.000000 1.000000
1.000000 1.000000 1.000000
1.000000 1.000000 1.000000
0.672623 0.000000 1.000000
0.960244 0.000000 1.000000
1.000000 0.746210 1.000000
1.000000 1.000000 1.000000
1.000000 1.000000 1.000000
1.000000 1.000000 1.000000
1.000000 1.000000 1.000000
1.000000 1.000000 1.000000
1.000000 1.000000 1.000000
1.000000 0.000000 1.000000
1.000000 0.048903 1.000000
1.000000 0.739765 1.000000
1.000000 1.000000 1.000000
1.000000 1.000000 1.000000
1.000000 1.000000 1.000000
1.000000 1.000000 1.000000
1.000000 1.000000 1.000000
1.000000 1.000000 1.000000
1.000000 0.139248 1.000000
1.000000 0.367946 1.000000
1.000000 0.883897 1.000000
1.000000 1.000000 1.000000
1.000000 1.000000 1.000000
1.000000 1.000000 1.000000
1.000000 1.000000 1.000000
1.000000 1.000000 1.000000
1.000000 1.000000 1.000000
1.000000 1.000000 1.000000
1.000000 1.000000 1.000000
1.000000 1.000000 1.000000
1.000000 1.000000 1.000000
1.000000 1.000000 1.000000
1.000000 1.000000 1.000000
1.000000 1.000000 1.000000
1.000000 1.000000 1.000000
1.000000 1.000000 1.000000
1.000000 1.000000 1.000000
1.000000 1.000000 1.000000
1.000000 1.000000 1.000000
1.000000 1.000000 1.000000
1.000000 1.000000 1.000000
1.000000 1.000000 1.000000
1.000000 1.000000 1.000000
1.000000 1.000000 1.000000
1.000000 1.000000 1.000000
1.000000 1.000000 1.000000
1.000000 1.000000 1.000000
1.000000 1.000000 1.000000
1.000000 1.000000 1.000000
1.000000 1.000000 1.000000
1.000000 1.000000 1.000000
1.000000 1.000000 1.000000
1.000000 1.000000 1.000000
1.000000 1.000000 1.000000
