lrplugin/MindfulLensFilmEngine.lrplugin/profiles/luts/ektar_100.cube
# Generated from ColorChecker fit
LUT_3D_SIZE 33
DOMAIN_MIN 0.0 0.0 0.0
DOMAIN_MAX 1.0 1.0 1.0
0.000000 0.000000 0.031659
0.000000 0.000000 0.057388
0.000000 0.000000 0.085359
0.000000 0.000000 0.115551
0.000000 0.000000 0.147866
0.000000 0.000000 0.182130
0.000000 0.000000 0.218094
0.000000 0.000000 0.255433
0.000000 0.000000 0.293744
0.000000 0.000000 0.332551
0.000000 0.000000 0.371301
0.000000 0.000000 0.409365
0.000000 0.000000 0.446037
0.000000 0.000000 0.480537
0.000000 0.000000 0.512007
0.029067 0.001846 0.539516
0.057983 0.026394 0.562055
0.084035 0.047342 0.578538
0.105505 0.062948 0.587806
0.120534 0.071313 0.588623
0.127123 0.070382 0.579675
0.123127 0.057945 0.559576
0.106262 0.031635 0.526860
0.074098 0.000000 0.479988
0.024067 0.000000 0.417344
0.000000 0.000000 0.337237
0.000000 0.000000 0.237897
0.000000 0.000000 0.117483
0.000000 0.000000 0.000000
0.000000 0.000000 0.000000
0.000000 0.000000 0.000000
0.000000 0.000000 0.000000
0.000000 0.000000 0.000000
0.051024 0.000000 0.119821
0.016654 0.000000 0.144360
0.000000 0.000000 0.171164
0.000000 0.000000 0.200178
0.000000 0.000000 0.231274
0.000000 0.000000 0.264245
0.000000 0.000000 0.298810
0.000000 0.000000 0.334613
0.000000 0.000000 0.371219
0.000000 0.000000 0.408120
0.000000 0.000000 0.444732
0.000000 0.010182 0.480392
0.016163 0.034541 0.514365
0.041839 0.059937 0.545837
0.068209 0.085210 0.573920
0.093947 0.109044 0.597650
0.117582 0.129966 0.615986
0.137505 0.146349 0.627811
0.151959 0.156409 0.631934
0.159050 0.158203 0.627087
0.156739 0.149637 0.611925
0.142845 0.128457 0.585028
0.115044 0.092255 0.544901
0.070872 0.038465 0.489972
0.007721 0.000000 0.418593
0.000000 0.000000 0.329040
0.000000 0.000000 0.219514
0.000000 0.000000 0.088140
0.000000 0.000000 0.000000
0.000000 0.000000 0.000000
0.000000 0.000000 0.000000
0.000000 0.000000 0.000000
0.000000 0.000000 0.000000
0.102561 0.050016 0.192952
0.071048 0.036546 0.216513
0.044766 0.026243 0.242355
0.024057 0.019625 0.270392
0.009123 0.017049 0.300464
0.000020 0.018721 0.332332
0.000000 0.024686 0.365684
0.000000 0.034837 0.400131
0.006155 0.048907 0.435207
0.018119 0.066476 0.470373
0.034072 0.086967 0.505011
0.053220 0.109646 0.538428
0.074624 0.133624 0.569857
0.097204 0.157855 0.598451
0.119738 0.181138 0.623293
0.140862 0.202114 0.643383
0.159068 0.219269 0.657652
0.172708 0.230933 0.664950
0.179989 0.235281 0.664053
0.178979 0.230329 0.653662
0.167601 0.213939 0.632401
0.143636 0.183817 0.598817
0.104724 0.137511 0.551384
0.048362 0.072415 0.488497
0.000000 0.000000 0.408478
0.000000 0.000000 0.309570
0.000000 0.000000 0.189943
0.000000 0.000000 0.047689
0.000000 0.000000 0.000000
0.000000 0.000000 0.000000
0.000000 0.000000 0.000000
0.000000 0.000000 0.000000
0.000000 0.000000 0.000000
0.139315 0.101783 0.251772
0.110587 0.093814 0.274573
0.086795 0.088678 0.299665
0.068244 0.086851 0.326933
0.055098 0.088648 0.356184
0.047377 0.094232 0.387147
0.044961 0.103608 0.419479
0.047584 0.116625 0.452758
0.054841 0.132977 0.486488
0.066183 0.152200 0.520095
0.080921 0.173675 0.552933
0.098220 0.196627 0.584275
0.117106 0.220124 0.613322
0.136460 0.243080 0.639198
0.155024 0.264249 0.660950
0.171394 0.282234 0.677549
0.184027 0.295476 0.687893
0.191236 0.302266 0.690801
0.191191 0.300734 0.685018
0.181922 0.288856 0.669211
0.161314 0.264451 0.641973
0.127112 0.225184 0.601820
0.076917 0.168561 0.547193
0.008189 0.091935 0.476457
0.000000 0.000000 0.387900
0.000000 0.000000 0.279736
0.000000 0.000000 0.150100
0.000000 0.000000 0.000000
0.000000 0.000000 0.000000
0.000000 0.000000 0.000000
0.000000 0.000000 0.000000
0.000000 0.000000 0.000000
0.000000 0.000000 0.000000
0.162985 0.142742 0.297214
0.136971 0.140298 0.319480
0.115595 0.140342 0.344044
0.099124 0.143306 0.370758
0.087683 0.149466 0.399398
0.081256 0.158940 0.429662
0.079684 0.171694 0.461174
0.082666 0.187533 0.493481
0.089757 0.206110 0.526055
0.100371 0.226918 0.558290
0.113781 0.249298 0.589508
0.129116 0.272433 0.618951
0.145363 0.295348 0.645787
0.161367 0.316914 0.669109
0.175830 0.335846 0.687931
0.187313 0.350703 0.701196
0.194234 0.359885 0.707765
0.194868 0.361641 0.706429
0.187348 0.354058 0.695899
0.169667 0.335072 0.674811
0.139672 0.302460 0.641727
0.095070 0.253843 0.595131
0.033425 0.186688 0.533431
0.000000 0.098302 0.454961
0.000000 0.000000 0.357977
0.000000 0.000000 0.240660
0.000000 0.000000 0.101116
0.000000 0.000000 0.000000
0.000000 0.000000 0.000000
0.000000 0.000000 0.000000
0.000000 0.000000 0.000000
0.000000 0.000000 0.000000
0.000000 0.000000 0.000000
0.175456 0.174355 0.330427
0.152092 0.177457 0.352391
0.133062 0.182690 0.376655
0.118596 0.190444 0.403039
0.108782 0.200953 0.431286
0.103566 0.214293 0.461064
0.102751 0.230388 0.491965
0.105998 0.249002 0.523503
0.112826 0.269744 0.555118
0.122611 0.292069 0.586175
0.134587 0.315272 0.615960
0.147847 0.338495 0.643687
0.161339 0.360723 0.668491
0.173872 0.380785 0.689431
0.184110 0.397352 0.705493
0.190576 0.408942 0.715585
0.191650 0.413914 0.718539
0.185570 0.410474 0.713111
0.170432 0.396668 0.697982
0.144191 0.370390 0.671757
0.104656 0.329374 0.632965
0.049497 0.271200 0.580058
0.000000 0.193293 0.511413
0.000000 0.092919 0.425332
0.000000 0.000000 0.320039
0.000000 0.000000 0.193683
0.000000 0.000000 0.044339
0.000000 0.000000 0.000000
0.000000 0.000000 0.000000
0.000000 0.000000 0.000000
0.000000 0.000000 0.000000
0.000000 0.000000 0.000000
0.000000 0.000000 0.000000
0.178800 0.198203 0.352776
0.158027 0.206870 0.374678
0.141279 0.217299 0.398878
0.128749 0.229839 0.425162
0.120489 0.244680 0.453243
0.116405 0.261860 0.482756
0.116263 0.281257 0.513260
0.119688 0.302596 0.544240
0.126160 0.325443 0.575103
0.135019 0.349210 0.605181
0.145460 0.373152 0.633731
0.156538 0.396369 0.659932
0.167165 0.417803 0.682889
0.176111 0.436241 0.701629
0.182004 0.450313 0.715106
0.183328 0.458495 0.722196
0.178425 0.459104 0.721700
0.165498 0.450304 0.712341
0.142604 0.430099 0.692770
0.107659 0.396341 0.661558
0.058436 0.346723 0.617203
0.000000 0.278783 0.558126
0.000000 0.189902 0.482671
0.000000 0.077307 0.389109
0.000000 0.000000 0.275633
0.000000 0.000000 0.140359
0.000000 0.000000 0.000000
0.000000 0.000000 0.000000
0.000000 0.000000 0.000000
0.000000 0.000000 0.000000
0.000000 0.000000 0.000000
0.000000 0.000000 0.000000
0.000000 0.000000 0.000000
0.175280 0.215991 0.365839
0.157041 0.230239 0.387928
0.142516 0.245869 0.412307
0.131858 0.263187 0.438730
0.125082 0.282344 0.466878
0.122057 0.303332 0.496354
0.122511 0.325991 0.526686
0.126031 0.350002 0.557326
0.132060 0.374889 0.587650
0.139900 0.400024 0.616959
0.148709 0.424618 0.644476
0.157504 0.447730 0.669349
0.165160 0.468260 0.690652
0.170409 0.484953 0.707381
0.171840 0.496398 0.718456
0.167902 0.501028 0.722723
0.156899 0.497119 0.718949
0.136995 0.482791 0.705828
0.106210 0.456010 0.681977
0.062423 0.414582 0.645937
0.003369 0.356160 0.596173
0.000000 0.278241 0.531074
0.000000 0.178163 0.448953
0.000000 0.053111 0.348049
0.000000 0.000000 0.226522
0.000000 0.000000 0.082458
0.000000 0.000000 0.000000
0.000000 0.000000 0.000000
0.000000 0.000000 0.000000
0.000000 0.000000 0.000000
0.000000 0.000000 0.000000
0.000000 0.000000 0.000000
0.000000 0.000000 0.000000
0.167344 0.229547 0.371411
0.151590 0.249389 0.393945
0.139232 0.270221 0.418754
0.130387 0.292309 0.445562
0.125031 0.315759 0.474018
0.122995 0.340525 0.503693
0.123972 0.366401 0.534083
0.127509 0.393028 0.564610
0.133013 0.419890 0.594616
0.139746 0.446314 0.623370
0.146831 0.471471 0.650065
0.153247 0.494377 0.673818
0.157830 0.513890 0.693668
0.159276 0.528715 0.708581
0.156136 0.537397 0.717445
0.146821 0.538328 0.719074
0.129598 0.529743 0.712204
0.102592 0.509719 0.695497
0.063787 0.476179 0.667537
0.011024 0.426890 0.626834
0.000000 0.359461 0.571821
0.000000 0.271347 0.500856
0.000000 0.159846 0.412220
0.000000 0.022099 0.304119
0.000000 0.000000 0.174683
0.000000 0.000000 0.021965
0.000000 0.000000 0.000000
0.000000 0.000000 0.000000
0.000000 0.000000 0.000000
0.000000 0.000000 0.000000
0.000000 0.000000 0.000000
0.000000 0.000000 0.000000
0.000000 0.000000 0.000000
0.157630 0.240819 0.371504
0.144315 0.266266 0.394745
0.134075 0.292300 0.420242
0.126988 0.319145 0.447689
0.122992 0.346865 0.476702
0.121883 0.375373 0.506820
0.123313 0.404420 0.537508
0.126794 0.433606 0.568154
0.131694 0.462373 0.598070
0.137238 0.490005 0.626494
0.142512 0.515633 0.652586
0.146457 0.538229 0.675431
0.147871 0.556612 0.694037
0.145413 0.569442 0.707338
0.137596 0.575224 0.714190
0.122793 0.572307 0.713375
0.099234 0.558884 0.703597
0.065008 0.532991 0.683487
0.018059 0.492510 0.651597
0.000000 0.435164 0.606404
0.000000 0.358522 0.546312
0.000000 0.259996 0.469644
0.000000 0.136842 0.374651
0.000000 0.000000 0.259507
0.000000 0.000000 0.122310
0.000000 0.000000 0.000000
0.000000 0.000000 0.000000
0.000000 0.000000 0.000000
0.000000 0.000000 0.000000
0.000000 0.000000 0.000000
0.000000 0.000000 0.000000
0.000000 0.000000 0.000000
0.000000 0.000000 0.000000
0.148962 0.251879 0.368343
0.138047 0.282939 0.392562
0.129879 0.314172 0.419015
0.124500 0.345758 0.447362
0.121810 0.377723 0.477187
0.121567 0.409935 0.507999
0.123388 0.442105 0.539230
0.126744 0.473789 0.570237
0.130967 0.504389 0.600301
0.135245 0.533146 0.628626
0.138626 0.559150 0.654341
0.140012 0.581331 0.676499
0.138166 0.598465 0.694077
0.131707 0.609171 0.705977
0.119112 0.611912 0.711023
0.098716 0.604995 0.707964
0.068712 0.586572 0.695475
0.027150 0.554637 0.672153
0.000000 0.507028 0.636519
0.000000 0.441428 0.587018
0.000000 0.355363 0.522022
0.000000 0.246205 0.439823
0.000000 0.111166 0.338639
0.000000 0.000000 0.216613
0.000000 0.000000 0.071810
0.000000 0.000000 0.000000
0.000000 0.000000 0.000000
0.000000 0.000000 0.000000
0.000000 0.000000 0.000000
0.000000 0.000000 0.000000
0.000000 0.000000 0.000000
0.000000 0.000000 0.000000
0.000000 0.000000 0.000000
0.144355 0.264920 0.364369
0.135803 0.301599 0.389845
0.129667 0.338024 0.417527
0.125950 0.374336 0.447043
0.124517 0.410516 0.477945
0.125087 0.446392 0.509710
0.127238 0.481632 0.541738
0.130406 0.515753 0.573355
0.133884 0.548110 0.603809
0.136824 0.577907 0.632274
0.138233 0.604189 0.657846
0.136979 0.625846 0.679546
0.131785 0.641611 0.696320
0.121234 0.650062 0.707037
0.103766 0.649619 0.710491
0.077676 0.638549 0.705399
0.041121 0.614959 0.690402
0.000000 0.576803 0.664066
0.000000 0.521878 0.624881
0.000000 0.447824 0.571262
0.000000 0.352126 0.501545
0.000000 0.232112 0.413993
0.000000 0.084954 0.306792
0.000000 0.000000 0.178052
0.000000 0.000000 0.025808
0.000000 0.000000 0.000000
0.000000 0.000000 0.000000
0.000000 0.000000 0.000000
0.000000 0.000000 0.000000
0.000000 0.000000 0.000000
0.000000 0.000000 0.000000
0.000000 0.000000 0.000000
0.000000 0.000000 0.000000
0.147010 0.282259 0.362238
0.140790 0.324558 0.389258
0.136650 0.366168 0.418451
0.134556 0.407185 0.449412
0.134334 0.447550 0.481662
0.135667 0.487046 0.514646
0.138095 0.525303 0.547733
0.141016 0.561794 0.580217
0.143686 0.595833 0.611313
0.145218 0.626580 0.640164
0.144584 0.653041 0.665834
0.140612 0.674062 0.687313
0.131989 0.688336 0.703514
0.117259 0.694397 0.713275
0.094825 0.690625 0.715358
0.062946 0.675244 0.708448
0.019740 0.646319 0.691154
0.000000 0.601763 0.662012
0.000000 0.539331 0.619478
0.000000 0.456620 0.561935
0.000000 0.351074 0.487689
0.000000 0.219978 0.394971
0.000000 0.060464 0.281934
0.000000 0.000000 0.146657
0.000000 0.000000 0.000000
0.000000 0.000000 0.000000
0.000000 0.000000 0.000000
0.000000 0.000000 0.000000
0.000000 0.000000 0.000000
0.000000 0.000000 0.000000
0.000000 0.000000 0.000000
0.000000 0.000000 0.000000
0.000000 0.000000 0.000000
0.160316 0.306333 0.364822
0.156402 0.354254 0.393681
0.154226 0.401037 0.424673
0.153720 0.446736 0.457363
0.154670 0.491251 0.491241
0.156721 0.534323 0.525718
0.159376 0.575540 0.560134
0.161996 0.614332 0.593747
0.163799 0.649973 0.625745
0.163861 0.681581 0.655236
0.161115 0.708117 0.681253
0.154353 0.728389 0.702755
0.142223 0.741046 0.718622
0.123233 0.744581 0.727661
0.095748 0.737331 0.728602
0.057988 0.717479 0.720098
0.008035 0.683049 0.700727
0.000000 0.631911 0.668991
0.000000 0.561776 0.623318
0.000000 0.470203 0.562056
0.000000 0.354592 0.483480
0.000000 0.212188 0.385789
0.000000 0.040079 0.267105
0.000000 0.000000 0.125475
0.000000 0.000000 0.000000
0.000000 0.000000 0.000000
0.000000 0.000000 0.000000
0.000000 0.000000 0.000000
0.000000 0.000000 0.000000
0.000000 0.000000 0.000000
0.000000 0.000000 0.000000
0.000000 0.000000 0.000000
0.000000 0.000000 0.000000
0.187849 0.339702 0.375209
0.186220 0.393242 0.406207
0.185984 0.445184 0.439296
0.187035 0.495541 0.474007
0.189121 0.544169 0.509799
0.191850 0.590770 0.546052
0.194688 0.634887 0.582071
0.196958 0.675910 0.617087
0.197840 0.713070 0.650253
0.196373 0.745444 0.680645
0.191452 0.771952 0.707267
0.181832 0.791358 0.729043
0.166124 0.802270 0.744823
0.142796 0.803139 0.753382
0.110177 0.792262 0.753417
0.066451 0.767776 0.743550
0.009659 0.727667 0.722328
0.000000 0.669761 0.688222
0.000000 0.591729 0.639624
0.000000 0.491086 0.574854
0.000000 0.365191 0.492155
0.000000 0.211246 0.389693
0.000000 0.026299 0.265558
0.000000 0.000000 0.117767
0.000000 0.000000 0.000000
0.000000 0.000000 0.000000
0.000000 0.000000 0.000000
0.000000 0.000000 0.000000
0.000000 0.000000 0.000000
0.000000 0.000000 0.000000
0.000000 0.000000 0.000000
0.000000 0.000000 0.000000
0.000000 0.000000 0.000000
0.233377 0.385048 0.396701
0.234015 0.444203 0.430148
0.235698 0.501289 0.465637
0.238279 0.556275 0.502669
0.241471 0.608978 0.540669
0.244844 0.659056 0.578986
0.247825 0.706011 0.616895
0.249700 0.749191 0.653592
0.249613 0.787786 0.688200
0.246563 0.820830 0.719763
0.239409 0.847202 0.747253
0.226868 0.865623 0.769563
0.207513 0.874659 0.785510
0.179776 0.872721 0.793838
0.141947 0.858062 0.793211
0.092172 0.828779 0.782222
0.028457 0.782814 0.759383
0.000000 0.717953 0.723134
0.000000 0.631823 0.671837
0.000000 0.521900 0.603779
0.000000 0.385499 0.517170
0.000000 0.219781 0.410146
0.000000 0.021752 0.280765
0.000000 0.000000 0.127011
0.000000 0.000000 0.000000
0.000000 0.000000 0.000000
0.000000 0.000000 0.000000
0.000000 0.000000 0.000000
0.000000 0.000000 0.000000
0.000000 0.000000 0.000000
0.000000 0.000000 0.000000
0.000000 0.000000 0.000000
0.000000 0.000000 0.000000
0.300851 0.445177 0.432815
0.303746 0.509939 0.469029
0.307331 0.572149 0.507230
0.311421 0.631735 0.546890
0.315694 0.688470 0.587400
0.319679 0.741972 0.628079
0.322769 0.791702 0.668168
0.324210 0.836963 0.706834
0.323108 0.876905 0.743165
0.318427 0.910521 0.776177
0.308987 0.936645 0.804806
0.293467 0.953960 0.827916
0.270403 0.960987 0.844293
0.238189 0.956097 0.852646
0.195078 0.937500 0.851610
0.139178 0.903252 0.839744
0.068457 0.851253 0.815531
0.000000 0.779246 0.777376
0.000000 0.684818 0.723612
0.000000 0.565401 0.652492
0.000000 0.418270 0.562196
0.000000 0.240543 0.450826
0.000000 0.029184 0.316411
0.000000 0.000000 0.156900
0.000000 0.000000 0.000000
0.000000 0.000000 0.000000
0.000000 0.000000 0.000000
0.000000 0.000000 0.000000
0.000000 0.000000 0.000000
0.000000 0.000000 0.000000
0.000000 0.000000 0.000000
0.000000 0.000000 0.000000
0.000000 0.000000 0.000000
0.394414 0.523015 0.487286
0.399558 0.593374 0.526590
0.405033 0.660686 0.567824
0.410618 0.724839 0.610425
0.415949 0.785563 0.653755
0.420522 0.842433 0.697100
0.423690 0.894869 0.739670
0.424663 0.942134 0.780598
0.422508 0.983333 0.818943
0.416151 1.000000 0.853687
0.404376 1.000000 0.883736
0.385823 1.000000 0.907921
0.358992 1.000000 0.924996
0.322239 1.000000 0.933639
0.273778 1.000000 0.932453
0.211682 0.994084 0.919966
0.133879 0.935869 0.894627
0.038157 0.856524 0.854811
0.000000 0.753593 0.798818
0.000000 0.624467 0.724871
0.000000 0.466378 0.631117
0.000000 0.276403 0.515626
0.000000 0.051464 0.376395
0.000000 0.000000 0.211343
0.000000 0.000000 0.018313
0.000000 0.000000 0.000000
0.000000 0.000000 0.000000
0.000000 0.000000 0.000000
0.000000 0.000000 0.000000
0.000000 0.000000 0.000000
0.000000 0.000000 0.000000
0.000000 0.000000 0.000000
0.000000 0.000000 0.000000
0.518394 0.621611 0.564061
0.525786 0.697554 0.606788
0.533144 0.769945 0.651381
0.540211 0.838629 0.697246
0.546586 0.903294 0.743714
0.551726 0.963475 0.790037
0.554947 1.000000 0.835394
0.555421 1.000000 0.878887
0.552178 1.000000 0.919543
0.544106 1.000000 0.956311
0.529952 1.000000 0.988067
0.508319 1.000000 1.000000
0.477668 1.000000 1.000000
0.436318 1.000000 1.000000
0.382445 1.000000 1.000000
0.314085 1.000000 1.000000
0.229128 1.000000 1.000000
0.125326 0.952791 0.959516
0.000284 0.841150 0.901542
0.000000 0.702096 0.825009
0.000000 0.532820 0.728034
0.000000 0.330357 0.608654
0.000000 0.091585 0.464835
0.000000 0.000000 0.294463
0.000000 0.000000 0.095351
0.000000 0.000000 0.000000
0.000000 0.000000 0.000000
0.000000 0.000000 0.000000
0.000000 0.000000 0.000000
0.000000 0.000000 0.000000
0.000000 0.000000 0.000000
0.000000 0.000000 0.000000
0.000000 0.000000 0.000000
0.677310 0.744136 0.667304
0.686952 0.825649 0.713794
0.696192 0.903091 0.762082
0.704734 0.976268 0.811541
0.712141 1.000000 0.861470
0.717833 1.000000 0.911091
0.721086 1.000000 0.959550
0.721036 1.000000 1.000000
0.716675 1.000000 1.000000
0.706855 1.000000 1.000000
0.690283 1.000000 1.000000
0.665525 1.000000 1.000000
0.631005 1.000000 1.000000
0.585005 1.000000 1.000000
0.525663 1.000000 1.000000
0.450977 1.000000 1.000000
0.358800 1.000000 1.000000
0.246845 1.000000 1.000000
0.112682 0.950614 1.000000
0.000000 0.801412 0.957216
0.000000 0.620716 0.857263
0.000000 0.405520 0.734235
0.000000 0.152661 0.586061
0.000000 0.000000 0.410600
0.000000 0.000000 0.205629
0.000000 0.000000 0.000000
0.000000 0.000000 0.000000
0.000000 0.000000 0.000000
0.000000 0.000000 0.000000
0.000000 0.000000 0.000000
0.000000 0.000000 0.000000
0.000000 0.000000 0.000000
0.000000 0.000000 0.000000
0.875866 0.893884 0.801396
0.887765 0.980948 0.851996
0.898890 1.000000 0.904320
0.908906 1.000000 0.957711
0.917339 1.000000 1.000000
0.923571 1.000000 1.000000
0.926841 1.000000 1.000000
0.926246 1.000000 1.000000
0.920743 1.000000 1.000000
0.909144 1.000000 1.000000
0.890120 1.000000 1.000000
0.862199 1.000000 1.000000
0.823768 1.000000 1.000000
0.773069 1.000000 1.000000
0.708205 1.000000 1.000000
0.627135 1.000000 1.000000
0.527676 1.000000 1.000000
0.407502 1.000000 1.000000
0.264146 1.000000 1.000000
0.094997 0.925657 1.000000
0.000000 0.733307 1.000000
0.000000 0.505132 0.896906
0.000000 0.237928 0.744621
0.000000 0.000000 0.564307
0.000000 0.000000 0.353710
0.000000 0.000000 0.110503
0.000000 0.000000 0.000000
0.000000 0.000000 0.000000
0.000000 0.000000 0.000000
0.000000 0.000000 0.000000
0.000000 0.000000 0.000000
0.000000 0.000000 0.000000
0.000000 0.000000 0.000000
1.000000 1.000000 0.970930
1.000000 1.000000 1.000000
1.000000 1.000000 1.000000
1.000000 1.000000 1.000000
1.000000 1.000000 1.000000
1.000000 1.000000 1.000000
1.000000 1.000000 1.000000
1.000000 1.000000 1.000000
1.000000 1.000000 1.000000
1.000000 1.000000 1.000000
1.000000 1.000000 1.000000
1.000000 1.000000 1.000000
1.000000 1.000000 1.000000
1.000000 1.000000 1.000000
0.935032 1.000000 1.000000
0.847526 1.000000 1.000000
0.740727 1.000000 1.000000
0.612273 1.000000 1.000000
0.459657 1.000000 1.000000
0.280232 1.000000 1.000000
0.071210 0.873957 1.000000
0.000000 0.632554 1.000000
0.000000 0.350744 0.945277
0.000000 0.025125 0.760354
0.000000 0.000000 0.544371
0.000000 0.000000 0.294968
0.000000 0.000000 0.009711
0.000000 0.000000 0.000000
0.000000 0.000000 0.000000
0.000000 0.000000 0.000000
0.000000 0.000000 0.000000
0.000000 0.000000 0.000000
0.000000 0.000000 0.000000
1.000000 1.000000 1.000000
1.000000 1.000000 1.000000
1.000000 1.000000 1.000000
1.000000 1.000000 1.000000
1.000000 1.000000 1.000000
1.000000 1.000000 1.000000
1.000000 1.000000 1.000000
1.000000 1.000000 1.000000
1.000000 1.000000 1.000000
1.000000 1.000000 1.000000
1.000000 1.000000 1.000000
1.000000 1.000000 1.000000
1.000000 1.000000 1.000000
1.000000 1.000000 1.000000
1.000000 1.000000 1.000000
1.000000 1.000000 1.000000
1.000000 1.000000 1.000000
0.866319 1.000000 1.000000
0.704382 1.000000 1.000000
0.514616 1.000000 1.000000
0.294192 1.000000 1.000000
0.040142 0.791269 1.000000
0.000000 0.494591 1.000000
0.000000 0.152671 1.000000
0.000000 0.000000 0.782605
0.000000 0.000000 0.527248
0.000000 0.000000 0.235190
0.000000 0.000000 0.000000
0.000000 0.000000 0.000000
0.000000 0.000000 0.000000
0.000000 0.000000 0.000000
0.000000 0.000000 0.000000
0.000000 0.000000 0.000000
1.000000 1.000000 1.000000
1.000000 1.000000 1.000000
1.000000 1.000000 1.000000
1.000000 1.000000 1.000000
1.000000 1.000000 1.000000
1.000000 1.000000 1.000000
1.000000 1.000000 1.000000
1.000000 1.000000 1.000000
1.000000 1.000000 1.000000
1.000000 1.000000 1.000000
1.000000 1.000000 1.000000
1.000000 1.000000 1.000000
1.000000 1.000000 1.000000
1.000000 1.000000 1.000000
1.000000 1.000000 1.000000
1.000000 1.000000 1.000000
1.000000 1.000000 1.000000
1.000000 1.000000 1.000000
1.000000 1.000000 1.000000
0.803509 1.000000 1.000000
0.571619 1.000000 1.000000
0.305001 0.984882 1.000000
0.000507 0.673070 1.000000
0.000000 0.314574 1.000000
0.000000 0.000000 1.000000
0.000000 0.000000 0.812560
0.000000 0.000000 0.513946
0.000000 0.000000 0.175203
0.000000 0.000000 0.000000
0.000000 0.000000 0.000000
0.000000 0.000000 0.000000
0.000000 0.000000 0.000000
0.000000 0.000000 0.000000
1.000000 1.000000 1.000000
1.000000 1.000000 1.000000
1.000000 1.000000 1.000000
1.000000 1.000000 1.000000
1.000000 1.000000 1.000000
1.000000 1.000000 1.000000
1.000000 1.000000 1.000000
1.000000 1.000000 1.000000
1.000000 1.000000 1.000000
1.000000 1.000000 1.000000
1.000000 1.000000 1.000000
1.000000 1.000000 1.000000
1.000000 1.000000 1.000000
1.000000 1.000000 1.000000
1.000000 1.000000 1.000000
1.000000 1.000000 1.000000
1.000000 1.000000 1.000000
1.000000 1.000000 1.000000
1.000000 1.000000 1.000000
1.000000 1.000000 1.000000
0.909041 1.000000 1.000000
0.629791 1.000000 1.000000
0.311520 0.889907 1.000000
0.000000 0.514555 1.000000
0.000000 0.087382 1.000000
0.000000 0.000000 1.000000
0.000000 0.000000 0.851416
0.000000 0.000000 0.505482
0.000000 0.000000 0.115848
0.000000 0.000000 0.000000
0.000000 0.000000 0.000000
0.000000 0.000000 0.000000
0.000000 0.000000 0.000000
1.000000 1.000000 1.000000
1.000000 1.000000 1.000000
1.000000 1.000000 1.000000
1.000000 1.000000 1.000000
1.000000 1.000000 1.000000
1.000000 1.000000 1.000000
1.000000 1.000000 1.000000
1.000000 1.000000 1.000000
1.000000 1.000000 1.000000
1.000000 1.000000 1.000000
1.000000 1.000000 1.000000
1.000000 1.000000 1.000000
1.000000 1.000000 1.000000
1.000000 1.000000 1.000000
1.000000 1.000000 1.000000
1.000000 1.000000 1.000000
1.000000 1.000000 1.000000
1.000000 1.000000 1.000000
1.000000 1.000000 1.000000
1.000000 1.000000 1.000000
1.000000 1.000000 1.000000
1.000000 1.000000 1.000000
0.688145 1.000000 1.000000
0.312498 0.756460 1.000000
0.000000 0.310640 1.000000
0.000000 0.000000 1.000000
0.000000 0.000000 1.000000
0.000000 0.000000 0.900385
0.000000 0.000000 0.502889
0.000000 0.000000 0.057978
0.000000 0.000000 0.000000
0.000000 0.000000 0.000000
0.000000 0.000000 0.000000
1.000000 1.000000 1.000000
1.000000 1.000000 1.000000
1.000000 1.000000 1.000000
1.000000 1.000000 1.000000
1.000000 1.000000 1.000000
1.000000 1.000000 1.000000
1.000000 1.000000 1.000000
1.000000 1.000000 1.000000
1.000000 1.000000 1.000000
1.000000 1.000000 1.000000
1.000000 1.000000 1.000000
1.000000 1.000000 1.000000
1.000000 1.000000 1.000000
1.000000 1.000000 1.000000
1.000000 1.000000 1.000000
1.000000 1.000000 1.000000
1.000000 1.000000 1.000000
1.000000 1.000000 1.000000
1.000000 1.000000 1.000000
1.000000 1.000000 1.000000
1.000000 1.000000 1.000000
1.000000 1.000000 1.000000
1.000000 1.000000 1.000000
0.745581 1.000000 1.000000
0.306570 0.579493 1.000000
0.000000 0.055960 1.000000
0.000000 0.000000 1.000000
