lrplugin/MindfulLensFilmEngine.lrplugin/profiles/luts/ektar_100.cube
# Generated from ColorChecker fit
LUT_3D_SIZE 9
DOMAIN_MIN 0.0 0.0 0.0
DOMAIN_MAX 1.0 1.0 1.0
0.000000 0.000000 0.031659
0.000000 0.000000 0.147866
0.000000 0.000000 0.293744
0.000000 0.000000 0.446037
0.057983 0.026394 0.562055
0.127123 0.070382 0.579675
0.024067 0.000000 0.417344
0.000000 0.000000 0.000000
0.000000 0.000000 0.000000
0.162985 0.142742 0.297214
0.087683 0.149466 0.399398
0.089757 0.206110 0.526055
0.145363 0.295348 0.645787
0.194234 0.359885 0.707765
0.139672 0.302460 0.641727
0.000000 0.000000 0.357977
0.000000 0.000000 0.000000
0.000000 0.000000 0.000000
0.167344 0.229547 0.371411
0.125031 0.315759 0.474018
0.133013 0.419890 0.594616
0.157830 0.513890 0.693668
0.129598 0.529743 0.712204
0.000000 0.359461 0.571821
0.000000 0.000000 0.174683
0.000000 0.000000 0.000000
0.000000 0.000000 0.000000
0.147010 0.282259 0.362238
0.134334 0.447550 0.481662
0.143686 0.595833 0.611313
0.131989 0.688336 0.703514
0.019740 0.646319 0.691154
0.000000 0.351074 0.487689
0.000000 0.000000 0.000000
0.000000 0.000000 0.000000
0.000000 0.000000 0.000000
0.300851 0.445177 0.432815
0.315694 0.688470 0.587400
0.323108 0.876905 0.743165
0.270403 0.960987 0.844293
0.068457 0.851253 0.815531
0.000000 0.418270 0.562196
0.000000 0.000000 0.000000
0.000000 0.000000 0.000000
0.000000 0.000000 0.000000
0.875866 0.893884 0.801396
0.917339 1.000000 1.000000
0.920743 1.000000 1.000000
0.823768 1.000000 1.000000
0.527676 1.000000 1.000000
0.000000 0.733307 1.000000
0.000000 0.000000 0.353710
0.000000 0.000000 0.000000
0.000000 0.000000 0.000000
1.000000 1.000000 1.000000
1.000000 1.000000 1.000000
1.000000 1.000000 1.000000
1.000000 1.000000 1.000000
1.000000 1.000000 1.000000
0.909041 1.000000 1.000000
0.000000 0.087382 1.000000
0.000000 0.000000 0.115848
0.000000 0.000000 0.000000
1.000000 1.000000 1.000000
1.000000 1.000000 1.000000
1.000000 1.000000 1.000000
1.000000 1.000000 1.000000
1.000000 1.000000 1.000000
1.000000 1.000000 1.000000
1.000000 1.000000 1.000000
0.000000 0.000000 1.000000
0.000000 0.000000 0.000000
1.000000 1.000000 1.000000
1.000000 1.000000 1.000000
1.000000 1.000000 1.000000
1.000000 1.000000 1.000000
1.000000 1.000000 1.000000
1.000000 1.000000 1.000000
1.000000 1.000000 1.000000
1.000000 0.320519 1.000000
0.000000 0.000000 1.000000
0.123805 0.070379 0.000000
0.000000 0.000000 0.000000
0.000000 0.000000 0.000000
0.027903 0.000000 0.148285
0.198016 0.000000 0.320951
0.381598 0.002663 0.466174
0.471463 0.000000 0.514480
0.324001 0.000000 0.376962
0.000000 0.000000 0.000000
0.296065 0.290776 0.190656
0.193518 0.205418 0.221399
0.182841 0.184172 0.310903
0.256514 0.225733 0.439854
0.370590 0.288826 0.569501
0.444696 0.292207 0.641665
0.362030 0.114665 0.578729
0.000000 0.000000 0.283648
0.000000 0.000000 0.000000
0.282936 0.360133 0.297183
0.221833 0.363980 0.338491
0.226825 0.401742 0.431658
0.280775 0.461390 0.549228
0.330119 0.490927 0.644312
0.284866 0.398385 0.650587
0.018600 0.051830 0.482299
0.000000 0.000000 0.034259
0.000000 0.000000 0.000000
0.229813 0.388497 0.292917
0.206254 0.480269 0.359041
0.221826 0.572833 0.468840
0.249777 0.643438 0.586715
0.226926 0.629364 0.657638
0.053666 0.427920 0.607144
0.000000 0.000000 0.341339
0.000000 0.000000 0.000000
0.000000 0.000000 0.000000
0.330225 0.517202 0.337449
0.341540 0.694952 0.444591
0.363837 0.837448 0.585938
0.360746 0.911215 0.717753
0.259469 0.842810 0.776865
0.000000 0.518820 0.680671
0.000000 0.000000 0.327135
0.000000 0.000000 0.000000
0.000000 0.000000 0.000000
0.825828 0.918867 0.645504
0.870581 1.000000 0.811813
0.896978 1.000000 1.000000
0.859034 1.000000 1.000000
0.674334 1.000000 1.000000
0.224037 0.840376 1.000000
0.000000 0.000000 0.666104
0.000000 0.000000 0.000000
0.000000 0.000000 0.000000
1.000000 1.000000 1.000000
1.000000 1.000000 1.000000
1.000000 1.000000 1.000000
1.000000 1.000000 1.000000
1.000000 1.000000 1.000000
1.000000 1.000000 1.000000
0.082657 0.404874 1.000000
0.000000 0.000000 0.664947
0.000000 0.000000 0.000000
1.000000 1.000000 1.000000
1.000000 1.000000 1.000000
1.000000 1.000000 1.000000
1.000000 1.000000 1.000000
1.000000 1.000000 1.000000
1.000000 1.000000 1.000000
1.000000 1.000000 1.000000
0.000000 0.000000 1.000000
0.000000 0.000000 0.731444
1.000000 1.000000 1.000000
1.000000 1.000000 1.000000
1.000000 1.000000 1.000000
1.000000 1.000000 1.000000
1.000000 1.000000 1.000000
1.000000 1.000000 1.000000
1.000000 1.000000 1.000000
1.000000 0.925203 1.000000
0.000000 0.000000 1.000000
0.249433 0.212059 0.000000
0.055688 0.000000 0.000000
0.000000 0.000000 0.000000
0.059390 0.000000 0.000000
0.257250 0.000000 0.124868
0.525346 0.000000 0.356725
0.772818 0.000000 0.565098
0.872375 0.000000 0.673160
0.660302 0.000000 0.584654
0.414184 0.415048 0.172373
0.275253 0.237431 0.127730
0.237296 0.136464 0.166536
0.309118 0.126862 0.281555
0.463093 0.183369 0.446120
0.635171 0.240762 0.614130
0.724874 0.193848 0.720052
0.595296 0.000000 0.678920
0.073103 0.000000 0.386335
0.377661 0.458545 0.285695
0.287862 0.377518 0.260373
0.274567 0.344749 0.311175
0.336963 0.364227 0.422726
0.437809 0.399975 0.560217
0.503437 0.376046 0.669408
0.423752 0.176524 0.676624
0.052231 0.000000 0.488759
0.000000 0.000000 0.000000
0.279922 0.449632 0.259852
0.234803 0.463044 0.265959
0.240531 0.493396 0.339582
0.286677 0.533954 0.457207
0.326381 0.538017 0.575884
0.276359 0.418916 0.633232
0.016900 0.050013 0.547435
0.000000 0.000000 0.217248
0.000000 0.000000 0.000000
0.309152 0.526679 0.250907
0.305495 0.631712 0.302500
0.325841 0.719443 0.411720
0.350143 0.772414 0.546910
0.321925 0.733202 0.656980
0.148286 0.504415 0.671410
0.000000 0.000000 0.500243
0.000000 0.000000 0.034093
0.000000 0.000000 0.000000
0.701670 0.859338 0.470058
0.737488 1.000000 0.583143
0.769279 1.000000 0.742680
0.767375 1.000000 0.908875
0.665688 1.000000 1.000000
0.361697 0.798868 1.000000
0.000000 0.038218 0.757936
0.000000 0.000000 0.164130
0.000000 0.000000 0.000000
1.000000 1.000000 1.000000
1.000000 1.000000 1.000000
1.000000 1.000000 1.000000
1.000000 1.000000 1.000000
1.000000 1.000000 1.000000
1.000000 1.000000 1.000000
0.358419 0.515543 1.000000
0.000000 0.000000 0.887330
0.000000 0.000000 0.000000
1.000000 1.000000 1.000000
1.000000 1.000000 1.000000
1.000000 1.000000 1.000000
1.000000 1.000000 1.000000
1.000000 1.000000 1.000000
1.000000 1.000000 1.000000
1.000000 1.000000 1.000000
0.235561 0.000000 1.000000
0.000000 0.000000 1.000000
1.000000 1.000000 1.000000
1.000000 1.000000 1.000000
1.000000 1.000000 1.000000
1.000000 1.000000 1.000000
1.000000 1.000000 1.000000
1.000000 1.000000 1.000000
1.000000 1.000000 1.000000
1.000000 1.000000 1.000000
0.000000 0.000000 1.000000
0.387095 0.347912 0.000000
0.145351 0.000000 0.000000
0.030275 0.000000 0.000000
0.076611 0.000000 0.000000
0.282674 0.000000 0.000000
0.610353 0.000000 0.279790
0.985108 0.039979 0.607358
1.000000 0.162061 0.910525
1.000000 0.044551 1.000000
0.556279 0.540011 0.237751
0.376818 0.276426 0.123476
0.302048 0.100376 0.107733
0.357095 0.042593 0.195369
0.530657 0.093842 0.371796
0.775007 0.204919 0.602996
1.000000 0.286651 0.835515
1.000000 0.209898 0.996470
0.909086 0.000000 0.993540
0.502384 0.559650 0.347743
0.378973 0.397709 0.260157
0.337088 0.296713 0.263357
0.392239 0.276672 0.354048
0.523506 0.317627 0.509505
0.673546 0.359651 0.687566
0.748584 0.302850 0.826639
0.618422 0.007357 0.845698
0.116433 0.000000 0.644286
0.360124 0.510945 0.289251
0.287763 0.447625 0.238318
0.272576 0.415736 0.269142
0.320455 0.424565 0.370289
0.400866 0.443430 0.510891
0.446846 0.401682 0.640647
0.355005 0.188701 0.689824
0.000000 0.000000 0.569256
0.000000 0.000000 0.170343
0.312345 0.529301 0.214810
0.287266 0.560914 0.212444
0.293822 0.591519 0.281523
0.328288 0.619681 0.402473
0.350512 0.603995 0.536285
0.283915 0.463087 0.624517
0.015491 0.075616 0.589297
0.000000 0.000000 0.333317
0.000000 0.000000 0.000000
0.590027 0.781403 0.332087
0.609693 0.903595 0.392150
0.634268 0.989418 0.512064
0.650410 1.000000 0.664113
0.608349 0.963346 0.801148
0.421891 0.707229 0.856588
0.000000 0.126293 0.744418
0.000000 0.000000 0.359192
0.000000 0.000000 0.000000
1.000000 1.000000 0.903882
1.000000 1.000000 1.000000
1.000000 1.000000 1.000000
1.000000 1.000000 1.000000
1.000000 1.000000 1.000000
1.000000 1.000000 1.000000
0.500269 0.534712 1.000000
0.000000 0.000000 0.923321
0.000000 0.000000 0.000000
1.000000 1.000000 1.000000
1.000000 1.000000 1.000000
1.000000 1.000000 1.000000
1.000000 1.000000 1.000000
1.000000 1.000000 1.000000
1.000000 1.000000 1.000000
1.000000 1.000000 1.000000
0.522363 0.000000 1.000000
0.000000 0.000000 1.000000
1.000000 1.000000 1.000000
1.000000 1.000000 1.000000
1.000000 1.000000 1.000000
1.000000 1.000000 1.000000
1.000000 1.000000 1.000000
1.000000 1.000000 1.000000
1.000000 1.000000 1.000000
1.000000 1.000000 1.000000
0.395933 0.000000 1.000000
0.529269 0.466788 0.000000
0.241142 0.022400 0.000000
0.076706 0.000000 0.000000
0.087027 0.000000 0.000000
0.286742 0.000000 0.000000
0.654063 0.000000 0.232685
1.000000 0.129814 0.648272
1.000000 0.459938 1.000000
1.000000 0.654014 1.000000
0.726755 0.664929 0.351027
0.507611 0.328135 0.182571
0.391486 0.088105 0.118129
0.419828 0.000000 0.174627
0.597659 0.045376 0.349559
0.893573 0.216278 0.620988
1.000000 0.431143 0.947542
1.000000 0.576848 1.000000
1.000000 0.500306 1.000000
0.673431 0.673123 0.462978
0.516488 0.440695 0.327190
0.440704 0.280245 0.287248
0.477911 0.227802 0.351939
0.623514 0.279427 0.510616
0.836488 0.391214 0.733200
1.000000 0.479286 0.970179
1.000000 0.419798 1.000000
0.923013 0.048938 1.000000
0.498671 0.592524 0.376176
0.398379 0.460567 0.280878
0.356199 0.372879 0.271976
0.394347 0.354764 0.350115
0.498609 0.391563 0.496509
0.618346 0.428643 0.672938
0.666492 0.371406 0.821750
0.519551 0.085284 0.865860
0.017605 0.000000 0.708750
0.379981 0.555568 0.239628
0.332023 0.519524 0.194591
0.317943 0.497113 0.225215
0.350338 0.502920 0.324007
0.405381 0.511558 0.464040
0.422813 0.457676 0.598952
0.305953 0.235949 0.662953
0.000000 0.000000 0.570815
0.000000 0.000000 0.217881
0.543000 0.725977 0.257473
0.544290 0.780621 0.274416
0.554035 0.815341 0.355003
0.575219 0.833995 0.483602
0.574395 0.800477 0.625143
0.481688 0.638709 0.725127
0.190800 0.232647 0.709619
0.000000 0.000000 0.485255
0.000000 0.000000 0.000000
1.000000 1.000000 0.688984
1.000000 1.000000 0.781574
1.000000 1.000000 0.924509
1.000000 1.000000 1.000000
1.000000 1.000000 1.000000
1.000000 1.000000 1.000000
0.602194 0.552515 1.000000
0.000000 0.000000 0.882094
0.000000 0.000000 0.147675
1.000000 1.000000 1.000000
1.000000 1.000000 1.000000
1.000000 1.000000 1.000000
1.000000 1.000000 1.000000
1.000000 1.000000 1.000000
1.000000 1.000000 1.000000
1.000000 1.000000 1.000000
0.716866 0.000000 1.000000
0.000000 0.000000 1.000000
1.000000 1.000000 1.000000
1.000000 1.000000 1.000000
1.000000 1.000000 1.000000
1.000000 1.000000 1.000000
1.000000 1.000000 1.000000
1.000000 1.000000 1.000000
1.000000 1.000000 1.000000
1.000000 1.000000 1.000000
0.746711 0.000000 1.000000
0.633897 0.532344 0.000000
0.305997 0.032713 0.000000
0.093422 0.000000 0.000000
0.063559 0.000000 0.000000
0.247370 0.000000 0.000000
0.639389 0.000000 0.181579
1.000000 0.270859 0.663708
1.000000 0.820656 1.000000
1.000000 1.000000 1.000000
0.895477 0.763871 0.445296
0.642492 0.373095 0.247808
0.485465 0.086656 0.150210
0.482167 0.000000 0.181513
0.653941 0.037913 0.351291
0.985705 0.281247 0.649687
1.000000 0.640197 1.000000
1.000000 1.000000 1.000000
1.000000 1.000000 1.000000
0.872592 0.783448 0.579903
0.687191 0.497427 0.419674
0.577193 0.292762 0.350749
0.590753 0.221503 0.393993
0.739597 0.295730 0.550843
0.999025 0.487555 0.803300
1.000000 0.729122 1.000000
1.000000 0.912606 1.000000
1.000000 0.890214 1.000000
0.689278 0.689263 0.484540
0.565361 0.503232 0.367251
0.495105 0.372652 0.331392
0.517048 0.338849 0.389691
0.633301 0.403179 0.535442
0.809545 0.527032 0.742506
0.975038 0.631830 0.965313
1.000000 0.599023 1.000000
0.808655 0.270096 1.000000
0.517700 0.610788 0.304687
0.450400 0.519318 0.237964
0.413831 0.454468 0.241516
0.436916 0.446841 0.319931
0.512148 0.487072 0.458361
0.595592 0.525827 0.622528
0.606888 0.473803 0.758721
0.429247 0.201729 0.793794
0.000000 0.000000 0.635171
0.578156 0.708780 0.240954
0.563836 0.705776 0.234373
0.556133 0.697637 0.285629
0.574350 0.704243 0.391169
0.601364 0.705506 0.528006
0.583623 0.641369 0.653721
0.431151 0.411806 0.706460
0.017541 0.000000 0.604940
0.000000 0.000000 0.248442
1.000000 1.000000 0.549085
1.000000 1.000000 0.614170
1.000000 1.000000 0.723372
1.000000 1.000000 0.864996
1.000000 1.000000 1.000000
1.000000 1.000000 1.000000
0.723648 0.633890 1.000000
0.064544 0.000000 0.841679
0.000000 0.000000 0.289851
1.000000 1.000000 1.000000
1.000000 1.000000 1.000000
1.000000 1.000000 1.000000
1.000000 1.000000 1.000000
1.000000 1.000000 1.000000
1.000000 1.000000 1.000000
1.000000 1.000000 1.000000
0.895439 0.225006 1.000000
0.000000 0.000000 1.000000
1.000000 1.000000 1.000000
1.000000 1.000000 1.000000
1.000000 1.000000 1.000000
1.000000 1.000000 1.000000
1.000000 1.000000 1.000000
1.000000 1.000000 1.000000
1.000000 1.000000 1.000000
1.000000 1.000000 1.000000
1.000000 0.000000 1.000000
0.624386 0.483043 0.000000
0.268317 0.000000 0.000000
0.013816 0.000000 0.000000
0.000000 0.000000 0.000000
0.107941 0.000000 0.000000
0.514705 0.000000 0.061495
1.000000 0.440384 0.598386
1.000000 1.000000 1.000000
1.000000 1.000000 1.000000
0.997776 0.785713 0.422505
0.721786 0.366648 0.230829
0.529303 0.057842 0.125320
0.494422 0.000000 0.147068
0.654809 0.046199 0.317729
1.000000 0.381041 0.639527
1.000000 0.901498 1.000000
1.000000 1.000000 1.000000
1.000000 1.000000 1.000000
1.000000 0.849912 0.615876
0.843333 0.533661 0.464665
0.703799 0.306490 0.390611
0.693000 0.236468 0.426662
0.838986 0.351694 0.586334
1.000000 0.640301 0.863711
1.000000 1.000000 1.000000
1.000000 1.000000 1.000000
1.000000 1.000000 1.000000
0.891126 0.770865 0.547113
0.752883 0.551791 0.439903
0.658461 0.397696 0.399555
0.662721 0.365924 0.450879
0.784096 0.473853 0.599249
1.000000 0.698892 0.830608
1.000000 0.978481 1.000000
1.000000 1.000000 1.000000
1.000000 1.000000 1.000000
0.696606 0.675077 0.358168
0.618494 0.546880 0.300441
0.562580 0.456635 0.298001
0.574108 0.450964 0.367515
0.661892 0.536522 0.506218
0.798323 0.679994 0.691912
0.919362 0.808098 0.882966
0.924544 0.807582 1.000000
0.676975 0.525226 1.000000
0.678522 0.720340 0.246120
0.656356 0.676054 0.245311
0.633578 0.639769 0.286928
0.645813 0.647384 0.379499
0.692261 0.694832 0.512119
0.735693 0.738074 0.654448
0.702455 0.693104 0.756716
0.482465 0.435949 0.749719
0.000000 0.000000 0.544819
1.000000 1.000000 0.463187
1.000000 1.000000 0.528675
1.000000 1.000000 0.622448
1.000000 1.000000 0.744892
1.000000 1.000000 0.876960
1.000000 1.000000 0.980175
0.889547 0.818586 0.996623
0.434308 0.279614 0.848961
0.000000 0.000000 0.440411
1.000000 1.000000 1.000000
1.000000 1.000000 1.000000
1.000000 1.000000 1.000000
1.000000 1.000000 1.000000
1.000000 1.000000 1.000000
1.000000 1.000000 1.000000
1.000000 1.000000 1.000000
1.000000 0.554281 1.000000
0.000000 0.000000 1.000000
1.000000 1.000000 1.000000
1.000000 1.000000 1.000000
1.000000 1.000000 1.000000
1.000000 1.000000 1.000000
1.000000 1.000000 1.000000
1.000000 1.000000 1.000000
1.000000 1.000000 1.000000
1.000000 1.000000 1.000000
1.000000 0.000000 1.000000
0.389605 0.232156 0.000000
0.021963 0.000000 0.000000
0.000000 0.000000 0.000000
0.000000 0.000000 0.000000
0.000000 0.000000 0.000000
0.193850 0.000000 0.000000
0.874399 0.590466 0.365880
1.000000 1.000000 1.000000
1.000000 1.000000 1.000000
0.934447 0.654139 0.153453
0.651281 0.238948 0.012133
0.433783 0.000000 0.000000
0.372370 0.000000 0.000000
0.521032 0.019788 0.158464
0.897331 0.471682 0.509795
1.000000 1.000000 1.000000
1.000000 1.000000 1.000000
1.000000 1.000000 1.000000
1.000000 0.806614 0.457109
0.902624 0.489963 0.358071
0.743227 0.268460 0.312441
0.712353 0.226195 0.365249
0.854377 0.407287 0.542091
1.000000 0.815888 0.849133
1.000000 1.000000 1.000000
1.000000 1.000000 1.000000
1.000000 1.000000 1.000000
1.000000 0.781839 0.465518
0.890581 0.557221 0.410154
0.780897 0.405453 0.397483
0.770990 0.399902 0.464393
0.895614 0.573964 0.628343
1.000000 0.921068 0.887354
1.000000 1.000000 1.000000
1.000000 1.000000 1.000000
1.000000 1.000000 1.000000
0.853267 0.703357 0.317103
0.777869 0.563599 0.308753
0.710745 0.471470 0.331098
0.713462 0.489612 0.412887
0.811158 0.640700 0.563434
0.992545 0.907438 0.772624
1.000000 1.000000 1.000000
1.000000 1.000000 1.000000
1.000000 1.000000 1.000000
0.792591 0.725992 0.205416
0.775336 0.663259 0.249371
0.744850 0.620008 0.310739
0.753082 0.648158 0.410128
0.815554 0.759660 0.548714
0.911361 0.926497 0.708240
0.983170 1.000000 0.851016
0.937221 1.000000 0.919917
0.643328 0.879311 0.838390
1.000000 1.000000 0.379145
1.000000 1.000000 0.482642
1.000000 1.000000 0.588987
1.000000 1.000000 0.710650
1.000000 1.000000 0.840664
1.000000 1.000000 0.952633
1.000000 1.000000 1.000000
0.818552 0.875984 0.919676
0.218495 0.266874 0.624791
1.000000 1.000000 1.000000
1.000000 1.000000 1.000000
1.000000 1.000000 1.000000
1.000000 1.000000 1.000000
1.000000 1.000000 1.000000
1.000000 1.000000 1.000000
1.000000 1.000000 1.000000
1.000000 1.000000 1.000000
0.420798 0.003842 1.000000
1.000000 1.000000 1.000000
1.000000 1.000000 1.000000
1.000000 1.000000 1.000000
1.000000 1.000000 1.000000
1.000000 1.000000 1.000000
1.000000 1.000000 1.000000
1.000000 1.000000 1.000000
1.000000 1.000000 1.000000
1.000000 0.333573 1.000000
0.000000 0.000000 0.000000
0.000000 0.000000 0.000000
0.000000 0.000000 0.000000
0.000000 0.000000 0.000000
0.000000 0.000000 0.000000
0.000000 0.000000 0.000000
0.287258 0.647988 0.000000
1.000000 1.000000 0.709594
1.000000 1.000000 1.000000
0.571748 0.267640 0.000000
0.302228 0.000000 0.000000
0.075150 0.000000 0.000000
0.000000 0.000000 0.000000
0.138845 0.000000 0.000000
0.533816 0.484000 0.148634
1.000000 1.000000 0.719649
1.000000 1.000000 1.000000
1.000000 1.000000 1.000000
0.938641 0.562456 0.000000
0.748244 0.281702 0.000000
0.583648 0.100512 0.000000
0.541977 0.118992 0.093911
0.683926 0.397284 0.311969
1.000000 0.955558 0.663117
1.000000 1.000000 1.000000
1.000000 1.000000 1.000000
1.000000 1.000000 1.000000
0.992582 0.641503 0.110231
0.873558 0.445305 0.158178
0.762510 0.328177 0.215046
0.746944 0.379503 0.329803
0.877937 0.648700 0.531989
1.000000 1.000000 0.831706
1.000000 1.000000 1.000000
1.000000 1.000000 1.000000
1.000000 1.000000 1.000000
0.889717 0.625357 0.067380
0.835550 0.505672 0.158485
0.770345 0.441640 0.246090
0.771992 0.511920 0.371025
0.881952 0.755207 0.554686
1.000000 1.000000 0.799039
1.000000 1.000000 1.000000
1.000000 1.000000 1.000000
1.000000 1.000000 1.000000
0.834320 0.665879 0.020140
0.839726 0.614001 0.157548
0.813894 0.591431 0.277754
0.825095 0.666109 0.413446
0.905175 0.866005 0.577881
1.000000 1.000000 0.764883
1.000000 1.000000 0.948842
1.000000 1.000000 1.000000
1.000000 1.000000 1.000000
1.000000 0.946216 0.213669
1.000000 0.952770 0.402476
1.000000 0.959366 0.559094
1.000000 1.000000 0.708073
1.000000 1.000000 0.854527
1.000000 1.000000 0.984141
1.000000 1.000000 1.000000
1.000000 1.000000 1.000000
0.827461 1.000000 0.837279
1.000000 1.000000 0.948257
1.000000 1.000000 1.000000
1.000000 1.000000 1.000000
1.000000 1.000000 1.000000
1.000000 1.000000 1.000000
1.000000 1.000000 1.000000
1.000000 1.000000 1.000000
1.000000 1.000000 1.000000
0.923316 1.000000 1.000000
1.000000 1.000000 1.000000
1.000000 1.000000 1.000000
1.000000 1.000000 1.000000
1.000000 1.000000 1.000000
1.000000 1.000000 1.000000
1.000000 1.000000 1.000000
1.000000 1.000000 1.000000
1.000000 1.000000 1.000000
1.000000 1.000000 1.000000
