lrplugin/MindfulLensFilmEngine.lrplugin/profiles/luts/ektar_100.cube
# Generated from ColorChecker fit
LUT_3D_SIZE 5
DOMAIN_MIN 0.0 0.0 0.0
DOMAIN_MAX 1.0 1.0 1.0
0.000000 0.000000 0.031659
0.000000 0.000000 0.293744
0.057983 0.026394 0.562055
0.024067 0.000000 0.417344
0.000000 0.000000 0.000000
0.167344 0.229547 0.371411
0.133013 0.419890 0.594616
0.129598 0.529743 0.712204
0.000000 0.000000 0.174683
0.000000 0.000000 0.000000
0.300851 0.445177 0.432815
0.323108 0.876905 0.743165
0.068457 0.851253 0.815531
0.000000 0.000000 0.000000
0.000000 0.000000 0.000000
1.000000 1.000000 1.000000
1.000000 1.000000 1.000000
1.000000 1.000000 1.000000
0.000000 0.087382 1.000000
0.000000 0.000000 0.000000
1.000000 1.000000 1.000000
1.000000 1.000000 1.000000
1.000000 1.000000 1.000000
1.000000 1.000000 1.000000
0.000000 0.000000 1.000000
0.249433 0.212059 0.000000
0.000000 0.000000 0.000000
0.257250 0.000000 0.124868
0.772818 0.000000 0.565098
0.660302 0.000000 0.584654
0.377661 0.458545 0.285695
0.274567 0.344749 0.311175
0.437809 0.399975 0.560217
0.423752 0.176524 0.676624
0.000000 0.000000 0.000000
0.309152 0.526679 0.250907
0.325841 0.719443 0.411720
0.321925 0.733202 0.656980
0.000000 0.000000 0.500243
0.000000 0.000000 0.000000
1.000000 1.000000 1.000000
1.000000 1.000000 1.000000
1.000000 1.000000 1.000000
0.358419 0.515543 1.000000
0.000000 0.000000 0.000000
1.000000 1.000000 1.000000
1.000000 1.000000 1.000000
1.000000 1.000000 1.000000
1.000000 1.000000 1.000000
0.000000 0.000000 1.000000
0.529269 0.466788 0.000000
0.076706 0.000000 0.000000
0.286742 0.000000 0.000000
1.000000 0.129814 0.648272
1.000000 0.654014 1.000000
0.673431 0.673123 0.462978
0.440704 0.280245 0.287248
0.623514 0.279427 0.510616
1.000000 0.479286 0.970179
0.923013 0.048938 1.000000
0.379981 0.555568 0.239628
0.317943 0.497113 0.225215
0.405381 0.511558 0.464040
0.305953 0.235949 0.662953
0.000000 0.000000 0.217881
1.000000 1.000000 0.688984
1.000000 1.000000 0.924509
1.000000 1.000000 1.000000
0.602194 0.552515 1.000000
0.000000 0.000000 0.147675
1.000000 1.000000 1.000000
1.000000 1.000000 1.000000
1.000000 1.000000 1.000000
1.000000 1.000000 1.000000
0.746711 0.000000 1.000000
0.624386 0.483043 0.000000
0.013816 0.000000 0.000000
0.107941 0.000000 0.000000
1.000000 0.440384 0.598386
1.000000 1.000000 1.000000
1.000000 0.849912 0.615876
0.703799 0.306490 0.390611
0.838986 0.351694 0.586334
1.000000 1.000000 1.000000
1.000000 1.000000 1.000000
0.696606 0.675077 0.358168
0.562580 0.456635 0.298001
0.661892 0.536522 0.506218
0.919362 0.808098 0.882966
0.676975 0.525226 1.000000
1.000000 1.000000 0.463187
1.000000 1.000000 0.622448
1.000000 1.000000 0.876960
0.889547 0.818586 0.996623
0.000000 0.000000 0.440411
1.000000 1.000000 1.000000
1.000000 1.000000 1.000000
1.000000 1.000000 1.000000
1.000000 1.000000 1.000000
1.000000 0.000000 1.000000
0.000000 0.000000 0.000000
0.000000 0.000000 0.000000
0.000000 0.000000 0.000000
0.287258 0.647988 0.000000
1.000000 1.000000 1.000000
0.938641 0.562456 0.000000
0.583648 0.100512 0.000000
0.683926 0.397284 0.311969
1.000000 1.000000 1.000000
1.000000 1.000000 1.000000
0.889717 0.625357 0.067380
0.770345 0.441640 0.246090
0.881952 0.755207 0.554686
1.000000 1.000000 1.000000
1.000000 1.000000 1.000000
1.000000 0.946216 0.213669
1.000000 0.959366 0.559094
1.000000 1.000000 0.854527
1.000000 1.000000 1.000000
0.827461 1.000000 0.837279
1.000000 1.000000 1.000000
1.000000 1.000000 1.000000
1.000000 1.000000 1.000000
1.000000 1.000000 1.000000
1.000000 1.000000 1.000000
