lrplugin/MindfulLensFilmEngine.lrplugin/profiles/luts/ektar_100_cc.cube
# Generated from ColorChecker fit
LUT_3D_SIZE 5
DOMAIN_MIN 0.0 0.0 0.0
DOMAIN_MAX 1.0 1.0 1.0
0.000000 0.000000 0.032022
0.000000 0.000000 0.293841
0.058051 0.026630 0.562094
0.024263 0.000000 0.417307
0.000000 0.000000 0.000000
0.167252 0.229381 0.371558
0.132948 0.419689 0.594693
0.129646 0.529740 0.712262
0.000000 0.000000 0.174515
0.000000 0.000000 0.000000
0.300983 0.445116 0.433013
0.323291 0.877024 0.743378
0.068820 0.851523 0.815633
0.000000 0.000000 0.000000
0.000000 0.000000 0.000000
1.000000 1.000000 1.000000
1.000000 1.000000 1.000000
1.000000 1.000000 1.000000
0.000000 0.086697 1.000000
0.000000 0.000000 0.000000
1.000000 1.000000 1.000000
1.000000 1.000000 1.000000
1.000000 1.000000 1.000000
1.000000 1.000000 1.000000
0.000000 0.000000 1.000000
0.249643 0.212873 0.000000
0.000000 0.000000 0.000000
0.257368 0.000000 0.124908
0.773095 0.000000 0.565316
0.661347 0.000000 0.584695
0.377689 0.458627 0.285741
0.274559 0.344644 0.311120
0.437827 0.399957 0.560215
0.423800 0.176584 0.676650
0.000000 0.000000 0.000000
0.309293 0.526752 0.250948
0.325889 0.719491 0.411761
0.321976 0.733250 0.657009
0.000000 0.000000 0.500040
0.000000 0.000000 0.000000
1.000000 1.000000 1.000000
1.000000 1.000000 1.000000
1.000000 1.000000 1.000000
0.358124 0.514291 1.000000
0.000000 0.000000 0.000000
1.000000 1.000000 1.000000
1.000000 1.000000 1.000000
1.000000 1.000000 1.000000
1.000000 1.000000 1.000000
0.000000 0.000000 1.000000
0.529583 0.467857 0.000000
0.076869 0.000000 0.000000
0.286887 0.000000 0.000000
1.000000 0.130838 0.648873
1.000000 0.656525 1.000000
0.673465 0.673363 0.463133
0.440695 0.280180 0.287216
0.623582 0.279488 0.510667
1.000000 0.479837 0.970482
0.924024 0.050227 1.000000
0.379989 0.555611 0.239670
0.317870 0.497032 0.225175
0.405369 0.511542 0.464027
0.305997 0.235954 0.662950
0.000000 0.000000 0.217382
1.000000 1.000000 0.688988
1.000000 1.000000 0.924495
1.000000 1.000000 1.000000
0.601640 0.551377 1.000000
0.000000 0.000000 0.146234
1.000000 1.000000 1.000000
1.000000 1.000000 1.000000
1.000000 1.000000 1.000000
1.000000 1.000000 1.000000
0.743608 0.000000 1.000000
0.624940 0.484370 0.000000
0.013954 0.000000 0.000000
0.107948 0.000000 0.000000
1.000000 0.441885 0.599366
1.000000 1.000000 1.000000
1.000000 0.850220 0.616119
0.703721 0.306341 0.390595
0.839026 0.351788 0.586459
1.000000 1.000000 1.000000
1.000000 1.000000 1.000000
0.696458 0.674962 0.358246
0.562368 0.456329 0.297914
0.661885 0.536495 0.506213
0.919768 0.808806 0.883237
0.678263 0.527061 1.000000
1.000000 1.000000 0.463107
1.000000 1.000000 0.622290
1.000000 1.000000 0.876803
0.889278 0.818099 0.996466
0.000000 0.000000 0.439816
1.000000 1.000000 1.000000
1.000000 1.000000 1.000000
1.000000 1.000000 1.000000
1.000000 1.000000 1.000000
1.000000 0.000000 1.000000
0.000000 0.000000 0.000000
0.000000 0.000000 0.000000
0.000000 0.000000 0.000000
0.287573 0.650366 0.000000
1.000000 1.000000 1.000000
0.939269 0.563349 0.000000
0.583791 0.100690 0.000000
0.684065 0.397834 0.312198
1.000000 1.000000 1.000000
1.000000 1.000000 1.000000
0.889877 0.625595 0.067505
0.770314 0.441585 0.246039
0.882207 0.755725 0.554855
1.000000 1.000000 1.000000
1.000000 1.000000 1.000000
1.000000 0.946308 0.213632
1.000000 0.959190 0.558975
1.000000 1.000000 0.854562
1.000000 1.000000 1.000000
0.829147 1.000000 0.837955
1.000000 1.000000 1.000000
1.000000 1.000000 1.000000
1.000000 1.000000 1.000000
1.000000 1.000000 1.000000
1.000000 1.000000 1.000000
