lrplugin/MindfulLensFilmEngine.lrplugin/profiles/luts/ektar_100_cc.cube
# Generated from ColorChecker fit
LUT_3D_SIZE 9
DOMAIN_MIN 0.0 0.0 0.0
DOMAIN_MAX 1.0 1.0 1.0
0.000000 0.000000 0.032022
0.000000 0.000000 0.148070
0.000000 0.000000 0.293841
0.000000 0.000000 0.446084
0.058051 0.026630 0.562094
0.127228 0.070715 0.579707
0.024263 0.000000 0.417307
0.000000 0.000000 0.000000
0.000000 0.000000 0.000000
0.162947 0.142844 0.297424
0.087613 0.149393 0.399513
0.089706 0.205999 0.526111
0.145346 0.295288 0.645822
0.194246 0.359914 0.707799
0.139713 0.302562 0.641737
0.000000 0.000000 0.357878
0.000000 0.000000 0.000000
0.000000 0.000000 0.000000
0.167252 0.229381 0.371558
0.124920 0.315517 0.474122
0.132948 0.419689 0.594693
0.157828 0.513790 0.693737
0.129646 0.529740 0.712262
0.000000 0.359490 0.571822
0.000000 0.000000 0.174515
0.000000 0.000000 0.000000
0.000000 0.000000 0.000000
0.146961 0.282042 0.362389
0.134273 0.447335 0.481808
0.143692 0.595717 0.611452
0.132084 0.688347 0.703641
0.019905 0.646412 0.691243
0.000000 0.351129 0.487669
0.000000 0.000000 0.000000
0.000000 0.000000 0.000000
0.000000 0.000000 0.000000
0.300983 0.445116 0.433013
0.315802 0.688462 0.587617
0.323291 0.877024 0.743378
0.270687 0.961226 0.844475
0.068820 0.851523 0.815633
0.000000 0.418398 0.562120
0.000000 0.000000 0.000000
0.000000 0.000000 0.000000
0.000000 0.000000 0.000000
0.876369 0.894185 0.801655
0.917781 1.000000 1.000000
0.921239 1.000000 1.000000
0.824355 1.000000 1.000000
0.528330 1.000000 1.000000
0.000000 0.733503 1.000000
0.000000 0.000000 0.353064
0.000000 0.000000 0.000000
0.000000 0.000000 0.000000
1.000000 1.000000 1.000000
1.000000 1.000000 1.000000
1.000000 1.000000 1.000000
1.000000 1.000000 1.000000
1.000000 1.000000 1.000000
0.910055 1.000000 1.000000
0.000000 0.086697 1.000000
0.000000 0.000000 0.113968
0.000000 0.000000 0.000000
1.000000 1.000000 1.000000
1.000000 1.000000 1.000000
1.000000 1.000000 1.000000
1.000000 1.000000 1.000000
1.000000 1.000000 1.000000
1.000000 1.000000 1.000000
1.000000 1.000000 1.000000
0.000000 0.000000 1.000000
0.000000 0.000000 0.000000
1.000000 1.000000 1.000000
1.000000 1.000000 1.000000
1.000000 1.000000 1.000000
1.000000 1.000000 1.000000
1.000000 1.000000 1.000000
1.000000 1.000000 1.000000
1.000000 1.000000 1.000000
1.000000 0.316462 1.000000
0.000000 0.000000 1.000000
0.123951 0.071054 0.000000
0.000000 0.000000 0.000000
0.000000 0.000000 0.000000
0.027975 0.000000 0.148267
0.198088 0.000000 0.320956
0.381697 0.002960 0.466225
0.471654 0.000000 0.514542
0.324410 0.000000 0.376921
0.000000 0.000000 0.000000
0.296097 0.290983 0.190778
0.193508 0.205420 0.221421
0.182829 0.184094 0.310868
0.256510 0.225665 0.439812
0.370591 0.288820 0.569489
0.444707 0.292276 0.641682
0.362084 0.114777 0.578717
0.000000 0.000000 0.283466
0.000000 0.000000 0.000000
0.282912 0.360079 0.297234
0.221773 0.363813 0.338494
0.226781 0.401568 0.431636
0.280758 0.461270 0.549212
0.330118 0.490872 0.644316
0.284866 0.398359 0.650588
0.018604 0.051740 0.482212
0.000000 0.000000 0.033918
0.000000 0.000000 0.000000
0.229816 0.388379 0.292964
0.206215 0.480108 0.359079
0.221813 0.572715 0.468873
0.249805 0.643393 0.586753
0.226977 0.629363 0.657672
0.053706 0.427873 0.607127
0.000000 0.000000 0.341161
0.000000 0.000000 0.000000
0.000000 0.000000 0.000000
0.330372 0.517207 0.337536
0.341619 0.694955 0.444697
0.363934 0.837512 0.586047
0.360881 0.911338 0.717852
0.259619 0.842919 0.776923
0.000000 0.518770 0.680615
0.000000 0.000000 0.326828
0.000000 0.000000 0.000000
0.000000 0.000000 0.000000
0.826284 0.919178 0.645653
0.870914 1.000000 0.811997
0.897293 1.000000 1.000000
0.859358 1.000000 1.000000
0.674641 1.000000 1.000000
0.224266 0.840292 1.000000
0.000000 0.000000 0.665609
0.000000 0.000000 0.000000
0.000000 0.000000 0.000000
1.000000 1.000000 1.000000
1.000000 1.000000 1.000000
1.000000 1.000000 1.000000
1.000000 1.000000 1.000000
1.000000 1.000000 1.000000
1.000000 1.000000 1.000000
0.082791 0.403789 1.000000
0.000000 0.000000 0.663420
0.000000 0.000000 0.000000
1.000000 1.000000 1.000000
1.000000 1.000000 1.000000
1.000000 1.000000 1.000000
1.000000 1.000000 1.000000
1.000000 1.000000 1.000000
1.000000 1.000000 1.000000
1.000000 1.000000 1.000000
0.000000 0.000000 1.000000
0.000000 0.000000 0.728017
1.000000 1.000000 1.000000
1.000000 1.000000 1.000000
1.000000 1.000000 1.000000
1.000000 1.000000 1.000000
1.000000 1.000000 1.000000
1.000000 1.000000 1.000000
1.000000 1.000000 1.000000
1.000000 0.920417 1.000000
0.000000 0.000000 1.000000
0.249643 0.212873 0.000000
0.055846 0.000000 0.000000
0.000000 0.000000 0.000000
0.059508 0.000000 0.000000
0.257368 0.000000 0.124908
0.525502 0.000000 0.356859
0.773095 0.000000 0.565316
0.872920 0.000000 0.673380
0.661347 0.000000 0.584695
0.414277 0.415399 0.172506
0.275300 0.237550 0.127747
0.237335 0.136469 0.166487
0.309157 0.126851 0.281505
0.463136 0.183416 0.446122
0.635233 0.240915 0.614207
0.725005 0.194124 0.720171
0.595599 0.000000 0.678974
0.073756 0.000000 0.386115
0.377689 0.458627 0.285741
0.287848 0.377456 0.260352
0.274559 0.344644 0.311120
0.336971 0.364148 0.422681
0.437827 0.399957 0.560215
0.503461 0.376088 0.669448
0.423800 0.176584 0.676650
0.052365 0.000000 0.488636
0.000000 0.000000 0.000000
0.279956 0.449625 0.259873
0.234785 0.462959 0.265953
0.240523 0.493314 0.339564
0.286692 0.533915 0.457199
0.326405 0.538015 0.575897
0.276370 0.418898 0.633241
0.016887 0.049874 0.547360
0.000000 0.000000 0.216926
0.000000 0.000000 0.000000
0.309293 0.526752 0.250948
0.305551 0.631744 0.302544
0.325889 0.719491 0.411761
0.350202 0.772486 0.546951
0.321976 0.733250 0.657009
0.148290 0.504331 0.671377
0.000000 0.000000 0.500040
0.000000 0.000000 0.033529
0.000000 0.000000 0.000000
0.702061 0.859657 0.470141
0.737729 1.000000 0.583251
0.769463 1.000000 0.742788
0.767530 1.000000 0.908961
0.665789 1.000000 1.000000
0.361692 0.798662 1.000000
0.000000 0.037483 0.757561
0.000000 0.000000 0.163267
0.000000 0.000000 0.000000
1.000000 1.000000 1.000000
1.000000 1.000000 1.000000
1.000000 1.000000 1.000000
1.000000 1.000000 1.000000
1.000000 1.000000 1.000000
1.000000 1.000000 1.000000
0.358124 0.514291 1.000000
0.000000 0.000000 0.886090
0.000000 0.000000 0.000000
1.000000 1.000000 1.000000
1.000000 1.000000 1.000000
1.000000 1.000000 1.000000
1.000000 1.000000 1.000000
1.000000 1.000000 1.000000
1.000000 1.000000 1.000000
1.000000 1.000000 1.000000
0.234560 0.000000 1.000000
0.000000 0.000000 1.000000
1.000000 1.000000 1.000000
1.000000 1.000000 1.000000
1.000000 1.000000 1.000000
1.000000 1.000000 1.000000
1.000000 1.000000 1.000000
1.000000 1.000000 1.000000
1.000000 1.000000 1.000000
1.000000 1.000000 1.000000
0.000000 0.000000 1.000000
0.387359 0.348865 0.000000
0.145551 0.000000 0.000000
0.030439 0.000000 0.000000
0.076756 0.000000 0.000000
0.282826 0.000000 0.000000
0.610567 0.000000 0.280038
0.985489 0.040777 0.607762
1.000000 0.163295 0.911035
1.000000 0.046333 1.000000
0.556409 0.540491 0.237947
0.376898 0.276641 0.123533
0.302114 0.100446 0.107712
0.357163 0.042631 0.195346
0.530741 0.093952 0.371844
0.775138 0.205191 0.603160
1.000000 0.287160 0.835792
1.000000 0.210697 0.996783
0.910042 0.000000 0.993721
0.502429 0.559836 0.347834
0.378976 0.397721 0.260156
0.337096 0.296653 0.263306
0.392267 0.276626 0.354006
0.523559 0.317659 0.509523
0.673633 0.359804 0.687668
0.748745 0.303137 0.826797
0.618744 0.007764 0.845811
0.117072 0.000000 0.644155
0.360149 0.511006 0.289293
0.287736 0.447579 0.238307
0.272559 0.415666 0.269102
0.320465 0.424526 0.370259
0.400898 0.443448 0.510900
0.446892 0.401746 0.640696
0.355074 0.188766 0.689859
0.000000 0.000000 0.569149
0.000000 0.000000 0.169870
0.312439 0.529391 0.214842
0.287273 0.560932 0.212455
0.293818 0.591526 0.281518
0.328296 0.619702 0.402470
0.350520 0.604011 0.536290
0.283898 0.463037 0.624507
0.015431 0.075391 0.589192
0.000000 0.000000 0.332962
0.000000 0.000000 0.000000
0.590315 0.781675 0.332131
0.609824 0.903787 0.392200
0.634334 0.989568 0.512103
0.650440 1.000000 0.664137
0.608328 0.963333 0.801141
0.421778 0.706986 0.856499
0.000000 0.125647 0.744142
0.000000 0.000000 0.358544
0.000000 0.000000 0.000000
1.000000 1.000000 0.903945
1.000000 1.000000 1.000000
1.000000 1.000000 1.000000
1.000000 1.000000 1.000000
1.000000 1.000000 1.000000
1.000000 1.000000 1.000000
0.499762 0.533455 1.000000
0.000000 0.000000 0.922320
0.000000 0.000000 0.000000
1.000000 1.000000 1.000000
1.000000 1.000000 1.000000
1.000000 1.000000 1.000000
1.000000 1.000000 1.000000
1.000000 1.000000 1.000000
1.000000 1.000000 1.000000
1.000000 1.000000 1.000000
0.520999 0.000000 1.000000
0.000000 0.000000 1.000000
1.000000 1.000000 1.000000
1.000000 1.000000 1.000000
1.000000 1.000000 1.000000
1.000000 1.000000 1.000000
1.000000 1.000000 1.000000
1.000000 1.000000 1.000000
1.000000 1.000000 1.000000
1.000000 1.000000 1.000000
0.393019 0.000000 1.000000
0.529583 0.467857 0.000000
0.241364 0.023053 0.000000
0.076869 0.000000 0.000000
0.087159 0.000000 0.000000
0.286887 0.000000 0.000000
0.654298 0.000000 0.233055
1.000000 0.130838 0.648873
1.000000 0.461606 1.000000
1.000000 0.656525 1.000000
0.726904 0.665497 0.351301
0.507694 0.328399 0.182682
0.391546 0.088192 0.118145
0.419890 0.000000 0.174641
0.597753 0.045522 0.349664
0.893751 0.216663 0.621252
1.000000 0.431904 0.947990
1.000000 0.578119 1.000000
1.000000 0.502208 1.000000
0.673465 0.673363 0.463133
0.516474 0.440727 0.327225
0.440695 0.280180 0.287216
0.477932 0.227749 0.351912
0.623582 0.279488 0.510667
0.836637 0.391480 0.733376
1.000000 0.479837 0.970482
1.000000 0.420697 1.000000
0.924024 0.050227 1.000000
0.498652 0.592592 0.376258
0.398311 0.460499 0.280878
0.356146 0.372767 0.271928
0.394336 0.354689 0.350074
0.498649 0.391585 0.496524
0.618449 0.428805 0.673035
0.666692 0.371727 0.821905
0.519926 0.085755 0.865980
0.018294 0.000000 0.708648
0.379989 0.555611 0.239670
0.331951 0.519469 0.194583
0.317870 0.497032 0.225175
0.350295 0.502861 0.323967
0.405369 0.511542 0.464027
0.422827 0.457692 0.598969
0.305997 0.235954 0.662950
0.000000 0.000000 0.570672
0.000000 0.000000 0.217382
0.543148 0.726135 0.257494
0.544288 0.780675 0.274415
0.553979 0.815340 0.354978
0.575145 0.833955 0.483564
0.574299 0.800375 0.625097
0.481550 0.638482 0.725049
0.190598 0.232185 0.709435
0.000000 0.000000 0.484815
0.000000 0.000000 0.000000
1.000000 1.000000 0.688988
1.000000 1.000000 0.781580
1.000000 1.000000 0.924495
1.000000 1.000000 1.000000
1.000000 1.000000 1.000000
1.000000 1.000000 1.000000
0.601640 0.551377 1.000000
0.000000 0.000000 0.881310
0.000000 0.000000 0.146234
1.000000 1.000000 1.000000
1.000000 1.000000 1.000000
1.000000 1.000000 1.000000
1.000000 1.000000 1.000000
1.000000 1.000000 1.000000
1.000000 1.000000 1.000000
1.000000 1.000000 1.000000
0.715403 0.000000 1.000000
0.000000 0.000000 1.000000
1.000000 1.000000 1.000000
1.000000 1.000000 1.000000
1.000000 1.000000 1.000000
1.000000 1.000000 1.000000
1.000000 1.000000 1.000000
1.000000 1.000000 1.000000
1.000000 1.000000 1.000000
1.000000 1.000000 1.000000
0.743608 0.000000 1.000000
0.634290 0.533519 0.000000
0.306242 0.033409 0.000000
0.093564 0.000000 0.000000
0.063644 0.000000 0.000000
0.247461 0.000000 0.000000
0.639591 0.000000 0.182061
1.000000 0.272109 0.664503
1.000000 0.822783 1.000000
1.000000 1.000000 1.000000
0.895657 0.764506 0.445629
0.642571 0.373373 0.247955
0.485495 0.086722 0.150252
0.482189 0.000000 0.181556
0.654006 0.038066 0.351448
0.985893 0.281733 0.650051
1.000000 0.641223 1.000000
1.000000 1.000000 1.000000
1.000000 1.000000 1.000000
0.872616 0.783709 0.580115
0.687148 0.497438 0.419741
0.577145 0.292651 0.350732
0.590739 0.221409 0.393982
0.739657 0.295798 0.550930
0.999216 0.487934 0.803558
1.000000 0.729964 1.000000
1.000000 0.914058 1.000000
1.000000 0.892418 1.000000
0.689207 0.689302 0.484665
0.565235 0.503102 0.367265
0.494998 0.372462 0.331341
0.517000 0.338709 0.389645
0.633340 0.403197 0.535473
0.809709 0.527308 0.742664
0.975390 0.632454 0.965605
1.000000 0.600073 1.000000
0.809791 0.271632 1.000000
0.517611 0.610743 0.304747
0.450235 0.519149 0.237945
0.413679 0.454265 0.241447
0.436819 0.446684 0.319862
0.512126 0.487027 0.458341
0.595665 0.525942 0.622585
0.607090 0.474107 0.758837
0.429651 0.202227 0.793884
0.000000 0.000000 0.635059
0.578152 0.708782 0.240961
0.563695 0.705654 0.234332
0.555957 0.697460 0.285549
0.574187 0.704059 0.391078
0.601229 0.705337 0.527932
0.583519 0.641211 0.653666
0.431085 0.411624 0.706381
0.017548 0.000000 0.604724
0.000000 0.000000 0.247885
1.000000 1.000000 0.549039
1.000000 1.000000 0.614104
1.000000 1.000000 0.723275
1.000000 1.000000 0.864875
1.000000 1.000000 1.000000
1.000000 1.000000 1.000000
0.723176 0.632996 1.000000
0.063976 0.000000 0.841123
0.000000 0.000000 0.288805
1.000000 1.000000 1.000000
1.000000 1.000000 1.000000
1.000000 1.000000 1.000000
1.000000 1.000000 1.000000
1.000000 1.000000 1.000000
1.000000 1.000000 1.000000
1.000000 1.000000 1.000000
0.894099 0.222241 1.000000
0.000000 0.000000 1.000000
1.000000 1.000000 1.000000
1.000000 1.000000 1.000000
1.000000 1.000000 1.000000
1.000000 1.000000 1.000000
1.000000 1.000000 1.000000
1.000000 1.000000 1.000000
1.000000 1.000000 1.000000
1.000000 1.000000 1.000000
1.000000 0.000000 1.000000
0.624940 0.484370 0.000000
0.268631 0.000000 0.000000
0.013954 0.000000 0.000000
0.000000 0.000000 0.000000
0.107948 0.000000 0.000000
0.514829 0.000000 0.062069
1.000000 0.441885 0.599366
1.000000 1.000000 1.000000
1.000000 1.000000 1.000000
0.998052 0.786447 0.422851
0.721895 0.366957 0.230975
0.529314 0.057892 0.125356
0.494396 0.000000 0.147118
0.654823 0.046369 0.317925
1.000000 0.381649 0.639988
1.000000 0.902829 1.000000
1.000000 1.000000 1.000000
1.000000 1.000000 1.000000
1.000000 0.850220 0.616119
0.843288 0.533665 0.464741
0.703721 0.306341 0.390595
0.692949 0.236341 0.426660
0.839026 0.351788 0.586459
1.000000 0.640829 0.864062
1.000000 1.000000 1.000000
1.000000 1.000000 1.000000
1.000000 1.000000 1.000000
0.891047 0.770894 0.547269
0.752725 0.551610 0.439924
0.658312 0.397438 0.399500
0.662641 0.365738 0.450835
0.784138 0.473898 0.599309
1.000000 0.699333 0.830849
1.000000 0.979488 1.000000
1.000000 1.000000 1.000000
1.000000 1.000000 1.000000
0.696458 0.674962 0.358246
0.618264 0.546612 0.300416
0.562368 0.456329 0.297914
0.573976 0.450739 0.367433
0.661885 0.536495 0.506213
0.798488 0.680281 0.692038
0.919768 0.808806 0.883237
0.925303 0.808811 1.000000
0.678263 0.527061 1.000000
0.678402 0.720208 0.246123
0.656106 0.675780 0.245242
0.633312 0.639447 0.286809
0.645598 0.647101 0.379377
0.692134 0.694663 0.512044
0.735685 0.738083 0.654450
0.702607 0.693335 0.756784
0.482850 0.436427 0.749776
0.000000 0.000000 0.544704
1.000000 1.000000 0.463107
1.000000 1.000000 0.528555
1.000000 1.000000 0.622290
1.000000 1.000000 0.744721
1.000000 1.000000 0.876803
1.000000 1.000000 0.980036
0.889278 0.818099 0.996466
0.434110 0.279034 0.848681
0.000000 0.000000 0.439816
1.000000 1.000000 1.000000
1.000000 1.000000 1.000000
1.000000 1.000000 1.000000
1.000000 1.000000 1.000000
1.000000 1.000000 1.000000
1.000000 1.000000 1.000000
1.000000 1.000000 1.000000
1.000000 0.552269 1.000000
0.000000 0.000000 1.000000
1.000000 1.000000 1.000000
1.000000 1.000000 1.000000
1.000000 1.000000 1.000000
1.000000 1.000000 1.000000
1.000000 1.000000 1.000000
1.000000 1.000000 1.000000
1.000000 1.000000 1.000000
1.000000 1.000000 1.000000
1.000000 0.000000 1.000000
0.390479 0.233769 0.000000
0.022462 0.000000 0.000000
0.000000 0.000000 0.000000
0.000000 0.000000 0.000000
0.000000 0.000000 0.000000
0.193882 0.000000 0.000000
0.874772 0.592308 0.367035
1.000000 1.000000 1.000000
1.000000 1.000000 1.000000
0.934960 0.655099 0.153749
0.651523 0.239393 0.012224
0.433843 0.000000 0.000000
0.372336 0.000000 0.000000
0.521012 0.020060 0.158682
0.897472 0.472505 0.510351
1.000000 1.000000 1.000000
1.000000 1.000000 1.000000
1.000000 1.000000 1.000000
1.000000 0.807088 0.457343
0.902673 0.490061 0.358128
0.743186 0.268366 0.312408
0.712309 0.226128 0.365249
0.854423 0.407503 0.542260
1.000000 0.816673 0.849595
1.000000 1.000000 1.000000
1.000000 1.000000 1.000000
1.000000 1.000000 1.000000
1.000000 0.781976 0.465687
0.890481 0.557094 0.410175
0.780776 0.405228 0.397426
0.770931 0.399772 0.464364
0.895700 0.574147 0.628456
1.000000 0.921802 0.887714
1.000000 1.000000 1.000000
1.000000 1.000000 1.000000
1.000000 1.000000 1.000000
0.853170 0.703291 0.317200
0.777662 0.563343 0.308732
0.710547 0.471171 0.331012
0.713359 0.489435 0.412821
0.811223 0.640821 0.563484
0.992860 0.908046 0.772871
1.000000 1.000000 1.000000
1.000000 1.000000 1.000000
1.000000 1.000000 1.000000
0.792464 0.725848 0.205432
0.775071 0.662951 0.249299
0.744579 0.619662 0.310615
0.752895 0.647908 0.410018
0.815516 0.759643 0.548691
0.911535 0.926849 0.708362
0.983637 1.000000 0.851304
0.938098 1.000000 0.920334
0.644791 0.881535 0.838815
1.000000 1.000000 0.379062
1.000000 1.000000 0.482504
1.000000 1.000000 0.588812
1.000000 1.000000 0.710482
1.000000 1.000000 0.840554
1.000000 1.000000 0.952614
1.000000 1.000000 1.000000
0.818882 0.876451 0.919764
0.219212 0.267677 0.624751
1.000000 1.000000 1.000000
1.000000 1.000000 1.000000
1.000000 1.000000 1.000000
1.000000 1.000000 1.000000
1.000000 1.000000 1.000000
1.000000 1.000000 1.000000
1.000000 1.000000 1.000000
1.000000 1.000000 1.000000
0.420451 0.002758 1.000000
1.000000 1.000000 1.000000
1.000000 1.000000 1.000000
1.000000 1.000000 1.000000
1.000000 1.000000 1.000000
1.000000 1.000000 1.000000
1.000000 1.000000 1.000000
1.000000 1.000000 1.000000
1.000000 1.000000 1.000000
1.000000 0.330064 1.000000
0.000000 0.000000 0.000000
0.000000 0.000000 0.000000
0.000000 0.000000 0.000000
0.000000 0.000000 0.000000
0.000000 0.000000 0.000000
0.000000 0.000000 0.000000
0.287573 0.650366 0.000000
1.000000 1.000000 0.711686
1.000000 1.000000 1.000000
0.572740 0.269081 0.000000
0.302796 0.000000 0.000000
0.075409 0.000000 0.000000
0.000000 0.000000 0.000000
0.138868 0.000000 0.000000
0.533982 0.485238 0.149292
1.000000 1.000000 0.720883
1.000000 1.000000 1.000000
1.000000 1.000000 1.000000
0.939269 0.563349 0.000000
0.748568 0.282128 0.000000
0.583791 0.100690 0.000000
0.542053 0.119196 0.093914
0.684065 0.397834 0.312198
1.000000 0.956820 0.663725
1.000000 1.000000 1.000000
1.000000 1.000000 1.000000
1.000000 1.000000 1.000000
0.992933 0.642000 0.110396
0.873694 0.445468 0.158194
0.762562 0.328211 0.214998
0.747026 0.379653 0.329814
0.878167 0.649250 0.532197
1.000000 1.000000 0.832244
1.000000 1.000000 1.000000
1.000000 1.000000 1.000000
1.000000 1.000000 1.000000
0.889877 0.625595 0.067505
0.835543 0.505671 0.158488
0.770314 0.441585 0.246039
0.772050 0.512029 0.371025
0.882207 0.755725 0.554855
1.000000 1.000000 0.799487
1.000000 1.000000 1.000000
1.000000 1.000000 1.000000
1.000000 1.000000 1.000000
0.834388 0.665985 0.020199
0.839624 0.613912 0.157516
0.813777 0.591315 0.277681
0.825082 0.666152 0.413417
0.905363 0.866411 0.577993
1.000000 1.000000 0.765223
1.000000 1.000000 0.949466
1.000000 1.000000 1.000000
1.000000 1.000000 1.000000
1.000000 0.946308 0.213632
1.000000 0.952656 0.402382
1.000000 0.959190 0.558975
1.000000 1.000000 0.707993
1.000000 1.000000 0.854562
1.000000 1.000000 0.984354
1.000000 1.000000 1.000000
1.000000 1.000000 1.000000
0.829147 1.000000 0.837955
1.000000 1.000000 0.948092
1.000000 1.000000 1.000000
1.000000 1.000000 1.000000
1.000000 1.000000 1.000000
1.000000 1.000000 1.000000
1.000000 1.000000 1.000000
1.000000 1.000000 1.000000
1.000000 1.000000 1.000000
0.924003 1.000000 1.000000
1.000000 1.000000 1.000000
1.000000 1.000000 1.000000
1.000000 1.000000 1.000000
1.000000 1.000000 1.000000
1.000000 1.000000 1.000000
1.000000 1.000000 1.000000
1.000000 1.000000 1.000000
1.000000 1.000000 1.000000
1.000000 1.000000 1.000000
