lrplugin/MindfulLensFilmEngine.lrplugin/profiles/luts/ektachrome_cc.cube
# Generated from ColorChecker fit
LUT_3D_SIZE 5
DOMAIN_MIN 0.0 0.0 0.0
DOMAIN_MAX 1.0 1.0 1.0
0.281395 0.000000 0.542306
0.000000 0.000000 0.201122
0.000000 0.000000 0.377571
0.000000 0.000000 1.000000
0.000000 0.000000 1.000000
0.000000 0.000000 0.000000
0.000000 0.154078 0.000000
0.000000 0.272590 0.354617
0.044429 0.222032 0.948836
0.163215 0.091110 1.000000
0.000000 0.000000 0.000000
0.000000 0.215990 0.000000
0.000000 0.557104 0.010492
0.000000 0.413364 0.482038
0.000000 0.000000 0.532493
0.180083 0.300711 0.000000
0.466820 1.000000 0.000000
0.538580 1.000000 0.483998
0.000000 0.716380 0.732223
0.000000 0.000000 0.091339
1.000000 1.000000 1.000000
1.000000 1.000000 1.000000
1.000000 1.000000 1.000000
1.000000 1.000000 1.000000
0.000000 0.000000 1.000000
0.951515 0.364654 0.965500
0.162187 0.000000 0.154371
0.000000 0.000000 0.000000
0.000000 0.000000 0.039117
0.000000 0.000000 1.000000
0.461235 0.512330 0.359457
0.260363 0.333593 0.223046
0.299696 0.280560 0.396718
0.391199 0.305143 0.601935
0.653754 0.446005 1.000000
0.327485 0.539497 0.068509
0.276682 0.604649 0.203904
0.385885 0.686862 0.554552
0.249909 0.526201 0.610765
0.000000 0.000000 0.331535
1.000000 1.000000 1.000000
1.000000 1.000000 1.000000
1.000000 1.000000 1.000000
0.467309 0.980793 1.000000
0.000000 0.000000 0.120944
1.000000 1.000000 1.000000
1.000000 1.000000 1.000000
1.000000 1.000000 1.000000
1.000000 1.000000 1.000000
0.000000 0.000000 1.000000
1.000000 0.431108 0.750683
0.285454 0.000000 0.008134
0.177210 0.000000 0.035628
0.757993 0.004963 0.804246
1.000000 1.000000 1.000000
0.876196 0.746989 0.384908
0.428343 0.322148 0.151100
0.648393 0.331368 0.503394
1.000000 0.676519 1.000000
1.000000 1.000000 1.000000
0.855851 0.886111 0.246244
0.320201 0.533361 0.030458
0.371026 0.501323 0.330049
0.537896 0.480020 0.653798
0.657299 0.246224 0.979166
1.000000 1.000000 1.000000
1.000000 1.000000 0.775218
0.883933 1.000000 0.632627
0.000000 0.531701 0.325537
0.000000 0.000000 0.000000
1.000000 1.000000 1.000000
1.000000 1.000000 1.000000
1.000000 1.000000 1.000000
1.000000 1.000000 1.000000
0.000000 0.000000 0.631428
0.494525 0.000000 0.074261
0.442057 0.000000 0.194161
1.000000 0.788063 1.000000
1.000000 1.000000 1.000000
1.000000 1.000000 1.000000
0.826117 0.462669 0.168841
0.816453 0.482008 0.452264
1.000000 1.000000 1.000000
1.000000 1.000000 1.000000
1.000000 1.000000 1.000000
1.000000 0.720454 0.195289
0.571453 0.550936 0.063709
1.000000 1.000000 0.999045
1.000000 1.000000 1.000000
1.000000 1.000000 1.000000
1.000000 1.000000 1.000000
1.000000 1.000000 0.146623
0.921793 1.000000 0.143049
0.756638 1.000000 0.569089
0.453500 0.115284 1.000000
1.000000 1.000000 1.000000
1.000000 1.000000 1.000000
1.000000 1.000000 1.000000
1.000000 1.000000 0.614298
0.000000 0.000000 0.000000
0.000000 0.000000 0.000000
0.496592 0.000000 1.000000
1.000000 1.000000 1.000000
1.000000 1.000000 1.000000
1.000000 1.000000 1.000000
0.163944 0.000000 0.789888
1.000000 0.709016 1.000000
1.000000 1.000000 1.000000
1.000000 1.000000 1.000000
1.000000 1.000000 1.000000
1.000000 0.000000 1.000000
1.000000 0.739765 1.000000
1.000000 1.000000 1.000000
1.000000 1.000000 1.000000
1.000000 1.000000 1.000000
1.000000 1.000000 1.000000
1.000000 1.000000 1.000000
1.000000 1.000000 1.000000
1.000000 1.000000 1.000000
1.000000 1.000000 1.000000
1.000000 1.000000 1.000000
1.000000 1.000000 1.000000
1.000000 1.000000 1.000000
1.000000 1.000000 1.000000
1.000000 1.000000 1.000000
