lrplugin/MindfulLensFilmEngine.lrplugin/profiles/luts/ektachrome_cc.cube
# Generated from ColorChecker fit
LUT_3D_SIZE 33
DOMAIN_MIN 0.0 0.0 0.0
DOMAIN_MAX 1.0 1.0 1.0
0.281395 0.000000 0.542306
0.229294 0.000000 0.457585
0.179786 0.000000 0.387259
0.132269 0.000000 0.329998
0.086215 0.000000 0.284586
0.041171 0.000000 0.249922
0.000000 0.000000 0.225019
0.000000 0.000000 0.209005
0.000000 0.000000 0.201122
0.000000 0.000000 0.200726
0.000000 0.000000 0.207289
0.000000 0.000000 0.220394
0.000000 0.000000 0.239743
0.000000 0.000000 0.265150
0.000000 0.000000 0.296542
0.000000 0.000000 0.333963
0.000000 0.000000 0.377571
0.000000 0.000000 0.427636
0.000000 0.000000 0.484547
0.000000 0.000000 0.548802
0.000000 0.000000 0.621018
0.000000 0.000000 0.701924
0.000000 0.000000 0.792364
0.000000 0.000000 0.893296
0.000000 0.000000 1.000000
0.000000 0.000000 1.000000
0.000000 0.000000 1.000000
0.000000 0.000000 1.000000
0.000000 0.000000 1.000000
0.000000 0.000000 1.000000
0.000000 0.000000 1.000000
0.000000 0.000000 1.000000
0.000000 0.000000 1.000000
0.183379 0.000000 0.400672
0.143228 0.000000 0.329327
0.105955 0.000000 0.272222
0.070904 0.000000 0.227970
0.037495 0.000000 0.195299
0.005222 0.000000 0.173052
0.000000 0.000000 0.160186
0.000000 0.000000 0.155771
0.000000 0.000000 0.158992
0.000000 0.000000 0.169151
0.000000 0.000000 0.185662
0.000000 0.000000 0.208053
0.000000 0.000000 0.235968
0.000000 0.000000 0.269164
0.000000 0.000000 0.307513
0.000000 0.000000 0.351003
0.000000 0.000000 0.399735
0.000000 0.000000 0.453922
0.000000 0.000000 0.513896
0.000000 0.000000 0.580101
0.000000 0.000000 0.653096
0.000000 0.000000 0.733553
0.000000 0.000000 0.822260
0.000000 0.000000 0.920119
0.000000 0.000000 1.000000
0.000000 0.000000 1.000000
0.000000 0.000000 1.000000
0.000000 0.000000 1.000000
0.000000 0.000000 1.000000
0.000000 0.000000 1.000000
0.000000 0.000000 1.000000
0.000000 0.000000 1.000000
0.000000 0.000000 1.000000
0.082202 0.000000 0.260970
0.053378 0.000000 0.202310
0.027712 0.000000 0.157761
0.004493 0.000000 0.125882
0.000000 0.000000 0.105344
0.000000 0.000000 0.094933
0.000000 0.000000 0.093549
0.000000 0.000000 0.100207
0.000000 0.000000 0.114035
0.000000 0.000000 0.134279
0.000000 0.000000 0.160295
0.000000 0.000000 0.191555
0.000000 0.000000 0.227648
0.000000 0.000000 0.268274
0.000000 0.000000 0.313249
0.000000 0.000000 0.362503
0.000000 0.000000 0.416081
0.000000 0.000000 0.474141
0.000000 0.000000 0.536957
0.000000 0.000000 0.604917
0.000000 0.000000 0.678523
0.000000 0.000000 0.758392
0.000000 0.000000 0.845255
0.000000 0.000000 0.939958
0.000000 0.000000 1.000000
0.000000 0.000000 1.000000
0.000000 0.000000 1.000000
0.000000 0.000000 1.000000
0.000000 0.000000 1.000000
0.000000 0.000000 1.000000
0.000000 0.000000 1.000000
0.000000 0.000000 1.000000
0.000000 0.000000 1.000000
0.000000 0.000000 0.122190
0.000000 0.000875 0.075519
0.000000 0.010876 0.042861
0.000000 0.017628 0.022715
0.000000 0.021192 0.013698
0.000000 0.021650 0.014539
0.000000 0.019106 0.024081
0.000000 0.013685 0.041283
0.000000 0.005532 0.065217
0.000000 0.000000 0.095071
0.000000 0.000000 0.130146
0.000000 0.000000 0.169859
0.000000 0.000000 0.213739
0.000000 0.000000 0.261432
0.000000 0.000000 0.312697
0.000000 0.000000 0.367407
0.000000 0.000000 0.425551
0.000000 0.000000 0.487231
0.000000 0.000000 0.552665
0.000000 0.000000 0.622183
0.000000 0.000000 0.696232
0.000000 0.000000 0.775371
0.000000 0.000000 0.860276
0.000000 0.000000 0.951735
0.000000 0.000000 1.000000
0.000000 0.000000 1.000000
0.000000 0.000000 1.000000
0.000000 0.000000 1.000000
0.000000 0.000000 1.000000
0.000000 0.000000 1.000000
0.000000 0.000000 1.000000
0.000000 0.000000 1.000000
0.015889 0.000000 1.000000
0.000000 0.000000 0.000000
0.000000 0.000000 0.000000
0.000000 0.014079 0.000000
0.000000 0.027785 0.000000
0.000000 0.038566 0.000000
0.000000 0.046454 0.000000
0.000000 0.051500 0.000000
0.000000 0.053777 0.000000
0.000000 0.053380 0.011815
0.000000 0.050423 0.050803
0.000000 0.045044 0.094489
0.000000 0.037400 0.142232
0.000000 0.027670 0.193506
0.000000 0.016055 0.247900
0.000000 0.002775 0.305117
0.000000 0.000000 0.364973
0.000000 0.000000 0.427400
0.000000 0.000000 0.492445
0.000000 0.000000 0.560268
0.000000 0.000000 0.631145
0.000000 0.000000 0.705463
0.000000 0.000000 0.783728
0.000000 0.000000 0.866558
0.000000 0.000000 0.954685
0.000000 0.000000 1.000000
0.000000 0.000000 1.000000
0.000000 0.000000 1.000000
0.000000 0.000000 1.000000
0.000000 0.000000 1.000000
0.000000 0.000000 1.000000
0.000000 0.000000 1.000000
0.034304 0.000000 1.000000
0.098837 0.000000 1.000000
0.000000 0.000000 0.000000
0.000000 0.000000 0.000000
0.000000 0.008507 0.000000
0.000000 0.029015 0.000000
0.000000 0.046839 0.000000
0.000000 0.061956 0.000000
0.000000 0.074367 0.000000
0.000000 0.084094 0.000000
0.000000 0.091178 0.000000
0.000000 0.095684 0.001062
0.000000 0.097696 0.052907
0.000000 0.097321 0.108257
0.000000 0.094685 0.166529
0.000000 0.089938 0.227255
0.000000 0.083247 0.290082
0.000000 0.074806 0.354770
0.000000 0.064824 0.421195
0.000000 0.053536 0.489347
0.000000 0.041195 0.559329
0.000000 0.028077 0.631360
0.000000 0.014479 0.705774
0.000000 0.000719 0.783017
0.000000 0.000000 0.863651
0.000000 0.000000 0.948353
0.000000 0.000000 1.000000
0.000000 0.000000 1.000000
0.000000 0.000000 1.000000
0.000000 0.000000 1.000000
0.000000 0.000000 1.000000
0.013013 0.000000 1.000000
0.050579 0.000000 1.000000
0.097365 0.000000 1.000000
0.154678 0.000000 1.000000
0.000000 0.000000 0.000000
0.000000 0.000000 0.000000
0.000000 0.000000 0.000000
0.000000 0.022292 0.000000
0.000000 0.046967 0.000000
0.000000 0.069099 0.000000
0.000000 0.088637 0.000000
0.000000 0.105549 0.000000
0.000000 0.119827 0.000000
0.000000 0.131483 0.000000
0.000000 0.140550 0.005299
0.000000 0.147081 0.067828
0.000000 0.151154 0.132698
0.000000 0.152863 0.199385
0.000000 0.152328 0.267478
0.000000 0.149687 0.336682
0.000000 0.145100 0.406816
0.000000 0.138749 0.477813
0.000000 0.130836 0.549721
0.000000 0.121586 0.622701
0.000000 0.111242 0.697031
0.000000 0.100071 0.773102
0.000000 0.088361 0.851418
0.000000 0.076420 0.932599
0.000000 0.064577 1.000000
0.000000 0.053184 1.000000
0.002347 0.042611 1.000000
0.017371 0.033254 1.000000
0.037026 0.025525 1.000000
0.062339 0.019860 1.000000
0.094413 0.016717 1.000000
0.134426 0.016573 1.000000
0.183630 0.019926 1.000000
0.000000 0.000000 0.000000
0.000000 0.000000 0.000000
0.000000 0.000000 0.000000
0.000000 0.008745 0.000000
0.000000 0.040068 0.000000
0.000000 0.068986 0.000000
0.000000 0.095397 0.000000
0.000000 0.119217 0.000000
0.000000 0.140387 0.000000
0.000000 0.158866 0.000000
0.000000 0.174635 0.000000
0.000000 0.187698 0.021152
0.000000 0.198078 0.092218
0.000000 0.205820 0.164491
0.000000 0.210991 0.237503
0.000000 0.213677 0.310904
0.000000 0.213987 0.384455
0.000000 0.212050 0.458033
0.000000 0.208018 0.531630
0.000000 0.202063 0.605351
0.000000 0.194377 0.679416
0.002725 0.185176 0.754161
0.009394 0.174694 0.830033
0.015816 0.163188 0.907596
0.022591 0.150937 0.987527
0.030394 0.138240 1.000000
0.039973 0.125416 1.000000
0.052155 0.112807 1.000000
0.067839 0.100776 1.000000
0.087998 0.089707 1.000000
0.113684 0.080005 1.000000
0.146021 0.072095 1.000000
0.186207 0.066426 1.000000
0.000000 0.000000 0.000000
0.000000 0.000000 0.000000
0.000000 0.000000 0.000000
0.000000 0.000000 0.000000
0.000000 0.027421 0.000000
0.000000 0.062882 0.000000
0.000000 0.095898 0.000000
0.000000 0.126334 0.000000
0.000000 0.154078 0.000000
0.000000 0.179039 0.000000
0.000000 0.201146 0.000000
0.000000 0.220350 0.000000
0.000000 0.236623 0.045606
0.000000 0.249959 0.123086
0.000000 0.260371 0.200668
0.000000 0.267896 0.277943
0.000000 0.272590 0.354617
0.000000 0.274531 0.430509
0.000000 0.273818 0.505556
0.003034 0.270572 0.579806
0.014417 0.264934 0.653423
0.023813 0.257066 0.726684
0.031620 0.247153 0.799983
0.038310 0.235400 0.873826
0.044429 0.222032 0.948836
0.050600 0.207298 1.000000
0.057520 0.191465 1.000000
0.065959 0.174823 1.000000
0.076765 0.157684 1.000000
0.090860 0.140379 1.000000
0.109240 0.123262 1.000000
0.132976 0.106707 1.000000
0.163215 0.091110 1.000000
0.000000 0.000000 0.000000
0.000000 0.000000 0.000000
0.000000 0.000000 0.000000
0.000000 0.000000 0.000000
0.000000 0.010466 0.000000
0.000000 0.052212 0.000000
0.000000 0.091551 0.000000
0.000000 0.128296 0.000000
0.000000 0.162284 0.000000
0.000000 0.193371 0.000000
0.000000 0.221435 0.000000
0.000000 0.246376 0.000000
0.000000 0.268114 0.000000
0.000000 0.286589 0.075998
0.000000 0.301766 0.157797
0.000000 0.313627 0.238621
0.000000 0.322178 0.318119
0.000000 0.327445 0.396056
0.000000 0.329476 0.472310
0.006875 0.328338 0.546874
0.020096 0.324123 0.619855
0.030561 0.316940 0.691475
0.038615 0.306922 0.762069
0.044675 0.294222 0.832089
0.049236 0.279015 0.902099
0.052867 0.261496 0.972778
0.056211 0.241882 1.000000
0.059988 0.220411 1.000000
0.064990 0.197343 1.000000
0.072087 0.172958 1.000000
0.082223 0.147556 1.000000
0.096414 0.121462 1.000000
0.115756 0.095019 1.000000
0.000000 0.000000 0.000000
0.000000 0.000000 0.000000
0.000000 0.000000 0.000000
0.000000 0.000000 0.000000
0.000000 0.000000 0.000000
0.000000 0.038561 0.000000
0.000000 0.083926 0.000000
0.000000 0.126660 0.000000
0.000000 0.166547 0.000000
0.000000 0.203390 0.000000
0.000000 0.237018 0.000000
0.000000 0.267276 0.000000
0.000000 0.294035 0.000000
0.000000 0.317183 0.024366
0.000000 0.336631 0.110025
0.000000 0.352312 0.194070
0.000000 0.364179 0.276093
0.000000 0.372206 0.355801
0.000000 0.376390 0.433018
0.000000 0.376747 0.507678
0.013965 0.373315 0.579833
0.024593 0.366153 0.649649
0.031980 0.355342 0.717404
0.036493 0.340983 0.783493
0.038572 0.323199 0.848424
0.038733 0.302134 0.912820
0.037567 0.277953 0.977419
0.035739 0.250843 1.000000
0.033991 0.221010 1.000000
0.033137 0.188684 1.000000
0.034069 0.154115 1.000000
0.037751 0.117573 1.000000
0.045224 0.079350 1.000000
0.000000 0.000000 0.000000
0.000000 0.000000 0.000000
0.000000 0.000000 0.000000
0.000000 0.000000 0.000000
0.000000 0.000000 0.000000
0.000000 0.023677 0.000000
0.000000 0.074758 0.000000
0.000000 0.123145 0.000000
0.000000 0.168570 0.000000
0.000000 0.210786 0.000000
0.000000 0.249568 0.000000
0.000000 0.284711 0.000000
0.000000 0.316033 0.000000
0.000000 0.343371 0.000000
0.000000 0.366585 0.058801
0.000000 0.385554 0.145735
0.000000 0.400182 0.229979
0.000000 0.410390 0.311184
0.000000 0.416122 0.389114
0.000000 0.417344 0.463651
0.000000 0.414041 0.534787
0.007824 0.406222 0.602633
0.013613 0.393916 0.667411
0.015640 0.377171 0.729460
0.014292 0.356059 0.789230
0.010033 0.330672 0.847289
0.003400 0.301124 0.904317
0.000000 0.267549 0.961110
0.000000 0.230103 1.000000
0.000000 0.188963 1.000000
0.000000 0.144326 1.000000
0.000000 0.096413 1.000000
0.000000 0.045464 1.000000
0.000000 0.000000 0.000000
0.000000 0.000000 0.000000
0.000000 0.000000 0.000000
0.000000 0.000000 0.000000
0.000000 0.000000 0.000000
0.000000 0.009466 0.000000
0.000000 0.065939 0.000000
0.000000 0.119629 0.000000
0.000000 0.170219 0.000000
0.000000 0.217409 0.000000
0.000000 0.260922 0.000000
0.000000 0.300503 0.000000
0.000000 0.335916 0.000000
0.000000 0.366948 0.000000
0.000000 0.393406 0.005886
0.000000 0.415119 0.095376
0.000000 0.431936 0.181535
0.000000 0.443730 0.263956
0.000000 0.450392 0.342350
0.000000 0.451836 0.416539
0.000000 0.447996 0.486461
0.000000 0.438827 0.552170
0.000000 0.424308 0.613831
0.000000 0.404436 0.671725
0.000000 0.379230 0.726249
0.000000 0.348731 0.777913
0.000000 0.313001 0.827341
0.000000 0.272122 0.875271
0.000000 0.226198 0.922558
0.000000 0.175356 0.970169
0.000000 0.119740 1.000000
0.000000 0.059519 1.000000
0.000000 0.000000 1.000000
0.000000 0.000000 0.000000
0.000000 0.000000 0.000000
0.000000 0.000000 0.000000
0.000000 0.000000 0.000000
0.000000 0.000000 0.000000
0.000000 0.000000 0.000000
0.000000 0.059522 0.000000
0.000000 0.118153 0.000000
0.000000 0.173519 0.000000
0.000000 0.225270 0.000000
0.000000 0.273078 0.000000
0.000000 0.316634 0.000000
0.000000 0.355652 0.000000
0.000000 0.389866 0.000000
0.000000 0.419033 0.000000
0.000000 0.442930 0.045063
0.000000 0.461354 0.132827
0.000000 0.474125 0.216184
0.000000 0.481083 0.294787
0.000000 0.482091 0.368402
0.000000 0.477031 0.436911
0.000000 0.465807 0.500311
0.000000 0.448344 0.558711
0.000000 0.424588 0.612337
0.000000 0.394509 0.661527
0.000000 0.358093 0.706735
0.000000 0.315351 0.748529
0.000000 0.266315 0.787591
0.000000 0.211036 0.824720
0.000000 0.149589 0.860825
0.000000 0.082067 0.896932
0.000000 0.008586 0.934183
0.000000 0.000000 0.973831
0.000000 0.000000 0.000000
0.000000 0.000000 0.000000
0.000000 0.000000 0.000000
0.000000 0.000000 0.000000
0.000000 0.000000 0.000000
0.000000 0.000000 0.000000
0.000000 0.057724 0.000000
0.000000 0.120916 0.000000
0.000000 0.180656 0.000000
0.000000 0.236541 0.000000
0.000000 0.288191 0.000000
0.000000 0.335246 0.000000
0.000000 0.377369 0.000000
0.000000 0.414242 0.000000
0.000000 0.445568 0.000000
0.000000 0.471074 0.000000
0.000000 0.490506 0.086237
0.000000 0.503631 0.170244
0.000000 0.510239 0.248799
0.000000 0.510138 0.321611
0.000000 0.503161 0.388506
0.000000 0.489160 0.449423
0.000000 0.468008 0.504416
0.000000 0.439600 0.553654
0.000000 0.403852 0.597418
0.000000 0.360701 0.636107
0.000000 0.310104 0.670232
0.000000 0.252043 0.700419
0.000000 0.186516 0.727408
0.000000 0.113546 0.752055
0.000000 0.033177 0.775328
0.000000 0.000000 0.798312
0.000000 0.000000 0.822204
0.000000 0.000000 0.000000
0.000000 0.000000 0.000000
0.000000 0.000000 0.000000
0.000000 0.000000 0.000000
0.000000 0.000000 0.000000
0.000000 0.000000 0.000000
0.000000 0.062919 0.000000
0.000000 0.130280 0.000000
0.000000 0.193977 0.000000
0.000000 0.253555 0.000000
0.000000 0.308581 0.000000
0.000000 0.358646 0.000000
0.000000 0.403358 0.000000
0.000000 0.442349 0.000000
0.000000 0.475271 0.000000
0.000000 0.501798 0.000000
0.000000 0.521625 0.044456
0.000000 0.534467 0.128828
0.000000 0.540062 0.207075
0.000000 0.538167 0.278852
0.000000 0.528563 0.343928
0.000000 0.511049 0.402185
0.000000 0.485448 0.453622
0.000000 0.451603 0.498350
0.000000 0.409378 0.536595
0.000000 0.358657 0.568698
0.000000 0.299349 0.595115
0.000000 0.231379 0.616415
0.000000 0.154698 0.633282
0.000000 0.069276 0.646514
0.000000 0.000000 0.657025
0.000000 0.000000 0.665841
0.000000 0.000000 0.674105
0.000000 0.000000 0.000000
0.000000 0.000000 0.000000
0.000000 0.000000 0.000000
0.000000 0.000000 0.000000
0.000000 0.000000 0.000000
0.000000 0.003144 0.000000
0.000000 0.077644 0.000000
0.000000 0.148768 0.000000
0.000000 0.215990 0.000000
0.000000 0.278805 0.000000
0.000000 0.336728 0.000000
0.000000 0.389296 0.000000
0.000000 0.436069 0.000000
0.000000 0.476625 0.000000
0.000000 0.510564 0.000000
0.000000 0.537510 0.000000
0.000000 0.557104 0.010492
0.000000 0.569011 0.094937
0.000000 0.572917 0.172613
0.000000 0.568527 0.243120
0.000000 0.555570 0.306169
0.000000 0.533795 0.361587
0.000000 0.502971 0.409315
0.000000 0.462890 0.449409
0.000000 0.413364 0.482038
0.000000 0.354228 0.507487
0.000000 0.285335 0.526154
0.000000 0.206561 0.538553
0.000000 0.117804 0.545311
0.000000 0.018983 0.547171
0.000000 0.000000 0.544988
0.000000 0.000000 0.539733
0.000000 0.000000 0.532493
0.000000 0.000000 0.000000
0.000000 0.000000 0.000000
0.000000 0.000000 0.000000
0.000000 0.000000 0.000000
0.000000 0.000000 0.000000
0.000000 0.026546 0.000000
0.000000 0.104597 0.000000
0.000000 0.179063 0.000000
0.000000 0.249365 0.000000
0.000000 0.314946 0.000000
0.000000 0.375271 0.000000
0.000000 0.429824 0.000000
0.000000 0.478113 0.000000
0.000000 0.519666 0.000000
0.000000 0.554030 0.000000
0.000000 0.580777 0.000000
0.000000 0.599498 0.000000
0.000000 0.609804 0.071886
0.000000 0.611330 0.148727
0.000000 0.603731 0.217725
0.000000 0.586682 0.278538
0.000000 0.559880 0.330934
0.000000 0.523045 0.374798
0.000000 0.475915 0.410130
0.000000 0.418252 0.437043
0.000000 0.349837 0.455765
0.000000 0.270473 0.466638
0.000000 0.179984 0.470119
0.000000 0.078217 0.466779
0.000000 0.000000 0.457304
0.000000 0.000000 0.442494
0.000000 0.000000 0.423262
0.000000 0.000000 0.400639
0.000000 0.000000 0.000000
0.000000 0.000000 0.000000
0.000000 0.000000 0.000000
0.000000 0.000000 0.000000
0.000000 0.000000 0.000000
0.000000 0.065445 0.000000
0.000000 0.146636 0.000000
0.000000 0.224008 0.000000
0.000000 0.296930 0.000000
0.000000 0.364793 0.000000
0.000000 0.427010 0.000000
0.000000 0.483016 0.000000
0.000000 0.532264 0.000000
0.000000 0.574230 0.000000
0.000000 0.608413 0.000000
0.000000 0.634330 0.000000
0.000000 0.651521 0.000000
0.000000 0.659546 0.063305
0.000000 0.657987 0.139041
0.000000 0.646449 0.206290
0.000000 0.624554 0.264652
0.000000 0.591949 0.313840
0.000000 0.548299 0.353683
0.000000 0.493293 0.384123
0.000000 0.426641 0.405217
0.000000 0.348071 0.417137
0.000000 0.257335 0.420169
0.000000 0.154206 0.414712
0.000000 0.038478 0.401282
0.000000 0.000000 0.380508
0.000000 0.000000 0.353133
0.000000 0.000000 0.320015
0.000000 0.000000 0.282127
0.000000 0.000000 0.000000
0.000000 0.000000 0.000000
0.000000 0.000000 0.000000
0.000000 0.000000 0.000000
0.000000 0.035593 0.000000
0.000000 0.122875 0.000000
0.000000 0.206781 0.000000
0.000000 0.286608 0.000000
0.000000 0.361676 0.000000
0.000000 0.431322 0.000000
0.000000 0.494909 0.000000
0.000000 0.551819 0.000000
0.000000 0.601453 0.000000
0.000000 0.643237 0.000000
0.000000 0.676617 0.000000
0.000000 0.701058 0.000000
0.000000 0.716049 0.000000
0.000000 0.721098 0.073134
0.000000 0.715736 0.147493
0.000000 0.699515 0.212749
0.000000 0.672006 0.268445
0.000000 0.632804 0.314236
0.000000 0.581523 0.349896
0.000000 0.517800 0.375311
0.000000 0.441291 0.390481
0.000000 0.351676 0.395521
0.000000 0.248654 0.390660
0.000000 0.131945 0.376243
0.000000 0.001292 0.352728
0.000000 0.000000 0.320687
0.000000 0.000000 0.280807
0.000000 0.000000 0.233891
0.000000 0.000000 0.180854
0.000000 0.000000 0.000000
0.000000 0.000000 0.000000
0.000000 0.000000 0.000000
0.000000 0.019621 0.000000
0.000000 0.112241 0.000000
0.000000 0.202029 0.000000
0.000000 0.288210 0.000000
0.000000 0.370029 0.000000
0.000000 0.446754 0.000000
0.000000 0.517671 0.000000
0.000000 0.582090 0.000000
0.000000 0.639341 0.000000
0.000000 0.688776 0.000000
0.000000 0.729766 0.000000
0.000000 0.761707 0.000000
0.000000 0.784012 0.000000
0.000000 0.796119 0.023851
0.000000 0.797483 0.105625
0.000000 0.787585 0.178334
0.000000 0.765922 0.241350
0.000000 0.732017 0.294159
0.000000 0.685411 0.336363
0.000000 0.625668 0.367677
0.000000 0.552371 0.387930
0.000000 0.465126 0.397066
0.000000 0.363561 0.395145
0.000000 0.247323 0.382339
0.000000 0.116081 0.358936
0.000000 0.000000 0.325337
0.000000 0.000000 0.282059
0.000000 0.000000 0.229733
0.000000 0.000000 0.169103
0.000000 0.000000 0.101029
0.000000 0.000000 0.000000
0.000000 0.000000 0.000000
0.000000 0.022408 0.000000
0.000000 0.119496 0.000000
0.000000 0.214398 0.000000
0.000000 0.306263 0.000000
0.000000 0.394265 0.000000
0.000000 0.477598 0.000000
0.000000 0.555476 0.000000
0.000000 0.627137 0.000000
0.000000 0.691836 0.000000
0.000000 0.748852 0.000000
0.000000 0.797486 0.000000
0.000000 0.837058 0.000000
0.004944 0.866910 0.000000
0.019362 0.886405 0.000000
0.023910 0.894928 0.084994
0.017922 0.891885 0.165345
0.000807 0.876701 0.236126
0.000000 0.848826 0.296652
0.000000 0.807727 0.346353
0.000000 0.752896 0.384775
0.000000 0.683844 0.411575
0.000000 0.600104 0.426527
0.000000 0.501229 0.429519
0.000000 0.386794 0.420553
0.000000 0.256396 0.399745
0.000000 0.109652 0.367327
0.000000 0.000000 0.323644
0.000000 0.000000 0.269156
0.000000 0.000000 0.204437
0.000000 0.000000 0.130175
0.000000 0.000000 0.047175
0.000000 0.000000 0.000000
0.000000 0.049132 0.000000
0.000000 0.149703 0.000000
0.000000 0.248831 0.000000
0.000000 0.345594 0.000000
0.000000 0.439093 0.000000
0.000000 0.528448 0.000000
0.000000 0.612801 0.000000
0.000000 0.691317 0.000000
0.000000 0.763178 0.000000
0.037285 0.827591 0.000000
0.076767 0.883782 0.000000
0.109427 0.931000 0.000000
0.134245 0.968513 0.000000
0.150277 0.995612 0.000000
0.156653 1.000000 0.090738
0.152579 1.000000 0.178551
0.137334 1.000000 0.257171
0.110274 0.986416 0.325744
0.070829 0.951540 0.383527
0.018504 0.902438 0.429896
0.000000 0.838546 0.464338
0.000000 0.759325 0.486455
0.000000 0.664257 0.495964
0.000000 0.552842 0.492697
0.000000 0.424604 0.476599
0.000000 0.279088 0.447731
0.000000 0.115860 0.406266
0.000000 0.000000 0.352495
0.000000 0.000000 0.286820
0.000000 0.000000 0.209760
0.000000 0.000000 0.121945
0.000000 0.000000 0.024125
0.000000 0.105273 0.000000
0.000000 0.208221 0.000000
0.000000 0.310571 0.000000
0.000000 0.411329 0.000000
0.000000 0.509521 0.000000
0.031979 0.604195 0.000000
0.081376 0.694420 0.000000
0.130061 0.779287 0.000000
0.176589 0.857908 0.000000
0.219587 0.929414 0.000000
0.257756 0.992960 0.000000
0.289876 1.000000 0.000000
0.314799 1.000000 0.000000
0.331451 1.000000 0.026683
0.338836 1.000000 0.128827
0.336031 1.000000 0.223552
0.322188 1.000000 0.309717
0.296535 1.000000 0.386296
0.258373 1.000000 0.452376
0.207079 1.000000 0.507162
0.142106 1.000000 0.549970
0.062981 0.945808 0.580231
0.000000 0.855544 0.597493
0.000000 0.748248 0.601414
0.000000 0.623370 0.591770
0.000000 0.480382 0.568451
0.000000 0.318776 0.531460
0.000000 0.138066 0.480915
0.000000 0.000000 0.417048
0.000000 0.000000 0.340208
0.000000 0.000000 0.250854
0.000000 0.000000 0.149564
0.000000 0.000000 0.037026
0.180083 0.300711 0.000000
0.201101 0.405163 0.000000
0.229916 0.508894 0.000000
0.264655 0.610858 0.000000
0.303517 0.710030 0.000000
0.344777 0.805407 0.000000
0.386785 0.896006 0.000000
0.427966 0.980865 0.000000
0.466820 1.000000 0.000000
0.501922 1.000000 0.000000
0.531921 1.000000 0.000000
0.555541 1.000000 0.000000
0.571583 1.000000 0.098983
0.578922 1.000000 0.206061
0.576505 1.000000 0.306778
0.563358 1.000000 0.399823
0.538580 1.000000 0.483998
0.501345 1.000000 0.558221
0.450903 1.000000 0.621524
0.386577 1.000000 0.673053
0.307766 1.000000 0.712069
0.213944 1.000000 0.737948
0.104661 0.976095 0.750177
0.000000 0.855659 0.748363
0.000000 0.716380 0.732223
0.000000 0.557679 0.701589
0.000000 0.378996 0.656410
0.000000 0.179794 0.596747
0.000000 0.000000 0.522776
0.000000 0.000000 0.434787
0.000000 0.000000 0.333186
0.000000 0.000000 0.218492
0.000000 0.000000 0.091339
0.601143 0.538447 0.000000
0.613459 0.644013 0.000000
0.633715 0.748712 0.000000
0.659985 0.851445 0.000000
0.690415 0.951135 0.000000
0.723227 1.000000 0.000000
0.756718 1.000000 0.000000
0.789261 1.000000 0.000000
0.819301 1.000000 0.000000
0.845360 1.000000 0.000000
0.866036 1.000000 0.105680
0.880000 1.000000 0.219600
0.885999 1.000000 0.330068
0.882853 1.000000 0.435489
0.869459 1.000000 0.534379
0.844789 1.000000 0.625372
0.807889 1.000000 0.707213
0.757880 1.000000 0.778764
0.693958 1.000000 0.839000
0.615394 1.000000 0.887011
0.521534 1.000000 0.922002
0.411800 1.000000 0.943291
0.285686 1.000000 0.950311
0.142764 0.990228 0.942609
0.000000 0.835596 0.919849
0.000000 0.660206 0.881806
0.000000 0.463445 0.828371
0.000000 0.244725 0.759549
0.000000 0.003477 0.675460
0.000000 0.000000 0.576339
0.000000 0.000000 0.462533
0.000000 0.000000 0.334506
0.000000 0.000000 0.192835
1.000000 0.822711 0.000000
1.000000 0.928989 0.000000
1.000000 1.000000 0.000000
1.000000 1.000000 0.000000
1.000000 1.000000 0.000000
1.000000 1.000000 0.000000
1.000000 1.000000 0.000000
1.000000 1.000000 0.058900
1.000000 1.000000 0.170221
1.000000 1.000000 0.283708
1.000000 1.000000 0.397365
1.000000 1.000000 0.509309
1.000000 1.000000 0.617774
1.000000 1.000000 0.721107
1.000000 1.000000 0.817768
1.000000 1.000000 0.906334
1.000000 1.000000 0.985494
1.000000 1.000000 1.000000
0.993925 1.000000 1.000000
0.899898 1.000000 1.000000
0.789758 1.000000 1.000000
0.662873 1.000000 1.000000
0.518686 1.000000 1.000000
0.356715 1.000000 1.000000
0.176552 0.984907 1.000000
0.000000 0.791836 1.000000
0.000000 0.575982 1.000000
