lrplugin/MindfulLensFilmEngine.lrplugin/profiles/luts/ektachrome.cube
# Generated from ColorChecker fit
LUT_3D_SIZE 9
DOMAIN_MIN 0.0 0.0 0.0
DOMAIN_MAX 1.0 1.0 1.0
0.281678 0.000000 0.542852
0.086646 0.000000 0.285216
0.000000 0.000000 0.201883
0.000000 0.000000 0.240719
0.000000 0.000000 0.378871
0.000000 0.000000 0.622760
0.000000 0.000000 1.000000
0.000000 0.000000 1.000000
0.000000 0.000000 1.000000
0.000000 0.000000 0.000000
0.000000 0.038758 0.000000
0.000000 0.053573 0.011631
0.000000 0.027898 0.193366
0.000000 0.000000 0.427385
0.000000 0.000000 0.705672
0.000000 0.000000 1.000000
0.000000 0.000000 1.000000
0.098405 0.000000 1.000000
0.000000 0.000000 0.000000
0.000000 0.027473 0.000000
0.000000 0.154150 0.000000
0.000000 0.236732 0.044995
0.000000 0.272788 0.354015
0.014342 0.265262 0.652924
0.044391 0.222480 0.948541
0.076678 0.158143 1.000000
0.162779 0.091333 1.000000
0.000000 0.000000 0.000000
0.000000 0.000000 0.000000
0.000000 0.170177 0.000000
0.000000 0.335892 0.000000
0.000000 0.431976 0.180782
0.000000 0.448142 0.485796
0.000000 0.379481 0.725789
0.000000 0.226464 0.922421
0.000000 0.000000 1.000000
0.000000 0.000000 0.000000
0.000000 0.000000 0.000000
0.000000 0.215856 0.000000
0.000000 0.435907 0.000000
0.000000 0.556958 0.009635
0.000000 0.555488 0.305502
0.000000 0.413355 0.481706
0.000000 0.117796 0.545469
0.000000 0.000000 0.533288
0.000000 0.000000 0.000000
0.000000 0.112181 0.000000
0.000000 0.446610 0.000000
0.000000 0.688532 0.000000
0.000000 0.795818 0.022456
0.000000 0.731714 0.293181
0.000000 0.464844 0.396695
0.000000 0.000000 0.325776
0.000000 0.000000 0.102482
0.181462 0.300983 0.000000
0.304353 0.710248 0.000000
0.466970 1.000000 0.000000
0.571161 1.000000 0.095464
0.537886 1.000000 0.481053
0.307209 1.000000 0.709906
0.000000 0.715911 0.731086
0.000000 0.000000 0.522933
0.000000 0.000000 0.093066
1.000000 1.000000 0.385384
1.000000 1.000000 0.572527
1.000000 1.000000 0.955799
1.000000 1.000000 1.000000
1.000000 1.000000 1.000000
1.000000 1.000000 1.000000
0.739138 1.000000 1.000000
0.000000 0.306694 1.000000
0.000000 0.000000 0.843822
1.000000 1.000000 1.000000
1.000000 1.000000 1.000000
1.000000 1.000000 1.000000
1.000000 1.000000 1.000000
1.000000 1.000000 1.000000
1.000000 1.000000 1.000000
1.000000 1.000000 1.000000
1.000000 1.000000 1.000000
0.000000 0.000000 1.000000
0.672662 0.203853 0.828897
0.347684 0.031381 0.432657
0.073831 0.000000 0.201769
0.000000 0.000000 0.085239
0.000000 0.000000 0.061352
0.000000 0.000000 0.137669
0.000000 0.000000 0.351029
0.000000 0.000000 0.767551
0.000000 0.000000 1.000000
0.368243 0.292004 0.417539
0.222449 0.223652 0.224175
0.135148 0.149520 0.179518
0.071830 0.071906 0.218135
0.017095 0.000000 0.303871
0.000000 0.000000 0.429847
0.000000 0.000000 0.618463
0.037026 0.000000 0.921397
0.244804 0.088521 1.000000
0.043729 0.251577 0.032336
0.030580 0.278281 0.000000
0.081786 0.308540 0.095274
0.149292 0.331418 0.255598
0.204152 0.341358 0.424607
0.236529 0.338183 0.580981
0.255696 0.327093 0.732682
0.290034 0.318666 0.916948
0.387032 0.328859 1.000000
0.000000 0.167760 0.000000
0.000000 0.276787 0.000000
0.000000 0.392436 0.000000
0.135189 0.490540 0.219704
0.243295 0.552308 0.444896
0.292640 0.564330 0.611670
0.278950 0.518573 0.713547
0.217061 0.412382 0.773325
0.140917 0.248482 0.843079
0.000000 0.166964 0.000000
0.000000 0.341909 0.000000
0.018107 0.520278 0.000000
0.177427 0.664671 0.212458
0.277132 0.743065 0.466005
0.280294 0.728814 0.622441
0.169093 0.600655 0.660845
0.000000 0.342699 0.589576
0.000000 0.000000 0.446270
0.211389 0.416819 0.000000
0.263949 0.637609 0.000000
0.389433 0.852358 0.098375
0.499146 1.000000 0.415793
0.523505 1.000000 0.669130
0.412037 0.980917 0.793750
0.133375 0.718950 0.754294
0.000000 0.251557 0.544682
0.000000 0.000000 0.188109
1.000000 1.000000 0.437867
1.000000 1.000000 0.529818
1.000000 1.000000 0.793598
1.000000 1.000000 1.000000
1.000000 1.000000 1.000000
0.975656 1.000000 1.000000
0.454283 1.000000 1.000000
0.000000 0.322118 0.897551
0.000000 0.000000 0.326764
1.000000 1.000000 1.000000
1.000000 1.000000 1.000000
1.000000 1.000000 1.000000
1.000000 1.000000 1.000000
1.000000 1.000000 1.000000
1.000000 1.000000 1.000000
1.000000 1.000000 1.000000
0.328202 0.778762 1.000000
0.000000 0.000000 1.000000
1.000000 1.000000 1.000000
1.000000 1.000000 1.000000
1.000000 1.000000 1.000000
1.000000 1.000000 1.000000
1.000000 1.000000 1.000000
1.000000 1.000000 1.000000
1.000000 1.000000 1.000000
1.000000 1.000000 1.000000
0.000000 0.000000 1.000000
0.951051 0.364758 0.965821
0.509546 0.079548 0.474424
0.162355 0.000000 0.155153
0.000000 0.000000 0.000000
0.000000 0.000000 0.000000
0.000000 0.000000 0.000000
0.000000 0.000000 0.041403
0.000000 0.000000 0.420495
0.000000 0.000000 1.000000
0.717194 0.503726 0.645011
0.443771 0.310025 0.354524
0.271946 0.151405 0.221025
0.163125 0.027041 0.180219
0.097818 0.000000 0.197090
0.075649 0.000000 0.265898
0.115348 0.000000 0.410182
0.254755 0.043857 0.682759
0.550818 0.266622 1.000000
0.461097 0.512256 0.359441
0.307036 0.400860 0.216761
0.260355 0.333585 0.223020
0.268913 0.296373 0.299484
0.299676 0.280542 0.396697
0.338720 0.282791 0.494479
0.391230 0.305196 0.601930
0.481501 0.355211 0.757426
0.652934 0.445671 1.000000
0.275336 0.480405 0.132720
0.186619 0.438439 0.084005
0.209562 0.443368 0.183270
0.278474 0.467901 0.337341
0.346779 0.490123 0.482322
0.387005 0.493500 0.583595
0.390792 0.466874 0.635819
0.368888 0.404469 0.662930
0.351151 0.305883 0.718145
0.327727 0.539454 0.068384
0.245040 0.550372 0.059053
0.276786 0.604693 0.203833
0.343732 0.661892 0.395110
0.385753 0.686823 0.554548
0.361832 0.649718 0.633089
0.250064 0.526186 0.610954
0.047650 0.297216 0.497639
0.000000 0.000000 0.331919
0.861326 0.861900 0.349900
0.720056 0.905487 0.324634
0.694490 0.982719 0.466699
0.691849 1.000000 0.654041
0.638462 1.000000 0.793885
0.479768 0.905594 0.822735
0.180314 0.633609 0.706369
0.000000 0.180263 0.439846
0.000000 0.000000 0.047501
1.000000 1.000000 1.000000
1.000000 1.000000 1.000000
1.000000 1.000000 1.000000
1.000000 1.000000 1.000000
1.000000 1.000000 1.000000
1.000000 1.000000 1.000000
0.468051 0.980843 1.000000
0.000000 0.241637 0.747777
0.000000 0.000000 0.122377
1.000000 1.000000 1.000000
1.000000 1.000000 1.000000
1.000000 1.000000 1.000000
1.000000 1.000000 1.000000
1.000000 1.000000 1.000000
1.000000 1.000000 1.000000
1.000000 1.000000 1.000000
0.268086 0.710588 1.000000
0.000000 0.000000 0.893961
1.000000 1.000000 1.000000
1.000000 1.000000 1.000000
1.000000 1.000000 1.000000
1.000000 1.000000 1.000000
1.000000 1.000000 1.000000
1.000000 1.000000 1.000000
1.000000 1.000000 1.000000
1.000000 1.000000 1.000000
0.000000 0.000000 1.000000
1.000000 0.447908 0.936751
0.592303 0.088518 0.409623
0.223120 0.000000 0.077120
0.000000 0.000000 0.000000
0.000000 0.000000 0.000000
0.000000 0.000000 0.000000
0.000000 0.000000 0.158205
0.233563 0.000000 0.653640
0.804250 0.195591 1.000000
0.937297 0.631934 0.679496
0.569198 0.345869 0.340111
0.355459 0.136476 0.181718
0.253399 0.000000 0.141163
0.239442 0.000000 0.184566
0.309123 0.000000 0.307328
0.477086 0.067299 0.534127
0.777083 0.289583 0.918916
1.000000 0.645516 1.000000
0.729118 0.676965 0.453614
0.458361 0.454879 0.243384
0.347666 0.318211 0.207605
0.340803 0.249777 0.268679
0.400653 0.237774 0.378291
0.509203 0.275776 0.517401
0.667553 0.362734 0.696245
0.895908 0.502980 0.954339
1.000000 0.706222 1.000000
0.580701 0.677926 0.282029
0.351091 0.506802 0.141629
0.285739 0.423576 0.176225
0.314871 0.397832 0.293784
0.387821 0.404532 0.431547
0.473031 0.424018 0.556036
0.558054 0.442008 0.663049
0.649550 0.449601 0.777661
0.773289 0.443273 0.954226
0.663883 0.770964 0.267594
0.413925 0.634115 0.136958
0.330920 0.581379 0.188955
0.331546 0.569105 0.317112
0.351591 0.559023 0.444232
0.345954 0.518242 0.522395
0.288638 0.419246 0.532960
0.172761 0.239902 0.486563
0.010544 0.000000 0.423118
1.000000 1.000000 0.593090
0.888642 1.000000 0.411415
0.719688 0.961647 0.427100
0.622009 0.929954 0.519232
0.517849 0.863935 0.596173
0.348557 0.717464 0.595565
0.074595 0.449795 0.484327
0.000000 0.025560 0.258656
0.000000 0.000000 0.000000
1.000000 1.000000 1.000000
1.000000 1.000000 1.000000
1.000000 1.000000 1.000000
1.000000 1.000000 1.000000
1.000000 1.000000 1.000000
0.776668 1.000000 1.000000
0.206452 0.730222 0.775430
0.000000 0.000000 0.351480
0.000000 0.000000 0.000000
1.000000 1.000000 1.000000
1.000000 1.000000 1.000000
1.000000 1.000000 1.000000
1.000000 1.000000 1.000000
1.000000 1.000000 1.000000
1.000000 1.000000 1.000000
1.000000 1.000000 1.000000
0.000000 0.395756 1.000000
0.000000 0.000000 0.249024
1.000000 1.000000 1.000000
1.000000 1.000000 1.000000
1.000000 1.000000 1.000000
1.000000 1.000000 1.000000
1.000000 1.000000 1.000000
1.000000 1.000000 1.000000
1.000000 1.000000 1.000000
1.000000 1.000000 1.000000
0.000000 0.000000 1.000000
1.000000 0.431246 0.750772
0.597332 0.065491 0.263319
0.285773 0.000000 0.008715
0.150645 0.000000 0.000000
0.177833 0.000000 0.037017
0.372331 0.000000 0.312604
0.758241 0.004681 0.806395
1.000000 0.464523 1.000000
1.000000 1.000000 1.000000
1.000000 0.666251 0.560563
0.627678 0.350062 0.236483
0.442904 0.152864 0.133124
0.428140 0.067585 0.188471
0.555722 0.092528 0.369783
0.817100 0.231377 0.673599
1.000000 0.493193 1.000000
1.000000 0.892416 1.000000
1.000000 1.000000 1.000000
0.876040 0.747003 0.384907
0.541073 0.470892 0.160128
0.428505 0.322224 0.151035
0.478019 0.280694 0.281170
0.648409 0.331373 0.503355
0.917575 0.464710 0.799690
1.000000 0.676535 1.000000
1.000000 0.968053 1.000000
1.000000 1.000000 1.000000
0.759592 0.773296 0.246043
0.432836 0.524105 0.055756
0.332595 0.404544 0.083207
0.385007 0.381073 0.237501
0.535318 0.425530 0.457019
0.747884 0.515134 0.709420
1.000000 0.632478 0.991642
1.000000 0.765538 1.000000
1.000000 0.907664 1.000000
0.855742 0.886144 0.246141
0.473525 0.647046 0.024797
0.320435 0.533497 0.030334
0.309064 0.498725 0.157416
0.371114 0.501335 0.329987
0.457394 0.505312 0.501266
0.537823 0.480017 0.653749
0.601428 0.400193 0.799212
0.656347 0.245957 0.978709
1.000000 1.000000 0.567299
0.908937 1.000000 0.248609
0.632524 0.883980 0.173034
0.485394 0.804876 0.220798
0.385701 0.726343 0.301403
0.270710 0.599130 0.353630
0.096794 0.379367 0.345536
0.000000 0.028563 0.274457
0.000000 0.000000 0.167006
1.000000 1.000000 1.000000
1.000000 1.000000 0.988484
1.000000 1.000000 0.771859
1.000000 1.000000 0.687457
0.884223 1.000000 0.630339
0.487679 1.000000 0.524847
0.000000 0.531963 0.324598
0.000000 0.000000 0.012489
0.000000 0.000000 0.000000
1.000000 1.000000 1.000000
1.000000 1.000000 1.000000
1.000000 1.000000 1.000000
1.000000 1.000000 1.000000
1.000000 1.000000 1.000000
1.000000 1.000000 1.000000
0.550124 1.000000 0.928461
0.000000 0.098731 0.350094
0.000000 0.000000 0.000000
1.000000 1.000000 1.000000
1.000000 1.000000 1.000000
1.000000 1.000000 1.000000
1.000000 1.000000 1.000000
1.000000 1.000000 1.000000
1.000000 1.000000 1.000000
1.000000 1.000000 1.000000
0.518118 1.000000 1.000000
0.000000 0.000000 0.628351
0.935181 0.263599 0.442932
0.507318 0.000000 0.086538
0.361267 0.000000 0.016939
0.459717 0.000000 0.187697
0.784463 0.066619 0.581650
1.000000 0.421763 1.000000
1.000000 0.968936 1.000000
1.000000 1.000000 1.000000
1.000000 1.000000 1.000000
0.974979 0.567179 0.353740
0.629465 0.312359 0.125147
0.572804 0.219581 0.172728
0.754140 0.278647 0.435607
1.000000 0.484738 0.882182
1.000000 0.838413 1.000000
1.000000 1.000000 1.000000
1.000000 1.000000 1.000000
1.000000 1.000000 1.000000
0.911418 0.694550 0.249329
0.592996 0.450332 0.078981
0.568966 0.376315 0.181278
0.774925 0.449067 0.480902
1.000000 0.650536 0.931813
1.000000 0.968048 1.000000
1.000000 1.000000 1.000000
1.000000 1.000000 1.000000
1.000000 1.000000 1.000000
0.849133 0.750372 0.151255
0.497249 0.503459 0.000000
0.443793 0.428637 0.062666
0.610815 0.489244 0.342921
0.939474 0.653993 0.749143
1.000000 0.896978 1.000000
1.000000 1.000000 1.000000
1.000000 1.000000 1.000000
1.000000 1.000000 1.000000
0.967999 0.880529 0.161001
0.516803 0.613951 0.000000
0.366566 0.515090 0.000000
0.425791 0.534050 0.120932
0.622094 0.626313 0.432702
0.902196 0.752737 0.806568
1.000000 0.879562 1.000000
1.000000 0.978405 1.000000
1.000000 1.000000 1.000000
1.000000 1.000000 0.459983
0.901474 0.965243 0.039652
0.581802 0.815438 0.000000
0.459076 0.759580 0.000000
0.447363 0.739917 0.160947
0.479840 0.704077 0.364279
0.508793 0.605065 0.573324
0.505616 0.401265 0.786557
0.460813 0.056439 1.000000
1.000000 1.000000 1.000000
1.000000 1.000000 0.661849
1.000000 1.000000 0.343576
1.000000 1.000000 0.221649
0.724444 1.000000 0.192269
0.426835 0.960972 0.180915
0.071043 0.580482 0.142344
0.000000 0.012132 0.060592
0.000000 0.000000 0.000000
1.000000 1.000000 1.000000
1.000000 1.000000 1.000000
1.000000 1.000000 1.000000
1.000000 1.000000 1.000000
1.000000 1.000000 0.864984
1.000000 1.000000 0.594054
0.292488 1.000000 0.270068
0.000000 0.054862 0.000000
0.000000 0.000000 0.000000
1.000000 1.000000 1.000000
1.000000 1.000000 1.000000
1.000000 1.000000 1.000000
1.000000 1.000000 1.000000
1.000000 1.000000 1.000000
1.000000 1.000000 1.000000
1.000000 1.000000 1.000000
0.000000 0.814530 0.608671
0.000000 0.000000 0.000000
0.494260 0.000000 0.074237
0.286251 0.000000 0.000000
0.441864 0.000000 0.194757
0.919702 0.265588 0.744417
1.000000 0.787750 1.000000
1.000000 1.000000 1.000000
1.000000 1.000000 1.000000
1.000000 1.000000 1.000000
1.000000 1.000000 1.000000
0.737833 0.266103 0.150516
0.566120 0.193402 0.113569
0.764990 0.326522 0.423975
1.000000 0.652143 1.000000
1.000000 1.000000 1.000000
1.000000 1.000000 1.000000
1.000000 1.000000 1.000000
1.000000 1.000000 1.000000
1.000000 1.000000 1.000000
0.826113 0.462666 0.168852
0.633261 0.365518 0.137893
0.816451 0.482055 0.452262
1.000000 0.785723 1.000000
1.000000 1.000000 1.000000
1.000000 1.000000 1.000000
1.000000 1.000000 1.000000
1.000000 1.000000 1.000000
1.000000 1.000000 1.000000
0.867756 0.563892 0.150116
0.591033 0.428857 0.049366
0.694305 0.509106 0.299011
1.000000 0.764850 0.810431
1.000000 1.000000 1.000000
1.000000 1.000000 1.000000
1.000000 1.000000 1.000000
1.000000 1.000000 1.000000
1.000000 1.000000 1.000000
1.000000 0.720533 0.195108
0.618032 0.530502 0.000000
0.571853 0.551085 0.063543
0.812538 0.729262 0.438528
1.000000 1.000000 0.999225
1.000000 1.000000 1.000000
1.000000 1.000000 1.000000
1.000000 1.000000 1.000000
1.000000 1.000000 1.000000
1.000000 1.000000 0.484557
0.968095 0.858753 0.013937
0.697634 0.792624 0.000000
0.701437 0.859921 0.100585
0.889485 0.999769 0.452136
1.000000 1.000000 0.920822
1.000000 1.000000 1.000000
1.000000 1.000000 1.000000
1.000000 1.000000 1.000000
1.000000 1.000000 1.000000
1.000000 1.000000 0.506947
1.000000 1.000000 0.142900
1.000000 1.000000 0.055047
0.922602 1.000000 0.140726
0.836628 1.000000 0.326558
0.757446 1.000000 0.568437
0.638819 0.685182 0.851536
0.453618 0.115523 1.000000
1.000000 1.000000 1.000000
1.000000 1.000000 1.000000
1.000000 1.000000 1.000000
1.000000 1.000000 0.640284
1.000000 1.000000 0.402629
1.000000 1.000000 0.255232
0.575397 1.000000 0.139548
0.000000 0.470380 0.026312
0.000000 0.000000 0.000000
1.000000 1.000000 1.000000
1.000000 1.000000 1.000000
1.000000 1.000000 1.000000
1.000000 1.000000 1.000000
1.000000 1.000000 1.000000
1.000000 1.000000 1.000000
1.000000 1.000000 0.606400
0.037180 0.972080 0.059894
0.000000 0.000000 0.000000
0.000000 0.000000 0.000000
0.000000 0.000000 0.000000
0.501131 0.000000 0.661092
1.000000 0.775081 1.000000
1.000000 1.000000 1.000000
1.000000 1.000000 1.000000
1.000000 1.000000 1.000000
1.000000 1.000000 1.000000
1.000000 1.000000 1.000000
0.262392 0.000000 0.068339
0.410511 0.000000 0.335177
1.000000 0.434465 1.000000
1.000000 1.000000 1.000000
1.000000 1.000000 1.000000
1.000000 1.000000 1.000000
1.000000 1.000000 1.000000
1.000000 1.000000 1.000000
1.000000 1.000000 1.000000
0.592294 0.000000 0.291405
0.662307 0.159647 0.500771
1.000000 0.611899 1.000000
1.000000 1.000000 1.000000
1.000000 1.000000 1.000000
1.000000 1.000000 1.000000
1.000000 1.000000 1.000000
1.000000 1.000000 1.000000
1.000000 1.000000 1.000000
0.815199 0.139478 0.421039
0.742194 0.255176 0.491670
1.000000 0.630079 1.000000
1.000000 1.000000 1.000000
1.000000 1.000000 1.000000
1.000000 1.000000 1.000000
1.000000 1.000000 1.000000
1.000000 1.000000 1.000000
1.000000 1.000000 1.000000
1.000000 0.343455 0.557355
0.832789 0.363250 0.407251
1.000000 0.637287 0.711117
1.000000 1.000000 1.000000
1.000000 1.000000 1.000000
1.000000 1.000000 1.000000
1.000000 1.000000 1.000000
1.000000 1.000000 1.000000
1.000000 1.000000 1.000000
1.000000 0.774068 0.880399
1.000000 0.677038 0.426820
1.000000 0.823021 0.447964
1.000000 1.000000 0.827470
1.000000 1.000000 1.000000
1.000000 1.000000 1.000000
1.000000 1.000000 1.000000
1.000000 1.000000 1.000000
1.000000 1.000000 1.000000
1.000000 1.000000 1.000000
1.000000 1.000000 0.809615
1.000000 1.000000 0.471647
1.000000 1.000000 0.505444
1.000000 1.000000 0.809485
1.000000 1.000000 1.000000
1.000000 1.000000 1.000000
1.000000 1.000000 1.000000
1.000000 1.000000 1.000000
1.000000 1.000000 1.000000
1.000000 1.000000 1.000000
1.000000 1.000000 1.000000
1.000000 1.000000 0.738644
1.000000 1.000000 0.632989
1.000000 1.000000 0.716947
1.000000 1.000000 0.933114
1.000000 1.000000 1.000000
1.000000 0.702097 1.000000
1.000000 1.000000 1.000000
1.000000 1.000000 1.000000
1.000000 1.000000 1.000000
1.000000 1.000000 1.000000
1.000000 1.000000 1.000000
1.000000 1.000000 0.974930
1.000000 1.000000 0.700678
1.000000 1.000000 0.500330
0.000000 0.211165 0.360597
0.000000 0.000000 0.000000
0.000000 0.000000 0.272974
0.493941 0.000000 1.000000
1.000000 1.000000 1.000000
1.000000 1.000000 1.000000
1.000000 1.000000 1.000000
1.000000 1.000000 1.000000
1.000000 1.000000 1.000000
1.000000 1.000000 1.000000
0.000000 0.000000 0.250615
0.116812 0.000000 0.949357
1.000000 0.475069 1.000000
1.000000 1.000000 1.000000
1.000000 1.000000 1.000000
1.000000 1.000000 1.000000
1.000000 1.000000 1.000000
1.000000 1.000000 1.000000
1.000000 1.000000 1.000000
0.163435 0.000000 0.790878
0.661877 0.000000 1.000000
1.000000 0.709181 1.000000
1.000000 1.000000 1.000000
1.000000 1.000000 1.000000
1.000000 1.000000 1.000000
1.000000 1.000000 1.000000
1.000000 1.000000 1.000000
1.000000 1.000000 1.000000
0.672507 0.000000 1.000000
0.960047 0.000000 1.000000
1.000000 0.746572 1.000000
1.000000 1.000000 1.000000
1.000000 1.000000 1.000000
1.000000 1.000000 1.000000
1.000000 1.000000 1.000000
1.000000 1.000000 1.000000
1.000000 1.000000 1.000000
1.000000 0.000000 1.000000
1.000000 0.049632 1.000000
1.000000 0.740388 1.000000
1.000000 1.000000 1.000000
1.000000 1.000000 1.000000
1.000000 1.000000 1.000000
1.000000 1.000000 1.000000
1.000000 1.000000 1.000000
1.000000 1.000000 1.000000
1.000000 0.140501 1.000000
1.000000 0.369212 1.000000
1.000000 0.884998 1.000000
1.000000 1.000000 1.000000
1.000000 1.000000 1.000000
1.000000 1.000000 1.000000
1.000000 1.000000 1.000000
1.000000 1.000000 1.000000
1.000000 1.000000 1.000000
1.000000 1.000000 1.000000
1.000000 1.000000 1.000000
1.000000 1.000000 1.000000
1.000000 1.000000 1.000000
1.000000 1.000000 1.000000
1.000000 1.000000 1.000000
1.000000 1.000000 1.000000
1.000000 1.000000 1.000000
1.000000 1.000000 1.000000
1.000000 1.000000 1.000000
1.000000 1.000000 1.000000
1.000000 1.000000 1.000000
1.000000 1.000000 1.000000
1.000000 1.000000 1.000000
1.000000 1.000000 1.000000
1.000000 1.000000 1.000000
1.000000 1.000000 1.000000
1.000000 1.000000 1.000000
1.000000 1.000000 1.000000
1.000000 1.000000 1.000000
1.000000 1.000000 1.000000
1.000000 1.000000 1.000000
1.000000 1.000000 1.000000
1.000000 1.000000 1.000000
1.000000 1.000000 1.000000
1.000000 1.000000 1.000000
1.000000 1.000000 1.000000
