lrplugin/MindfulLensFilmEngine.lrplugin/profiles/luts/ektachrome.cube
# Generated from ColorChecker fit
LUT_3D_SIZE 33
DOMAIN_MIN 0.0 0.0 0.0
DOMAIN_MAX 1.0 1.0 1.0
0.281678 0.000000 0.542852
0.229629 0.000000 0.458150
0.180162 0.000000 0.387844
0.132676 0.000000 0.330605
0.086646 0.000000 0.285216
0.041623 0.000000 0.250579
0.000000 0.000000 0.225706
0.000000 0.000000 0.209727
0.000000 0.000000 0.201883
0.000000 0.000000 0.201532
0.000000 0.000000 0.208145
0.000000 0.000000 0.221307
0.000000 0.000000 0.240719
0.000000 0.000000 0.266196
0.000000 0.000000 0.297666
0.000000 0.000000 0.335171
0.000000 0.000000 0.378871
0.000000 0.000000 0.429036
0.000000 0.000000 0.486053
0.000000 0.000000 0.550423
0.000000 0.000000 0.622760
0.000000 0.000000 0.703794
0.000000 0.000000 0.794369
0.000000 0.000000 0.895443
0.000000 0.000000 1.000000
0.000000 0.000000 1.000000
0.000000 0.000000 1.000000
0.000000 0.000000 1.000000
0.000000 0.000000 1.000000
0.000000 0.000000 1.000000
0.000000 0.000000 1.000000
0.000000 0.000000 1.000000
0.000000 0.000000 1.000000
0.183671 0.000000 0.400981
0.143563 0.000000 0.329650
0.106321 0.000000 0.272558
0.071291 0.000000 0.228321
0.037896 0.000000 0.195666
0.005632 0.000000 0.173436
0.000000 0.000000 0.160590
0.000000 0.000000 0.156199
0.000000 0.000000 0.159450
0.000000 0.000000 0.169642
0.000000 0.000000 0.186191
0.000000 0.000000 0.208626
0.000000 0.000000 0.236591
0.000000 0.000000 0.269844
0.000000 0.000000 0.308257
0.000000 0.000000 0.351817
0.000000 0.000000 0.400625
0.000000 0.000000 0.454897
0.000000 0.000000 0.514962
0.000000 0.000000 0.581266
0.000000 0.000000 0.654365
0.000000 0.000000 0.734934
0.000000 0.000000 0.823759
0.000000 0.000000 0.921743
0.000000 0.000000 1.000000
0.000000 0.000000 1.000000
0.000000 0.000000 1.000000
0.000000 0.000000 1.000000
0.000000 0.000000 1.000000
0.000000 0.000000 1.000000
0.000000 0.000000 1.000000
0.000000 0.000000 1.000000
0.000000 0.000000 1.000000
0.082519 0.000000 0.261085
0.053731 0.000000 0.202433
0.028086 0.000000 0.157892
0.004878 0.000000 0.126021
0.000000 0.000000 0.105491
0.000000 0.000000 0.095089
0.000000 0.000000 0.093717
0.000000 0.000000 0.100389
0.000000 0.000000 0.114236
0.000000 0.000000 0.134502
0.000000 0.000000 0.160546
0.000000 0.000000 0.191839
0.000000 0.000000 0.227970
0.000000 0.000000 0.268640
0.000000 0.000000 0.313666
0.000000 0.000000 0.362977
0.000000 0.000000 0.416618
0.000000 0.000000 0.474748
0.000000 0.000000 0.537641
0.000000 0.000000 0.605685
0.000000 0.000000 0.679382
0.000000 0.000000 0.759348
0.000000 0.000000 0.846314
0.000000 0.000000 0.941126
0.000000 0.000000 1.000000
0.000000 0.000000 1.000000
0.000000 0.000000 1.000000
0.000000 0.000000 1.000000
0.000000 0.000000 1.000000
0.000000 0.000000 1.000000
0.000000 0.000000 1.000000
0.000000 0.000000 1.000000
0.000000 0.000000 1.000000
0.000000 0.000000 0.122149
0.000000 0.001101 0.075482
0.000000 0.011110 0.042826
0.000000 0.017864 0.022681
0.000000 0.021427 0.013665
0.000000 0.021883 0.014508
0.000000 0.019336 0.024054
0.000000 0.013913 0.041262
0.000000 0.005760 0.065206
0.000000 0.000000 0.095073
0.000000 0.000000 0.130165
0.000000 0.000000 0.169900
0.000000 0.000000 0.213808
0.000000 0.000000 0.261533
0.000000 0.000000 0.312837
0.000000 0.000000 0.367592
0.000000 0.000000 0.425787
0.000000 0.000000 0.487525
0.000000 0.000000 0.553023
0.000000 0.000000 0.622612
0.000000 0.000000 0.696737
0.000000 0.000000 0.775960
0.000000 0.000000 0.860955
0.000000 0.000000 0.952510
0.000000 0.000000 1.000000
0.000000 0.000000 1.000000
0.000000 0.000000 1.000000
0.000000 0.000000 1.000000
0.000000 0.000000 1.000000
0.000000 0.000000 1.000000
0.000000 0.000000 1.000000
0.000000 0.000000 1.000000
0.015526 0.000000 1.000000
0.000000 0.000000 0.000000
0.000000 0.000000 0.000000
0.000000 0.014263 0.000000
0.000000 0.027975 0.000000
0.000000 0.038758 0.000000
0.000000 0.046646 0.000000
0.000000 0.051692 0.000000
0.000000 0.053969 0.000000
0.000000 0.053573 0.011631
0.000000 0.050620 0.050624
0.000000 0.045248 0.094318
0.000000 0.037614 0.142074
0.000000 0.027898 0.193366
0.000000 0.016300 0.247783
0.000000 0.003042 0.305027
0.000000 0.000000 0.364918
0.000000 0.000000 0.427385
0.000000 0.000000 0.492477
0.000000 0.000000 0.560353
0.000000 0.000000 0.631288
0.000000 0.000000 0.705672
0.000000 0.000000 0.784009
0.000000 0.000000 0.866917
0.000000 0.000000 0.955127
0.000000 0.000000 1.000000
0.000000 0.000000 1.000000
0.000000 0.000000 1.000000
0.000000 0.000000 1.000000
0.000000 0.000000 1.000000
0.000000 0.000000 1.000000
0.000000 0.000000 1.000000
0.034076 0.000000 1.000000
0.098405 0.000000 1.000000
0.000000 0.000000 0.000000
0.000000 0.000000 0.000000
0.000000 0.008646 0.000000
0.000000 0.029164 0.000000
0.000000 0.046992 0.000000
0.000000 0.062112 0.000000
0.000000 0.074524 0.000000
0.000000 0.084252 0.000000
0.000000 0.091339 0.000000
0.000000 0.095850 0.000741
0.000000 0.097870 0.052586
0.000000 0.097505 0.107940
0.000000 0.094884 0.166221
0.000000 0.090154 0.226960
0.000000 0.083486 0.289806
0.000000 0.075069 0.354519
0.000000 0.065116 0.420975
0.000000 0.053860 0.489163
0.000000 0.041553 0.559189
0.000000 0.028471 0.631269
0.000000 0.014909 0.705738
0.000000 0.001183 0.783043
0.000000 0.000000 0.863745
0.000000 0.000000 0.948520
0.000000 0.000000 1.000000
0.000000 0.000000 1.000000
0.000000 0.000000 1.000000
0.000000 0.000000 1.000000
0.000000 0.000000 1.000000
0.012991 0.000000 1.000000
0.050442 0.000000 1.000000
0.097080 0.000000 1.000000
0.154205 0.000000 1.000000
0.000000 0.000000 0.000000
0.000000 0.000000 0.000000
0.000000 0.000000 0.000000
0.000000 0.022402 0.000000
0.000000 0.047084 0.000000
0.000000 0.069220 0.000000
0.000000 0.088761 0.000000
0.000000 0.105676 0.000000
0.000000 0.119958 0.000000
0.000000 0.131619 0.000000
0.000000 0.140693 0.004861
0.000000 0.147236 0.067387
0.000000 0.151323 0.132258
0.000000 0.153050 0.198951
0.000000 0.152537 0.267056
0.000000 0.149921 0.336276
0.000000 0.145363 0.406433
0.000000 0.139043 0.477458
0.000000 0.131164 0.549400
0.000000 0.121949 0.622422
0.000000 0.111640 0.696799
0.000000 0.100505 0.772922
0.000000 0.088827 0.851298
0.000000 0.076915 0.932545
0.000000 0.065096 1.000000
0.000000 0.053720 1.000000
0.002425 0.043155 1.000000
0.017415 0.033795 1.000000
0.037018 0.026049 1.000000
0.062256 0.020352 1.000000
0.094229 0.017157 1.000000
0.134109 0.016940 1.000000
0.183144 0.020197 1.000000
0.000000 0.000000 0.000000
0.000000 0.000000 0.000000
0.000000 0.000000 0.000000
0.000000 0.008820 0.000000
0.000000 0.040152 0.000000
0.000000 0.069076 0.000000
0.000000 0.095490 0.000000
0.000000 0.119314 0.000000
0.000000 0.140488 0.000000
0.000000 0.158972 0.000000
0.000000 0.174750 0.000000
0.000000 0.187823 0.020618
0.000000 0.198218 0.091679
0.000000 0.205978 0.163951
0.000000 0.211169 0.236969
0.000000 0.213880 0.310379
0.000000 0.214218 0.383946
0.000000 0.212312 0.457546
0.000000 0.208314 0.531171
0.000000 0.202393 0.604926
0.000000 0.194742 0.679031
0.002727 0.185575 0.753822
0.009406 0.175126 0.829746
0.015837 0.163650 0.907368
0.022616 0.151423 0.987365
0.030415 0.138743 1.000000
0.039982 0.125927 1.000000
0.052139 0.113317 1.000000
0.067780 0.101271 1.000000
0.087878 0.090170 1.000000
0.113477 0.080419 1.000000
0.145697 0.072439 1.000000
0.185733 0.066675 1.000000
0.000000 0.000000 0.000000
0.000000 0.000000 0.000000
0.000000 0.000000 0.000000
0.000000 0.000000 0.000000
0.000000 0.027473 0.000000
0.000000 0.062941 0.000000
0.000000 0.095961 0.000000
0.000000 0.126401 0.000000
0.000000 0.154150 0.000000
0.000000 0.179116 0.000000
0.000000 0.201231 0.000000
0.000000 0.220446 0.000000
0.000000 0.236732 0.044995
0.000000 0.250085 0.122470
0.000000 0.260518 0.200052
0.000000 0.268067 0.277331
0.000000 0.272788 0.354015
0.000000 0.274759 0.429924
0.000000 0.274079 0.504993
0.002954 0.270866 0.579272
0.014342 0.265262 0.652924
0.023747 0.257429 0.726227
0.031564 0.247548 0.799574
0.038264 0.235824 0.873471
0.044391 0.222480 0.948541
0.050565 0.207763 1.000000
0.057479 0.191939 1.000000
0.065902 0.175297 1.000000
0.076678 0.158143 1.000000
0.090723 0.140809 1.000000
0.109031 0.123645 1.000000
0.132669 0.107022 1.000000
0.162779 0.091333 1.000000
0.000000 0.000000 0.000000
0.000000 0.000000 0.000000
0.000000 0.000000 0.000000
0.000000 0.000000 0.000000
0.000000 0.010488 0.000000
0.000000 0.052242 0.000000
0.000000 0.091585 0.000000
0.000000 0.128335 0.000000
0.000000 0.162327 0.000000
0.000000 0.193419 0.000000
0.000000 0.221491 0.000000
0.000000 0.246441 0.000000
0.000000 0.268191 0.000000
0.000000 0.286683 0.075328
0.000000 0.301879 0.157123
0.000000 0.313763 0.237947
0.000000 0.322340 0.317453
0.000000 0.327636 0.395402
0.000000 0.329698 0.471675
0.006742 0.328593 0.546265
0.019967 0.324411 0.619277
0.030440 0.317262 0.690935
0.038505 0.307275 0.761574
0.044578 0.294604 0.831646
0.049151 0.279420 0.901713
0.052791 0.261919 0.972457
0.056138 0.242315 1.000000
0.059908 0.220844 1.000000
0.064892 0.197762 1.000000
0.071954 0.173348 1.000000
0.082034 0.147902 1.000000
0.096146 0.121742 1.000000
0.115379 0.095209 1.000000
0.000000 0.000000 0.000000
0.000000 0.000000 0.000000
0.000000 0.000000 0.000000
0.000000 0.000000 0.000000
0.000000 0.000000 0.000000
0.000000 0.038563 0.000000
0.000000 0.083933 0.000000
0.000000 0.126671 0.000000
0.000000 0.166561 0.000000
0.000000 0.203409 0.000000
0.000000 0.237042 0.000000
0.000000 0.267310 0.000000
0.000000 0.294079 0.000000
0.000000 0.317242 0.023659
0.000000 0.336708 0.109312
0.000000 0.352411 0.193355
0.000000 0.364302 0.275383
0.000000 0.372357 0.355102
0.000000 0.376571 0.432336
0.000000 0.376959 0.507019
0.013791 0.373559 0.579205
0.024428 0.366430 0.649057
0.031830 0.355649 0.716856
0.036359 0.341318 0.782996
0.038455 0.323558 0.847984
0.038632 0.302510 0.912445
0.037477 0.278339 0.977114
0.035654 0.251229 1.000000
0.033900 0.221384 1.000000
0.033026 0.189031 1.000000
0.033919 0.154417 1.000000
0.037542 0.117811 1.000000
0.044929 0.079502 1.000000
0.000000 0.000000 0.000000
0.000000 0.000000 0.000000
0.000000 0.000000 0.000000
0.000000 0.000000 0.000000
0.000000 0.000000 0.000000
0.000000 0.023653 0.000000
0.000000 0.074738 0.000000
0.000000 0.123128 0.000000
0.000000 0.168556 0.000000
0.000000 0.210775 0.000000
0.000000 0.249562 0.000000
0.000000 0.284712 0.000000
0.000000 0.316044 0.000000
0.000000 0.343395 0.000000
0.000000 0.366625 0.058062
0.000000 0.385614 0.144995
0.000000 0.400264 0.229243
0.000000 0.410498 0.310458
0.000000 0.416258 0.388405
0.000000 0.417510 0.462965
0.000000 0.414239 0.534132
0.007626 0.406450 0.602016
0.013432 0.394173 0.666838
0.015480 0.377455 0.728939
0.014156 0.356366 0.788768
0.009920 0.330996 0.846893
0.003308 0.301458 0.903994
0.000000 0.267883 0.960866
0.000000 0.230425 1.000000
0.000000 0.189258 1.000000
0.000000 0.144579 1.000000
0.000000 0.096604 1.000000
0.000000 0.045571 1.000000
0.000000 0.000000 0.000000
0.000000 0.000000 0.000000
0.000000 0.000000 0.000000
0.000000 0.000000 0.000000
0.000000 0.000000 0.000000
0.000000 0.009418 0.000000
0.000000 0.065894 0.000000
0.000000 0.119586 0.000000
0.000000 0.170177 0.000000
0.000000 0.217369 0.000000
0.000000 0.260885 0.000000
0.000000 0.300471 0.000000
0.000000 0.335892 0.000000
0.000000 0.366934 0.000000
0.000000 0.393407 0.005129
0.000000 0.415137 0.094618
0.000000 0.431976 0.180782
0.000000 0.443793 0.263215
0.000000 0.450481 0.341627
0.000000 0.451953 0.415841
0.000000 0.448142 0.485796
0.000000 0.439003 0.551545
0.000000 0.424512 0.613253
0.000000 0.404665 0.671203
0.000000 0.379481 0.725789
0.000000 0.348999 0.777523
0.000000 0.313278 0.827028
0.000000 0.272398 0.875043
0.000000 0.226464 0.922421
0.000000 0.175595 0.970129
0.000000 0.119938 1.000000
0.000000 0.059657 1.000000
0.000000 0.000000 1.000000
0.000000 0.000000 0.000000
0.000000 0.000000 0.000000
0.000000 0.000000 0.000000
0.000000 0.000000 0.000000
0.000000 0.000000 0.000000
0.000000 0.000000 0.000000
0.000000 0.059454 0.000000
0.000000 0.118085 0.000000
0.000000 0.173450 0.000000
0.000000 0.225201 0.000000
0.000000 0.273009 0.000000
0.000000 0.316568 0.000000
0.000000 0.355592 0.000000
0.000000 0.389815 0.000000
0.000000 0.418994 0.000000
0.000000 0.442906 0.044289
0.000000 0.461348 0.132061
0.000000 0.474140 0.215432
0.000000 0.481123 0.294057
0.000000 0.482156 0.367701
0.000000 0.477123 0.436247
0.000000 0.465926 0.499691
0.000000 0.448490 0.558144
0.000000 0.424759 0.611829
0.000000 0.394700 0.661087
0.000000 0.358299 0.706372
0.000000 0.315566 0.748250
0.000000 0.266530 0.787404
0.000000 0.211239 0.824631
0.000000 0.149767 0.860842
0.000000 0.082204 0.897063
0.000000 0.008664 0.934432
0.000000 0.000000 0.974205
0.000000 0.000000 0.000000
0.000000 0.000000 0.000000
0.000000 0.000000 0.000000
0.000000 0.000000 0.000000
0.000000 0.000000 0.000000
0.000000 0.000000 0.000000
0.000000 0.057635 0.000000
0.000000 0.120825 0.000000
0.000000 0.180562 0.000000
0.000000 0.236445 0.000000
0.000000 0.288093 0.000000
0.000000 0.335149 0.000000
0.000000 0.377274 0.000000
0.000000 0.414152 0.000000
0.000000 0.445488 0.000000
0.000000 0.471006 0.000000
0.000000 0.490454 0.085454
0.000000 0.503597 0.169481
0.000000 0.510226 0.248062
0.000000 0.510149 0.320909
0.000000 0.503197 0.387847
0.000000 0.489221 0.448815
0.000000 0.468093 0.503867
0.000000 0.439708 0.553172
0.000000 0.403979 0.597013
0.000000 0.360842 0.635786
0.000000 0.310253 0.670004
0.000000 0.252191 0.700292
0.000000 0.186652 0.727390
0.000000 0.113658 0.752154
0.000000 0.033248 0.775551
0.000000 0.000000 0.798666
0.000000 0.000000 0.822697
0.000000 0.000000 0.000000
0.000000 0.000000 0.000000
0.000000 0.000000 0.000000
0.000000 0.000000 0.000000
0.000000 0.000000 0.000000
0.000000 0.000000 0.000000
0.000000 0.062813 0.000000
0.000000 0.130170 0.000000
0.000000 0.193861 0.000000
0.000000 0.253433 0.000000
0.000000 0.308455 0.000000
0.000000 0.358517 0.000000
0.000000 0.403229 0.000000
0.000000 0.442222 0.000000
0.000000 0.475150 0.000000
0.000000 0.501686 0.000000
0.000000 0.521526 0.043646
0.000000 0.534383 0.128043
0.000000 0.539996 0.206324
0.000000 0.538122 0.278143
0.000000 0.528540 0.343270
0.000000 0.511049 0.401586
0.000000 0.485470 0.453091
0.000000 0.451645 0.497896
0.000000 0.409437 0.536227
0.000000 0.358730 0.568426
0.000000 0.299428 0.594947
0.000000 0.231457 0.616360
0.000000 0.154764 0.633348
0.000000 0.069317 0.646711
0.000000 0.000000 0.657360
0.000000 0.000000 0.666323
0.000000 0.000000 0.674740
0.000000 0.000000 0.000000
0.000000 0.000000 0.000000
0.000000 0.000000 0.000000
0.000000 0.000000 0.000000
0.000000 0.000000 0.000000
0.000000 0.003030 0.000000
0.000000 0.077526 0.000000
0.000000 0.148643 0.000000
0.000000 0.215856 0.000000
0.000000 0.278662 0.000000
0.000000 0.336577 0.000000
0.000000 0.389139 0.000000
0.000000 0.435907 0.000000
0.000000 0.476462 0.000000
0.000000 0.510404 0.000000
0.000000 0.537355 0.000000
0.000000 0.556958 0.009635
0.000000 0.568878 0.094114
0.000000 0.572798 0.171834
0.000000 0.568426 0.242392
0.000000 0.555488 0.305502
0.000000 0.533732 0.360989
0.000000 0.502928 0.408797
0.000000 0.462865 0.448979
0.000000 0.413355 0.481706
0.000000 0.354230 0.507263
0.000000 0.285342 0.526048
0.000000 0.206565 0.538574
0.000000 0.117796 0.545469
0.000000 0.018950 0.547475
0.000000 0.000000 0.545447
0.000000 0.000000 0.540356
0.000000 0.000000 0.533288
0.000000 0.000000 0.000000
0.000000 0.000000 0.000000
0.000000 0.000000 0.000000
0.000000 0.000000 0.000000
0.000000 0.000000 0.000000
0.000000 0.026429 0.000000
0.000000 0.104472 0.000000
0.000000 0.178927 0.000000
0.000000 0.249217 0.000000
0.000000 0.314785 0.000000
0.000000 0.375098 0.000000
0.000000 0.429642 0.000000
0.000000 0.477923 0.000000
0.000000 0.519470 0.000000
0.000000 0.553833 0.000000
0.000000 0.580582 0.000000
0.000000 0.599307 0.000000
0.000000 0.609622 0.071002
0.000000 0.611159 0.147896
0.000000 0.603574 0.216957
0.000000 0.586540 0.277842
0.000000 0.559756 0.330320
0.000000 0.522937 0.374277
0.000000 0.475823 0.409711
0.000000 0.418173 0.436737
0.000000 0.349766 0.455582
0.000000 0.270406 0.466589
0.000000 0.179914 0.470214
0.000000 0.078133 0.467029
0.000000 0.000000 0.457718
0.000000 0.000000 0.443081
0.000000 0.000000 0.424034
0.000000 0.000000 0.401603
0.000000 0.000000 0.000000
0.000000 0.000000 0.000000
0.000000 0.000000 0.000000
0.000000 0.000000 0.000000
0.000000 0.000000 0.000000
0.000000 0.065332 0.000000
0.000000 0.146512 0.000000
0.000000 0.223869 0.000000
0.000000 0.296774 0.000000
0.000000 0.364621 0.000000
0.000000 0.426822 0.000000
0.000000 0.482813 0.000000
0.000000 0.532049 0.000000
0.000000 0.574006 0.000000
0.000000 0.608183 0.000000
0.000000 0.634097 0.000000
0.000000 0.651288 0.000000
0.000000 0.659318 0.062325
0.000000 0.657767 0.138127
0.000000 0.646238 0.205453
0.000000 0.624355 0.263901
0.000000 0.591763 0.313186
0.000000 0.548127 0.353137
0.000000 0.493134 0.383695
0.000000 0.426491 0.404919
0.000000 0.347928 0.416980
0.000000 0.257194 0.420163
0.000000 0.154060 0.414870
0.000000 0.038317 0.401614
0.000000 0.000000 0.381025
0.000000 0.000000 0.353846
0.000000 0.000000 0.320934
0.000000 0.000000 0.283263
0.000000 0.000000 0.000000
0.000000 0.000000 0.000000
0.000000 0.000000 0.000000
0.000000 0.000000 0.000000
0.000000 0.035505 0.000000
0.000000 0.122776 0.000000
0.000000 0.206666 0.000000
0.000000 0.286474 0.000000
0.000000 0.361521 0.000000
0.000000 0.431146 0.000000
0.000000 0.494713 0.000000
0.000000 0.551603 0.000000
0.000000 0.601220 0.000000
0.000000 0.642990 0.000000
0.000000 0.676359 0.000000
0.000000 0.700792 0.000000
0.000000 0.715779 0.000000
0.000000 0.720828 0.072015
0.000000 0.715469 0.146457
0.000000 0.699253 0.211805
0.000000 0.671752 0.267602
0.000000 0.632560 0.313508
0.000000 0.581289 0.349294
0.000000 0.517575 0.374845
0.000000 0.441074 0.390164
0.000000 0.351463 0.395364
0.000000 0.248440 0.390677
0.000000 0.131724 0.376444
0.000000 0.001055 0.353126
0.000000 0.000000 0.321293
0.000000 0.000000 0.281634
0.000000 0.000000 0.234950
0.000000 0.000000 0.182156
0.000000 0.000000 0.000000
0.000000 0.000000 0.000000
0.000000 0.000000 0.000000
0.000000 0.019570 0.000000
0.000000 0.112181 0.000000
0.000000 0.201955 0.000000
0.000000 0.288115 0.000000
0.000000 0.369911 0.000000
0.000000 0.446610 0.000000
0.000000 0.517500 0.000000
0.000000 0.581893 0.000000
0.000000 0.639120 0.000000
0.000000 0.688532 0.000000
0.000000 0.729504 0.000000
0.000000 0.761428 0.000000
0.000000 0.783721 0.000000
0.000000 0.795818 0.022456
0.000000 0.797177 0.104318
0.000000 0.787277 0.177125
0.000000 0.765615 0.240251
0.000000 0.731714 0.293181
0.000000 0.685113 0.335518
0.000000 0.625375 0.366977
0.000000 0.552084 0.387388
0.000000 0.464844 0.396695
0.000000 0.363280 0.394957
0.000000 0.247039 0.382347
0.000000 0.115787 0.359152
0.000000 0.000000 0.325776
0.000000 0.000000 0.282732
0.000000 0.000000 0.230653
0.000000 0.000000 0.170284
0.000000 0.000000 0.102482
0.000000 0.000000 0.000000
0.000000 0.000000 0.000000
0.000000 0.022408 0.000000
0.000000 0.119493 0.000000
0.000000 0.214381 0.000000
0.000000 0.306227 0.000000
0.000000 0.394203 0.000000
0.000000 0.477507 0.000000
0.000000 0.555354 0.000000
0.000000 0.626982 0.000000
0.000000 0.691650 0.000000
0.000000 0.748636 0.000000
0.000000 0.797242 0.000000
0.000000 0.836789 0.000000
0.004613 0.866619 0.000000
0.018964 0.886096 0.000000
0.023467 0.894605 0.083330
0.017455 0.891550 0.163788
0.000339 0.876360 0.234686
0.000000 0.848480 0.295342
0.000000 0.807381 0.345185
0.000000 0.752550 0.383761
0.000000 0.683500 0.410729
0.000000 0.599761 0.425862
0.000000 0.500887 0.429048
0.000000 0.386450 0.420290
0.000000 0.256046 0.399704
0.000000 0.109290 0.367522
0.000000 0.000000 0.324089
0.000000 0.000000 0.269864
0.000000 0.000000 0.205422
0.000000 0.000000 0.131451
0.000000 0.000000 0.048755
0.000000 0.000000 0.000000
0.000000 0.049200 0.000000
0.000000 0.149773 0.000000
0.000000 0.248892 0.000000
0.000000 0.345637 0.000000
0.000000 0.439110 0.000000
0.000000 0.528434 0.000000
0.000000 0.612752 0.000000
0.000000 0.691230 0.000000
0.000000 0.763053 0.000000
0.037327 0.827429 0.000000
0.076673 0.883584 0.000000
0.109211 0.930767 0.000000
0.133925 0.968249 0.000000
0.149872 0.995320 0.000000
0.156183 1.000000 0.088619
0.152067 1.000000 0.176547
0.136803 1.000000 0.255294
0.109748 0.986050 0.324006
0.070333 0.951166 0.381941
0.018063 0.902056 0.428474
0.000000 0.838161 0.463094
0.000000 0.758937 0.485403
0.000000 0.663866 0.495118
0.000000 0.552448 0.492072
0.000000 0.424205 0.476209
0.000000 0.278679 0.447591
0.000000 0.115436 0.406392
0.000000 0.000000 0.352901
0.000000 0.000000 0.287521
0.000000 0.000000 0.210771
0.000000 0.000000 0.123281
0.000000 0.000000 0.025800
0.000000 0.105423 0.000000
0.000000 0.208383 0.000000
0.000000 0.310730 0.000000
0.000000 0.411473 0.000000
0.000000 0.509641 0.000000
0.032749 0.604283 0.000000
0.081975 0.694471 0.000000
0.130490 0.779297 0.000000
0.176850 0.857874 0.000000
0.219687 0.929335 0.000000
0.257706 0.992837 0.000000
0.289689 1.000000 0.000000
0.314490 1.000000 0.000000
0.331039 1.000000 0.023878
0.338340 1.000000 0.126137
0.335474 1.000000 0.220988
0.321593 1.000000 0.307289
0.295926 1.000000 0.384018
0.257777 1.000000 0.450261
0.206522 1.000000 0.505222
0.141614 1.000000 0.548220
0.062581 0.945393 0.578685
0.000000 0.855122 0.596165
0.000000 0.747819 0.600321
0.000000 0.622933 0.590927
0.000000 0.479935 0.567873
0.000000 0.318317 0.531163
0.000000 0.137589 0.480915
0.000000 0.000000 0.417362
0.000000 0.000000 0.340851
0.000000 0.000000 0.251843
0.000000 0.000000 0.150914
0.000000 0.000000 0.038753
0.181462 0.300983 0.000000
0.202374 0.405441 0.000000
0.231061 0.509163 0.000000
0.265652 0.611106 0.000000
0.304353 0.710248 0.000000
0.345443 0.805587 0.000000
0.387278 0.896141 0.000000
0.428285 0.980952 0.000000
0.466970 1.000000 0.000000
0.501909 1.000000 0.000000
0.531757 1.000000 0.000000
0.555240 1.000000 0.000000
0.571161 1.000000 0.095464
0.578398 1.000000 0.202669
0.575901 1.000000 0.303524
0.562696 1.000000 0.396717
0.537886 1.000000 0.481053
0.500644 1.000000 0.555451
0.450222 1.000000 0.618942
0.385944 1.000000 0.670673
0.307209 1.000000 0.709906
0.213493 1.000000 0.736017
0.104342 0.975651 0.748495
0.000000 0.855202 0.746945
0.000000 0.715911 0.731086
0.000000 0.557196 0.700751
0.000000 0.378497 0.655886
0.000000 0.179273 0.596555
0.000000 0.000000 0.522933
0.000000 0.000000 0.435311
0.000000 0.000000 0.334094
0.000000 0.000000 0.219801
0.000000 0.000000 0.093066
0.602404 0.538867 0.000000
0.614612 0.644433 0.000000
0.634736 0.749116 0.000000
0.660856 0.851822 0.000000
0.691122 0.951475 0.000000
0.723763 1.000000 0.000000
0.757078 1.000000 0.000000
0.789445 1.000000 0.000000
0.819314 1.000000 0.000000
0.845211 1.000000 0.000000
0.865736 1.000000 0.101172
0.879563 1.000000 0.215221
0.885442 1.000000 0.325829
0.882197 1.000000 0.431400
0.868726 1.000000 0.530452
0.844004 1.000000 0.621618
0.807077 1.000000 0.703647
0.757069 1.000000 0.775399
0.693176 1.000000 0.835851
0.614671 1.000000 0.884093
0.520900 1.000000 0.919331
0.411284 1.000000 0.940883
0.285319 1.000000 0.948183
0.142576 0.989760 0.940779
0.000000 0.835111 0.918334
0.000000 0.659702 0.880624
0.000000 0.462920 0.827540
0.000000 0.244175 0.759088
0.000000 0.002897 0.675387
0.000000 0.000000 0.576672
0.000000 0.000000 0.463291
0.000000 0.000000 0.335708
0.000000 0.000000 0.194498
1.000000 0.823309 0.000000
1.000000 0.929579 0.000000
1.000000 1.000000 0.000000
1.000000 1.000000 0.000000
1.000000 1.000000 0.000000
1.000000 1.000000 0.000000
1.000000 1.000000 0.000000
1.000000 1.000000 0.053087
1.000000 1.000000 0.164537
1.000000 1.000000 0.278161
1.000000 1.000000 0.391962
1.000000 1.000000 0.504061
1.000000 1.000000 0.612690
1.000000 1.000000 0.716199
1.000000 1.000000 0.813048
1.000000 1.000000 0.901815
1.000000 1.000000 0.981190
1.000000 1.000000 1.000000
0.993024 1.000000 1.000000
0.899067 1.000000 1.000000
0.789029 1.000000 1.000000
0.662278 1.000000 1.000000
0.518257 1.000000 1.000000
0.356483 1.000000 1.000000
0.176549 0.984421 1.000000
0.000000 0.791327 1.000000
0.000000 0.575447 1.000000
