lrplugin/MindfulLensFilmEngine.lrplugin/profiles/luts/ektachrome.cube
# Generated from ColorChecker fit
LUT_3D_SIZE 5
DOMAIN_MIN 0.0 0.0 0.0
DOMAIN_MAX 1.0 1.0 1.0
0.281678 0.000000 0.542852
0.000000 0.000000 0.201883
0.000000 0.000000 0.378871
0.000000 0.000000 1.000000
0.000000 0.000000 1.000000
0.000000 0.000000 0.000000
0.000000 0.154150 0.000000
0.000000 0.272788 0.354015
0.044391 0.222480 0.948541
0.162779 0.091333 1.000000
0.000000 0.000000 0.000000
0.000000 0.215856 0.000000
0.000000 0.556958 0.009635
0.000000 0.413355 0.481706
0.000000 0.000000 0.533288
0.181462 0.300983 0.000000
0.466970 1.000000 0.000000
0.537886 1.000000 0.481053
0.000000 0.715911 0.731086
0.000000 0.000000 0.093066
1.000000 1.000000 1.000000
1.000000 1.000000 1.000000
1.000000 1.000000 1.000000
1.000000 1.000000 1.000000
0.000000 0.000000 1.000000
0.951051 0.364758 0.965821
0.162355 0.000000 0.155153
0.000000 0.000000 0.000000
0.000000 0.000000 0.041403
0.000000 0.000000 1.000000
0.461097 0.512256 0.359441
0.260355 0.333585 0.223020
0.299676 0.280542 0.396697
0.391230 0.305196 0.601930
0.652934 0.445671 1.000000
0.327727 0.539454 0.068384
0.276786 0.604693 0.203833
0.385753 0.686823 0.554548
0.250064 0.526186 0.610954
0.000000 0.000000 0.331919
1.000000 1.000000 1.000000
1.000000 1.000000 1.000000
1.000000 1.000000 1.000000
0.468051 0.980843 1.000000
0.000000 0.000000 0.122377
1.000000 1.000000 1.000000
1.000000 1.000000 1.000000
1.000000 1.000000 1.000000
1.000000 1.000000 1.000000
0.000000 0.000000 1.000000
1.000000 0.431246 0.750772
0.285773 0.000000 0.008715
0.177833 0.000000 0.037017
0.758241 0.004681 0.806395
1.000000 1.000000 1.000000
0.876040 0.747003 0.384907
0.428505 0.322224 0.151035
0.648409 0.331373 0.503355
1.000000 0.676535 1.000000
1.000000 1.000000 1.000000
0.855742 0.886144 0.246141
0.320435 0.533497 0.030334
0.371114 0.501335 0.329987
0.537823 0.480017 0.653749
0.656347 0.245957 0.978709
1.000000 1.000000 1.000000
1.000000 1.000000 0.771859
0.884223 1.000000 0.630339
0.000000 0.531963 0.324598
0.000000 0.000000 0.000000
1.000000 1.000000 1.000000
1.000000 1.000000 1.000000
1.000000 1.000000 1.000000
1.000000 1.000000 1.000000
0.000000 0.000000 0.628351
0.494260 0.000000 0.074237
0.441864 0.000000 0.194757
1.000000 0.787750 1.000000
1.000000 1.000000 1.000000
1.000000 1.000000 1.000000
0.826113 0.462666 0.168852
0.816451 0.482055 0.452262
1.000000 1.000000 1.000000
1.000000 1.000000 1.000000
1.000000 1.000000 1.000000
1.000000 0.720533 0.195108
0.571853 0.551085 0.063543
1.000000 1.000000 0.999225
1.000000 1.000000 1.000000
1.000000 1.000000 1.000000
1.000000 1.000000 1.000000
1.000000 1.000000 0.142900
0.922602 1.000000 0.140726
0.757446 1.000000 0.568437
0.453618 0.115523 1.000000
1.000000 1.000000 1.000000
1.000000 1.000000 1.000000
1.000000 1.000000 1.000000
1.000000 1.000000 0.606400
0.000000 0.000000 0.000000
0.000000 0.000000 0.000000
0.493941 0.000000 1.000000
1.000000 1.000000 1.000000
1.000000 1.000000 1.000000
1.000000 1.000000 1.000000
0.163435 0.000000 0.790878
1.000000 0.709181 1.000000
1.000000 1.000000 1.000000
1.000000 1.000000 1.000000
1.000000 1.000000 1.000000
1.000000 0.000000 1.000000
1.000000 0.740388 1.000000
1.000000 1.000000 1.000000
1.000000 1.000000 1.000000
1.000000 1.000000 1.000000
1.000000 1.000000 1.000000
1.000000 1.000000 1.000000
1.000000 1.000000 1.000000
1.000000 1.000000 1.000000
1.000000 1.000000 1.000000
1.000000 1.000000 1.000000
1.000000 1.000000 1.000000
1.000000 1.000000 1.000000
1.000000 1.000000 1.000000
1.000000 1.000000 1.000000
