lrplugin/MindfulLensFilmEngine.lrplugin/profiles/luts/estra_500.cube
# Generated from ColorChecker fit
LUT_3D_SIZE 9
DOMAIN_MIN 0.0 0.0 0.0
DOMAIN_MAX 1.0 1.0 1.0
1.000000 0.999187 0.938785
0.357512 0.332446 0.781791
0.000000 0.019605 0.975874
0.000000 0.000000 1.000000
0.000000 0.000000 1.000000
0.000000 0.000000 1.000000
0.000000 0.000000 0.000000
0.000000 0.000000 0.000000
0.000000 0.000000 0.000000
0.988059 0.654500 1.000000
0.340557 0.242247 0.754358
0.000000 0.116891 0.816842
0.000000 0.134518 0.999261
0.000000 0.063478 0.996958
0.000000 0.000000 0.427373
0.000000 0.000000 0.000000
0.000000 0.000000 0.000000
0.000000 0.000000 0.000000
1.000000 0.404316 1.000000
0.436660 0.222055 0.815541
0.071317 0.250699 0.746543
0.000000 0.323248 0.792975
0.000000 0.184974 0.648712
0.000000 0.000000 0.000000
0.000000 0.000000 0.000000
0.000000 0.000000 0.000000
0.000000 0.000000 0.000000
1.000000 0.304935 1.000000
0.792738 0.344259 1.000000
0.392904 0.509503 0.887752
0.033295 0.610586 0.803836
0.000000 0.369693 0.524603
0.000000 0.000000 0.000000
0.000000 0.000000 0.000000
0.000000 0.000000 0.000000
0.000000 0.000000 0.000000
1.000000 0.488978 1.000000
1.000000 0.757567 1.000000
1.000000 1.000000 1.000000
0.721819 1.000000 1.000000
0.000000 0.814606 0.824652
0.000000 0.000000 0.000000
0.000000 0.000000 0.000000
0.000000 0.000000 0.000000
0.000000 0.000000 0.000000
1.000000 1.000000 1.000000
1.000000 1.000000 1.000000
1.000000 1.000000 1.000000
1.000000 1.000000 1.000000
1.000000 1.000000 1.000000
0.000000 0.262110 0.717329
0.000000 0.000000 0.000000
0.000000 0.000000 0.000000
0.000000 0.000000 0.000000
1.000000 1.000000 1.000000
1.000000 1.000000 1.000000
1.000000 1.000000 1.000000
1.000000 1.000000 1.000000
1.000000 1.000000 1.000000
1.000000 1.000000 1.000000
0.000000 0.000000 0.400125
0.000000 0.000000 0.000000
0.000000 0.000000 0.000000
1.000000 1.000000 1.000000
1.000000 1.000000 1.000000
1.000000 1.000000 1.000000
1.000000 1.000000 1.000000
1.000000 1.000000 1.000000
1.000000 1.000000 1.000000
1.000000 0.669345 1.000000
0.000000 0.000000 0.000000
0.000000 0.000000 0.000000
1.000000 1.000000 1.000000
1.000000 1.000000 1.000000
1.000000 1.000000 1.000000
1.000000 1.000000 1.000000
1.000000 1.000000 1.000000
1.000000 1.000000 1.000000
1.000000 1.000000 1.000000
1.000000 0.000000 1.000000
0.000000 0.000000 0.000000
0.916603 1.000000 0.437763
0.286797 0.255097 0.211249
0.031740 0.000000 0.404121
0.037288 0.000000 0.809109
0.094830 0.000000 1.000000
0.000000 0.000000 1.000000
0.000000 0.000000 0.055510
0.000000 0.000000 0.000000
0.000000 0.000000 0.000000
0.857455 0.764495 0.669415
0.290489 0.248457 0.332995
0.069349 0.076855 0.414323
0.067213 0.129602 0.704665
0.062796 0.198884 0.917379
0.000000 0.000000 0.687919
0.000000 0.000000 0.000000
0.000000 0.000000 0.000000
0.000000 0.000000 0.000000
0.877331 0.544820 0.916705
0.334317 0.254796 0.468279
0.104212 0.235474 0.437317
0.047520 0.343684 0.613616
0.000000 0.348529 0.709066
0.000000 0.000000 0.357655
0.000000 0.000000 0.000000
0.000000 0.000000 0.000000
0.000000 0.000000 0.000000
1.000000 0.409162 1.000000
0.551092 0.342307 0.720864
0.285583 0.463427 0.581035
0.143902 0.606272 0.648063
0.000000 0.516860 0.632374
0.000000 0.000000 0.166488
0.000000 0.000000 0.000000
0.000000 0.000000 0.000000
0.000000 0.000000 0.000000
1.000000 0.485941 1.000000
1.000000 0.655497 1.000000
0.844501 0.921311 1.000000
0.603841 1.000000 0.989018
0.174113 0.896646 0.872486
0.000000 0.000000 0.303770
0.000000 0.000000 0.000000
0.000000 0.000000 0.000000
0.000000 0.000000 0.000000
1.000000 0.979898 1.000000
1.000000 1.000000 1.000000
1.000000 1.000000 1.000000
1.000000 1.000000 1.000000
1.000000 1.000000 1.000000
0.000000 0.549046 1.000000
0.000000 0.000000 0.000000
0.000000 0.000000 0.000000
0.000000 0.000000 0.000000
1.000000 1.000000 1.000000
1.000000 1.000000 1.000000
1.000000 1.000000 1.000000
1.000000 1.000000 1.000000
1.000000 1.000000 1.000000
1.000000 1.000000 1.000000
0.000000 0.000000 1.000000
0.000000 0.000000 0.000000
0.000000 0.000000 0.000000
1.000000 1.000000 1.000000
1.000000 1.000000 1.000000
1.000000 1.000000 1.000000
1.000000 1.000000 1.000000
1.000000 1.000000 1.000000
1.000000 1.000000 1.000000
1.000000 1.000000 1.000000
0.000000 0.000000 0.849156
0.000000 0.000000 0.000000
1.000000 1.000000 1.000000
1.000000 1.000000 1.000000
1.000000 1.000000 1.000000
1.000000 1.000000 1.000000
1.000000 1.000000 1.000000
1.000000 1.000000 1.000000
1.000000 1.000000 1.000000
1.000000 0.000000 1.000000
0.000000 0.000000 0.399232
0.979950 1.000000 0.308858
0.330410 0.296740 0.000000
0.113996 0.000000 0.063426
0.235724 0.000000 0.459599
0.506141 0.000000 0.871454
0.641327 0.026140 0.953930
0.262899 0.000000 0.284059
0.000000 0.000000 0.000000
0.000000 0.000000 0.000000
0.959087 1.000000 0.613668
0.366217 0.363363 0.165208
0.178878 0.054135 0.189960
0.289409 0.060601 0.497202
0.495680 0.198775 0.818310
0.501095 0.196942 0.806753
0.000000 0.000000 0.038097
0.000000 0.000000 0.000000
0.000000 0.000000 0.000000
0.930888 0.874689 0.860008
0.361973 0.380102 0.318887
0.167002 0.225989 0.253446
0.225637 0.293011 0.471495
0.323070 0.374102 0.702943
0.150030 0.174461 0.599792
0.000000 0.000000 0.000000
0.000000 0.000000 0.000000
0.000000 0.000000 0.000000
0.997616 0.676232 1.000000
0.436383 0.410952 0.500053
0.213515 0.405678 0.346975
0.195996 0.517991 0.479740
0.156342 0.517739 0.626787
0.000000 0.087041 0.438651
0.000000 0.000000 0.000000
0.000000 0.000000 0.000000
0.000000 0.000000 0.000000
1.000000 0.613393 1.000000
0.789938 0.596224 0.866533
0.535349 0.749602 0.632547
0.433860 0.908026 0.688105
0.245309 0.818261 0.760181
0.000000 0.139343 0.497841
0.000000 0.000000 0.000000
0.000000 0.000000 0.000000
0.000000 0.000000 0.000000
1.000000 0.886714 1.000000
1.000000 1.000000 1.000000
1.000000 1.000000 1.000000
1.000000 1.000000 1.000000
0.921572 1.000000 1.000000
0.085474 0.612345 1.000000
0.000000 0.000000 0.000000
0.000000 0.000000 0.000000
0.000000 0.000000 0.000000
1.000000 1.000000 1.000000
1.000000 1.000000 1.000000
1.000000 1.000000 1.000000
1.000000 1.000000 1.000000
1.000000 1.000000 1.000000
1.000000 1.000000 1.000000
0.000000 0.000000 1.000000
0.000000 0.000000 0.000000
0.000000 0.000000 0.000000
1.000000 1.000000 1.000000
1.000000 1.000000 1.000000
1.000000 1.000000 1.000000
1.000000 1.000000 1.000000
1.000000 1.000000 1.000000
1.000000 1.000000 1.000000
1.000000 1.000000 1.000000
0.000000 0.000000 1.000000
0.000000 0.000000 0.000000
1.000000 1.000000 1.000000
1.000000 1.000000 1.000000
1.000000 1.000000 1.000000
1.000000 1.000000 1.000000
1.000000 1.000000 1.000000
1.000000 1.000000 1.000000
1.000000 1.000000 1.000000
1.000000 0.000000 1.000000
0.000000 0.000000 1.000000
1.000000 1.000000 0.451594
0.473402 0.451812 0.000000
0.187248 0.000000 0.000000
0.314691 0.000000 0.202674
0.685435 0.000000 0.603570
1.000000 0.002240 0.766242
1.000000 0.126299 0.285740
0.137528 0.000000 0.000000
0.000000 0.000000 0.000000
1.000000 1.000000 0.807669
0.577361 0.595799 0.205991
0.323858 0.071233 0.117387
0.445009 0.000000 0.369152
0.757840 0.112987 0.710676
0.984913 0.271268 0.813445
0.754325 0.102905 0.271039
0.000000 0.000000 0.000000
0.000000 0.000000 0.000000
1.000000 1.000000 1.000000
0.553818 0.621203 0.359182
0.302434 0.259141 0.205389
0.382767 0.221793 0.395719
0.599168 0.325923 0.678093
0.661521 0.300562 0.722531
0.185245 0.000000 0.121147
0.000000 0.000000 0.000000
0.000000 0.000000 0.000000
1.000000 1.000000 1.000000
0.507372 0.587821 0.450149
0.244016 0.387550 0.232859
0.265448 0.410703 0.364795
0.363343 0.450959 0.592413
0.234907 0.214269 0.584265
0.000000 0.000000 0.000000
0.000000 0.000000 0.000000
0.000000 0.000000 0.000000
1.000000 0.909687 1.000000
0.624407 0.631769 0.621878
0.351429 0.608663 0.346953
0.312318 0.698699 0.427709
0.286072 0.672473 0.609134
0.000000 0.212853 0.558314
0.000000 0.000000 0.000000
0.000000 0.000000 0.000000
0.000000 0.000000 0.000000
1.000000 0.938577 1.000000
1.000000 0.965477 1.000000
0.909285 1.000000 0.763735
0.824430 1.000000 0.804695
0.684849 1.000000 0.952662
0.162395 0.573096 0.873255
0.000000 0.000000 0.154185
0.000000 0.000000 0.000000
0.000000 0.000000 0.000000
1.000000 1.000000 1.000000
1.000000 1.000000 1.000000
1.000000 1.000000 1.000000
1.000000 1.000000 1.000000
1.000000 1.000000 1.000000
1.000000 1.000000 1.000000
0.000000 0.000000 1.000000
0.000000 0.000000 0.000000
0.000000 0.000000 0.000000
1.000000 1.000000 1.000000
1.000000 1.000000 1.000000
1.000000 1.000000 1.000000
1.000000 1.000000 1.000000
1.000000 1.000000 1.000000
1.000000 1.000000 1.000000
1.000000 1.000000 1.000000
0.000000 0.000000 1.000000
0.000000 0.000000 0.000000
1.000000 1.000000 1.000000
1.000000 1.000000 1.000000
1.000000 1.000000 1.000000
1.000000 1.000000 1.000000
1.000000 1.000000 1.000000
1.000000 1.000000 1.000000
1.000000 1.000000 1.000000
1.000000 0.000000 1.000000
0.000000 0.000000 1.000000
1.000000 1.000000 0.719133
0.657642 0.692024 0.000000
0.201920 0.000000 0.000000
0.233169 0.000000 0.000000
0.600250 0.000000 0.265127
1.000000 0.000000 0.420155
1.000000 0.266362 0.025581
0.788117 0.313795 0.000000
0.000000 0.000000 0.000000
1.000000 1.000000 1.000000
0.890358 0.931871 0.363975
0.479283 0.127923 0.123882
0.517562 0.000000 0.266435
0.841382 0.000000 0.559042
1.000000 0.252904 0.691202
1.000000 0.393324 0.274513
0.470941 0.000000 0.000000
0.000000 0.000000 0.000000
1.000000 1.000000 1.000000
0.900858 0.978601 0.534619
0.510070 0.349100 0.257248
0.527030 0.157867 0.369031
0.775245 0.245496 0.635905
0.983758 0.364851 0.745905
0.787143 0.181062 0.309160
0.000000 0.000000 0.000000
0.000000 0.000000 0.000000
1.000000 1.000000 1.000000
0.779633 0.887814 0.553433
0.401217 0.437609 0.239610
0.384947 0.326641 0.322797
0.541655 0.372420 0.567466
0.587706 0.304728 0.660184
0.145000 0.000000 0.209613
0.000000 0.000000 0.000000
0.000000 0.000000 0.000000
1.000000 1.000000 1.000000
0.698961 0.791427 0.548561
0.341440 0.541456 0.203282
0.296473 0.522697 0.264222
0.362214 0.529580 0.494384
0.242351 0.268802 0.578869
0.000000 0.000000 0.124871
0.000000 0.000000 0.000000
0.000000 0.000000 0.000000
1.000000 1.000000 1.000000
0.912905 0.897676 0.717055
0.601245 0.884961 0.349488
0.548554 0.986444 0.398698
0.540308 0.973472 0.626223
0.267520 0.529657 0.715694
0.000000 0.000000 0.272840
0.000000 0.000000 0.000000
0.000000 0.000000 0.000000
1.000000 1.000000 1.000000
1.000000 1.000000 1.000000
1.000000 1.000000 0.948356
1.000000 1.000000 1.000000
1.000000 1.000000 1.000000
1.000000 1.000000 1.000000
0.000000 0.000000 0.940331
0.000000 0.000000 0.000000
0.000000 0.000000 0.000000
1.000000 1.000000 1.000000
1.000000 1.000000 1.000000
1.000000 1.000000 1.000000
1.000000 1.000000 1.000000
1.000000 1.000000 1.000000
1.000000 1.000000 1.000000
1.000000 1.000000 1.000000
0.000000 0.000000 1.000000
0.000000 0.000000 0.000000
1.000000 1.000000 1.000000
1.000000 1.000000 1.000000
1.000000 1.000000 1.000000
1.000000 1.000000 1.000000
1.000000 1.000000 1.000000
1.000000 1.000000 1.000000
1.000000 1.000000 1.000000
1.000000 0.515804 1.000000
0.000000 0.000000 1.000000
1.000000 1.000000 0.918277
0.781812 0.966358 0.000000
0.065250 0.000000 0.000000
0.000000 0.000000 0.000000
0.174936 0.000000 0.000000
0.642758 0.000000 0.000000
0.989502 0.265644 0.000000
0.799789 0.805748 0.000000
0.000000 0.749862 0.000000
1.000000 1.000000 1.000000
1.000000 1.000000 0.501429
0.576958 0.201251 0.090357
0.447432 0.000000 0.088610
0.695226 0.000000 0.281609
1.000000 0.159898 0.376872
1.000000 0.598626 0.004011
0.838949 0.710577 0.000000
0.000000 0.032334 0.000000
1.000000 1.000000 1.000000
1.000000 1.000000 0.744294
0.746286 0.487309 0.326762
0.623356 0.106343 0.327814
0.824789 0.151600 0.531404
1.000000 0.399773 0.643583
1.000000 0.539825 0.292496
0.384920 0.172988 0.000000
0.000000 0.000000 0.000000
1.000000 1.000000 1.000000
1.000000 1.000000 0.745824
0.666061 0.561694 0.321792
0.543992 0.285312 0.326954
0.689336 0.315296 0.543798
0.837615 0.405259 0.676906
0.629885 0.221080 0.352956
0.000000 0.000000 0.000000
0.000000 0.000000 0.000000
1.000000 1.000000 1.000000
1.000000 1.000000 0.619324
0.510895 0.568215 0.192922
0.400392 0.413923 0.207676
0.496361 0.437150 0.444606
0.521647 0.368426 0.606827
0.104628 0.000000 0.319549
0.000000 0.000000 0.000000
0.000000 0.000000 0.000000
1.000000 1.000000 1.000000
0.945877 0.970107 0.547005
0.537186 0.726996 0.126535
0.465397 0.728388 0.160534
0.535146 0.769462 0.428552
0.456600 0.557662 0.632240
0.000000 0.000000 0.395338
0.000000 0.000000 0.000000
0.000000 0.000000 0.000000
1.000000 1.000000 1.000000
1.000000 1.000000 0.779983
1.000000 1.000000 0.377918
1.000000 1.000000 0.444984
1.000000 1.000000 0.759266
1.000000 1.000000 1.000000
0.256337 0.168339 0.852296
0.000000 0.000000 0.000000
0.000000 0.000000 0.000000
1.000000 1.000000 1.000000
1.000000 1.000000 1.000000
1.000000 1.000000 1.000000
1.000000 1.000000 1.000000
1.000000 1.000000 1.000000
1.000000 1.000000 1.000000
1.000000 1.000000 1.000000
0.000000 0.000000 1.000000
0.000000 0.000000 0.000000
1.000000 1.000000 1.000000
1.000000 1.000000 1.000000
1.000000 1.000000 1.000000
1.000000 1.000000 1.000000
1.000000 1.000000 1.000000
1.000000 1.000000 1.000000
1.000000 1.000000 1.000000
1.000000 1.000000 1.000000
0.000000 0.000000 1.000000
1.000000 1.000000 0.809467
0.701405 1.000000 0.000000
0.000000 0.000000 0.000000
0.000000 0.000000 0.000000
0.000000 0.000000 0.000000
0.000000 0.000000 0.000000
0.075013 0.118738 0.000000
0.079379 1.000000 0.000000
0.000000 1.000000 0.000000
1.000000 1.000000 1.000000
1.000000 1.000000 0.434264
0.505504 0.245537 0.000000
0.131796 0.000000 0.000000
0.225104 0.000000 0.000000
0.565461 0.000000 0.000000
0.838436 0.727800 0.000000
0.635129 1.000000 0.000000
0.000000 1.000000 0.000000
1.000000 1.000000 1.000000
1.000000 1.000000 0.840940
0.924271 0.642484 0.285307
0.593492 0.049605 0.162089
0.678102 0.040283 0.273258
0.945456 0.415045 0.342877
1.000000 0.886684 0.017109
0.625491 1.000000 0.000000
0.000000 0.533113 0.000000
1.000000 1.000000 1.000000
1.000000 1.000000 0.916881
0.976308 0.742918 0.387607
0.688898 0.283495 0.304111
0.761256 0.290033 0.466898
0.948059 0.539975 0.598564
0.909523 0.723033 0.343804
0.211393 0.441185 0.000000
0.000000 0.000000 0.000000
1.000000 1.000000 1.000000
1.000000 1.000000 0.760551
0.822121 0.686450 0.260900
0.594961 0.383552 0.221743
0.667954 0.420027 0.442115
0.783103 0.550236 0.643146
0.587944 0.440806 0.468063
0.000000 0.000000 0.000000
0.000000 0.000000 0.000000
1.000000 1.000000 1.000000
1.000000 1.000000 0.539319
0.704003 0.689007 0.076729
0.570413 0.581791 0.090697
0.673371 0.678368 0.378791
0.742201 0.710017 0.660675
0.411765 0.320281 0.578109
0.000000 0.000000 0.000000
0.000000 0.000000 0.000000
1.000000 1.000000 1.000000
1.000000 1.000000 0.489462
0.946029 1.000000 0.075538
0.955773 1.000000 0.155589
1.000000 1.000000 0.525714
1.000000 1.000000 0.904111
0.770827 0.718051 0.931071
0.000000 0.000000 0.168982
0.000000 0.000000 0.000000
1.000000 1.000000 1.000000
1.000000 1.000000 0.916162
1.000000 1.000000 0.566682
1.000000 1.000000 0.729944
1.000000 1.000000 1.000000
1.000000 1.000000 1.000000
1.000000 1.000000 1.000000
0.591437 0.000000 1.000000
0.000000 0.000000 0.000000
1.000000 1.000000 1.000000
1.000000 1.000000 1.000000
1.000000 1.000000 1.000000
1.000000 1.000000 1.000000
1.000000 1.000000 1.000000
1.000000 1.000000 1.000000
1.000000 1.000000 1.000000
1.000000 1.000000 1.000000
0.020062 0.000000 1.000000
1.000000 1.000000 0.106782
0.228732 1.000000 0.000000
0.000000 0.000000 0.000000
0.000000 0.000000 0.000000
0.000000 0.000000 0.000000
0.000000 0.000000 0.000000
0.000000 0.000000 0.000000
0.000000 1.000000 0.000000
0.000000 1.000000 0.000000
1.000000 1.000000 1.000000
1.000000 1.000000 0.000000
0.110356 0.192374 0.000000
0.000000 0.000000 0.000000
0.000000 0.000000 0.000000
0.000000 0.000000 0.000000
0.000000 0.767106 0.000000
0.000000 1.000000 0.000000
0.000000 1.000000 0.000000
1.000000 1.000000 1.000000
1.000000 1.000000 0.630929
0.914027 0.760613 0.000000
0.315997 0.000000 0.000000
0.222299 0.000000 0.000000
0.419448 0.397658 0.000000
0.599491 1.000000 0.000000
0.360008 1.000000 0.000000
0.000000 1.000000 0.000000
1.000000 1.000000 1.000000
1.000000 1.000000 0.909800
1.000000 0.941664 0.298896
0.722794 0.295241 0.134755
0.669100 0.284350 0.235896
0.839281 0.710264 0.342934
0.912710 1.000000 0.118576
0.474290 1.000000 0.000000
0.000000 1.000000 0.000000
1.000000 1.000000 1.000000
1.000000 1.000000 0.852262
1.000000 0.870940 0.305882
0.807875 0.420032 0.223732
0.813246 0.480326 0.422865
0.971530 0.830013 0.642426
0.949422 1.000000 0.543657
0.319149 1.000000 0.000000
0.000000 0.081374 0.000000
1.000000 1.000000 1.000000
1.000000 1.000000 0.610845
1.000000 0.760172 0.135558
0.815867 0.549497 0.143321
0.915805 0.716703 0.449717
1.000000 1.000000 0.792424
1.000000 1.000000 0.831218
0.204975 0.598036 0.147970
0.000000 0.000000 0.000000
1.000000 1.000000 1.000000
1.000000 1.000000 0.406982
1.000000 0.897407 0.013531
1.000000 0.987771 0.123298
1.000000 1.000000 0.550399
1.000000 1.000000 1.000000
1.000000 1.000000 1.000000
0.523947 0.586514 0.708307
0.000000 0.000000 0.000000
1.000000 1.000000 1.000000
1.000000 1.000000 0.531016
1.000000 1.000000 0.234312
1.000000 1.000000 0.462346
1.000000 1.000000 1.000000
1.000000 1.000000 1.000000
1.000000 1.000000 1.000000
1.000000 1.000000 1.000000
0.000000 0.000000 0.189645
1.000000 1.000000 1.000000
1.000000 1.000000 1.000000
1.000000 1.000000 1.000000
1.000000 1.000000 1.000000
1.000000 1.000000 1.000000
1.000000 1.000000 1.000000
1.000000 1.000000 1.000000
1.000000 1.000000 1.000000
1.000000 0.345681 1.000000
1.000000 1.000000 0.000000
0.000000 1.000000 0.000000
0.000000 0.000000 0.000000
0.000000 0.000000 0.000000
0.000000 0.000000 0.000000
0.000000 0.000000 0.000000
0.000000 0.000000 0.000000
0.000000 1.000000 0.000000
0.000000 1.000000 0.000000
1.000000 1.000000 0.050800
0.978096 1.000000 0.000000
0.000000 0.000000 0.000000
0.000000 0.000000 0.000000
0.000000 0.000000 0.000000
0.000000 0.000000 0.000000
0.000000 0.680080 0.000000
0.000000 1.000000 0.000000
0.000000 1.000000 0.000000
1.000000 1.000000 1.000000
1.000000 1.000000 0.000000
0.542372 0.764958 0.000000
0.000000 0.000000 0.000000
0.000000 0.000000 0.000000
0.000000 0.311876 0.000000
0.000000 1.000000 0.000000
0.000000 1.000000 0.000000
0.000000 1.000000 0.000000
1.000000 1.000000 1.000000
1.000000 1.000000 0.521417
1.000000 1.000000 0.000000
0.505622 0.271877 0.000000
0.281366 0.263239 0.000000
0.388336 0.894784 0.000000
0.525059 1.000000 0.000000
0.295596 1.000000 0.000000
0.000000 1.000000 0.000000
1.000000 1.000000 1.000000
1.000000 1.000000 0.728119
1.000000 1.000000 0.180171
0.923647 0.489085 0.084592
0.825304 0.597435 0.276448
0.988551 1.000000 0.512902
1.000000 1.000000 0.473211
0.748758 1.000000 0.000000
0.000000 1.000000 0.000000
1.000000 1.000000 1.000000
1.000000 1.000000 0.632066
1.000000 0.906942 0.192153
1.000000 0.611624 0.226181
1.000000 0.878251 0.567747
1.000000 1.000000 0.972547
1.000000 1.000000 1.000000
1.000000 1.000000 0.605107
0.000000 1.000000 0.000000
1.000000 1.000000 1.000000
1.000000 1.000000 0.439852
1.000000 0.879042 0.117850
1.000000 0.939431 0.292710
1.000000 1.000000 0.796564
1.000000 1.000000 1.000000
1.000000 1.000000 1.000000
1.000000 1.000000 1.000000
0.090368 1.000000 0.017902
1.000000 1.000000 1.000000
1.000000 1.000000 0.426978
1.000000 1.000000 0.236933
1.000000 1.000000 0.568022
1.000000 1.000000 1.000000
1.000000 1.000000 1.000000
1.000000 1.000000 1.000000
1.000000 1.000000 1.000000
1.000000 1.000000 1.000000
1.000000 1.000000 1.000000
1.000000 1.000000 0.937851
1.000000 1.000000 0.897979
1.000000 1.000000 1.000000
1.000000 1.000000 1.000000
1.000000 1.000000 1.000000
1.000000 1.000000 1.000000
1.000000 1.000000 1.000000
1.000000 1.000000 1.000000
