lrplugin/MindfulLensFilmEngine.lrplugin/profiles/luts/estra_500.cube
# Generated from ColorChecker fit
LUT_3D_SIZE 33
DOMAIN_MIN 0.0 0.0 0.0
DOMAIN_MAX 1.0 1.0 1.0
1.000000 0.999187 0.938785
0.868006 0.796014 0.857232
0.676049 0.617454 0.805366
0.506148 0.463161 0.781038
0.357512 0.332446 0.781791
0.228979 0.224278 0.804867
0.119022 0.137284 0.847203
0.025741 0.069746 0.905429
0.000000 0.019605 0.975874
0.000000 0.000000 1.000000
0.000000 0.000000 1.000000
0.000000 0.000000 1.000000
0.000000 0.000000 1.000000
0.000000 0.000000 1.000000
0.000000 0.000000 1.000000
0.000000 0.000000 1.000000
0.000000 0.000000 1.000000
0.000000 0.000000 1.000000
0.000000 0.000000 1.000000
0.000000 0.000000 1.000000
0.000000 0.000000 1.000000
0.000000 0.000000 0.778866
0.000000 0.000000 0.464375
0.000000 0.000000 0.070502
0.000000 0.000000 0.000000
0.000000 0.000000 0.000000
0.000000 0.000000 0.000000
0.000000 0.000000 0.000000
0.000000 0.000000 0.000000
0.000000 0.000000 0.000000
0.000000 0.000000 0.000000
0.000000 0.000000 0.000000
0.000000 0.000000 0.000000
1.000000 0.904365 0.958973
0.840268 0.719068 0.869650
0.654631 0.557659 0.809955
0.490700 0.419704 0.777732
0.347633 0.304423 0.770521
0.224222 0.210694 0.785555
0.118887 0.137055 0.819767
0.029680 0.081697 0.869781
0.000000 0.042472 0.931921
0.000000 0.016887 1.000000
0.000000 0.002107 1.000000
0.000000 0.000000 1.000000
0.000000 0.000000 1.000000
0.000000 0.000000 1.000000
0.000000 0.000000 1.000000
0.000000 0.000000 1.000000
0.000000 0.000000 1.000000
0.000000 0.000000 1.000000
0.000000 0.000000 1.000000
0.000000 0.000000 1.000000
0.000000 0.000000 0.869198
0.000000 0.000000 0.615807
0.000000 0.000000 0.291098
0.000000 0.000000 0.000000
0.000000 0.000000 0.000000
0.000000 0.000000 0.000000
0.000000 0.000000 0.000000
0.000000 0.000000 0.000000
0.000000 0.000000 0.000000
0.000000 0.000000 0.000000
0.000000 0.000000 0.000000
0.000000 0.000000 0.000000
0.000000 0.000000 0.000000
1.000000 0.815569 0.981903
0.818378 0.647628 0.884734
0.638172 0.502817 0.817139
0.479306 0.380610 0.776956
0.340890 0.280139 0.761719
0.221663 0.200191 0.768657
0.119999 0.139212 0.794695
0.033898 0.095305 0.836453
0.000000 0.066231 0.890248
0.000000 0.049408 0.952092
0.000000 0.041909 1.000000
0.000000 0.040467 1.000000
0.000000 0.041472 1.000000
0.000000 0.040971 1.000000
0.000000 0.034667 1.000000
0.000000 0.017922 1.000000
0.000000 0.000000 1.000000
0.000000 0.000000 1.000000
0.000000 0.000000 1.000000
0.000000 0.000000 0.918269
0.000000 0.000000 0.718407
0.000000 0.000000 0.455001
0.000000 0.000000 0.120107
0.000000 0.000000 0.000000
0.000000 0.000000 0.000000
0.000000 0.000000 0.000000
0.000000 0.000000 0.000000
0.000000 0.000000 0.000000
0.000000 0.000000 0.000000
0.000000 0.000000 0.000000
0.000000 0.000000 0.000000
0.000000 0.000000 0.000000
0.000000 0.000000 0.000000
1.000000 0.732335 1.000000
0.803002 0.581295 0.903075
0.627402 0.452591 0.827526
0.472761 0.345607 0.779334
0.338138 0.259384 0.756028
0.222225 0.192620 0.754830
0.123344 0.143671 0.772661
0.039448 0.110549 0.806135
0.000000 0.090925 0.851563
0.000000 0.082126 0.904951
0.000000 0.081136 0.962000
0.000000 0.084598 1.000000
0.000000 0.088812 1.000000
0.000000 0.089733 1.000000
0.000000 0.082975 1.000000
0.000000 0.063811 1.000000
0.000000 0.027168 1.000000
0.000000 0.000000 1.000000
0.000000 0.000000 0.934034
0.000000 0.000000 0.780415
0.000000 0.000000 0.570741
0.000000 0.000000 0.297366
0.000000 0.000000 0.000000
0.000000 0.000000 0.000000
0.000000 0.000000 0.000000
0.000000 0.000000 0.000000
0.000000 0.000000 0.000000
0.000000 0.000000 0.000000
0.000000 0.000000 0.000000
0.000000 0.000000 0.000000
0.000000 0.000000 0.000000
0.000000 0.000000 0.000000
0.000000 0.000000 0.000000
0.988059 0.654500 1.000000
0.795123 0.519968 0.925538
0.623370 0.406944 0.841995
0.472177 0.314720 0.785761
0.340557 0.242247 0.754358
0.227150 0.188134 0.745003
0.130229 0.150645 0.754610
0.047699 0.127705 0.779788
0.000000 0.116891 0.816842
0.000000 0.115443 0.861772
0.000000 0.120253 0.910275
0.000000 0.127875 0.957742
0.000000 0.134518 0.999261
0.000000 0.136047 1.000000
0.000000 0.127986 1.000000
0.000000 0.105517 1.000000
0.000000 0.063478 0.996958
0.000000 0.000000 0.924400
0.000000 0.000000 0.810029
0.000000 0.000000 0.646802
0.000000 0.000000 0.427373
0.000000 0.000000 0.144089
0.000000 0.000000 0.000000
0.000000 0.000000 0.000000
0.000000 0.000000 0.000000
0.000000 0.000000 0.000000
0.000000 0.000000 0.000000
0.000000 0.000000 0.000000
0.000000 0.000000 0.000000
0.000000 0.000000 0.000000
0.000000 0.000000 0.000000
0.000000 0.000000 0.000000
0.000000 0.000000 0.000000
0.985470 0.582200 1.000000
0.796047 0.463846 0.953252
0.627443 0.366135 0.861695
0.478988 0.288270 0.797402
0.349642 0.229112 0.757891
0.237998 0.187179 0.740372
0.142280 0.160646 0.741754
0.060340 0.147346 0.758641
0.000000 0.144767 0.787330
0.000000 0.150058 0.823818
0.000000 0.160023 0.863794
0.000000 0.171124 0.902645
0.000000 0.179478 0.935452
0.000000 0.180864 0.956993
0.000000 0.170714 0.961742
0.000000 0.144119 0.943867
0.000000 0.095827 0.897232
0.000000 0.020245 0.815399
0.000000 0.000000 0.691622
0.000000 0.000000 0.518854
0.000000 0.000000 0.289742
0.000000 0.000000 0.000000
0.000000 0.000000 0.000000
0.000000 0.000000 0.000000
0.000000 0.000000 0.000000
0.000000 0.000000 0.000000
0.000000 0.000000 0.000000
0.000000 0.000000 0.000000
0.000000 0.000000 0.000000
0.000000 0.000000 0.000000
0.000000 0.000000 0.000000
0.000000 0.000000 0.000000
0.000000 0.000000 0.000000
0.993924 0.515865 1.000000
0.807398 0.413422 0.987618
0.641311 0.330723 0.888041
0.494945 0.266880 0.815690
0.367211 0.220664 0.768075
0.256651 0.190504 0.742403
0.161440 0.174483 0.735576
0.079381 0.170345 0.744191
0.007911 0.175489 0.764543
0.000000 0.186971 0.792619
0.000000 0.201507 0.824105
0.000000 0.215467 0.854381
0.000000 0.224881 0.878524
0.000000 0.225434 0.891304
0.000000 0.212471 0.887191
0.000000 0.180991 0.860345
0.000000 0.125652 0.804628
0.000000 0.040771 0.713593
0.000000 0.000000 0.580490
0.000000 0.000000 0.398265
0.000000 0.000000 0.159560
0.000000 0.000000 0.000000
0.000000 0.000000 0.000000
0.000000 0.000000 0.000000
0.000000 0.000000 0.000000
0.000000 0.000000 0.000000
0.000000 0.000000 0.000000
0.000000 0.000000 0.000000
0.000000 0.000000 0.000000
0.000000 0.000000 0.000000
0.000000 0.000000 0.000000
0.000000 0.000000 0.000000
0.000000 0.000000 0.000000
1.000000 0.456228 1.000000
0.831117 0.369491 1.000000
0.666980 0.301563 0.922720
0.522120 0.251468 0.842326
0.395398 0.217885 0.786629
0.285308 0.199152 0.752830
0.189974 0.193264 0.737825
0.107151 0.197873 0.738207
0.034224 0.210289 0.750263
0.000000 0.227477 0.769975
0.000000 0.246063 0.793024
0.000000 0.262328 0.814784
0.000000 0.272210 0.830325
0.000000 0.271305 0.834414
0.000000 0.254867 0.821512
0.000000 0.217806 0.785776
0.000000 0.154690 0.721060
0.000000 0.059744 0.620913
0.000000 0.000000 0.478578
0.000000 0.000000 0.286997
0.000000 0.000000 0.038805
0.000000 0.000000 0.000000
0.000000 0.000000 0.000000
0.000000 0.000000 0.000000
0.000000 0.000000 0.000000
0.000000 0.000000 0.000000
0.000000 0.000000 0.000000
0.000000 0.000000 0.000000
0.000000 0.000000 0.000000
0.000000 0.000000 0.000000
0.000000 0.000000 0.000000
0.000000 0.000000 0.000000
0.000000 0.000000 0.000000
1.000000 0.404316 1.000000
0.869469 0.333144 1.000000
0.706778 0.279812 0.967688
0.562904 0.243252 0.879282
0.436660 0.222055 0.815541
0.326489 0.214468 0.773658
0.230466 0.218395 0.750524
0.146296 0.231399 0.742725
0.071317 0.250699 0.746543
0.002495 0.273171 0.757956
0.000000 0.295350 0.772637
0.000000 0.313426 0.785955
0.000000 0.323248 0.792975
0.000000 0.320322 0.788457
0.000000 0.299812 0.766856
0.000000 0.256536 0.722326
0.000000 0.184974 0.648712
0.000000 0.079259 0.539559
0.000000 0.000000 0.388104
0.000000 0.000000 0.187284
0.000000 0.000000 0.000000
0.000000 0.000000 0.000000
0.000000 0.000000 0.000000
0.000000 0.000000 0.000000
0.000000 0.000000 0.000000
0.000000 0.000000 0.000000
0.000000 0.000000 0.000000
0.000000 0.000000 0.000000
0.000000 0.000000 0.000000
0.000000 0.000000 0.000000
0.000000 0.000000 0.000000
0.000000 0.000000 0.000000
0.000000 0.000000 0.000000
1.000000 0.361457 1.000000
0.925035 0.305771 1.000000
0.763350 0.266920 1.000000
0.620008 0.243747 0.928800
0.493770 0.234752 0.857068
0.383033 0.238091 0.807159
0.285819 0.251579 0.775960
0.199786 0.272689 0.760051
0.122220 0.298548 0.755707
0.050039 0.325945 0.758900
0.000000 0.351321 0.765299
0.000000 0.370779 0.770266
0.000000 0.380077 0.768860
0.000000 0.374630 0.755836
0.000000 0.349511 0.725644
0.000000 0.299451 0.672430
0.000000 0.218837 0.590036
0.000000 0.101713 0.471999
0.000000 0.000000 0.311553
0.000000 0.000000 0.101625
0.000000 0.000000 0.000000
0.000000 0.000000 0.000000
0.000000 0.000000 0.000000
0.000000 0.000000 0.000000
0.000000 0.000000 0.000000
0.000000 0.000000 0.000000
0.000000 0.000000 0.000000
0.000000 0.000000 0.000000
0.000000 0.000000 0.000000
0.000000 0.000000 0.000000
0.000000 0.000000 0.000000
0.000000 0.000000 0.000000
0.000000 0.000000 0.000000
1.000000 0.329275 1.000000
1.000000 0.289060 1.000000
0.839663 0.264640 1.000000
0.696461 0.254767 0.993388
0.569825 0.257852 0.913735
0.458098 0.271961 0.855877
0.359256 0.294819 0.816694
0.270906 0.323808 0.792759
0.190285 0.355965 0.780344
0.114262 0.387989 0.775415
0.039335 0.416231 0.773633
0.000000 0.436704 0.770355
0.000000 0.445075 0.760636
0.000000 0.436669 0.739224
0.000000 0.406470 0.700564
0.000000 0.349117 0.638795
0.000000 0.258909 0.547754
0.000000 0.129798 0.420972
0.000000 0.000000 0.251677
0.000000 0.000000 0.032792
0.000000 0.000000 0.000000
0.000000 0.000000 0.000000
0.000000 0.000000 0.000000
0.000000 0.000000 0.000000
0.000000 0.000000 0.000000
0.000000 0.000000 0.000000
0.000000 0.000000 0.000000
0.000000 0.000000 0.000000
0.000000 0.000000 0.000000
0.000000 0.000000 0.000000
0.000000 0.000000 0.000000
0.000000 0.000000 0.000000
0.000000 0.000000 0.000000
1.000000 0.309694 1.000000
1.000000 0.284997 1.000000
0.939002 0.275019 1.000000
0.795614 0.278424 1.000000
0.668236 0.293530 0.988339
0.555163 0.318316 0.922623
0.454319 0.350415 0.875552
0.363264 0.387119 0.843695
0.279183 0.425376 0.823316
0.198897 0.461792 0.810376
0.118855 0.492632 0.800532
0.035138 0.513815 0.789134
0.000000 0.520919 0.771230
0.000000 0.509181 0.741564
0.000000 0.473492 0.694574
0.000000 0.408402 0.624394
0.000000 0.308119 0.524856
0.000000 0.166507 0.389485
0.000000 0.000000 0.211502
0.000000 0.000000 0.000000
0.000000 0.000000 0.000000
0.000000 0.000000 0.000000
0.000000 0.000000 0.000000
0.000000 0.000000 0.000000
0.000000 0.000000 0.000000
0.000000 0.000000 0.000000
0.000000 0.000000 0.000000
0.000000 0.000000 0.000000
0.000000 0.000000 0.000000
0.000000 0.000000 0.000000
0.000000 0.000000 0.000000
0.000000 0.000000 0.000000
0.000000 0.000000 0.000000
1.000000 0.304935 1.000000
1.000000 0.295865 1.000000
1.000000 0.300404 1.000000
0.921135 0.317126 1.000000
0.792738 0.344259 1.000000
0.678024 0.379691 1.000000
0.574870 0.420965 0.955632
0.480784 0.465283 0.915971
0.392904 0.509503 0.887752
0.307998 0.550142 0.866931
0.222469 0.583372 0.849158
0.132347 0.605024 0.829779
0.033295 0.610586 0.803836
0.000000 0.595202 0.766066
0.000000 0.553677 0.710901
0.000000 0.480468 0.632472
0.000000 0.369693 0.524603
0.000000 0.215127 0.380813
0.000000 0.010201 0.194318
0.000000 0.000000 0.000000
0.000000 0.000000 0.000000
0.000000 0.000000 0.000000
0.000000 0.000000 0.000000
0.000000 0.000000 0.000000
0.000000 0.000000 0.000000
0.000000 0.000000 0.000000
0.000000 0.000000 0.000000
0.000000 0.000000 0.000000
0.000000 0.000000 0.000000
0.000000 0.000000 0.000000
0.000000 0.000000 0.000000
0.000000 0.000000 0.000000
0.000000 0.000000 0.000000
1.000000 0.317518 1.000000
1.000000 0.324247 1.000000
1.000000 0.343441 1.000000
1.000000 0.373582 1.000000
0.947383 0.412810 1.000000
0.830800 0.458920 1.000000
0.725090 0.509366 1.000000
0.627713 0.561260 1.000000
0.535756 0.611370 0.977051
0.445941 0.656122 0.948494
0.354617 0.691600 0.922944
0.257767 0.713542 0.895739
0.151003 0.717347 0.861917
0.029570 0.698071 0.816210
0.000000 0.650424 0.753043
0.000000 0.568778 0.666541
0.000000 0.447157 0.550523
0.000000 0.279248 0.398502
0.000000 0.058391 0.203688
0.000000 0.000000 0.000000
0.000000 0.000000 0.000000
0.000000 0.000000 0.000000
0.000000 0.000000 0.000000
0.000000 0.000000 0.000000
0.000000 0.000000 0.000000
0.000000 0.000000 0.000000
0.000000 0.000000 0.000000
0.000000 0.000000 0.000000
0.000000 0.000000 0.000000
0.000000 0.000000 0.000000
0.000000 0.000000 0.000000
0.000000 0.000000 0.000000
0.000000 0.000000 0.000000
1.000000 0.350259 1.000000
1.000000 0.373024 1.000000
1.000000 0.407073 1.000000
1.000000 0.450799 1.000000
1.000000 0.502250 1.000000
1.000000 0.559133 1.000000
0.909480 0.618812 1.000000
0.808615 0.678307 1.000000
0.712371 0.734297 1.000000
0.617417 0.783117 1.000000
0.520056 0.820761 1.000000
0.416219 0.842878 0.990731
0.301470 0.844776 0.949208
0.171004 0.821420 0.895746
0.019644 0.767432 0.824765
0.000000 0.677091 0.730384
0.000000 0.544334 0.606414
0.000000 0.362755 0.446366
0.000000 0.125605 0.243444
0.000000 0.000000 0.000000
0.000000 0.000000 0.000000
0.000000 0.000000 0.000000
0.000000 0.000000 0.000000
0.000000 0.000000 0.000000
0.000000 0.000000 0.000000
0.000000 0.000000 0.000000
0.000000 0.000000 0.000000
0.000000 0.000000 0.000000
0.000000 0.000000 0.000000
0.000000 0.000000 0.000000
0.000000 0.000000 0.000000
0.000000 0.000000 0.000000
0.000000 0.000000 0.000000
1.000000 0.406274 1.000000
1.000000 0.445373 1.000000
1.000000 0.494541 1.000000
1.000000 0.552079 1.000000
1.000000 0.615947 1.000000
1.000000 0.683761 1.000000
1.000000 0.752795 1.000000
1.000000 0.819979 1.000000
0.927695 0.881901 1.000000
0.827441 0.934807 1.000000
0.723863 0.974599 1.000000
0.612845 0.996838 1.000000
0.489901 0.996741 1.000000
0.350175 0.969183 1.000000
0.188443 0.908694 0.930101
0.000000 0.809466 0.828050
0.000000 0.665343 0.696345
0.000000 0.469831 0.528490
0.000000 0.216089 0.317683
0.000000 0.000000 0.056819
0.000000 0.000000 0.000000
0.000000 0.000000 0.000000
0.000000 0.000000 0.000000
0.000000 0.000000 0.000000
0.000000 0.000000 0.000000
0.000000 0.000000 0.000000
0.000000 0.000000 0.000000
0.000000 0.000000 0.000000
0.000000 0.000000 0.000000
0.000000 0.000000 0.000000
0.000000 0.000000 0.000000
0.000000 0.000000 0.000000
0.000000 0.000000 0.000000
1.000000 0.488978 1.000000
1.000000 0.544771 1.000000
1.000000 0.609384 1.000000
1.000000 0.681026 1.000000
1.000000 0.757567 1.000000
1.000000 0.836533 1.000000
1.000000 0.915107 1.000000
1.000000 0.990130 1.000000
1.000000 1.000000 1.000000
1.000000 1.000000 1.000000
0.971434 1.000000 1.000000
0.853105 1.000000 1.000000
0.721819 1.000000 1.000000
0.572673 1.000000 1.000000
0.400392 1.000000 1.000000
0.199334 0.970259 0.963861
0.000000 0.814606 0.824652
0.000000 0.604959 0.649227
0.000000 0.334390 0.430777
0.000000 0.000000 0.162193
0.000000 0.000000 0.000000
0.000000 0.000000 0.000000
0.000000 0.000000 0.000000
0.000000 0.000000 0.000000
0.000000 0.000000 0.000000
0.000000 0.000000 0.000000
0.000000 0.000000 0.000000
0.000000 0.000000 0.000000
0.000000 0.000000 0.000000
0.000000 0.000000 0.000000
0.000000 0.000000 0.000000
0.000000 0.000000 0.000000
0.000000 0.000000 0.000000
1.000000 0.602081 1.000000
1.000000 0.674994 1.000000
1.000000 0.755439 1.000000
1.000000 0.841539 1.000000
1.000000 0.931072 1.000000
1.000000 1.000000 1.000000
1.000000 1.000000 1.000000
1.000000 1.000000 1.000000
1.000000 1.000000 1.000000
1.000000 1.000000 1.000000
1.000000 1.000000 1.000000
1.000000 1.000000 1.000000
1.000000 1.000000 1.000000
0.844407 1.000000 1.000000
0.661464 1.000000 1.000000
0.448549 1.000000 1.000000
0.199602 0.996837 0.995940
0.000000 0.772919 0.813197
0.000000 0.485350 0.587363
0.000000 0.126768 0.311323
0.000000 0.000000 0.000000
0.000000 0.000000 0.000000
0.000000 0.000000 0.000000
0.000000 0.000000 0.000000
0.000000 0.000000 0.000000
0.000000 0.000000 0.000000
0.000000 0.000000 0.000000
0.000000 0.000000 0.000000
0.000000 0.000000 0.000000
0.000000 0.000000 0.000000
0.000000 0.000000 0.000000
0.000000 0.000000 0.000000
0.000000 0.000000 0.000000
1.000000 0.749594 1.000000
1.000000 0.840113 1.000000
1.000000 0.936843 1.000000
1.000000 1.000000 1.000000
1.000000 1.000000 1.000000
1.000000 1.000000 1.000000
1.000000 1.000000 1.000000
1.000000 1.000000 1.000000
1.000000 1.000000 1.000000
1.000000 1.000000 1.000000
1.000000 1.000000 1.000000
1.000000 1.000000 1.000000
1.000000 1.000000 1.000000
1.000000 1.000000 1.000000
0.977951 1.000000 1.000000
0.753116 1.000000 1.000000
0.490989 1.000000 1.000000
0.185091 0.978789 1.000000
0.000000 0.674109 0.792349
0.000000 0.295563 0.509131
0.000000 0.000000 0.168212
0.000000 0.000000 0.000000
0.000000 0.000000 0.000000
0.000000 0.000000 0.000000
0.000000 0.000000 0.000000
0.000000 0.000000 0.000000
0.000000 0.000000 0.000000
0.000000 0.000000 0.000000
0.000000 0.000000 0.000000
0.000000 0.000000 0.000000
0.000000 0.000000 0.000000
0.000000 0.000000 0.000000
0.000000 0.000000 0.000000
1.000000 0.935825 1.000000
1.000000 1.000000 1.000000
1.000000 1.000000 1.000000
1.000000 1.000000 1.000000
1.000000 1.000000 1.000000
1.000000 1.000000 1.000000
1.000000 1.000000 1.000000
1.000000 1.000000 1.000000
1.000000 1.000000 1.000000
1.000000 1.000000 1.000000
1.000000 1.000000 1.000000
1.000000 1.000000 1.000000
1.000000 1.000000 1.000000
1.000000 1.000000 1.000000
1.000000 1.000000 1.000000
1.000000 1.000000 1.000000
0.844388 1.000000 1.000000
0.523971 1.000000 1.000000
0.151560 0.906107 1.000000
0.000000 0.507515 0.760813
0.000000 0.024282 0.412945
0.000000 0.000000 0.000000
0.000000 0.000000 0.000000
0.000000 0.000000 0.000000
0.000000 0.000000 0.000000
0.000000 0.000000 0.000000
0.000000 0.000000 0.000000
0.000000 0.000000 0.000000
0.000000 0.000000 0.000000
0.000000 0.000000 0.000000
0.000000 0.000000 0.000000
0.000000 0.000000 0.000000
0.000000 0.000000 0.000000
1.000000 1.000000 1.000000
1.000000 1.000000 1.000000
1.000000 1.000000 1.000000
1.000000 1.000000 1.000000
1.000000 1.000000 1.000000
1.000000 1.000000 1.000000
1.000000 1.000000 1.000000
1.000000 1.000000 1.000000
1.000000 1.000000 1.000000
1.000000 1.000000 1.000000
1.000000 1.000000 1.000000
1.000000 1.000000 1.000000
1.000000 1.000000 1.000000
1.000000 1.000000 1.000000
1.000000 1.000000 1.000000
1.000000 1.000000 1.000000
1.000000 1.000000 1.000000
0.931955 1.000000 1.000000
0.543669 1.000000 1.000000
0.094682 0.768423 1.000000
0.000000 0.262110 0.717329
0.000000 0.000000 0.297256
0.000000 0.000000 0.000000
0.000000 0.000000 0.000000
0.000000 0.000000 0.000000
0.000000 0.000000 0.000000
0.000000 0.000000 0.000000
0.000000 0.000000 0.000000
0.000000 0.000000 0.000000
0.000000 0.000000 0.000000
0.000000 0.000000 0.000000
0.000000 0.000000 0.000000
0.000000 0.000000 0.000000
1.000000 1.000000 1.000000
1.000000 1.000000 1.000000
1.000000 1.000000 1.000000
1.000000 1.000000 1.000000
1.000000 1.000000 1.000000
1.000000 1.000000 1.000000
1.000000 1.000000 1.000000
1.000000 1.000000 1.000000
1.000000 1.000000 1.000000
1.000000 1.000000 1.000000
1.000000 1.000000 1.000000
1.000000 1.000000 1.000000
1.000000 1.000000 1.000000
1.000000 1.000000 1.000000
1.000000 1.000000 1.000000
1.000000 1.000000 1.000000
1.000000 1.000000 1.000000
1.000000 1.000000 1.000000
1.000000 1.000000 1.000000
0.546172 1.000000 1.000000
0.010048 0.555000 1.000000
0.000000 0.000000 0.660680
0.000000 0.000000 0.160556
0.000000 0.000000 0.000000
0.000000 0.000000 0.000000
0.000000 0.000000 0.000000
0.000000 0.000000 0.000000
0.000000 0.000000 0.000000
0.000000 0.000000 0.000000
0.000000 0.000000 0.000000
0.000000 0.000000 0.000000
0.000000 0.000000 0.000000
0.000000 0.000000 0.000000
1.000000 1.000000 1.000000
1.000000 1.000000 1.000000
1.000000 1.000000 1.000000
1.000000 1.000000 1.000000
1.000000 1.000000 1.000000
1.000000 1.000000 1.000000
1.000000 1.000000 1.000000
1.000000 1.000000 1.000000
1.000000 1.000000 1.000000
1.000000 1.000000 1.000000
1.000000 1.000000 1.000000
1.000000 1.000000 1.000000
1.000000 1.000000 1.000000
1.000000 1.000000 1.000000
1.000000 1.000000 1.000000
1.000000 1.000000 1.000000
1.000000 1.000000 1.000000
1.000000 1.000000 1.000000
1.000000 1.000000 1.000000
1.000000 1.000000 1.000000
0.527488 0.909413 1.000000
0.000000 0.254740 1.000000
0.000000 0.000000 0.589684
0.000000 0.000000 0.001376
0.000000 0.000000 0.000000
0.000000 0.000000 0.000000
0.000000 0.000000 0.000000
0.000000 0.000000 0.000000
0.000000 0.000000 0.000000
0.000000 0.000000 0.000000
0.000000 0.000000 0.000000
0.000000 0.000000 0.000000
0.000000 0.000000 0.000000
1.000000 1.000000 1.000000
1.000000 1.000000 1.000000
1.000000 1.000000 1.000000
1.000000 1.000000 1.000000
1.000000 1.000000 1.000000
1.000000 1.000000 1.000000
1.000000 1.000000 1.000000
1.000000 1.000000 1.000000
1.000000 1.000000 1.000000
1.000000 1.000000 1.000000
1.000000 1.000000 1.000000
1.000000 1.000000 1.000000
1.000000 1.000000 1.000000
1.000000 1.000000 1.000000
1.000000 1.000000 1.000000
1.000000 1.000000 1.000000
1.000000 1.000000 1.000000
1.000000 1.000000 1.000000
1.000000 1.000000 1.000000
1.000000 1.000000 1.000000
1.000000 1.000000 1.000000
0.483537 0.651355 1.000000
0.000000 0.000000 1.000000
0.000000 0.000000 0.503200
0.000000 0.000000 0.000000
0.000000 0.000000 0.000000
0.000000 0.000000 0.000000
0.000000 0.000000 0.000000
0.000000 0.000000 0.000000
0.000000 0.000000 0.000000
0.000000 0.000000 0.000000
0.000000 0.000000 0.000000
0.000000 0.000000 0.000000
1.000000 1.000000 1.000000
1.000000 1.000000 1.000000
1.000000 1.000000 1.000000
1.000000 1.000000 1.000000
1.000000 1.000000 1.000000
1.000000 1.000000 1.000000
1.000000 1.000000 1.000000
1.000000 1.000000 1.000000
1.000000 1.000000 1.000000
1.000000 1.000000 1.000000
1.000000 1.000000 1.000000
1.000000 1.000000 1.000000
1.000000 1.000000 1.000000
1.000000 1.000000 1.000000
1.000000 1.000000 1.000000
1.000000 1.000000 1.000000
1.000000 1.000000 1.000000
1.000000 1.000000 1.000000
1.000000 1.000000 1.000000
1.000000 1.000000 1.000000
1.000000 1.000000 1.000000
1.000000 1.000000 1.000000
0.410156 0.299039 1.000000
0.000000 0.000000 1.000000
0.000000 0.000000 0.400125
0.000000 0.000000 0.000000
0.000000 0.000000 0.000000
0.000000 0.000000 0.000000
0.000000 0.000000 0.000000
0.000000 0.000000 0.000000
0.000000 0.000000 0.000000
0.000000 0.000000 0.000000
0.000000 0.000000 0.000000
1.000000 1.000000 1.000000
1.000000 1.000000 1.000000
1.000000 1.000000 1.000000
1.000000 1.000000 1.000000
1.000000 1.000000 1.000000
1.000000 1.000000 1.000000
1.000000 1.000000 1.000000
1.000000 1.000000 1.000000
1.000000 1.000000 1.000000
1.000000 1.000000 1.000000
1.000000 1.000000 1.000000
1.000000 1.000000 1.000000
1.000000 1.000000 1.000000
1.000000 1.000000 1.000000
1.000000 1.000000 1.000000
1.000000 1.000000 1.000000
1.000000 1.000000 1.000000
1.000000 1.000000 1.000000
1.000000 1.000000 1.000000
1.000000 1.000000 1.000000
1.000000 1.000000 1.000000
1.000000 1.000000 1.000000
1.000000 0.825001 1.000000
0.303099 0.000000 1.000000
0.000000 0.000000 1.000000
0.000000 0.000000 0.279395
0.000000 0.000000 0.000000
0.000000 0.000000 0.000000
0.000000 0.000000 0.000000
0.000000 0.000000 0.000000
0.000000 0.000000 0.000000
0.000000 0.000000 0.000000
0.000000 0.000000 0.000000
1.000000 1.000000 1.000000
1.000000 1.000000 1.000000
1.000000 1.000000 1.000000
1.000000 1.000000 1.000000
1.000000 1.000000 1.000000
1.000000 1.000000 1.000000
1.000000 1.000000 1.000000
1.000000 1.000000 1.000000
1.000000 1.000000 1.000000
1.000000 1.000000 1.000000
1.000000 1.000000 1.000000
1.000000 1.000000 1.000000
1.000000 1.000000 1.000000
1.000000 1.000000 1.000000
1.000000 1.000000 1.000000
1.000000 1.000000 1.000000
1.000000 1.000000 1.000000
1.000000 1.000000 1.000000
1.000000 1.000000 1.000000
1.000000 1.000000 1.000000
1.000000 1.000000 1.000000
1.000000 1.000000 1.000000
1.000000 1.000000 1.000000
1.000000 0.425463 1.000000
0.158033 0.000000 1.000000
0.000000 0.000000 1.000000
0.000000 0.000000 0.139986
