lrplugin/MindfulLensFilmEngine.lrplugin/profiles/luts/estra_500.cube
# Generated from ColorChecker fit
LUT_3D_SIZE 5
DOMAIN_MIN 0.0 0.0 0.0
DOMAIN_MAX 1.0 1.0 1.0
1.000000 0.999187 0.938785
0.000000 0.019605 0.975874
0.000000 0.000000 1.000000
0.000000 0.000000 0.000000
0.000000 0.000000 0.000000
1.000000 0.404316 1.000000
0.071317 0.250699 0.746543
0.000000 0.184974 0.648712
0.000000 0.000000 0.000000
0.000000 0.000000 0.000000
1.000000 0.488978 1.000000
1.000000 1.000000 1.000000
0.000000 0.814606 0.824652
0.000000 0.000000 0.000000
0.000000 0.000000 0.000000
1.000000 1.000000 1.000000
1.000000 1.000000 1.000000
1.000000 1.000000 1.000000
0.000000 0.000000 0.400125
0.000000 0.000000 0.000000
1.000000 1.000000 1.000000
1.000000 1.000000 1.000000
1.000000 1.000000 1.000000
1.000000 1.000000 1.000000
0.000000 0.000000 0.000000
0.979950 1.000000 0.308858
0.113996 0.000000 0.063426
0.506141 0.000000 0.871454
0.262899 0.000000 0.284059
0.000000 0.000000 0.000000
0.930888 0.874689 0.860008
0.167002 0.225989 0.253446
0.323070 0.374102 0.702943
0.000000 0.000000 0.000000
0.000000 0.000000 0.000000
1.000000 0.613393 1.000000
0.535349 0.749602 0.632547
0.245309 0.818261 0.760181
0.000000 0.000000 0.000000
0.000000 0.000000 0.000000
1.000000 1.000000 1.000000
1.000000 1.000000 1.000000
1.000000 1.000000 1.000000
0.000000 0.000000 1.000000
0.000000 0.000000 0.000000
1.000000 1.000000 1.000000
1.000000 1.000000 1.000000
1.000000 1.000000 1.000000
1.000000 1.000000 1.000000
0.000000 0.000000 1.000000
1.000000 1.000000 0.719133
0.201920 0.000000 0.000000
0.600250 0.000000 0.265127
1.000000 0.266362 0.025581
0.000000 0.000000 0.000000
1.000000 1.000000 1.000000
0.510070 0.349100 0.257248
0.775245 0.245496 0.635905
0.787143 0.181062 0.309160
0.000000 0.000000 0.000000
1.000000 1.000000 1.000000
0.341440 0.541456 0.203282
0.362214 0.529580 0.494384
0.000000 0.000000 0.124871
0.000000 0.000000 0.000000
1.000000 1.000000 1.000000
1.000000 1.000000 0.948356
1.000000 1.000000 1.000000
0.000000 0.000000 0.940331
0.000000 0.000000 0.000000
1.000000 1.000000 1.000000
1.000000 1.000000 1.000000
1.000000 1.000000 1.000000
1.000000 1.000000 1.000000
0.000000 0.000000 1.000000
1.000000 1.000000 0.809467
0.000000 0.000000 0.000000
0.000000 0.000000 0.000000
0.075013 0.118738 0.000000
0.000000 1.000000 0.000000
1.000000 1.000000 1.000000
0.924271 0.642484 0.285307
0.678102 0.040283 0.273258
1.000000 0.886684 0.017109
0.000000 0.533113 0.000000
1.000000 1.000000 1.000000
0.822121 0.686450 0.260900
0.667954 0.420027 0.442115
0.587944 0.440806 0.468063
0.000000 0.000000 0.000000
1.000000 1.000000 1.000000
0.946029 1.000000 0.075538
1.000000 1.000000 0.525714
0.770827 0.718051 0.931071
0.000000 0.000000 0.000000
1.000000 1.000000 1.000000
1.000000 1.000000 1.000000
1.000000 1.000000 1.000000
1.000000 1.000000 1.000000
0.020062 0.000000 1.000000
1.000000 1.000000 0.000000
0.000000 0.000000 0.000000
0.000000 0.000000 0.000000
0.000000 0.000000 0.000000
0.000000 1.000000 0.000000
1.000000 1.000000 1.000000
0.542372 0.764958 0.000000
0.000000 0.000000 0.000000
0.000000 1.000000 0.000000
0.000000 1.000000 0.000000
1.000000 1.000000 1.000000
1.000000 1.000000 0.180171
0.825304 0.597435 0.276448
1.000000 1.000000 0.473211
0.000000 1.000000 0.000000
1.000000 1.000000 1.000000
1.000000 0.879042 0.117850
1.000000 1.000000 0.796564
1.000000 1.000000 1.000000
0.090368 1.000000 0.017902
1.000000 1.000000 1.000000
1.000000 1.000000 0.897979
1.000000 1.000000 1.000000
1.000000 1.000000 1.000000
1.000000 1.000000 1.000000
