lrplugin/MindfulLensFilmEngine.lrplugin/profiles/luts/evproplus.cube
# Generated from ColorChecker fit
LUT_3D_SIZE 33
DOMAIN_MIN 0.0 0.0 0.0
DOMAIN_MAX 1.0 1.0 1.0
0.000000 0.000000 0.050726
0.000000 0.000000 0.030284
0.000000 0.000000 0.016792
0.000000 0.000000 0.010190
0.000000 0.000000 0.010290
0.000000 0.000000 0.016775
0.000000 0.000000 0.029202
0.000000 0.000000 0.047000
0.000000 0.000000 0.069469
0.000000 0.000000 0.095784
0.000000 0.000000 0.124990
0.000000 0.000000 0.156006
0.000000 0.000000 0.187622
0.000000 0.000000 0.218500
0.000000 0.000000 0.247177
0.000000 0.000000 0.272060
0.000000 0.000000 0.291430
0.000000 0.000000 0.303438
0.000000 0.000000 0.306110
0.000000 0.000000 0.297343
0.000000 0.000000 0.274906
0.000000 0.000000 0.236442
0.000000 0.000000 0.179465
0.000000 0.000000 0.101361
0.000000 0.000000 0.000000
0.000000 0.000000 0.000000
0.000000 0.000000 0.000000
0.000000 0.000000 0.000000
0.000000 0.000000 0.000000
0.000000 0.000000 0.000000
0.000000 0.000000 0.000000
0.000000 0.000000 0.000000
0.000000 0.000000 0.000000
0.000000 0.000000 0.169576
0.000000 0.000000 0.150300
0.000000 0.000000 0.138137
0.000000 0.000000 0.132990
0.000000 0.000000 0.134631
0.000000 0.000000 0.142707
0.000000 0.000000 0.156736
0.000000 0.000000 0.176109
0.000000 0.000000 0.200089
0.000000 0.000000 0.227811
0.000000 0.000000 0.258284
0.000000 0.000000 0.290387
0.000000 0.000000 0.322874
0.000000 0.000000 0.354368
0.000000 0.000000 0.383369
0.000000 0.000000 0.408244
0.000000 0.000000 0.427237
0.000000 0.000000 0.438461
0.000000 0.000000 0.439905
0.000000 0.000000 0.429426
0.000000 0.000000 0.404756
0.000000 0.000000 0.363501
0.000000 0.000000 0.303135
0.000000 0.000000 0.221008
0.000000 0.000000 0.114340
0.000000 0.000000 0.000000
0.000000 0.000000 0.000000
0.000000 0.000000 0.000000
0.000000 0.000000 0.000000
0.000000 0.000000 0.000000
0.000000 0.000000 0.000000
0.000000 0.000000 0.000000
0.000000 0.000000 0.000000
0.000000 0.000000 0.265583
0.000000 0.000000 0.247423
0.000000 0.000000 0.236536
0.000000 0.000000 0.232784
0.000000 0.000000 0.235902
0.000000 0.000000 0.245500
0.000000 0.000000 0.261056
0.000000 0.000000 0.281925
0.000000 0.000000 0.307330
0.000000 0.000000 0.336370
0.000000 0.000000 0.368014
0.000000 0.000000 0.401105
0.000000 0.000000 0.434357
0.000000 0.000000 0.466357
0.000000 0.000000 0.495564
0.000000 0.000000 0.520311
0.000000 0.000000 0.538800
0.006398 0.000000 0.549110
0.026291 0.000000 0.549188
0.040266 0.000000 0.536856
0.046340 0.000000 0.509807
0.042386 0.000000 0.465608
0.026132 0.000000 0.401696
0.000000 0.000000 0.315383
0.000000 0.000000 0.203852
0.000000 0.000000 0.064157
0.000000 0.000000 0.000000
0.000000 0.000000 0.000000
0.000000 0.000000 0.000000
0.000000 0.000000 0.000000
0.000000 0.000000 0.000000
0.000000 0.000000 0.000000
0.000000 0.000000 0.000000
0.000000 0.000000 0.339858
0.000000 0.000000 0.322752
0.000000 0.000000 0.313071
0.000000 0.000000 0.310640
0.000000 0.000000 0.315156
0.000000 0.000000 0.326190
0.000000 0.000000 0.343184
0.000000 0.000000 0.365453
0.000000 0.000000 0.392184
0.000000 0.000000 0.422436
0.000000 0.000000 0.455141
0.000000 0.000000 0.489103
0.000000 0.000000 0.523000
0.000000 0.001227 0.555379
0.000000 0.020736 0.584662
0.017146 0.037076 0.609144
0.043113 0.048966 0.626989
0.065806 0.054994 0.636237
0.083472 0.053618 0.634798
0.094213 0.043166 0.620455
0.095989 0.021839 0.590865
0.086616 0.000000 0.543554
0.063768 0.000000 0.475925
0.024974 0.000000 0.385248
0.000000 0.000000 0.268669
0.000000 0.000000 0.123206
0.000000 0.000000 0.000000
0.000000 0.000000 0.000000
0.000000 0.000000 0.000000
0.000000 0.000000 0.000000
0.000000 0.000000 0.000000
0.000000 0.000000 0.000000
0.000000 0.000000 0.000000
0.000000 0.000000 0.393863
0.000000 0.000000 0.377730
0.000000 0.000000 0.369171
0.000000 0.000000 0.367971
0.000000 0.000000 0.373791
0.000000 0.000000 0.386161
0.000000 0.000000 0.404488
0.000000 0.000000 0.428047
0.000000 0.000000 0.455987
0.000000 0.000000 0.487331
0.000000 0.003221 0.520971
0.000000 0.031795 0.555674
0.000000 0.059624 0.590078
0.000750 0.085753 0.622695
0.029265 0.109098 0.651908
0.056772 0.128445 0.675972
0.081748 0.142450 0.693016
0.102527 0.149640 0.701040
0.117299 0.148411 0.697917
0.124109 0.137029 0.681392
0.120863 0.113632 0.649082
0.105320 0.076226 0.598478
0.075096 0.022689 0.526942
0.027666 0.000000 0.431708
0.000000 0.000000 0.309884
0.000000 0.000000 0.158449
0.000000 0.000000 0.000000
0.000000 0.000000 0.000000
0.000000 0.000000 0.000000
0.000000 0.000000 0.000000
0.000000 0.000000 0.000000
0.000000 0.000000 0.000000
0.000000 0.000000 0.000000
0.000000 0.000000 0.429403
0.000000 0.000000 0.414150
0.000000 0.000000 0.406612
0.000000 0.000000 0.406539
0.000000 0.000000 0.413551
0.000000 0.000000 0.427144
0.000000 0.000000 0.446682
0.000000 0.000000 0.471405
0.000000 0.000000 0.500425
0.000000 0.025682 0.532723
0.000000 0.060289 0.567157
0.000000 0.094361 0.602454
0.000000 0.127012 0.637215
0.021514 0.157226 0.669914
0.050146 0.183857 0.698894
0.076931 0.205629 0.722374
0.100289 0.221135 0.738444
0.118498 0.228841 0.745067
0.129691 0.227081 0.740077
0.131858 0.214059 0.721181
0.122848 0.187852 0.685959
0.100364 0.146403 0.631863
0.061966 0.087528 0.556217
0.005072 0.008913 0.456218
0.000000 0.000000 0.328935
0.000000 0.000000 0.171310
0.000000 0.000000 0.000000
0.000000 0.000000 0.000000
0.000000 0.000000 0.000000
0.000000 0.000000 0.000000
0.000000 0.000000 0.000000
0.000000 0.000000 0.000000
0.000000 0.000000 0.000000
0.000000 0.000000 0.448634
0.000000 0.000000 0.434150
0.000000 0.000000 0.427519
0.000000 0.000000 0.428451
0.000000 0.000000 0.436531
0.000000 0.000000 0.451214
0.000000 0.000000 0.471828
0.000000 0.000000 0.497575
0.000000 0.026385 0.527526
0.000000 0.067009 0.560629
0.000000 0.107272 0.595700
0.000000 0.146355 0.631430
0.000000 0.183311 0.666381
0.026298 0.217060 0.698988
0.054460 0.246394 0.727558
0.079906 0.269977 0.750272
0.101001 0.286339 0.765181
0.115966 0.293884 0.770209
0.122878 0.290884 0.763154
0.119672 0.275483 0.741684
0.104139 0.245692 0.703342
0.073926 0.199395 0.645541
0.026539 0.134347 0.565567
0.000000 0.048170 0.460579
0.000000 0.000000 0.327608
0.000000 0.000000 0.163557
0.000000 0.000000 0.000000
0.000000 0.000000 0.000000
0.000000 0.000000 0.000000
0.000000 0.000000 0.000000
0.000000 0.000000 0.000000
0.000000 0.000000 0.000000
0.000000 0.000000 0.000000
0.000000 0.000000 0.454055
0.000000 0.000000 0.440215
0.000000 0.000000 0.434359
0.000000 0.000000 0.436162
0.000000 0.000000 0.445168
0.000000 0.000000 0.460795
0.000000 0.000000 0.482334
0.000000 0.007381 0.508948
0.000000 0.054016 0.539671
0.000000 0.100425 0.573410
0.000000 0.145857 0.608947
0.000000 0.189434 0.644932
0.000000 0.230143 0.679890
0.017729 0.266845 0.712219
0.044815 0.298270 0.740187
0.068289 0.323018 0.761936
0.086459 0.339560 0.775480
0.097489 0.346235 0.778707
0.099401 0.341256 0.769373
0.090074 0.322702 0.745112
0.067241 0.288525 0.703425
0.028495 0.236546 0.641689
0.000000 0.164457 0.557153
0.000000 0.069819 0.446937
0.000000 0.000000 0.308034
0.000000 0.000000 0.137309
0.000000 0.000000 0.000000
0.000000 0.000000 0.000000
0.000000 0.000000 0.000000
0.000000 0.000000 0.000000
0.000000 0.000000 0.000000
0.000000 0.000000 0.000000
0.000000 0.000000 0.000000
0.000000 0.000000 0.448514
0.000000 0.000000 0.435177
0.000000 0.000000 0.429951
0.000000 0.000000 0.432473
0.000000 0.000000 0.442249
0.000000 0.000000 0.458659
0.000000 0.000000 0.480957
0.000000 0.023600 0.508265
0.000000 0.076117 0.539582
0.000000 0.127825 0.573777
0.000000 0.177910 0.609591
0.000000 0.225429 0.645639
0.000000 0.269311 0.680407
0.000000 0.308353 0.712254
0.024133 0.341224 0.739412
0.044983 0.366461 0.759984
0.059547 0.382474 0.771946
0.065935 0.387540 0.773146
0.062110 0.379809 0.761306
0.045895 0.357300 0.734018
0.014969 0.317902 0.688748
0.000000 0.259374 0.622834
0.000000 0.179346 0.533486
0.000000 0.075317 0.417787
0.000000 0.000000 0.272692
0.000000 0.000000 0.095028
0.000000 0.000000 0.000000
0.000000 0.000000 0.000000
0.000000 0.000000 0.000000
0.000000 0.000000 0.000000
0.000000 0.000000 0.000000
0.000000 0.000000 0.000000
0.000000 0.000000 0.000000
0.000000 0.000000 0.435205
0.000000 0.000000 0.422215
0.000000 0.000000 0.417458
0.000000 0.000000 0.420532
0.000000 0.000000 0.430907
0.000000 0.000000 0.447924
0.000000 0.000000 0.470797
0.000000 0.036882 0.498613
0.000000 0.094798 0.530332
0.000000 0.151286 0.564784
0.000000 0.205474 0.600673
0.000000 0.256355 0.636576
0.000000 0.302797 0.670941
0.000000 0.343535 0.702089
0.000000 0.377175 0.728213
0.013201 0.402194 0.747379
0.023462 0.416938 0.757525
0.024481 0.419624 0.756460
0.014165 0.408339 0.741869
0.000000 0.381040 0.711306
0.000000 0.335555 0.662199
0.000000 0.269580 0.591847
0.000000 0.180683 0.497423
0.000000 0.066303 0.375971
0.000000 0.000000 0.224409
0.000000 0.000000 0.039525
0.000000 0.000000 0.000000
0.000000 0.000000 0.000000
0.000000 0.000000 0.000000
0.000000 0.000000 0.000000
0.000000 0.000000 0.000000
0.000000 0.000000 0.000000
0.000000 0.000000 0.000000
0.000000 0.000000 0.417669
0.000000 0.000000 0.404854
0.000000 0.000000 0.400390
0.000000 0.000000 0.403835
0.000000 0.000000 0.414621
0.000000 0.000000 0.432052
0.000000 0.000000 0.455304
0.000000 0.049547 0.483426
0.000000 0.112343 0.515338
0.000000 0.173064 0.549835
0.000000 0.230773 0.585582
0.000000 0.284404 0.621117
0.000000 0.332762 0.654850
0.000000 0.374520 0.685065
0.000000 0.408223 0.709916
0.000000 0.432284 0.727432
0.000000 0.444989 0.735513
0.000000 0.444492 0.731930
0.000000 0.428819 0.714328
0.000000 0.395864 0.680225
0.000000 0.343394 0.627011
0.000000 0.269042 0.551946
0.000000 0.170316 0.452165
0.000000 0.044592 0.324676
0.000000 0.000000 0.166356
0.000000 0.000000 0.000000
0.000000 0.000000 0.000000
0.000000 0.000000 0.000000
0.000000 0.000000 0.000000
0.000000 0.000000 0.000000
0.000000 0.000000 0.000000
0.000000 0.000000 0.000000
0.000000 0.000000 0.000000
0.000000 0.000000 0.399795
0.000000 0.000000 0.386969
0.000000 0.000000 0.382604
0.000000 0.000000 0.386223
0.000000 0.000000 0.397218
0.000000 0.000000 0.414855
0.000000 0.000000 0.438274
0.000000 0.064091 0.466483
0.000000 0.131219 0.498367
0.000000 0.195591 0.532680
0.000000 0.256211 0.568051
0.000000 0.311949 0.602979
0.000000 0.361547 0.635837
0.000000 0.403618 0.664870
0.000000 0.436644 0.688195
0.000000 0.458977 0.703802
0.000000 0.468841 0.709552
0.000000 0.464327 0.703181
0.000000 0.443400 0.682294
0.000000 0.403893 0.644372
0.000000 0.343508 0.586765
0.000000 0.259820 0.506697
0.000000 0.150273 0.401265
0.000000 0.012180 0.267437
0.000000 0.000000 0.102054
0.000000 0.000000 0.000000
0.000000 0.000000 0.000000
0.000000 0.000000 0.000000
0.000000 0.000000 0.000000
0.000000 0.000000 0.000000
0.000000 0.000000 0.000000
0.000000 0.000000 0.000000
0.000000 0.000000 0.000000
0.000000 0.000000 0.385816
0.000000 0.000000 0.372776
0.000000 0.000000 0.368305
0.000000 0.000000 0.371884
0.000000 0.000000 0.382871
0.000000 0.000000 0.400492
0.000000 0.009777 0.423849
0.000000 0.083192 0.451912
0.000000 0.154071 0.483529
0.000000 0.221484 0.517415
0.000000 0.284370 0.552161
0.000000 0.341539 0.586228
0.000000 0.391671 0.617952
0.000000 0.433317 0.645539
0.000000 0.464896 0.667068
0.000000 0.484699 0.680492
0.000000 0.490888 0.683633
0.000000 0.481493 0.674188
0.000000 0.454416 0.649726
0.000000 0.407427 0.607689
0.000000 0.338168 0.545389
0.000000 0.244152 0.460012
0.000000 0.122759 0.348618
0.000000 0.000000 0.208135
0.000000 0.000000 0.035368
0.000000 0.000000 0.000000
0.000000 0.000000 0.000000
0.000000 0.000000 0.000000
0.000000 0.000000 0.000000
0.000000 0.000000 0.000000
0.000000 0.000000 0.000000
0.000000 0.000000 0.000000
0.000000 0.000000 0.000000
0.000000 0.000000 0.380315
0.000000 0.000000 0.366844
0.000000 0.000000 0.362042
0.000000 0.000000 0.365355
0.000000 0.000000 0.376100
0.000000 0.000000 0.393467
0.000000 0.032468 0.416518
0.000000 0.109705 0.444188
0.000000 0.183725 0.475283
0.000000 0.253535 0.508483
0.000000 0.318013 0.542340
0.000000 0.375906 0.575278
0.000000 0.425834 0.605593
0.000000 0.466285 0.631455
0.000000 0.495616 0.650903
0.000000 0.512057 0.661853
0.000000 0.513706 0.662089
0.000000 0.498533 0.649271
0.000000 0.464377 0.620929
0.000000 0.408946 0.574466
0.000000 0.329822 0.507157
0.000000 0.224454 0.416151
0.000000 0.090161 0.298468
0.000000 0.000000 0.151000
0.000000 0.000000 0.000000
0.000000 0.000000 0.000000
0.000000 0.000000 0.000000
0.000000 0.000000 0.000000
0.000000 0.000000 0.000000
0.000000 0.000000 0.000000
0.000000 0.000000 0.000000
0.000000 0.000000 0.000000
0.000000 0.000000 0.000000
0.000000 0.000000 0.388219
0.000000 0.000000 0.374085
0.000000 0.000000 0.368715
0.000000 0.000000 0.371518
0.000000 0.000000 0.381773
0.000000 0.000000 0.398632
0.000000 0.066217 0.421119
0.000000 0.146665 0.448130
0.000000 0.223183 0.478436
0.000000 0.294716 0.510676
0.000000 0.360080 0.543364
0.000000 0.417961 0.574888
0.000000 0.466915 0.603504
0.000000 0.505369 0.627345
0.000000 0.531620 0.644413
0.000000 0.543833 0.652584
0.000000 0.540047 0.649605
0.000000 0.518168 0.633098
0.000000 0.475973 0.600554
0.000000 0.411111 0.549340
0.000000 0.321098 0.476692
0.000000 0.203323 0.379720
0.000000 0.055044 0.255406
0.000000 0.000000 0.100605
0.000000 0.000000 0.000000
0.000000 0.000000 0.000000
0.000000 0.000000 0.000000
0.000000 0.000000 0.000000
0.000000 0.000000 0.000000
0.000000 0.000000 0.000000
0.000000 0.000000 0.000000
0.000000 0.000000 0.000000
0.000000 0.000000 0.000000
0.000000 0.000000 0.414805
0.000000 0.000000 0.399758
0.000000 0.000000 0.393567
0.000000 0.000000 0.395602
0.000000 0.000000 0.405103
0.000000 0.027566 0.421185
0.000000 0.114272 0.442834
0.000000 0.197289 0.468908
0.000000 0.275630 0.498138
0.000000 0.348180 0.529129
0.000000 0.413693 0.560354
0.000000 0.470792 0.590163
0.000000 0.517972 0.616776
0.000000 0.553598 0.638286
0.000000 0.575903 0.652658
0.000000 0.582994 0.657729
0.000000 0.572844 0.651210
0.000000 0.543300 0.630683
0.000000 0.492076 0.593602
0.000000 0.416759 0.537294
0.000000 0.314804 0.458960
0.000000 0.183536 0.355670
0.000000 0.020153 0.224369
0.000000 0.000000 0.061874
0.000000 0.000000 0.000000
0.000000 0.000000 0.000000
0.000000 0.000000 0.000000
0.000000 0.000000 0.000000
0.000000 0.000000 0.000000
0.000000 0.000000 0.000000
0.000000 0.000000 0.000000
0.000000 0.000000 0.000000
0.000000 0.000000 0.000000
0.000000 0.000000 0.465694
0.000000 0.000000 0.449471
0.000000 0.000000 0.442190
0.000000 0.000000 0.443182
0.000000 0.000000 0.451650
0.000000 0.090741 0.466671
0.000000 0.180056 0.487192
0.000000 0.264968 0.512035
0.000000 0.344429 0.539891
0.000000 0.417259 0.569326
0.000000 0.482152 0.598779
0.000000 0.537669 0.626558
0.000000 0.582243 0.650847
0.000000 0.614176 0.669701
0.000000 0.631641 0.681045
0.000000 0.632681 0.682681
0.000000 0.615210 0.672280
0.000000 0.577010 0.647386
0.000000 0.515735 0.605416
0.000000 0.428909 0.543659
0.000000 0.313925 0.459277
0.000000 0.168048 0.349302
0.000000 0.000000 0.210643
0.000000 0.000000 0.040076
0.000000 0.000000 0.000000
0.000000 0.000000 0.000000
0.000000 0.000000 0.000000
0.000000 0.000000 0.000000
0.000000 0.000000 0.000000
0.000000 0.000000 0.000000
0.000000 0.000000 0.000000
0.000000 0.000000 0.000000
0.000000 0.000000 0.000000
0.000000 0.000000 0.546854
0.000000 0.000000 0.529176
0.000000 0.000000 0.520521
0.000000 0.000000 0.520182
0.000000 0.080504 0.527323
0.000000 0.175925 0.540983
0.000000 0.267177 0.560072
0.000000 0.353279 0.583372
0.000000 0.433121 0.609539
0.000000 0.505463 0.637099
0.000000 0.568936 0.664453
0.004891 0.622039 0.689872
0.006190 0.663143 0.711501
0.000000 0.690489 0.727357
0.000000 0.702187 0.735329
0.000000 0.696219 0.733178
0.000000 0.670435 0.718538
0.000000 0.622558 0.688916
0.000000 0.550178 0.641690
0.000000 0.450758 0.574112
0.000000 0.321629 0.483304
0.000000 0.159994 0.366263
0.000000 0.000000 0.219856
0.000000 0.000000 0.040825
0.000000 0.000000 0.000000
0.000000 0.000000 0.000000
0.000000 0.000000 0.000000
0.000000 0.000000 0.000000
0.000000 0.000000 0.000000
0.000000 0.000000 0.000000
0.000000 0.000000 0.000000
0.000000 0.000000 0.000000
0.000000 0.000000 0.000000
0.000000 0.000000 0.664602
0.000000 0.000000 0.645175
0.000000 0.000000 0.634847
0.000000 0.088223 0.632871
0.000000 0.189564 0.638375
0.018657 0.286933 0.650359
0.045862 0.379416 0.667695
0.071031 0.465972 0.689129
0.093000 0.545429 0.713275
0.110460 0.616483 0.738625
0.121964 0.677705 0.763539
0.125915 0.727531 0.786252
0.120579 0.764271 0.804870
0.104073 0.786103 0.817372
0.074375 0.791076 0.821609
0.029318 0.777109 0.815305
0.000000 0.741992 0.796055
0.000000 0.683384 0.761328
0.000000 0.598814 0.708464
0.000000 0.485683 0.634676
0.000000 0.341261 0.537051
0.000000 0.162688 0.412545
0.000000 0.000000 0.257989
0.000000 0.000000 0.070085
0.000000 0.000000 0.000000
0.000000 0.000000 0.000000
0.000000 0.000000 0.000000
0.000000 0.000000 0.000000
0.000000 0.000000 0.000000
0.000000 0.000000 0.000000
0.000000 0.000000 0.000000
0.000000 0.000000 0.000000
0.000000 0.000000 0.000000
0.070750 0.000000 0.825600
0.096992 0.008611 0.804115
0.124357 0.118793 0.791798
0.152341 0.225877 0.787865
0.180299 0.329148 0.791407
0.207440 0.427760 0.801385
0.232831 0.520739 0.816634
0.255397 0.606982 0.835859
0.273916 0.685253 0.857640
0.287026 0.754189 0.880428
0.293220 0.812296 0.902547
0.290849 0.857951 0.922192
0.278119 0.889400 0.937433
0.253093 0.904761 0.946209
0.213693 0.902019 0.946334
0.157693 0.879033 0.935494
0.082729 0.833529 0.911247
0.000000 0.763106 0.871022
0.000000 0.665231 0.812123
0.000000 0.537241 0.731724
0.000000 0.376346 0.626872
0.000000 0.179623 0.494489
0.000000 0.000000 0.331365
0.000000 0.000000 0.134165
0.000000 0.000000 0.000000
0.000000 0.000000 0.000000
0.000000 0.000000 0.000000
0.000000 0.000000 0.000000
0.000000 0.000000 0.000000
0.000000 0.000000 0.000000
0.000000 0.000000 0.000000
0.000000 0.000000 0.000000
0.000000 0.000000 0.000000
0.315984 0.061639 1.000000
0.343053 0.177342 1.000000
0.370708 0.290000 0.998353
0.398390 0.398965 0.992129
0.425396 0.503461 0.993368
0.450880 0.602581 1.000000
0.473853 0.695289 1.000000
0.493182 0.780418 1.000000
0.507591 0.856674 1.000000
0.515660 0.922629 1.000000
0.515827 0.976728 1.000000
0.506386 1.000000 1.000000
0.485487 1.000000 1.000000
0.451138 1.000000 1.000000
0.401201 1.000000 1.000000
0.333399 1.000000 1.000000
0.245307 0.948877 1.000000
0.134360 0.865523 1.000000
0.000000 0.753194 0.959400
0.000000 0.609167 0.871971
0.000000 0.430588 0.759471
0.000000 0.214473 0.618781
0.000000 0.000000 0.446656
0.000000 0.000000 0.239722
0.000000 0.000000 0.000000
0.000000 0.000000 0.000000
0.000000 0.000000 0.000000
0.000000 0.000000 0.000000
0.000000 0.000000 0.000000
0.000000 0.000000 0.000000
0.000000 0.000000 0.000000
0.000000 0.000000 0.000000
0.000000 0.000000 0.000000
0.625663 0.269230 1.000000
0.653081 0.387299 1.000000
0.680519 0.501759 1.000000
0.707362 0.611902 1.000000
0.732852 0.716888 1.000000
0.756086 0.815749 1.000000
0.776019 0.907387 1.000000
0.791461 0.990574 1.000000
0.801081 1.000000 1.000000
0.803402 1.000000 1.000000
0.796806 1.000000 1.000000
0.779530 1.000000 1.000000
0.749669 1.000000 1.000000
0.705174 1.000000 1.000000
0.643852 1.000000 1.000000
0.563368 1.000000 1.000000
0.461242 1.000000 1.000000
0.334852 0.994613 1.000000
0.181433 0.866652 1.000000
0.000000 0.705377 1.000000
0.000000 0.507872 0.941896
0.000000 0.271091 0.792456
0.000000 0.000000 0.610880
0.000000 0.000000 0.393757
0.000000 0.000000 0.137548
0.000000 0.000000 0.000000
0.000000 0.000000 0.000000
0.000000 0.000000 0.000000
0.000000 0.000000 0.000000
0.000000 0.000000 0.000000
0.000000 0.000000 0.000000
0.000000 0.000000 0.000000
0.000000 0.000000 0.000000
1.000000 0.523375 1.000000
1.000000 0.643139 1.000000
1.000000 0.758699 1.000000
1.000000 0.869284 1.000000
1.000000 0.973994 1.000000
1.000000 1.000000 1.000000
1.000000 1.000000 1.000000
1.000000 1.000000 1.000000
1.000000 1.000000 1.000000
1.000000 1.000000 1.000000
1.000000 1.000000 1.000000
1.000000 1.000000 1.000000
1.000000 1.000000 1.000000
1.000000 1.000000 1.000000
0.948908 1.000000 1.000000
0.854845 1.000000 1.000000
0.737761 1.000000 1.000000
0.594975 1.000000 1.000000
0.423666 1.000000 1.000000
0.220869 0.829964 1.000000
0.000000 0.612259 1.000000
0.000000 0.353507 1.000000
0.000000 0.050471 0.831403
0.000000 0.000000 0.603622
0.000000 0.000000 0.335973
0.000000 0.000000 0.024750
0.000000 0.000000 0.000000
0.000000 0.000000 0.000000
0.000000 0.000000 0.000000
0.000000 0.000000 0.000000
0.000000 0.000000 0.000000
0.000000 0.000000 0.000000
0.000000 0.000000 0.000000
1.000000 0.828945 1.000000
1.000000 0.949701 1.000000
1.000000 1.000000 1.000000
1.000000 1.000000 1.000000
1.000000 1.000000 1.000000
1.000000 1.000000 1.000000
1.000000 1.000000 1.000000
1.000000 1.000000 1.000000
1.000000 1.000000 1.000000
1.000000 1.000000 1.000000
1.000000 1.000000 1.000000
1.000000 1.000000 1.000000
1.000000 1.000000 1.000000
1.000000 1.000000 1.000000
1.000000 1.000000 1.000000
1.000000 1.000000 1.000000
1.000000 1.000000 1.000000
0.922247 1.000000 1.000000
0.732050 1.000000 1.000000
0.508785 0.987203 1.000000
0.249290 0.747994 1.000000
0.000000 0.465934 1.000000
0.000000 0.137724 1.000000
0.000000 0.000000 0.877013
0.000000 0.000000 0.597433
0.000000 0.000000 0.273456
0.000000 0.000000 0.000000
0.000000 0.000000 0.000000
0.000000 0.000000 0.000000
0.000000 0.000000 0.000000
0.000000 0.000000 0.000000
0.000000 0.000000 0.000000
0.000000 0.000000 0.000000
1.000000 1.000000 1.000000
1.000000 1.000000 1.000000
1.000000 1.000000 1.000000
1.000000 1.000000 1.000000
1.000000 1.000000 1.000000
1.000000 1.000000 1.000000
1.000000 1.000000 1.000000
1.000000 1.000000 1.000000
1.000000 1.000000 1.000000
1.000000 1.000000 1.000000
1.000000 1.000000 1.000000
1.000000 1.000000 1.000000
1.000000 1.000000 1.000000
1.000000 1.000000 1.000000
1.000000 1.000000 1.000000
1.000000 1.000000 1.000000
1.000000 1.000000 1.000000
1.000000 1.000000 1.000000
1.000000 1.000000 1.000000
0.869619 1.000000 1.000000
0.586949 0.919497 1.000000
0.263019 0.612761 1.000000
0.000000 0.257979 1.000000
0.000000 0.000000 1.000000
0.000000 0.000000 0.929958
0.000000 0.000000 0.592716
0.000000 0.000000 0.206338
0.000000 0.000000 0.000000
0.000000 0.000000 0.000000
0.000000 0.000000 0.000000
0.000000 0.000000 0.000000
0.000000 0.000000 0.000000
0.000000 0.000000 0.000000
1.000000 1.000000 1.000000
1.000000 1.000000 1.000000
1.000000 1.000000 1.000000
1.000000 1.000000 1.000000
1.000000 1.000000 1.000000
1.000000 1.000000 1.000000
1.000000 1.000000 1.000000
1.000000 1.000000 1.000000
1.000000 1.000000 1.000000
1.000000 1.000000 1.000000
1.000000 1.000000 1.000000
1.000000 1.000000 1.000000
1.000000 1.000000 1.000000
1.000000 1.000000 1.000000
1.000000 1.000000 1.000000
1.000000 1.000000 1.000000
1.000000 1.000000 1.000000
1.000000 1.000000 1.000000
1.000000 1.000000 1.000000
1.000000 1.000000 1.000000
1.000000 1.000000 1.000000
0.654594 0.798559 1.000000
0.258080 0.415773 1.000000
0.000000 0.000000 1.000000
0.000000 0.000000 1.000000
0.000000 0.000000 0.990889
0.000000 0.000000 0.589846
0.000000 0.000000 0.134720
0.000000 0.000000 0.000000
0.000000 0.000000 0.000000
0.000000 0.000000 0.000000
0.000000 0.000000 0.000000
0.000000 0.000000 0.000000
1.000000 1.000000 1.000000
1.000000 1.000000 1.000000
1.000000 1.000000 1.000000
1.000000 1.000000 1.000000
1.000000 1.000000 1.000000
1.000000 1.000000 1.000000
1.000000 1.000000 1.000000
1.000000 1.000000 1.000000
1.000000 1.000000 1.000000
1.000000 1.000000 1.000000
1.000000 1.000000 1.000000
1.000000 1.000000 1.000000
1.000000 1.000000 1.000000
1.000000 1.000000 1.000000
1.000000 1.000000 1.000000
1.000000 1.000000 1.000000
1.000000 1.000000 1.000000
1.000000 1.000000 1.000000
1.000000 1.000000 1.000000
1.000000 1.000000 1.000000
1.000000 1.000000 1.000000
1.000000 1.000000 1.000000
0.707862 0.615825 1.000000
0.230197 0.148023 1.000000
0.000000 0.000000 1.000000
0.000000 0.000000 1.000000
0.000000 0.000000 1.000000
