lrplugin/MindfulLensFilmEngine.lrplugin/profiles/luts/evproplus.cube
# Generated from ColorChecker fit
LUT_3D_SIZE 9
DOMAIN_MIN 0.0 0.0 0.0
DOMAIN_MAX 1.0 1.0 1.0
0.000000 0.000000 0.050726
0.000000 0.000000 0.010290
0.000000 0.000000 0.069469
0.000000 0.000000 0.187622
0.000000 0.000000 0.291430
0.000000 0.000000 0.274906
0.000000 0.000000 0.000000
0.000000 0.000000 0.000000
0.000000 0.000000 0.000000
0.000000 0.000000 0.393863
0.000000 0.000000 0.373791
0.000000 0.000000 0.455987
0.000000 0.059624 0.590078
0.081748 0.142450 0.693016
0.120863 0.113632 0.649082
0.000000 0.000000 0.309884
0.000000 0.000000 0.000000
0.000000 0.000000 0.000000
0.000000 0.000000 0.448514
0.000000 0.000000 0.442249
0.000000 0.076117 0.539582
0.000000 0.269311 0.680407
0.059547 0.382474 0.771946
0.014969 0.317902 0.688748
0.000000 0.000000 0.272692
0.000000 0.000000 0.000000
0.000000 0.000000 0.000000
0.000000 0.000000 0.385816
0.000000 0.000000 0.382871
0.000000 0.154071 0.483529
0.000000 0.391671 0.617952
0.000000 0.490888 0.683633
0.000000 0.338168 0.545389
0.000000 0.000000 0.035368
0.000000 0.000000 0.000000
0.000000 0.000000 0.000000
0.000000 0.000000 0.465694
0.000000 0.000000 0.451650
0.000000 0.344429 0.539891
0.000000 0.582243 0.650847
0.000000 0.615210 0.672280
0.000000 0.313925 0.459277
0.000000 0.000000 0.000000
0.000000 0.000000 0.000000
0.000000 0.000000 0.000000
0.315984 0.061639 1.000000
0.425396 0.503461 0.993368
0.507591 0.856674 1.000000
0.485487 1.000000 1.000000
0.245307 0.948877 1.000000
0.000000 0.430588 0.759471
0.000000 0.000000 0.000000
0.000000 0.000000 0.000000
0.000000 0.000000 0.000000
1.000000 1.000000 1.000000
1.000000 1.000000 1.000000
1.000000 1.000000 1.000000
1.000000 1.000000 1.000000
1.000000 1.000000 1.000000
0.586949 0.919497 1.000000
0.000000 0.000000 0.929958
0.000000 0.000000 0.000000
0.000000 0.000000 0.000000
1.000000 1.000000 1.000000
1.000000 1.000000 1.000000
1.000000 1.000000 1.000000
1.000000 1.000000 1.000000
1.000000 1.000000 1.000000
1.000000 1.000000 1.000000
0.754325 0.028143 1.000000
0.000000 0.000000 1.000000
0.000000 0.000000 0.000000
1.000000 1.000000 1.000000
1.000000 1.000000 1.000000
1.000000 1.000000 1.000000
1.000000 1.000000 1.000000
1.000000 1.000000 1.000000
1.000000 1.000000 1.000000
1.000000 1.000000 1.000000
0.471628 0.000000 1.000000
0.000000 0.000000 1.000000
0.288416 0.216598 0.000000
0.000000 0.000000 0.000000
0.000000 0.000000 0.000000
0.000000 0.000000 0.000000
0.000000 0.000000 0.000000
0.071568 0.000000 0.000000
0.207922 0.000000 0.000000
0.179098 0.000000 0.000000
0.000000 0.000000 0.000000
0.344036 0.251832 0.294111
0.156665 0.125378 0.175406
0.089732 0.055827 0.181421
0.142466 0.042139 0.278030
0.277402 0.050040 0.398436
0.420375 0.012021 0.443168
0.460525 0.000000 0.280086
0.250296 0.000000 0.000000
0.000000 0.000000 0.000000
0.179477 0.147681 0.395713
0.088936 0.168767 0.310739
0.098301 0.229848 0.353784
0.192407 0.314033 0.480990
0.319392 0.371196 0.615830
0.390697 0.317980 0.649103
0.281068 0.037795 0.438936
0.000000 0.000000 0.000000
0.000000 0.000000 0.000000
0.000000 0.033465 0.357459
0.000000 0.180741 0.292007
0.023319 0.342993 0.356548
0.122660 0.487477 0.497494
0.198253 0.548216 0.628588
0.147144 0.426004 0.630896
0.000000 0.000000 0.352816
0.000000 0.000000 0.000000
0.000000 0.000000 0.000000
0.017140 0.084425 0.435379
0.051209 0.328522 0.371308
0.122204 0.554460 0.437881
0.186170 0.713646 0.571781
0.162455 0.724254 0.677016
0.000000 0.471224 0.624924
0.000000 0.000000 0.254172
0.000000 0.000000 0.000000
0.000000 0.000000 0.000000
0.631486 0.521728 0.974288
0.684384 0.825251 0.889529
0.731761 1.000000 0.934740
0.715265 1.000000 1.000000
0.539851 1.000000 1.000000
0.073775 0.634691 0.956353
0.000000 0.000000 0.464238
0.000000 0.000000 0.000000
0.000000 0.000000 0.000000
1.000000 1.000000 1.000000
1.000000 1.000000 1.000000
1.000000 1.000000 1.000000
1.000000 1.000000 1.000000
1.000000 1.000000 1.000000
0.970105 1.000000 1.000000
0.000000 0.000000 1.000000
0.000000 0.000000 0.134293
0.000000 0.000000 0.000000
1.000000 1.000000 1.000000
1.000000 1.000000 1.000000
1.000000 1.000000 1.000000
1.000000 1.000000 1.000000
1.000000 1.000000 1.000000
1.000000 1.000000 1.000000
1.000000 0.423340 1.000000
0.000000 0.000000 1.000000
0.000000 0.000000 0.000000
1.000000 1.000000 1.000000
1.000000 1.000000 1.000000
1.000000 1.000000 1.000000
1.000000 1.000000 1.000000
1.000000 1.000000 1.000000
1.000000 1.000000 1.000000
1.000000 1.000000 1.000000
1.000000 0.000000 1.000000
0.000000 0.000000 1.000000
0.581431 0.583621 0.000000
0.161713 0.096544 0.000000
0.000000 0.000000 0.000000
0.000000 0.000000 0.000000
0.000000 0.000000 0.000000
0.118300 0.000000 0.000000
0.402867 0.000000 0.000000
0.631785 0.000000 0.000000
0.653927 0.000000 0.000000
0.651563 0.624126 0.311395
0.361635 0.313459 0.109076
0.207974 0.082962 0.038750
0.208541 0.000000 0.082543
0.344601 0.000000 0.189906
0.560722 0.000000 0.277621
0.764775 0.000000 0.229794
0.827932 0.000000 0.000000
0.584672 0.000000 0.000000
0.485633 0.517449 0.418552
0.306893 0.368462 0.267510
0.243844 0.284365 0.253730
0.300053 0.262612 0.349607
0.442389 0.267425 0.494862
0.601024 0.229793 0.596544
0.669434 0.047473 0.529029
0.504398 0.000000 0.134024
0.000000 0.000000 0.000000
0.264980 0.388546 0.361010
0.174353 0.378485 0.243314
0.171535 0.409923 0.266826
0.245699 0.464463 0.394208
0.349318 0.490475 0.555451
0.398171 0.403099 0.647873
0.271336 0.084241 0.536120
0.000000 0.000000 0.052167
0.000000 0.000000 0.000000
0.250332 0.408297 0.390904
0.220267 0.506386 0.284692
0.242824 0.614470 0.322309
0.292782 0.698302 0.456686
0.308218 0.690401 0.608084
0.190515 0.490055 0.664089
0.000000 0.000000 0.479617
0.000000 0.000000 0.000000
0.000000 0.000000 0.000000
0.781802 0.793501 0.849154
0.780272 0.960942 0.728634
0.788873 1.000000 0.753240
0.767988 1.000000 0.866174
0.641299 1.000000 0.977962
0.295795 0.667348 0.966463
0.000000 0.000000 0.676859
0.000000 0.000000 0.000000
0.000000 0.000000 0.000000
1.000000 1.000000 1.000000
1.000000 1.000000 1.000000
1.000000 1.000000 1.000000
1.000000 1.000000 1.000000
1.000000 1.000000 1.000000
1.000000 1.000000 1.000000
0.000000 0.000000 1.000000
0.000000 0.000000 0.588624
0.000000 0.000000 0.000000
1.000000 1.000000 1.000000
1.000000 1.000000 1.000000
1.000000 1.000000 1.000000
1.000000 1.000000 1.000000
1.000000 1.000000 1.000000
1.000000 1.000000 1.000000
1.000000 0.570691 1.000000
0.000000 0.000000 1.000000
0.000000 0.000000 0.387773
1.000000 1.000000 1.000000
1.000000 1.000000 1.000000
1.000000 1.000000 1.000000
1.000000 1.000000 1.000000
1.000000 1.000000 1.000000
1.000000 1.000000 1.000000
1.000000 1.000000 1.000000
1.000000 0.000000 1.000000
0.000000 0.000000 1.000000
0.849893 0.893132 0.000000
0.309612 0.216803 0.000000
0.000000 0.000000 0.000000
0.000000 0.000000 0.000000
0.000000 0.000000 0.000000
0.069572 0.000000 0.000000
0.470044 0.000000 0.000000
0.918354 0.000000 0.000000
1.000000 0.000000 0.000000
0.933554 0.935708 0.399366
0.541128 0.451433 0.137899
0.294757 0.071171 0.000525
0.231133 0.000000 0.000000
0.350251 0.000000 0.058881
0.615411 0.000000 0.153343
0.953214 0.000000 0.169363
1.000000 0.000000 0.000000
1.000000 0.000000 0.000000
0.760089 0.818053 0.494373
0.495367 0.509698 0.299353
0.356080 0.291706 0.235665
0.364524 0.175877 0.291952
0.506301 0.140780 0.424186
0.730314 0.131749 0.555665
0.948769 0.060889 0.577017
1.000000 0.000000 0.346196
0.834351 0.000000 0.000000
0.505199 0.660761 0.397502
0.343554 0.504169 0.247276
0.279418 0.416176 0.234297
0.320694 0.392734 0.337477
0.438587 0.396560 0.503057
0.567605 0.357139 0.644605
0.605561 0.170723 0.643016
0.413568 0.000000 0.346515
0.000000 0.000000 0.000000
0.423968 0.630347 0.356994
0.336298 0.593336 0.225978
0.310907 0.595051 0.236800
0.341303 0.615591 0.358641
0.384294 0.601822 0.528012
0.359995 0.467380 0.648749
0.151822 0.092666 0.592016
0.000000 0.000000 0.196308
0.000000 0.000000 0.000000
0.850865 0.939246 0.709872
0.803595 0.981614 0.568552
0.776067 1.000000 0.572337
0.747395 1.000000 0.680679
0.659992 0.936913 0.820354
0.419579 0.634797 0.885471
0.000000 0.000000 0.737461
0.000000 0.000000 0.205088
0.000000 0.000000 0.000000
1.000000 1.000000 1.000000
1.000000 1.000000 1.000000
1.000000 1.000000 1.000000
1.000000 1.000000 1.000000
1.000000 1.000000 1.000000
1.000000 1.000000 1.000000
0.222627 0.076008 1.000000
0.000000 0.000000 0.771156
0.000000 0.000000 0.000000
1.000000 1.000000 1.000000
1.000000 1.000000 1.000000
1.000000 1.000000 1.000000
1.000000 1.000000 1.000000
1.000000 1.000000 1.000000
1.000000 1.000000 1.000000
1.000000 0.603777 1.000000
0.000000 0.000000 1.000000
0.000000 0.000000 0.745323
1.000000 1.000000 1.000000
1.000000 1.000000 1.000000
1.000000 1.000000 1.000000
1.000000 1.000000 1.000000
1.000000 1.000000 1.000000
1.000000 1.000000 1.000000
1.000000 1.000000 1.000000
1.000000 0.000000 1.000000
0.000000 0.000000 1.000000
1.000000 1.000000 0.024491
0.437566 0.296333 0.000000
0.000000 0.000000 0.000000
0.000000 0.000000 0.000000
0.000000 0.000000 0.000000
0.000000 0.000000 0.000000
0.449168 0.000000 0.000000
1.000000 0.000000 0.000000
1.000000 0.000000 0.000000
1.000000 1.000000 0.490282
0.712708 0.554855 0.203585
0.374246 0.044800 0.017905
0.241008 0.000000 0.000000
0.331720 0.000000 0.000000
0.628412 0.000000 0.049847
1.000000 0.000000 0.087753
1.000000 0.000000 0.000000
1.000000 0.000000 0.000000
1.000000 1.000000 0.579126
0.682783 0.617308 0.371669
0.470033 0.285494 0.274438
0.427448 0.096240 0.292326
0.559358 0.042461 0.397554
0.833399 0.083839 0.529671
1.000000 0.146824 0.595552
1.000000 0.124635 0.469403
1.000000 0.000000 0.000000
0.735061 0.875428 0.446578
0.513374 0.591899 0.292986
0.392853 0.404651 0.257505
0.400133 0.323979 0.335297
0.525148 0.326948 0.488852
0.721139 0.357390 0.647988
0.904649 0.325903 0.709850
0.955522 0.109855 0.538912
0.716909 0.000000 0.000000
0.581588 0.785170 0.336982
0.449447 0.632755 0.207949
0.383199 0.548376 0.203588
0.395080 0.526477 0.309331
0.460633 0.528272 0.477936
0.518701 0.481743 0.629489
0.471433 0.281637 0.651407
0.184280 0.000000 0.398431
0.000000 0.000000 0.000000
0.893078 1.000000 0.583468
0.815357 0.939927 0.445758
0.760947 0.908697 0.437958
0.727693 0.887739 0.535767
0.676740 0.822416 0.682214
0.532538 0.624859 0.787654
0.182840 0.173964 0.729772
0.000000 0.000000 0.353579
0.000000 0.000000 0.000000
1.000000 1.000000 1.000000
1.000000 1.000000 1.000000
1.000000 1.000000 1.000000
1.000000 1.000000 1.000000
1.000000 1.000000 1.000000
1.000000 1.000000 1.000000
0.420233 0.208744 1.000000
0.000000 0.000000 0.798760
0.000000 0.000000 0.000000
1.000000 1.000000 1.000000
1.000000 1.000000 1.000000
1.000000 1.000000 1.000000
1.000000 1.000000 1.000000
1.000000 1.000000 1.000000
1.000000 1.000000 1.000000
1.000000 0.637761 1.000000
0.000000 0.000000 1.000000
0.000000 0.000000 0.839042
1.000000 1.000000 1.000000
1.000000 1.000000 1.000000
1.000000 1.000000 1.000000
1.000000 1.000000 1.000000
1.000000 1.000000 1.000000
1.000000 1.000000 1.000000
1.000000 1.000000 1.000000
1.000000 0.000000 1.000000
0.000000 0.000000 1.000000
1.000000 1.000000 0.000000
0.522746 0.322993 0.000000
0.000000 0.000000 0.000000
0.000000 0.000000 0.000000
0.000000 0.000000 0.000000
0.000000 0.000000 0.000000
0.350418 0.000000 0.000000
1.000000 0.000000 0.000000
1.000000 0.000000 0.000000
1.000000 1.000000 0.495009
0.864405 0.620861 0.226451
0.441075 0.009774 0.020659
0.239402 0.000000 0.000000
0.296845 0.000000 0.000000
0.614163 0.000000 0.000000
1.000000 0.000000 0.000000
1.000000 0.064757 0.000000
1.000000 0.394366 0.000000
1.000000 1.000000 0.607369
0.868031 0.697704 0.428467
0.591197 0.280930 0.323510
0.500918 0.047692 0.313639
0.620256 0.005250 0.387327
0.935576 0.127634 0.500371
1.000000 0.355640 0.575897
1.000000 0.596833 0.504359
1.000000 0.725544 0.143540
0.957714 1.000000 0.466487
0.693562 0.657366 0.348144
0.528192 0.399825 0.313600
0.506968 0.291465 0.374268
0.638557 0.323698 0.508887
0.894930 0.454700 0.663524
1.000000 0.609419 0.751575
1.000000 0.679567 0.653762
1.000000 0.523625 0.218138
0.737201 0.888943 0.312811
0.580324 0.649611 0.221999
0.486909 0.508201 0.223517
0.487927 0.473506 0.319048
0.577649 0.521086 0.477598
0.713651 0.593268 0.635506
0.816811 0.599148 0.696434
0.771312 0.414587 0.531376
0.424638 0.000000 0.000000
0.933308 1.000000 0.475575
0.847027 0.870124 0.375336
0.781585 0.793722 0.374635
0.753556 0.773456 0.465422
0.742818 0.769034 0.606975
0.692550 0.706934 0.725900
0.509237 0.480400 0.716129
0.062665 0.000000 0.438924
0.000000 0.000000 0.000000
1.000000 1.000000 1.000000
1.000000 1.000000 1.000000
1.000000 1.000000 1.000000
1.000000 1.000000 1.000000
1.000000 1.000000 1.000000
1.000000 1.000000 1.000000
0.664359 0.454674 1.000000
0.000000 0.000000 0.766915
0.000000 0.000000 0.000000
1.000000 1.000000 1.000000
1.000000 1.000000 1.000000
1.000000 1.000000 1.000000
1.000000 1.000000 1.000000
1.000000 1.000000 1.000000
1.000000 1.000000 1.000000
1.000000 0.769386 1.000000
0.229141 0.000000 1.000000
0.000000 0.000000 0.797551
1.000000 1.000000 1.000000
1.000000 1.000000 1.000000
1.000000 1.000000 1.000000
1.000000 1.000000 1.000000
1.000000 1.000000 1.000000
1.000000 1.000000 1.000000
1.000000 1.000000 1.000000
1.000000 0.000000 1.000000
0.000000 0.000000 1.000000
1.000000 1.000000 0.000000
0.512788 0.266226 0.000000
0.000000 0.000000 0.000000
0.000000 0.000000 0.000000
0.000000 0.000000 0.000000
0.000000 0.000000 0.000000
0.154440 0.000000 0.000000
1.000000 0.000000 0.000000
1.000000 0.164565 0.000000
1.000000 1.000000 0.303022
0.954717 0.628169 0.105422
0.460341 0.000000 0.000000
0.198015 0.000000 0.000000
0.223927 0.000000 0.000000
0.557569 0.000000 0.000000
1.000000 0.000000 0.000000
1.000000 0.576980 0.000000
1.000000 1.000000 0.000000
1.000000 1.000000 0.492269
1.000000 0.738882 0.392364
0.695530 0.274800 0.314947
0.567495 0.035808 0.297410
0.678156 0.043512 0.344473
1.000000 0.286289 0.428184
1.000000 0.719281 0.487920
1.000000 1.000000 0.430384
1.000000 1.000000 0.129608
1.000000 1.000000 0.394087
0.864335 0.697842 0.359058
0.672253 0.407762 0.358342
0.634620 0.310045 0.419600
0.778836 0.410450 0.537821
1.000000 0.681502 0.675324
1.000000 1.000000 0.761751
1.000000 1.000000 0.694078
1.000000 1.000000 0.336603
0.875281 0.939424 0.245029
0.720004 0.650451 0.238126
0.619718 0.489865 0.276037
0.624124 0.480806 0.376693
0.746225 0.613181 0.525352
0.962328 0.843664 0.674600
1.000000 1.000000 0.744351
1.000000 1.000000 0.621847
1.000000 1.000000 0.161658
0.966889 0.966938 0.370434
0.900542 0.788030 0.350978
0.846519 0.704411 0.385513
0.840124 0.723369 0.482239
0.879967 0.818960 0.616683
0.927958 0.932008 0.731701
0.909312 0.970103 0.737476
0.712547 0.807603 0.511518
0.189484 0.285635 0.000000
1.000000 1.000000 1.000000
1.000000 1.000000 1.000000
1.000000 1.000000 1.000000
1.000000 1.000000 1.000000
1.000000 1.000000 1.000000
1.000000 1.000000 1.000000
1.000000 0.882846 1.000000
0.334509 0.292944 0.749708
0.000000 0.000000 0.000000
1.000000 1.000000 1.000000
1.000000 1.000000 1.000000
1.000000 1.000000 1.000000
1.000000 1.000000 1.000000
1.000000 1.000000 1.000000
1.000000 1.000000 1.000000
1.000000 1.000000 1.000000
0.709157 0.000000 1.000000
0.000000 0.000000 0.728081
1.000000 1.000000 1.000000
1.000000 1.000000 1.000000
1.000000 1.000000 1.000000
1.000000 1.000000 1.000000
1.000000 1.000000 1.000000
1.000000 1.000000 1.000000
1.000000 1.000000 1.000000
1.000000 0.061346 1.000000
0.000000 0.000000 1.000000
1.000000 1.000000 0.000000
0.325795 0.077055 0.000000
0.000000 0.000000 0.000000
0.000000 0.000000 0.000000
0.000000 0.000000 0.000000
0.000000 0.000000 0.000000
0.000000 0.000000 0.000000
0.886760 0.000000 0.000000
1.000000 1.000000 0.000000
1.000000 1.000000 0.000000
0.912606 0.537081 0.000000
0.367611 0.000000 0.000000
0.059014 0.000000 0.000000
0.061737 0.000000 0.000000
0.414001 0.000000 0.000000
1.000000 0.332485 0.000000
1.000000 1.000000 0.000000
1.000000 1.000000 0.000000
1.000000 1.000000 0.125599
1.000000 0.710418 0.164585
0.729457 0.245471 0.159426
0.580206 0.047745 0.163764
0.692688 0.153194 0.198569
1.000000 0.564540 0.252139
1.000000 1.000000 0.280100
1.000000 1.000000 0.205406
1.000000 1.000000 0.000000
1.000000 1.000000 0.144844
0.976376 0.692180 0.250645
0.782321 0.416103 0.326097
0.746977 0.376152 0.415111
0.916474 0.592429 0.528925
1.000000 1.000000 0.646106
1.000000 1.000000 0.712550
1.000000 1.000000 0.641478
1.000000 1.000000 0.313442
0.950769 0.915954 0.072794
0.830030 0.623405 0.204940
0.749769 0.490287 0.319208
0.778417 0.554087 0.449777
0.947709 0.819057 0.598157
1.000000 1.000000 0.733182
1.000000 1.000000 0.791017
1.000000 1.000000 0.675154
1.000000 1.000000 0.256412
0.959621 0.863103 0.230894
0.948304 0.691050 0.344983
0.934752 0.646960 0.452341
0.973003 0.752466 0.577417
1.000000 0.995971 0.711988
1.000000 1.000000 0.815161
1.000000 1.000000 0.813366
1.000000 1.000000 0.600366
1.000000 1.000000 0.037248
1.000000 1.000000 1.000000
1.000000 1.000000 1.000000
1.000000 1.000000 1.000000
1.000000 1.000000 1.000000
1.000000 1.000000 1.000000
1.000000 1.000000 1.000000
1.000000 1.000000 1.000000
1.000000 1.000000 0.799833
0.283050 0.862476 0.034741
1.000000 1.000000 1.000000
1.000000 1.000000 1.000000
1.000000 1.000000 1.000000
1.000000 1.000000 1.000000
1.000000 1.000000 1.000000
1.000000 1.000000 1.000000
1.000000 1.000000 1.000000
1.000000 0.948305 1.000000
0.000000 0.000000 0.716467
1.000000 1.000000 1.000000
1.000000 1.000000 1.000000
1.000000 1.000000 1.000000
1.000000 1.000000 1.000000
1.000000 1.000000 1.000000
1.000000 1.000000 1.000000
1.000000 1.000000 1.000000
1.000000 0.888865 1.000000
0.551804 0.000000 1.000000
0.793825 0.845490 0.000000
0.000000 0.000000 0.000000
0.000000 0.000000 0.000000
0.000000 0.000000 0.000000
0.000000 0.000000 0.000000
0.000000 0.000000 0.000000
0.000000 0.000000 0.000000
0.446801 0.428850 0.000000
1.000000 1.000000 0.000000
1.000000 1.000000 0.000000
0.637503 0.289478 0.000000
0.068914 0.000000 0.000000
0.000000 0.000000 0.000000
0.000000 0.000000 0.000000
0.109294 0.000000 0.000000
0.894649 0.829117 0.000000
1.000000 1.000000 0.000000
1.000000 1.000000 0.000000
1.000000 1.000000 0.000000
0.956663 0.563471 0.000000
0.609868 0.152891 0.000000
0.462544 0.052242 0.000000
0.593947 0.311824 0.000000
1.000000 0.948706 0.000000
1.000000 1.000000 0.000000
1.000000 1.000000 0.000000
1.000000 1.000000 0.000000
1.000000 1.000000 0.000000
0.950833 0.600816 0.000000
0.786147 0.394076 0.129841
0.778390 0.467800 0.283226
0.992425 0.856439 0.414073
1.000000 1.000000 0.517198
1.000000 1.000000 0.554747
1.000000 1.000000 0.456192
1.000000 1.000000 0.118332
0.889072 0.779455 0.000000
0.842412 0.538186 0.049657
0.815673 0.487970 0.289695
0.896019 0.680640 0.484417
1.000000 1.000000 0.651581
1.000000 1.000000 0.776272
1.000000 1.000000 0.810904
1.000000 1.000000 0.675218
1.000000 1.000000 0.256284
0.847773 0.668416 0.000000
0.933182 0.558175 0.308260
0.995757 0.609147 0.535477
1.000000 0.857314 0.720766
1.000000 1.000000 0.872151
1.000000 1.000000 0.964989
1.000000 1.000000 0.941961
1.000000 1.000000 0.713078
1.000000 1.000000 0.155678
1.000000 0.923762 0.872792
1.000000 0.889301 1.000000
1.000000 0.978101 1.000000
1.000000 1.000000 1.000000
1.000000 1.000000 1.000000
1.000000 1.000000 1.000000
1.000000 1.000000 1.000000
1.000000 1.000000 0.948595
1.000000 1.000000 0.191408
1.000000 1.000000 1.000000
1.000000 1.000000 1.000000
1.000000 1.000000 1.000000
1.000000 1.000000 1.000000
1.000000 1.000000 1.000000
1.000000 1.000000 1.000000
1.000000 1.000000 1.000000
1.000000 1.000000 1.000000
1.000000 1.000000 0.827156
1.000000 1.000000 1.000000
1.000000 1.000000 1.000000
1.000000 1.000000 1.000000
1.000000 1.000000 1.000000
1.000000 1.000000 1.000000
1.000000 1.000000 1.000000
1.000000 1.000000 1.000000
1.000000 1.000000 1.000000
1.000000 0.733776 1.000000
