lrplugin/MindfulLensFilmEngine.lrplugin/profiles/luts/evproplus.cube
# Generated from ColorChecker fit
LUT_3D_SIZE 5
DOMAIN_MIN 0.0 0.0 0.0
DOMAIN_MAX 1.0 1.0 1.0
0.000000 0.000000 0.050726
0.000000 0.000000 0.069469
0.000000 0.000000 0.291430
0.000000 0.000000 0.000000
0.000000 0.000000 0.000000
0.000000 0.000000 0.448514
0.000000 0.076117 0.539582
0.059547 0.382474 0.771946
0.000000 0.000000 0.272692
0.000000 0.000000 0.000000
0.000000 0.000000 0.465694
0.000000 0.344429 0.539891
0.000000 0.615210 0.672280
0.000000 0.000000 0.000000
0.000000 0.000000 0.000000
1.000000 1.000000 1.000000
1.000000 1.000000 1.000000
1.000000 1.000000 1.000000
0.000000 0.000000 0.929958
0.000000 0.000000 0.000000
1.000000 1.000000 1.000000
1.000000 1.000000 1.000000
1.000000 1.000000 1.000000
1.000000 1.000000 1.000000
0.000000 0.000000 1.000000
0.581431 0.583621 0.000000
0.000000 0.000000 0.000000
0.000000 0.000000 0.000000
0.402867 0.000000 0.000000
0.653927 0.000000 0.000000
0.485633 0.517449 0.418552
0.243844 0.284365 0.253730
0.442389 0.267425 0.494862
0.669434 0.047473 0.529029
0.000000 0.000000 0.000000
0.250332 0.408297 0.390904
0.242824 0.614470 0.322309
0.308218 0.690401 0.608084
0.000000 0.000000 0.479617
0.000000 0.000000 0.000000
1.000000 1.000000 1.000000
1.000000 1.000000 1.000000
1.000000 1.000000 1.000000
0.000000 0.000000 1.000000
0.000000 0.000000 0.000000
1.000000 1.000000 1.000000
1.000000 1.000000 1.000000
1.000000 1.000000 1.000000
1.000000 1.000000 1.000000
0.000000 0.000000 1.000000
1.000000 1.000000 0.024491
0.000000 0.000000 0.000000
0.000000 0.000000 0.000000
0.449168 0.000000 0.000000
1.000000 0.000000 0.000000
1.000000 1.000000 0.579126
0.470033 0.285494 0.274438
0.559358 0.042461 0.397554
1.000000 0.146824 0.595552
1.000000 0.000000 0.000000
0.581588 0.785170 0.336982
0.383199 0.548376 0.203588
0.460633 0.528272 0.477936
0.471433 0.281637 0.651407
0.000000 0.000000 0.000000
1.000000 1.000000 1.000000
1.000000 1.000000 1.000000
1.000000 1.000000 1.000000
0.420233 0.208744 1.000000
0.000000 0.000000 0.000000
1.000000 1.000000 1.000000
1.000000 1.000000 1.000000
1.000000 1.000000 1.000000
1.000000 1.000000 1.000000
0.000000 0.000000 1.000000
1.000000 1.000000 0.000000
0.000000 0.000000 0.000000
0.000000 0.000000 0.000000
0.154440 0.000000 0.000000
1.000000 0.164565 0.000000
1.000000 1.000000 0.492269
0.695530 0.274800 0.314947
0.678156 0.043512 0.344473
1.000000 0.719281 0.487920
1.000000 1.000000 0.129608
0.875281 0.939424 0.245029
0.619718 0.489865 0.276037
0.746225 0.613181 0.525352
1.000000 1.000000 0.744351
1.000000 1.000000 0.161658
1.000000 1.000000 1.000000
1.000000 1.000000 1.000000
1.000000 1.000000 1.000000
1.000000 0.882846 1.000000
0.000000 0.000000 0.000000
1.000000 1.000000 1.000000
1.000000 1.000000 1.000000
1.000000 1.000000 1.000000
1.000000 1.000000 1.000000
0.000000 0.000000 1.000000
0.793825 0.845490 0.000000
0.000000 0.000000 0.000000
0.000000 0.000000 0.000000
0.000000 0.000000 0.000000
1.000000 1.000000 0.000000
1.000000 1.000000 0.000000
0.609868 0.152891 0.000000
0.593947 0.311824 0.000000
1.000000 1.000000 0.000000
1.000000 1.000000 0.000000
0.889072 0.779455 0.000000
0.815673 0.487970 0.289695
1.000000 1.000000 0.651581
1.000000 1.000000 0.810904
1.000000 1.000000 0.256284
1.000000 0.923762 0.872792
1.000000 0.978101 1.000000
1.000000 1.000000 1.000000
1.000000 1.000000 1.000000
1.000000 1.000000 0.191408
1.000000 1.000000 1.000000
1.000000 1.000000 1.000000
1.000000 1.000000 1.000000
1.000000 1.000000 1.000000
1.000000 0.733776 1.000000
