lrplugin/MindfulLensFilmEngine.lrplugin/profiles/luts/fuji_provia_rx.cube
# Generated from ColorChecker fit
LUT_3D_SIZE 9
DOMAIN_MIN 0.0 0.0 0.0
DOMAIN_MAX 1.0 1.0 1.0
0.189604 0.047765 0.242433
0.073774 0.029816 0.269950
0.070360 0.080977 0.398228
0.149503 0.173893 0.565582
0.234837 0.241124 0.670144
0.203488 0.175145 0.569860
0.000000 0.000000 0.082495
0.000000 0.000000 0.000000
0.000000 0.000000 0.000000
0.124760 0.000000 0.262903
0.061371 0.031298 0.271018
0.087850 0.151153 0.383826
0.165315 0.282331 0.538140
0.208374 0.348168 0.630590
0.085127 0.231915 0.517620
0.000000 0.000000 0.015491
0.000000 0.000000 0.000000
0.000000 0.000000 0.000000
0.019079 0.000000 0.269677
0.000000 0.057698 0.266454
0.041209 0.242942 0.371018
0.098858 0.403388 0.518681
0.077177 0.453147 0.604569
0.000000 0.266245 0.483624
0.000000 0.000000 0.000000
0.000000 0.000000 0.000000
0.000000 0.000000 0.000000
0.063982 0.000000 0.377930
0.077733 0.168291 0.371595
0.123280 0.414899 0.475304
0.143688 0.594900 0.622865
0.035517 0.613178 0.707902
0.000000 0.334535 0.583857
0.000000 0.000000 0.063984
0.000000 0.000000 0.000000
0.000000 0.000000 0.000000
0.530613 0.096758 0.772439
0.570487 0.449846 0.771380
0.606632 0.753079 0.881784
0.573088 0.942203 1.000000
0.357387 0.912880 1.000000
0.000000 0.520685 1.000000
0.000000 0.000000 0.481380
0.000000 0.000000 0.000000
0.000000 0.000000 0.000000
1.000000 0.568414 1.000000
1.000000 1.000000 1.000000
1.000000 1.000000 1.000000
1.000000 1.000000 1.000000
1.000000 1.000000 1.000000
0.644886 0.936091 1.000000
0.000000 0.000000 1.000000
0.000000 0.000000 0.321545
0.000000 0.000000 0.000000
1.000000 1.000000 1.000000
1.000000 1.000000 1.000000
1.000000 1.000000 1.000000
1.000000 1.000000 1.000000
1.000000 1.000000 1.000000
1.000000 1.000000 1.000000
0.942772 0.317245 1.000000
0.000000 0.000000 1.000000
0.000000 0.000000 0.147793
1.000000 1.000000 1.000000
1.000000 1.000000 1.000000
1.000000 1.000000 1.000000
1.000000 1.000000 1.000000
1.000000 1.000000 1.000000
1.000000 1.000000 1.000000
1.000000 1.000000 1.000000
1.000000 0.000000 1.000000
0.000000 0.000000 1.000000
1.000000 1.000000 1.000000
1.000000 1.000000 1.000000
1.000000 1.000000 1.000000
1.000000 1.000000 1.000000
1.000000 1.000000 1.000000
1.000000 1.000000 1.000000
1.000000 1.000000 1.000000
1.000000 0.000000 1.000000
1.000000 0.000000 1.000000
0.325291 0.306471 0.172158
0.152006 0.154232 0.138220
0.118430 0.102473 0.230528
0.210041 0.133347 0.403759
0.365810 0.188926 0.572408
0.478200 0.171192 0.610785
0.393167 0.000000 0.353017
0.000000 0.000000 0.000000
0.000000 0.000000 0.000000
0.299218 0.257478 0.255351
0.189288 0.201066 0.215293
0.195027 0.223707 0.302830
0.292887 0.298333 0.471135
0.412814 0.357787 0.633202
0.438246 0.294830 0.661839
0.206113 0.000000 0.389668
0.000000 0.000000 0.000000
0.000000 0.000000 0.000000
0.185971 0.209153 0.271285
0.128370 0.249814 0.229939
0.158070 0.342414 0.316697
0.242500 0.450658 0.483232
0.302579 0.498166 0.641035
0.212721 0.368473 0.661409
0.000000 0.000000 0.375478
0.000000 0.000000 0.000000
0.000000 0.000000 0.000000
0.171403 0.220589 0.330128
0.155816 0.358852 0.292488
0.194838 0.516249 0.382624
0.246871 0.647260 0.550706
0.223809 0.666282 0.706724
0.000000 0.447624 0.720478
0.000000 0.000000 0.421589
0.000000 0.000000 0.000000
0.000000 0.000000 0.000000
0.521088 0.378374 0.611656
0.537915 0.614050 0.582877
0.572330 0.830366 0.680708
0.573711 0.972577 0.853818
0.444927 0.945853 1.000000
0.042342 0.615282 1.000000
0.000000 0.000000 0.708749
0.000000 0.000000 0.000000
0.000000 0.000000 0.000000
1.000000 0.796598 1.000000
1.000000 1.000000 1.000000
1.000000 1.000000 1.000000
1.000000 1.000000 1.000000
1.000000 1.000000 1.000000
0.715485 0.981944 1.000000
0.000000 0.000000 1.000000
0.000000 0.000000 0.624163
0.000000 0.000000 0.000000
1.000000 1.000000 1.000000
1.000000 1.000000 1.000000
1.000000 1.000000 1.000000
1.000000 1.000000 1.000000
1.000000 1.000000 1.000000
1.000000 1.000000 1.000000
0.995792 0.412785 1.000000
0.000000 0.000000 1.000000
0.000000 0.000000 0.504070
1.000000 1.000000 1.000000
1.000000 1.000000 1.000000
1.000000 1.000000 1.000000
1.000000 1.000000 1.000000
1.000000 1.000000 1.000000
1.000000 1.000000 1.000000
1.000000 1.000000 1.000000
1.000000 0.000000 1.000000
0.000000 0.000000 1.000000
1.000000 1.000000 1.000000
1.000000 1.000000 1.000000
1.000000 1.000000 1.000000
1.000000 1.000000 1.000000
1.000000 1.000000 1.000000
1.000000 1.000000 1.000000
1.000000 1.000000 1.000000
1.000000 0.000000 1.000000
1.000000 0.000000 1.000000
0.482895 0.496590 0.172966
0.236995 0.207310 0.073519
0.153499 0.049965 0.113530
0.233225 0.016218 0.264040
0.430479 0.057650 0.455904
0.653061 0.085755 0.579797
0.762264 0.000000 0.486208
0.572872 0.000000 0.000000
0.000000 0.000000 0.000000
0.483526 0.474075 0.294303
0.313514 0.285393 0.203124
0.280373 0.207001 0.250167
0.375893 0.221339 0.404969
0.545356 0.270762 0.596886
0.687539 0.257539 0.715089
0.654707 0.043855 0.608564
0.252620 0.000000 0.086115
0.000000 0.000000 0.000000
0.347554 0.429775 0.295917
0.240861 0.341800 0.214604
0.241180 0.336781 0.269439
0.331273 0.387933 0.428458
0.447400 0.428387 0.619512
0.479308 0.351187 0.730271
0.270241 0.009293 0.608219
0.000000 0.000000 0.060657
0.000000 0.000000 0.000000
0.255262 0.421883 0.282973
0.200034 0.434006 0.213288
0.217629 0.496061 0.276838
0.281788 0.572040 0.440158
0.319742 0.585846 0.629596
0.212215 0.421301 0.731320
0.000000 0.000000 0.591311
0.000000 0.000000 0.015368
0.000000 0.000000 0.000000
0.466658 0.536090 0.430241
0.451750 0.646984 0.374107
0.471153 0.769097 0.447458
0.489581 0.857195 0.615325
0.425240 0.825959 0.802557
0.149829 0.549983 0.893817
0.000000 0.000000 0.733585
0.000000 0.000000 0.126156
0.000000 0.000000 0.000000
1.000000 0.885584 0.982097
1.000000 1.000000 0.941598
1.000000 1.000000 1.000000
1.000000 1.000000 1.000000
1.000000 1.000000 1.000000
0.635441 0.846830 1.000000
0.000000 0.000000 1.000000
0.000000 0.000000 0.638531
0.000000 0.000000 0.000000
1.000000 1.000000 1.000000
1.000000 1.000000 1.000000
1.000000 1.000000 1.000000
1.000000 1.000000 1.000000
1.000000 1.000000 1.000000
1.000000 1.000000 1.000000
0.850303 0.296448 1.000000
0.000000 0.000000 1.000000
0.000000 0.000000 0.477415
1.000000 1.000000 1.000000
1.000000 1.000000 1.000000
1.000000 1.000000 1.000000
1.000000 1.000000 1.000000
1.000000 1.000000 1.000000
1.000000 1.000000 1.000000
1.000000 1.000000 1.000000
0.981744 0.000000 1.000000
0.000000 0.000000 1.000000
1.000000 1.000000 1.000000
1.000000 1.000000 1.000000
1.000000 1.000000 1.000000
1.000000 1.000000 1.000000
1.000000 1.000000 1.000000
1.000000 1.000000 1.000000
1.000000 1.000000 1.000000
1.000000 0.000000 1.000000
0.915684 0.000000 1.000000
0.655046 0.625351 0.211869
0.329925 0.211806 0.054531
0.185311 0.000000 0.037589
0.237354 0.000000 0.148447
0.455700 0.000000 0.334325
0.763485 0.003698 0.502260
1.000000 0.018421 0.519103
1.000000 0.000000 0.211523
0.757231 0.000000 0.000000
0.691327 0.627796 0.370808
0.456247 0.318464 0.237229
0.374644 0.150745 0.240227
0.453647 0.116589 0.365702
0.653873 0.167859 0.559372
0.889435 0.216335 0.726771
1.000000 0.133710 0.733249
0.890475 0.000000 0.403972
0.251639 0.000000 0.000000
0.538482 0.585414 0.358659
0.379332 0.379268 0.247206
0.342306 0.287182 0.267671
0.425504 0.291881 0.404453
0.580522 0.336004 0.601767
0.712446 0.322106 0.763645
0.679854 0.112656 0.753934
0.294819 0.000000 0.396298
0.000000 0.000000 0.000000
0.371228 0.555501 0.275585
0.274610 0.450794 0.184786
0.264436 0.426904 0.220409
0.329780 0.457333 0.365350
0.413213 0.475493 0.562322
0.410795 0.374716 0.713855
0.172081 0.008245 0.682293
0.000000 0.000000 0.289798
0.000000 0.000000 0.000000
0.444002 0.622848 0.291351
0.397232 0.617115 0.219896
0.396898 0.653268 0.268530
0.423051 0.695581 0.418644
0.409234 0.668245 0.611452
0.242484 0.455365 0.747978
0.000000 0.000000 0.689066
0.000000 0.000000 0.255374
0.000000 0.000000 0.000000
1.000000 0.899744 0.645327
1.000000 0.989803 0.592071
1.000000 1.000000 0.651729
1.000000 1.000000 0.804195
0.905595 1.000000 0.989175
0.545235 0.672754 1.000000
0.000000 0.000000 1.000000
0.000000 0.000000 0.533532
0.000000 0.000000 0.000000
1.000000 1.000000 1.000000
1.000000 1.000000 1.000000
1.000000 1.000000 1.000000
1.000000 1.000000 1.000000
1.000000 1.000000 1.000000
1.000000 1.000000 1.000000
0.676356 0.137195 1.000000
0.000000 0.000000 1.000000
0.000000 0.000000 0.272420
1.000000 1.000000 1.000000
1.000000 1.000000 1.000000
1.000000 1.000000 1.000000
1.000000 1.000000 1.000000
1.000000 1.000000 1.000000
1.000000 1.000000 1.000000
1.000000 0.779170 1.000000
0.715178 0.000000 1.000000
0.000000 0.000000 1.000000
1.000000 1.000000 1.000000
1.000000 1.000000 1.000000
1.000000 1.000000 1.000000
1.000000 1.000000 1.000000
1.000000 1.000000 1.000000
1.000000 1.000000 1.000000
1.000000 1.000000 1.000000
1.000000 0.000000 1.000000
0.548284 0.000000 1.000000
0.795578 0.681418 0.216854
0.393191 0.171910 0.020910
0.184815 0.000000 0.000000
0.201937 0.000000 0.019977
0.429539 0.000000 0.182336
0.806094 0.000000 0.364507
1.000000 0.163312 0.449705
1.000000 0.182976 0.280960
1.000000 0.000000 0.000000
0.897468 0.718732 0.436886
0.600892 0.315898 0.281299
0.469805 0.086086 0.248369
0.526669 0.030755 0.340362
0.747442 0.111277 0.519358
1.000000 0.248943 0.707254
1.000000 0.324956 0.785763
1.000000 0.180434 0.596413
1.000000 0.000000 0.000000
0.754617 0.687591 0.435568
0.548201 0.389267 0.315470
0.474425 0.236192 0.310788
0.546727 0.220602 0.422284
0.732039 0.294645 0.610535
0.950783 0.370386 0.795937
1.000000 0.319802 0.858699
0.937726 0.000000 0.638849
0.314234 0.000000 0.000000
0.536174 0.644391 0.308056
0.404978 0.447692 0.218744
0.369247 0.362781 0.236766
0.433395 0.372668 0.361384
0.555327 0.420279 0.551673
0.646443 0.408451 0.726524
0.571631 0.199939 0.764646
0.149276 0.000000 0.504563
0.000000 0.000000 0.000000
0.491008 0.673024 0.219112
0.420805 0.574348 0.156043
0.404566 0.548309 0.191391
0.437680 0.568693 0.322913
0.469028 0.569198 0.508182
0.400981 0.443441 0.664589
0.089406 0.044949 0.669338
0.000000 0.000000 0.359452
0.000000 0.000000 0.000000
0.947713 0.884882 0.403103
0.924988 0.879908 0.361898
0.910400 0.902731 0.409353
0.890313 0.917911 0.541723
0.804582 0.849923 0.715080
0.546554 0.583157 0.845310
0.000000 0.000000 0.808117
0.000000 0.000000 0.439020
0.000000 0.000000 0.000000
1.000000 1.000000 1.000000
1.000000 1.000000 1.000000
1.000000 1.000000 1.000000
1.000000 1.000000 1.000000
1.000000 1.000000 1.000000
1.000000 0.962897 1.000000
0.605209 0.085420 1.000000
0.000000 0.000000 1.000000
0.000000 0.000000 0.054642
1.000000 1.000000 1.000000
1.000000 1.000000 1.000000
1.000000 1.000000 1.000000
1.000000 1.000000 1.000000
1.000000 1.000000 1.000000
1.000000 1.000000 1.000000
1.000000 0.577540 1.000000
0.558235 0.000000 1.000000
0.000000 0.000000 1.000000
1.000000 1.000000 1.000000
1.000000 1.000000 1.000000
1.000000 1.000000 1.000000
1.000000 1.000000 1.000000
1.000000 1.000000 1.000000
1.000000 1.000000 1.000000
1.000000 1.000000 1.000000
1.000000 0.000000 1.000000
0.292878 0.000000 1.000000
0.819533 0.634891 0.076871
0.350392 0.073249 0.000000
0.084168 0.000000 0.000000
0.067687 0.000000 0.000000
0.301267 0.000000 0.000000
0.738719 0.096352 0.113843
1.000000 0.469874 0.236988
1.000000 0.770329 0.164399
1.000000 0.817483 0.000000
1.000000 0.728411 0.405527
0.692063 0.274750 0.259992
0.519024 0.025605 0.210924
0.556688 0.000000 0.276951
0.796347 0.144652 0.436515
1.000000 0.414527 0.627878
1.000000 0.692281 0.749114
1.000000 0.828543 0.658116
1.000000 0.633856 0.172591
0.953028 0.729260 0.463667
0.713094 0.380278 0.368091
0.611720 0.207820 0.359155
0.677682 0.213632 0.453984
0.893246 0.359373 0.629521
1.000000 0.566615 0.822521
1.000000 0.716849 0.929559
1.000000 0.651476 0.807024
1.000000 0.171815 0.271122
0.728183 0.692936 0.341446
0.577775 0.444610 0.287891
0.527259 0.339128 0.310312
0.596385 0.369012 0.424331
0.758395 0.486694 0.605388
0.940025 0.604524 0.788738
1.000000 0.594765 0.869450
0.836547 0.289597 0.702413
0.172370 0.000000 0.102330
0.606772 0.702432 0.198621
0.530121 0.550021 0.179313
0.510367 0.501087 0.224478
0.558236 0.538922 0.348237
0.637945 0.606737 0.524526
0.667202 0.607656 0.687097
0.517212 0.404717 0.729520
0.012668 0.000000 0.505178
0.000000 0.000000 0.000000
0.911819 0.868239 0.264556
0.893869 0.806287 0.271882
0.885496 0.802751 0.331341
0.888398 0.831701 0.455550
0.857769 0.827122 0.616945
0.702293 0.682912 0.747773
0.284146 0.252886 0.740103
0.000000 0.000000 0.445816
0.000000 0.000000 0.000000
1.000000 1.000000 0.838216
1.000000 1.000000 0.864727
1.000000 1.000000 0.930192
1.000000 1.000000 1.000000
1.000000 1.000000 1.000000
1.000000 0.964692 1.000000
0.729327 0.272954 1.000000
0.000000 0.000000 0.824432
0.000000 0.000000 0.000000
1.000000 1.000000 1.000000
1.000000 1.000000 1.000000
1.000000 1.000000 1.000000
1.000000 1.000000 1.000000
1.000000 1.000000 1.000000
1.000000 1.000000 1.000000
1.000000 0.626102 1.000000
0.632951 0.000000 1.000000
0.000000 0.000000 1.000000
1.000000 1.000000 1.000000
1.000000 1.000000 1.000000
1.000000 1.000000 1.000000
1.000000 1.000000 1.000000
1.000000 1.000000 1.000000
1.000000 1.000000 1.000000
1.000000 1.000000 1.000000
1.000000 0.000000 1.000000
0.301074 0.000000 1.000000
0.603161 0.437304 0.000000
0.086333 0.000000 0.000000
0.000000 0.000000 0.000000
0.000000 0.000000 0.000000
0.000000 0.000000 0.000000
0.480395 0.347965 0.000000
1.000000 0.982803 0.000000
1.000000 1.000000 0.000000
1.000000 1.000000 0.000000
1.000000 0.619795 0.150688
0.635580 0.173508 0.058937
0.436680 0.000000 0.025189
0.466637 0.009702 0.084435
0.732081 0.293053 0.231481
1.000000 0.753681 0.420951
1.000000 1.000000 0.567282
1.000000 1.000000 0.544730
1.000000 1.000000 0.187366
1.000000 0.684813 0.340952
0.800844 0.342218 0.314732
0.689582 0.207510 0.334106
0.762316 0.291943 0.432560
1.000000 0.566685 0.603399
1.000000 0.962820 0.799743
1.000000 1.000000 0.934528
1.000000 1.000000 0.880508
1.000000 1.000000 0.470250
0.886543 0.686956 0.297786
0.740848 0.442893 0.325929
0.694875 0.372819 0.386416
0.783711 0.478762 0.511232
0.995935 0.722665 0.692180
1.000000 1.000000 0.880877
1.000000 1.000000 0.988757
1.000000 1.000000 0.887070
1.000000 0.913784 0.406883
0.751594 0.708317 0.175945
0.694040 0.556909 0.247443
0.691718 0.539901 0.337198
0.770693 0.650097 0.475693
0.910517 0.840215 0.653228
1.000000 1.000000 0.819919
1.000000 1.000000 0.885696
0.793014 0.816021 0.720308
0.041627 0.051317 0.153318
0.964599 0.858490 0.199787
0.978587 0.793141 0.303795
0.998993 0.816914 0.411135
1.000000 0.913388 0.550789
1.000000 1.000000 0.711552
1.000000 1.000000 0.842039
0.787925 0.873530 0.850678
0.165823 0.294897 0.605714
0.000000 0.000000 0.000000
1.000000 1.000000 0.663275
1.000000 1.000000 0.789111
1.000000 1.000000 0.902516
1.000000 1.000000 1.000000
1.000000 1.000000 1.000000
1.000000 1.000000 1.000000
1.000000 0.813062 1.000000
0.081712 0.000000 0.838390
0.000000 0.000000 0.047823
1.000000 1.000000 1.000000
1.000000 1.000000 1.000000
1.000000 1.000000 1.000000
1.000000 1.000000 1.000000
1.000000 1.000000 1.000000
1.000000 1.000000 1.000000
1.000000 1.000000 1.000000
1.000000 0.000000 1.000000
0.000000 0.000000 0.856023
1.000000 1.000000 1.000000
1.000000 1.000000 1.000000
1.000000 1.000000 1.000000
1.000000 1.000000 1.000000
1.000000 1.000000 1.000000
1.000000 1.000000 1.000000
1.000000 1.000000 1.000000
1.000000 0.000000 1.000000
0.685684 0.000000 1.000000
0.000000 0.021625 0.000000
0.000000 0.000000 0.000000
0.000000 0.000000 0.000000
0.000000 0.000000 0.000000
0.000000 0.000000 0.000000
0.000000 0.756761 0.000000
0.719112 1.000000 0.000000
1.000000 1.000000 0.000000
1.000000 1.000000 0.000000
0.672521 0.337281 0.000000
0.298469 0.000000 0.000000
0.098357 0.000000 0.000000
0.140659 0.075003 0.000000
0.447343 0.562985 0.000000
0.993867 1.000000 0.000000
1.000000 1.000000 0.145216
1.000000 1.000000 0.172875
1.000000 1.000000 0.000000
0.930984 0.510075 0.000000
0.699490 0.246441 0.026030
0.604608 0.222142 0.117946
0.705785 0.457940 0.251985
1.000000 0.934515 0.437814
1.000000 1.000000 0.644916
1.000000 1.000000 0.802592
1.000000 1.000000 0.799955
1.000000 1.000000 0.485938
0.911750 0.593703 0.060076
0.803250 0.425323 0.227528
0.789706 0.462160 0.371418
0.921542 0.715752 0.540097
1.000000 1.000000 0.741728
1.000000 1.000000 0.944292
1.000000 1.000000 1.000000
1.000000 1.000000 1.000000
1.000000 1.000000 0.634634
0.846984 0.669362 0.058119
0.842627 0.589220 0.279138
0.887243 0.674488 0.459926
1.000000 0.927480 0.647328
1.000000 1.000000 0.848006
1.000000 1.000000 1.000000
1.000000 1.000000 1.000000
1.000000 1.000000 0.993567
1.000000 1.000000 0.510298
1.000000 0.845744 0.139869
1.000000 0.846108 0.400378
1.000000 0.966384 0.603147
1.000000 1.000000 0.793519
1.000000 1.000000 0.976654
1.000000 1.000000 1.000000
1.000000 1.000000 1.000000
1.000000 1.000000 0.931476
0.221735 1.000000 0.333583
1.000000 1.000000 0.594285
1.000000 1.000000 0.880370
1.000000 1.000000 1.000000
1.000000 1.000000 1.000000
1.000000 1.000000 1.000000
1.000000 1.000000 1.000000
1.000000 1.000000 1.000000
0.973727 1.000000 1.000000
0.000000 0.053140 0.394748
1.000000 1.000000 1.000000
1.000000 1.000000 1.000000
1.000000 1.000000 1.000000
1.000000 1.000000 1.000000
1.000000 1.000000 1.000000
1.000000 1.000000 1.000000
1.000000 1.000000 1.000000
1.000000 0.978293 1.000000
0.000000 0.000000 1.000000
1.000000 1.000000 1.000000
1.000000 1.000000 1.000000
1.000000 1.000000 1.000000
1.000000 1.000000 1.000000
1.000000 1.000000 1.000000
1.000000 1.000000 1.000000
1.000000 1.000000 1.000000
1.000000 1.000000 1.000000
1.000000 0.000000 1.000000
0.000000 0.000000 0.000000
0.000000 0.000000 0.000000
0.000000 0.000000 0.000000
0.000000 0.000000 0.000000
0.000000 0.192696 0.000000
0.000000 1.000000 0.000000
0.000000 1.000000 0.000000
0.979907 1.000000 0.000000
1.000000 1.000000 0.000000
0.000000 0.000000 0.000000
0.000000 0.000000 0.000000
0.000000 0.000000 0.000000
0.000000 0.160261 0.000000
0.000000 0.942386 0.000000
0.447451 1.000000 0.000000
1.000000 1.000000 0.000000
1.000000 1.000000 0.000000
1.000000 1.000000 0.000000
0.430702 0.142305 0.000000
0.258281 0.045732 0.000000
0.214602 0.220028 0.000000
0.374451 0.695464 0.000000
0.766106 1.000000 0.000000
1.000000 1.000000 0.236326
1.000000 1.000000 0.423703
1.000000 1.000000 0.466990
1.000000 1.000000 0.231481
0.665506 0.361867 0.000000
0.635242 0.356114 0.000000
0.690570 0.586893 0.132629
0.897251 1.000000 0.389905
1.000000 1.000000 0.644681
1.000000 1.000000 0.881302
1.000000 1.000000 1.000000
1.000000 1.000000 1.000000
1.000000 1.000000 0.722913
0.775657 0.545682 0.000000
0.867155 0.622597 0.154074
0.996771 0.896018 0.484007
1.000000 1.000000 0.766156
1.000000 1.000000 1.000000
1.000000 1.000000 1.000000
1.000000 1.000000 1.000000
1.000000 1.000000 1.000000
1.000000 1.000000 0.859580
1.000000 0.801547 0.000000
1.000000 0.952259 0.465344
1.000000 1.000000 0.822759
1.000000 1.000000 1.000000
1.000000 1.000000 1.000000
1.000000 1.000000 1.000000
1.000000 1.000000 1.000000
1.000000 1.000000 1.000000
1.000000 1.000000 0.857132
1.000000 1.000000 0.547322
1.000000 1.000000 1.000000
1.000000 1.000000 1.000000
1.000000 1.000000 1.000000
1.000000 1.000000 1.000000
1.000000 1.000000 1.000000
1.000000 1.000000 1.000000
1.000000 1.000000 1.000000
1.000000 1.000000 1.000000
1.000000 1.000000 1.000000
1.000000 1.000000 1.000000
1.000000 1.000000 1.000000
1.000000 1.000000 1.000000
1.000000 1.000000 1.000000
1.000000 1.000000 1.000000
1.000000 1.000000 1.000000
1.000000 1.000000 1.000000
1.000000 1.000000 1.000000
1.000000 1.000000 1.000000
1.000000 1.000000 1.000000
1.000000 1.000000 1.000000
1.000000 1.000000 1.000000
1.000000 1.000000 1.000000
1.000000 1.000000 1.000000
1.000000 1.000000 1.000000
1.000000 1.000000 1.000000
1.000000 1.000000 1.000000
