lrplugin/MindfulLensFilmEngine.lrplugin/profiles/luts/fuji_400h_cc.cube
# Generated from ColorChecker fit
LUT_3D_SIZE 33
DOMAIN_MIN 0.0 0.0 0.0
DOMAIN_MAX 1.0 1.0 1.0
0.187511 0.000000 0.195143
0.090533 0.000000 0.165839
0.000000 0.000000 0.138743
0.000000 0.000000 0.113910
0.000000 0.000000 0.091373
0.000000 0.000000 0.071143
0.000000 0.000000 0.053207
0.000000 0.000000 0.037531
0.000000 0.000000 0.024057
0.000000 0.000000 0.012704
0.000000 0.000000 0.003371
0.000000 0.000000 0.000000
0.000000 0.000000 0.000000
0.000000 0.000000 0.000000
0.000000 0.000000 0.000000
0.000000 0.000000 0.000000
0.000000 0.000000 0.000000
0.000000 0.000000 0.000000
0.000000 0.000000 0.000000
0.000000 0.000000 0.000000
0.000000 0.000000 0.000000
0.000000 0.000000 0.000000
0.000000 0.000000 0.000000
0.000000 0.000000 0.000000
0.000000 0.000000 0.000000
0.000000 0.000000 0.000000
0.000000 0.000000 0.000000
0.000000 0.000000 0.000000
0.000000 0.000000 0.000000
0.000000 0.000000 0.000000
0.000000 0.000000 0.000000
0.000000 0.000000 0.000000
0.000000 0.000000 0.000000
0.175663 0.000000 0.250118
0.089240 0.000000 0.226395
0.004948 0.000000 0.205021
0.000000 0.000000 0.186030
0.000000 0.000000 0.169431
0.000000 0.000000 0.155211
0.000000 0.000000 0.143335
0.000000 0.000000 0.133744
0.000000 0.000000 0.126357
0.000000 0.000000 0.121071
0.000000 0.000000 0.117759
0.000000 0.000000 0.116271
0.000000 0.000000 0.116437
0.000000 0.000000 0.118061
0.000000 0.000000 0.120927
0.000000 0.000000 0.124793
0.000000 0.000000 0.129398
0.000000 0.000000 0.134456
0.000000 0.000000 0.139659
0.000000 0.000000 0.144676
0.000000 0.000000 0.149153
0.000000 0.000000 0.152715
0.000000 0.000000 0.154961
0.000000 0.000000 0.155471
0.000000 0.000000 0.153801
0.000000 0.000000 0.149482
0.000000 0.000000 0.142025
0.000000 0.000000 0.130918
0.000000 0.000000 0.115626
0.000000 0.000000 0.095590
0.000000 0.000000 0.070229
0.000000 0.000000 0.038941
0.000000 0.000000 0.001099
0.157283 0.000000 0.292433
0.080950 0.000000 0.274161
0.007265 0.000000 0.258363
0.000000 0.000000 0.245048
0.000000 0.000000 0.234202
0.000000 0.000000 0.225790
0.000000 0.000000 0.219752
0.000000 0.000000 0.216006
0.000000 0.000000 0.214448
0.000000 0.000000 0.214952
0.000000 0.000000 0.217366
0.000000 0.000000 0.221519
0.000000 0.000000 0.227216
0.000000 0.000000 0.234237
0.000000 0.000000 0.242344
0.000000 0.000000 0.251271
0.000000 0.000000 0.260734
0.000000 0.000000 0.270424
0.000000 0.000000 0.280008
0.000000 0.000000 0.289132
0.000000 0.000000 0.297421
0.000000 0.000000 0.304473
0.000000 0.000000 0.309867
0.000000 0.000000 0.313157
0.000000 0.000000 0.313877
0.000000 0.000000 0.311534
0.000000 0.000000 0.305617
0.000000 0.000000 0.295588
0.000000 0.000000 0.280890
0.000000 0.000000 0.260942
0.000000 0.000000 0.235138
0.000000 0.000000 0.202853
0.000000 0.000000 0.163436
0.133082 0.000000 0.322047
0.066365 0.000000 0.309110
0.002769 0.000000 0.298753
0.000000 0.000000 0.290961
0.000000 0.000000 0.285697
0.000000 0.000000 0.282902
0.000000 0.000000 0.282494
0.000000 0.000000 0.284367
0.000000 0.000000 0.288394
0.000000 0.000000 0.294423
0.000000 0.000000 0.302282
0.000000 0.000000 0.311775
0.000000 0.000000 0.322683
0.000000 0.000000 0.334765
0.000000 0.000000 0.347757
0.000000 0.000000 0.361371
0.000000 0.000000 0.375300
0.000000 0.000000 0.389209
0.000000 0.000000 0.402745
0.000000 0.000000 0.415529
0.000000 0.000000 0.427162
0.000000 0.000000 0.437220
0.000000 0.000000 0.445258
0.000000 0.000000 0.450807
0.000000 0.000000 0.453376
0.000000 0.000000 0.452451
0.000000 0.000000 0.447495
0.000000 0.000000 0.437950
0.000000 0.000000 0.423233
0.000000 0.000000 0.402739
0.000000 0.000000 0.375841
0.000000 0.000000 0.341889
0.000000 0.000000 0.300210
0.103975 0.000000 0.339133
0.046395 0.000000 0.331429
0.000000 0.000000 0.326391
0.000000 0.000000 0.323983
0.000000 0.000000 0.324144
0.000000 0.000000 0.326790
0.000000 0.000000 0.331817
0.000000 0.000000 0.339095
0.000000 0.000000 0.348473
0.000000 0.000000 0.359778
0.000000 0.000000 0.372813
0.000000 0.000000 0.387359
0.000000 0.000000 0.403173
0.000000 0.000000 0.419991
0.000000 0.000000 0.437525
0.000000 0.000000 0.455466
0.000000 0.000000 0.473480
0.000000 0.000000 0.491211
0.000000 0.000000 0.508282
0.000000 0.000000 0.524291
0.000000 0.000000 0.538815
0.000000 0.000000 0.551408
0.000000 0.000000 0.561599
0.000000 0.000000 0.568898
0.000000 0.000000 0.572789
0.000000 0.000000 0.572736
0.000000 0.000000 0.568179
0.000000 0.000000 0.558534
0.000000 0.000000 0.543196
0.000000 0.000000 0.521538
0.000000 0.000000 0.492908
0.000000 0.037436 0.456633
0.000000 0.176564 0.412016
0.071092 0.000000 0.344087
0.022161 0.000000 0.341525
0.000000 0.000000 0.341699
0.000000 0.000000 0.344548
0.000000 0.000000 0.349987
0.000000 0.000000 0.357911
0.000000 0.000000 0.368191
0.000000 0.000000 0.380674
0.000000 0.000000 0.395186
0.000000 0.000000 0.411529
0.000000 0.000000 0.429484
0.000000 0.000000 0.448808
0.000000 0.000000 0.469236
0.000000 0.000000 0.490479
0.000000 0.000000 0.512226
0.000000 0.000000 0.534144
0.000000 0.000000 0.555877
0.000000 0.000000 0.577046
0.000000 0.000000 0.597249
0.000000 0.000000 0.616061
0.000000 0.000000 0.633036
0.000000 0.000000 0.647704
0.000000 0.000000 0.659572
0.000000 0.000000 0.668125
0.000000 0.000000 0.672825
0.000000 0.000000 0.673111
0.000000 0.000000 0.668401
0.000000 0.000000 0.658087
0.000000 0.000000 0.641541
0.000000 0.000000 0.618112
0.000000 0.091357 0.587125
0.000000 0.211086 0.547884
0.000000 0.348804 0.499668
0.035771 0.000000 0.337517
0.000000 0.000000 0.340021
0.000000 0.000000 0.345312
0.000000 0.000000 0.353304
0.000000 0.000000 0.363891
0.000000 0.000000 0.376943
0.000000 0.000000 0.392306
0.000000 0.000000 0.409807
0.000000 0.000000 0.429246
0.000000 0.000000 0.450404
0.000000 0.000000 0.473037
0.000000 0.000000 0.496878
0.000000 0.000000 0.521639
0.000000 0.000000 0.547009
0.000000 0.000000 0.572653
0.000000 0.000000 0.598215
0.000000 0.000000 0.623314
0.000000 0.000000 0.647548
0.000000 0.000000 0.670492
0.000000 0.000000 0.691699
0.000000 0.000000 0.710698
0.000000 0.000000 0.726996
0.000000 0.000000 0.740076
0.000000 0.000000 0.749401
0.000000 0.000000 0.754408
0.000000 0.000000 0.754515
0.000000 0.000000 0.749113
0.000000 0.000000 0.737574
0.000000 0.055947 0.719245
0.000000 0.143928 0.693452
0.000000 0.246063 0.659497
0.000000 0.363764 0.616659
0.000000 0.498512 0.564196
0.000000 0.000000 0.320251
0.000000 0.000000 0.327759
0.000000 0.000000 0.338084
0.000000 0.000000 0.351120
0.000000 0.000000 0.366735
0.000000 0.000000 0.384777
0.000000 0.000000 0.405069
0.000000 0.000000 0.427413
0.000000 0.000000 0.451588
0.000000 0.000000 0.477349
0.000000 0.000000 0.504430
0.000000 0.000000 0.532540
0.000000 0.000000 0.561369
0.000000 0.000000 0.590581
0.000000 0.000000 0.619819
0.000000 0.000000 0.648702
0.000000 0.000000 0.676826
0.000000 0.000000 0.703768
0.000000 0.000000 0.729077
0.000000 0.000000 0.752283
0.000000 0.000000 0.772891
0.000000 0.000000 0.790386
0.000000 0.000000 0.804228
0.000000 0.000000 0.813855
0.000000 0.000000 0.818683
0.000000 0.003601 0.818103
0.000000 0.057702 0.811486
0.000000 0.121337 0.798178
0.000000 0.195677 0.777505
0.000000 0.281960 0.748768
0.025768 0.381491 0.711246
0.072881 0.495643 0.664195
0.127107 0.625857 0.606849
0.000000 0.000000 0.293337
0.000000 0.000000 0.305797
0.000000 0.000000 0.321088
0.000000 0.000000 0.339080
0.000000 0.000000 0.359618
0.000000 0.000000 0.382526
0.000000 0.000000 0.407604
0.000000 0.000000 0.434631
0.000000 0.000000 0.463361
0.000000 0.000000 0.493528
0.000000 0.000000 0.524840
0.000000 0.000000 0.556986
0.000000 0.000000 0.589629
0.000000 0.000000 0.622411
0.000000 0.000000 0.654952
0.000000 0.000000 0.686848
0.000000 0.000000 0.717671
0.000000 0.000000 0.746974
0.000000 0.000000 0.774283
0.000000 0.000000 0.799106
0.000000 0.000000 0.820924
0.000000 0.000000 0.839197
0.000000 0.012534 0.853363
0.000000 0.046080 0.862836
0.000000 0.085348 0.867009
0.003054 0.131266 0.865249
0.025821 0.184828 0.856905
0.051945 0.247098 0.841299
0.081908 0.319206 0.817733
0.116235 0.402350 0.785485
0.155495 0.497794 0.743811
0.200295 0.606871 0.691943
0.251285 0.730980 0.629091
0.000000 0.000000 0.258035
0.000000 0.000000 0.275411
0.000000 0.000000 0.295613
0.000000 0.000000 0.318487
0.000000 0.000000 0.343855
0.000000 0.000000 0.371518
0.000000 0.000000 0.401253
0.000000 0.000000 0.432814
0.000000 0.000000 0.465934
0.000000 0.000000 0.500321
0.000000 0.000000 0.535662
0.000000 0.000000 0.571621
0.000000 0.000000 0.607838
0.000000 0.000000 0.643933
0.000000 0.000000 0.679500
0.000000 0.000000 0.714113
0.000000 0.000000 0.747321
0.000000 0.006941 0.778653
0.000000 0.027084 0.807612
0.006103 0.048773 0.833682
0.020436 0.072560 0.856321
0.035565 0.099062 0.874966
0.051682 0.128964 0.889032
0.069025 0.163020 0.897908
0.087871 0.202050 0.900964
0.108539 0.246942 0.897545
0.131389 0.298649 0.886976
0.156826 0.358196 0.868555
0.185293 0.426671 0.841560
0.217277 0.505230 0.805247
0.253304 0.595100 0.758848
0.293946 0.697571 0.701573
0.339813 0.814002 0.632607
0.000000 0.000000 0.215828
0.000000 0.000000 0.238095
0.000000 0.000000 0.263165
0.000000 0.000000 0.290860
0.000000 0.000000 0.320980
0.000000 0.000000 0.353300
0.000000 0.000000 0.387575
0.000000 0.000000 0.423537
0.000000 0.000000 0.460892
0.000000 0.000000 0.499328
0.000000 0.000000 0.538508
0.000000 0.000000 0.578071
0.000000 0.000000 0.617636
0.000000 0.018694 0.656797
0.001058 0.041421 0.695126
0.017699 0.063740 0.732174
0.034406 0.085890 0.767467
0.051125 0.108180 0.800508
0.067844 0.130986 0.830780
0.084594 0.154751 0.857741
0.101445 0.179984 0.880827
0.118512 0.207264 0.899451
0.135950 0.237235 0.913004
0.153954 0.270610 0.920853
0.172765 0.308168 0.922345
0.192661 0.350756 0.916800
0.213965 0.399289 0.903519
0.237040 0.454749 0.881779
0.262293 0.518183 0.850835
0.290168 0.590710 0.809916
0.321157 0.673513 0.758234
0.355788 0.767842 0.694973
0.394635 0.875016 0.619297
0.000000 0.000000 0.168412
0.000000 0.000000 0.195560
0.000000 0.000000 0.225469
0.000000 0.000000 0.257937
0.000000 0.000000 0.292742
0.000000 0.000000 0.329635
0.000000 0.000000 0.368347
0.000000 0.000000 0.408587
0.000000 0.000000 0.450039
0.000000 0.000000 0.492366
0.000000 0.019158 0.535207
0.000000 0.048845 0.578179
0.014412 0.077458 0.620877
0.035014 0.104996 0.662872
0.055564 0.131523 0.703714
0.075886 0.157173 0.742927
0.095844 0.182145 0.780016
0.115347 0.206708 0.814461
0.134343 0.231197 0.845721
0.152824 0.256013 0.873230
0.170823 0.281627 0.896401
0.188412 0.308575 0.914624
0.205709 0.337462 0.927267
0.222870 0.368960 0.933672
0.240096 0.403808 0.933164
0.257627 0.442811 0.925039
0.275747 0.486845 0.908576
0.294779 0.536850 0.883026
0.315090 0.593834 0.847622
0.337088 0.658874 0.801571
0.361222 0.733113 0.744058
0.387984 0.817761 0.674248
0.417907 0.914096 0.591279
0.000000 0.000000 0.117704
0.000000 0.000000 0.149735
0.000000 0.000000 0.184466
0.000000 0.000000 0.221674
0.000000 0.000000 0.261110
0.000000 0.000000 0.302504
0.000000 0.000000 0.345564
0.000000 0.000000 0.389973
0.000000 0.022929 0.435394
0.000000 0.059426 0.481466
0.012865 0.094746 0.527805
0.036900 0.128712 0.574005
0.061043 0.161214 0.619635
0.084996 0.192210 0.664246
0.108502 0.221724 0.707361
0.131346 0.249849 0.748484
0.153354 0.276746 0.787095
0.174394 0.302640 0.822651
0.194377 0.327826 0.854587
0.213255 0.352666 0.882314
0.231020 0.377589 0.905222
0.247708 0.403092 0.922678
0.263396 0.429739 0.934024
0.278202 0.458160 0.938583
0.292287 0.489054 0.935652
0.305853 0.523187 0.924507
0.319143 0.561392 0.904401
0.332442 0.604570 0.874565
0.346079 0.653689 0.834205
0.360421 0.709784 0.782507
0.375879 0.773957 0.718632
0.392905 0.847380 0.641720
0.411994 0.931288 0.550888
0.000000 0.000000 0.065836
0.000000 0.000000 0.102765
0.000000 0.000000 0.142316
0.000000 0.000000 0.184241
0.000000 0.000000 0.228269
0.000000 0.000000 0.274106
0.000000 0.008370 0.321436
0.000000 0.051338 0.369920
0.003784 0.093414 0.419197
0.030179 0.134246 0.468882
0.057122 0.173549 0.518568
0.084191 0.211105 0.567825
0.111008 0.246765 0.616201
0.137235 0.280445 0.663220
0.162576 0.312129 0.708385
0.186777 0.341870 0.751175
0.209625 0.369787 0.791046
0.230949 0.396066 0.827433
0.250621 0.420960 0.859747
0.268553 0.444792 0.887376
0.284699 0.467950 0.909686
0.299055 0.490889 0.926020
0.311659 0.514133 0.935699
0.322591 0.538273 0.938019
0.331971 0.563966 0.932257
0.339963 0.591937 0.917665
0.346772 0.622981 0.893471
0.352642 0.657955 0.858883
0.357863 0.697789 0.813085
0.362764 0.743476 0.755238
0.367717 0.796079 0.684481
0.373134 0.856726 0.599930
0.379471 0.926616 0.500678
0.000000 0.000000 0.015160
0.000000 0.000000 0.057016
0.000000 0.000000 0.101396
0.000000 0.000000 0.148030
0.000000 0.000000 0.196623
0.000000 0.026837 0.246857
0.000000 0.074946 0.298394
0.022799 0.122310 0.350871
0.051202 0.168468 0.403902
0.080328 0.213029 0.457081
0.109676 0.255665 0.509977
0.138785 0.296119 0.562136
0.167236 0.334201 0.613082
0.194653 0.369787 0.662318
0.220701 0.402820 0.709321
0.245087 0.433312 0.753548
0.267559 0.461341 0.794431
0.287906 0.487054 0.831382
0.305961 0.510663 0.863789
0.321597 0.532450 0.891016
0.334730 0.552761 0.912405
0.345317 0.572014 0.927278
0.353355 0.590690 0.934929
0.358886 0.609339 0.934635
0.361991 0.628579 0.925646
0.362794 0.649094 0.907191
0.361461 0.671637 0.878476
0.358199 0.697027 0.838686
0.353256 0.726151 0.786980
0.346924 0.759963 0.722496
0.339535 0.799485 0.644351
0.331462 0.845805 0.551635
0.323122 0.900080 0.443421
0.000000 0.000000 0.000000
0.000000 0.000000 0.015067
0.000000 0.000000 0.064300
0.000000 0.000000 0.115648
0.000000 0.042182 0.168792
0.023829 0.094971 0.223391
0.051810 0.147267 0.279084
0.081389 0.198502 0.335484
0.111942 0.248175 0.392183
0.142886 0.295853 0.448750
0.173681 0.341169 0.504731
0.203826 0.383824 0.559649
0.232865 0.423588 0.613004
0.260382 0.460296 0.664276
0.286002 0.493851 0.712920
0.309393 0.524225 0.758367
0.330264 0.551455 0.800028
0.348366 0.575646 0.837289
0.363492 0.596972 0.869517
0.375477 0.615672 0.896051
0.384196 0.632054 0.916211
0.389567 0.646492 0.929294
0.391550 0.659429 0.934573
0.390145 0.671375 0.931299
0.385397 0.682905 0.918700
0.377389 0.694665 0.895982
0.366248 0.707365 0.862327
0.352143 0.721785 0.816896
0.335282 0.738770 0.758825
0.315917 0.759236 0.687230
0.294342 0.784161 0.601202
0.270891 0.814596 0.499811
0.245941 0.851655 0.382103
0.000000 0.000000 0.000000
0.004657 0.000000 0.000000
0.021875 0.000000 0.033840
0.043464 0.055651 0.089919
0.068595 0.112596 0.147614
0.096478 0.169405 0.206560
0.126366 0.225403 0.266371
0.157556 0.279980 0.326639
0.189382 0.332595 0.386931
0.221223 0.382774 0.446793
0.252499 0.430111 0.505747
0.282672 0.474266 0.563294
0.311244 0.514967 0.618911
0.337762 0.552010 0.672053
0.361811 0.585258 0.722151
0.383021 0.614639 0.768615
0.401060 0.640153 0.810831
0.415642 0.661863 0.848163
0.426520 0.679903 0.879952
0.433489 0.694470 0.905516
0.436385 0.705833 0.924152
0.435089 0.714326 0.935131
0.429519 0.720349 0.937705
0.419639 0.724373 0.931100
0.405452 0.726932 0.914522
0.387004 0.728632 0.887152
0.364382 0.730142 0.848150
0.337714 0.732202 0.796653
0.307172 0.735616 0.731775
0.272968 0.741259 0.652606
0.235356 0.750069 0.558216
0.194632 0.763056 0.447649
0.151133 0.781293 0.319931
0.078811 0.000000 0.000000
0.093022 0.009127 0.000000
0.112330 0.068459 0.013046
0.135824 0.128970 0.073887
0.162634 0.189808 0.136145
0.191933 0.250189 0.199431
0.222934 0.309397 0.263337
0.254894 0.366782 0.327429
0.287109 0.421763 0.391253
0.318918 0.473824 0.454330
0.349703 0.522519 0.516160
0.378887 0.567468 0.576220
0.405932 0.608357 0.633963
0.430345 0.644943 0.688821
0.451674 0.677047 0.740202
0.469508 0.704559 0.787492
0.483478 0.727435 0.830055
0.493257 0.745700 0.867230
0.498559 0.759446 0.898335
0.499141 0.768831 0.922665
0.494800 0.774082 0.939493
0.485376 0.775492 0.948067
0.470751 0.773422 0.947616
0.450846 0.768301 0.937342
0.425628 0.760625 0.916428
0.395103 0.750956 0.884032
0.359317 0.739925 0.839290
0.318363 0.728229 0.781316
0.272370 0.716635 0.709199
0.221513 0.705973 0.622008
0.166006 0.697145 0.518788
0.106106 0.691117 0.398561
0.042111 0.688924 0.260327
0.194913 0.020216 0.000000
0.210780 0.081784 0.000000
0.231553 0.145207 0.005163
0.256282 0.209525 0.070811
0.284057 0.273847 0.137658
0.314013 0.337348 0.205292
0.345324 0.399271 0.273281
0.377207 0.458926 0.341168
0.408920 0.515691 0.408475
0.439763 0.569010 0.474701
0.469077 0.618395 0.539322
0.496246 0.663427 0.601791
0.520695 0.703752 0.661538
0.541892 0.739084 0.717972
0.559343 0.769205 0.770477
0.572601 0.793964 0.818416
0.581256 0.813277 0.861129
0.584942 0.827129 0.897933
0.583335 0.835569 0.928121
0.576151 0.838716 0.950966
0.563150 0.836757 0.965717
0.544132 0.829944 0.971599
0.518939 0.818597 0.967816
0.487455 0.803105 0.953549
0.449606 0.783922 0.927956
0.405359 0.761572 0.890171
0.354723 0.736643 0.839309
0.297748 0.709794 0.774458
0.234528 0.681748 0.694686
0.165197 0.653298 0.599037
0.089929 0.625302 0.486533
0.008944 0.598688 0.356173
0.000000 0.574449 0.206934
0.345055 0.096770 0.000000
0.361989 0.162387 0.000000
0.383593 0.229573 0.013657
0.408880 0.297328 0.084170
0.436899 0.364720 0.155644
0.466747 0.430884 0.227646
0.497558 0.495023 0.299719
0.528510 0.556405 0.371385
0.558822 0.614368 0.442141
0.587755 0.668315 0.511462
0.614611 0.717719 0.578802
0.638735 0.762119 0.643590
0.659513 0.801121 0.705232
0.676372 0.834398 0.763115
0.688783 0.861692 0.816598
0.696255 0.882812 0.865022
0.698342 0.897632 0.907703
0.694639 0.906096 0.943934
0.684781 0.908214 0.972987
0.668446 0.904065 0.994109
0.645355 0.893793 1.000000
0.615269 0.877612 1.000000
0.577990 0.855800 1.000000
0.533364 0.828705 0.983460
0.481277 0.796741 0.952857
0.421657 0.760392 0.909336
0.354474 0.720205 0.851986
0.279741 0.676798 0.779873
0.197509 0.630854 0.692042
0.107875 0.583125 0.587512
0.010974 0.534430 0.465284
0.000000 0.485654 0.324331
0.000000 0.437751 0.163609
0.533509 0.181555 0.000000
0.550914 0.250931 0.000000
0.572711 0.321548 0.042210
0.597870 0.392365 0.117657
0.625406 0.462409 0.193810
0.654372 0.530775 0.270214
0.683866 0.596625 0.346387
0.713026 0.659186 0.421828
0.741031 0.717757 0.496011
0.767104 0.771700 0.568387
0.790508 0.820446 0.638387
0.810549 0.863495 0.705416
0.826572 0.900411 0.768858
0.837968 0.930828 0.828075
0.844165 0.954447 0.882405
0.844637 0.971034 0.931163
0.838896 0.980427 0.973642
0.826499 0.982526 1.000000
0.807041 0.977302 1.000000
0.780164 0.964792 1.000000
0.745545 0.945101 1.000000
0.702909 0.918401 1.000000
0.652019 0.884931 1.000000
0.592681 0.844997 1.000000
0.524742 0.798974 0.995103
0.448091 0.747303 0.945510
0.362659 0.690493 0.881318
0.268419 0.629120 0.801571
0.165384 0.563827 0.705289
0.053611 0.495326 0.591470
0.000000 0.424393 0.459089
0.000000 0.351875 0.307098
0.000000 0.278685 0.134427
0.764760 0.274547 0.000000
0.782034 0.347388 0.015148
0.803375 0.421099 0.094721
0.827717 0.494599 0.175185
0.854032 0.566872 0.256083
0.881337 0.636975 0.336935
0.908689 0.704026 0.417237
0.935188 0.767216 0.496462
0.959974 0.825799 0.574063
0.982230 0.879100 0.649467
1.000000 0.926508 0.722081
1.000000 0.967481 0.791288
1.000000 1.000000 0.856447
1.000000 1.000000 0.916898
1.000000 1.000000 0.971954
1.000000 1.000000 1.000000
1.000000 1.000000 1.000000
0.984883 1.000000 1.000000
0.954471 1.000000 1.000000
0.915650 1.000000 1.000000
0.868060 0.990567 1.000000
0.811386 0.952194 1.000000
0.745351 0.905868 1.000000
0.669724 0.851855 1.000000
0.584311 0.790489 1.000000
0.488963 0.722170 1.000000
0.383572 0.647368 0.931520
0.268071 0.566616 0.843779
0.142435 0.480518 0.738670
0.006681 0.389745 0.615165
0.000000 0.295034 0.472216
0.000000 0.197189 0.308754
0.000000 0.097084 0.123683
1.000000 0.375697 0.006477
1.000000 0.451707 0.090350
1.000000 0.528171 0.175306
1.000000 0.603968 0.260885
1.000000 0.678044 0.346606
1.000000 0.749412 0.431966
1.000000 0.817153 0.516437
1.000000 0.880414 0.599470
1.000000 0.938411 0.680493
1.000000 0.990427 0.758911
1.000000 1.000000 0.834107
1.000000 1.000000 0.905440
1.000000 1.000000 0.972248
1.000000 1.000000 1.000000
1.000000 1.000000 1.000000
1.000000 1.000000 1.000000
1.000000 1.000000 1.000000
1.000000 1.000000 1.000000
1.000000 1.000000 1.000000
1.000000 1.000000 1.000000
1.000000 1.000000 1.000000
0.945240 0.978848 1.000000
0.862521 0.918464 1.000000
0.769020 0.849127 1.000000
0.664505 0.771130 1.000000
0.548788 0.684833 1.000000
0.421720 0.590663 1.000000
0.283197 0.489116 0.910944
0.133154 0.380754 0.796641
0.000000 0.266206 0.663067
0.000000 0.146169 0.509150
0.000000 0.021409 0.333795
0.000000 0.000000 0.135886
1.000000 0.484935 0.108186
1.000000 0.563810 0.197834
1.000000 0.642682 0.288301
1.000000 0.720388 0.379104
1.000000 0.795835 0.469740
1.000000 0.867994 0.559680
1.000000 0.935906 0.648375
1.000000 0.998679 0.735252
1.000000 1.000000 0.819715
1.000000 1.000000 0.901146
1.000000 1.000000 0.978904
1.000000 1.000000 1.000000
1.000000 1.000000 1.000000
1.000000 1.000000 1.000000
1.000000 1.000000 1.000000
1.000000 1.000000 1.000000
1.000000 1.000000 1.000000
1.000000 1.000000 1.000000
1.000000 1.000000 1.000000
1.000000 1.000000 1.000000
1.000000 1.000000 1.000000
1.000000 0.998198 1.000000
1.000000 0.922550 1.000000
0.895307 0.836639 1.000000
0.770054 0.740719 1.000000
0.632287 0.635107 1.000000
0.481818 0.520192 1.000000
0.318504 0.396428 1.000000
0.142241 0.264336 0.883879
0.000000 0.124506 0.739866
0.000000 0.000000 0.574592
0.000000 0.000000 0.386939
0.000000 0.000000 0.175766
1.000000 0.602165 0.246556
1.000000 0.683598 0.342138
1.000000 0.764528 0.438257
1.000000 0.843750 0.534407
1.000000 0.920131 0.630061
1.000000 0.992603 0.724669
1.000000 1.000000 0.817655
1.000000 1.000000 0.908424
1.000000 1.000000 0.996358
1.000000 1.000000 1.000000
1.000000 1.000000 1.000000
1.000000 1.000000 1.000000
1.000000 1.000000 1.000000
1.000000 1.000000 1.000000
1.000000 1.000000 1.000000
1.000000 1.000000 1.000000
1.000000 1.000000 1.000000
1.000000 1.000000 1.000000
1.000000 1.000000 1.000000
1.000000 1.000000 1.000000
1.000000 1.000000 1.000000
1.000000 1.000000 1.000000
1.000000 0.917930 1.000000
1.000000 0.814193 1.000000
0.905898 0.699051 1.000000
0.744394 0.572786 1.000000
0.568793 0.435742 1.000000
0.378911 0.288335 1.000000
0.174608 0.131044 1.000000
0.000000 0.000000 0.850469
0.000000 0.000000 0.673462
0.000000 0.000000 0.473117
0.000000 0.000000 0.248268
1.000000 0.727268 0.426328
1.000000 0.810948 0.528018
1.000000 0.893580 0.629943
1.000000 0.973922 0.731577
1.000000 1.000000 0.832368
1.000000 1.000000 0.931741
1.000000 1.000000 1.000000
1.000000 1.000000 1.000000
1.000000 1.000000 1.000000
1.000000 1.000000 1.000000
1.000000 1.000000 1.000000
1.000000 1.000000 1.000000
1.000000 1.000000 1.000000
1.000000 1.000000 1.000000
1.000000 1.000000 1.000000
1.000000 1.000000 1.000000
1.000000 1.000000 1.000000
1.000000 1.000000 1.000000
1.000000 1.000000 1.000000
1.000000 1.000000 1.000000
1.000000 1.000000 1.000000
1.000000 1.000000 1.000000
1.000000 0.904388 1.000000
1.000000 0.781564 1.000000
1.000000 0.645901 1.000000
0.890250 0.497636 1.000000
0.687778 0.337077 1.000000
0.469547 0.164595 1.000000
0.235375 0.000000 1.000000
0.000000 0.000000 0.999999
0.000000 0.000000 0.810898
0.000000 0.000000 0.597479
0.000000 0.000000 0.358555
1.000000 0.860101 0.652465
1.000000 0.945711 0.760447
1.000000 1.000000 0.868348
1.000000 1.000000 0.975614
1.000000 1.000000 1.000000
1.000000 1.000000 1.000000
1.000000 1.000000 1.000000
1.000000 1.000000 1.000000
1.000000 1.000000 1.000000
1.000000 1.000000 1.000000
1.000000 1.000000 1.000000
1.000000 1.000000 1.000000
1.000000 1.000000 1.000000
1.000000 1.000000 1.000000
1.000000 1.000000 1.000000
1.000000 1.000000 1.000000
1.000000 1.000000 1.000000
1.000000 1.000000 1.000000
1.000000 1.000000 1.000000
1.000000 1.000000 1.000000
1.000000 1.000000 1.000000
1.000000 1.000000 1.000000
1.000000 0.881680 1.000000
1.000000 0.738507 1.000000
1.000000 0.581016 1.000000
1.000000 0.409404 1.000000
0.844119 0.223936 1.000000
