lrplugin/MindfulLensFilmEngine.lrplugin/profiles/luts/fuji_provia_100f.cube
# Generated from ColorChecker fit
LUT_3D_SIZE 9
DOMAIN_MIN 0.0 0.0 0.0
DOMAIN_MAX 1.0 1.0 1.0
0.075098 0.004038 0.120243
0.000000 0.000000 0.178979
0.000000 0.000000 0.322513
0.000000 0.000000 0.501384
0.000000 0.046469 0.652859
0.000000 0.181883 0.700937
0.042696 0.289240 0.556347
0.000000 0.277299 0.116549
0.000000 0.024963 0.000000
0.000000 0.000000 0.114444
0.000000 0.000000 0.264500
0.000000 0.036180 0.467906
0.030072 0.117324 0.665423
0.081444 0.203864 0.784543
0.081029 0.252375 0.739491
0.000000 0.189577 0.431220
0.000000 0.000000 0.000000
0.000000 0.000000 0.000000
0.000000 0.000000 0.000000
0.000000 0.000000 0.188746
0.000000 0.129594 0.449187
0.028578 0.242117 0.657880
0.023731 0.295081 0.732543
0.000000 0.233166 0.577625
0.000000 0.000000 0.084304
0.000000 0.000000 0.000000
0.000000 0.000000 0.000000
0.000000 0.000000 0.000000
0.000000 0.000000 0.083104
0.000000 0.211745 0.397156
0.000000 0.346061 0.608968
0.000000 0.350366 0.626483
0.000000 0.157445 0.344373
0.000000 0.000000 0.000000
0.000000 0.000000 0.000000
0.000000 0.000000 0.000000
0.000000 0.000000 0.000000
0.000000 0.005497 0.154620
0.130825 0.311660 0.518270
0.112785 0.461123 0.724555
0.000000 0.404629 0.671641
0.000000 0.063063 0.244427
0.000000 0.000000 0.000000
0.000000 0.000000 0.000000
0.000000 0.000000 0.000000
0.395130 0.000000 0.158559
0.714110 0.075872 0.685992
0.838981 0.463028 1.000000
0.716668 0.623937 1.000000
0.267360 0.497444 1.000000
0.000000 0.000000 0.558133
0.000000 0.000000 0.000000
0.000000 0.000000 0.000000
0.000000 0.000000 0.000000
1.000000 0.000000 1.000000
1.000000 0.231319 1.000000
1.000000 0.704205 1.000000
1.000000 0.875799 1.000000
1.000000 0.673048 1.000000
0.229854 0.000000 1.000000
0.000000 0.000000 0.182499
0.000000 0.000000 0.000000
0.000000 0.000000 0.000000
1.000000 0.000000 1.000000
1.000000 0.511916 1.000000
1.000000 1.000000 1.000000
1.000000 1.000000 1.000000
1.000000 0.980345 1.000000
1.000000 0.116430 1.000000
0.000000 0.000000 1.000000
0.000000 0.000000 0.000000
0.000000 0.000000 0.000000
1.000000 0.000000 1.000000
1.000000 0.962403 1.000000
1.000000 1.000000 1.000000
1.000000 1.000000 1.000000
1.000000 1.000000 1.000000
1.000000 0.419206 1.000000
1.000000 0.000000 1.000000
0.000000 0.000000 1.000000
0.000000 0.000000 0.000000
0.375422 0.306788 0.157154
0.140327 0.122598 0.056176
0.000000 0.000000 0.072950
0.000000 0.000000 0.182905
0.070430 0.025162 0.348199
0.261386 0.149465 0.517723
0.493852 0.280050 0.627097
0.688354 0.328867 0.598673
0.738675 0.178008 0.341532
0.272362 0.268776 0.211217
0.197838 0.212571 0.221456
0.175832 0.182956 0.317226
0.220323 0.199412 0.464178
0.318554 0.251563 0.614697
0.431029 0.299175 0.707898
0.491514 0.272158 0.669626
0.407038 0.070563 0.412456
0.057891 0.000000 0.000000
0.066528 0.209978 0.098347
0.123211 0.280502 0.216377
0.187083 0.338797 0.383081
0.258628 0.392446 0.554337
0.311595 0.419174 0.672753
0.292992 0.366852 0.667669
0.123089 0.153492 0.455155
0.000000 0.000000 0.000000
0.000000 0.000000 0.000000
0.000000 0.149484 0.000000
0.066941 0.348425 0.166207
0.180709 0.490819 0.395196
0.237519 0.572352 0.577472
0.197622 0.558854 0.645869
0.000000 0.386296 0.519950
0.000000 0.000000 0.106012
0.000000 0.000000 0.000000
0.000000 0.000000 0.000000
0.021967 0.111049 0.000000
0.249736 0.443034 0.271867
0.376610 0.668659 0.553904
0.376084 0.771711 0.733330
0.194915 0.706123 0.733203
0.000000 0.395969 0.463312
0.000000 0.000000 0.000000
0.000000 0.000000 0.000000
0.000000 0.000000 0.000000
0.696487 0.123092 0.394984
0.962515 0.595692 0.809938
1.000000 0.906620 1.000000
0.963624 1.000000 1.000000
0.591965 0.901167 1.000000
0.000000 0.438999 0.771979
0.000000 0.000000 0.000000
0.000000 0.000000 0.000000
0.000000 0.000000 0.000000
1.000000 0.218694 1.000000
1.000000 0.842422 1.000000
1.000000 1.000000 1.000000
1.000000 1.000000 1.000000
1.000000 1.000000 1.000000
0.662385 0.563178 1.000000
0.000000 0.000000 0.608635
0.000000 0.000000 0.000000
0.000000 0.000000 0.000000
1.000000 0.435604 1.000000
1.000000 1.000000 1.000000
1.000000 1.000000 1.000000
1.000000 1.000000 1.000000
1.000000 1.000000 1.000000
1.000000 0.820963 1.000000
0.372781 0.000000 1.000000
0.000000 0.000000 0.151137
0.000000 0.000000 0.000000
1.000000 0.816234 1.000000
1.000000 1.000000 1.000000
1.000000 1.000000 1.000000
1.000000 1.000000 1.000000
1.000000 1.000000 1.000000
1.000000 1.000000 1.000000
1.000000 0.000000 1.000000
0.000000 0.000000 1.000000
0.000000 0.000000 0.000000
0.619232 0.471818 0.260301
0.290422 0.174273 0.019799
0.080874 0.000000 0.000000
0.031133 0.000000 0.000000
0.155011 0.000000 0.141025
0.439578 0.054034 0.419179
0.845170 0.240370 0.761450
1.000000 0.388328 1.000000
1.000000 0.383190 1.000000
0.516992 0.466250 0.337241
0.356963 0.290978 0.224082
0.277587 0.172077 0.220382
0.305916 0.132219 0.316686
0.442264 0.164215 0.490268
0.660208 0.231022 0.705135
0.906587 0.265739 0.912023
1.000000 0.171608 1.000000
1.000000 0.000000 1.000000
0.302542 0.441583 0.240540
0.279758 0.387609 0.246073
0.293210 0.353524 0.323436
0.356455 0.350102 0.453399
0.456312 0.358260 0.603462
0.552863 0.329057 0.727855
0.579451 0.183693 0.767540
0.442681 0.000000 0.650209
0.022422 0.000000 0.290284
0.122290 0.417521 0.089935
0.204407 0.486808 0.204919
0.272534 0.534007 0.349471
0.326733 0.557994 0.494586
0.340328 0.527788 0.597988
0.259906 0.382549 0.604133
0.005315 0.031584 0.444206
0.000000 0.000000 0.036126
0.000000 0.000000 0.000000
0.192859 0.418429 0.080815
0.346721 0.615884 0.295422
0.430560 0.743777 0.492701
0.430941 0.789085 0.633872
0.307695 0.708929 0.666883
0.000000 0.430575 0.526417
0.000000 0.000000 0.133883
0.000000 0.000000 0.000000
0.000000 0.000000 0.000000
0.801079 0.473336 0.484228
0.992724 0.806810 0.788039
1.000000 1.000000 1.000000
0.953486 1.000000 1.000000
0.642008 0.942484 1.000000
0.037665 0.516874 0.762811
0.000000 0.000000 0.104084
0.000000 0.000000 0.000000
0.000000 0.000000 0.000000
1.000000 0.615939 1.000000
1.000000 1.000000 1.000000
1.000000 1.000000 1.000000
1.000000 1.000000 1.000000
1.000000 1.000000 1.000000
0.744164 0.689849 1.000000
0.000000 0.000000 0.697982
0.000000 0.000000 0.000000
0.000000 0.000000 0.000000
1.000000 0.884597 1.000000
1.000000 1.000000 1.000000
1.000000 1.000000 1.000000
1.000000 1.000000 1.000000
1.000000 1.000000 1.000000
1.000000 1.000000 1.000000
0.527243 0.000000 1.000000
0.000000 0.000000 0.381141
0.000000 0.000000 0.000000
1.000000 1.000000 1.000000
1.000000 1.000000 1.000000
1.000000 1.000000 1.000000
1.000000 1.000000 1.000000
1.000000 1.000000 1.000000
1.000000 1.000000 1.000000
1.000000 0.000000 1.000000
0.000000 0.000000 1.000000
0.000000 0.000000 0.000000
0.833903 0.552410 0.380609
0.414812 0.165651 0.034873
0.143524 0.000000 0.000000
0.073662 0.000000 0.000000
0.232105 0.000000 0.038665
0.619000 0.053475 0.426735
1.000000 0.349004 0.994937
1.000000 0.655406 1.000000
1.000000 0.861153 1.000000
0.736389 0.572053 0.464868
0.492106 0.295288 0.258831
0.357931 0.110534 0.177931
0.373989 0.043654 0.237603
0.553667 0.090648 0.440015
0.883614 0.217664 0.774062
1.000000 0.360990 1.000000
1.000000 0.427056 1.000000
1.000000 0.292439 1.000000
0.510200 0.569699 0.365930
0.407018 0.402228 0.285715
0.370440 0.292628 0.292236
0.427094 0.254861 0.391154
0.576873 0.273033 0.574858
0.792930 0.301392 0.822472
1.000000 0.264330 1.000000
1.000000 0.056381 1.000000
1.000000 0.000000 1.000000
0.296849 0.565661 0.197411
0.300252 0.509729 0.228552
0.320945 0.472028 0.303395
0.372062 0.454624 0.417825
0.439999 0.429726 0.554457
0.484416 0.339684 0.682638
0.438232 0.096992 0.758446
0.207630 0.000000 0.724688
0.000000 0.000000 0.510903
0.308060 0.584916 0.148578
0.382723 0.645709 0.276023
0.419553 0.679596 0.399501
0.418189 0.676747 0.505122
0.351534 0.597471 0.565727
0.165749 0.372225 0.540888
0.000000 0.000000 0.376905
0.000000 0.000000 0.006813
0.000000 0.000000 0.000000
0.825771 0.657109 0.484359
0.935558 0.842752 0.692465
0.946581 0.950857 0.844302
0.844985 0.959695 0.916206
0.590175 0.817680 0.871241
0.114819 0.443367 0.659204
0.000000 0.000000 0.216622
0.000000 0.000000 0.000000
0.000000 0.000000 0.000000
1.000000 0.816544 1.000000
1.000000 1.000000 1.000000
1.000000 1.000000 1.000000
1.000000 1.000000 1.000000
1.000000 1.000000 1.000000
0.679728 0.602126 1.000000
0.000000 0.000000 0.614645
0.000000 0.000000 0.000000
0.000000 0.000000 0.000000
1.000000 1.000000 1.000000
1.000000 1.000000 1.000000
1.000000 1.000000 1.000000
1.000000 1.000000 1.000000
1.000000 1.000000 1.000000
1.000000 0.902182 1.000000
0.481081 0.000000 1.000000
0.000000 0.000000 0.341574
0.000000 0.000000 0.000000
1.000000 1.000000 1.000000
1.000000 1.000000 1.000000
1.000000 1.000000 1.000000
1.000000 1.000000 1.000000
1.000000 1.000000 1.000000
1.000000 1.000000 1.000000
1.000000 0.000000 1.000000
0.000000 0.000000 1.000000
0.000000 0.000000 0.000000
1.000000 0.569477 0.455309
0.515526 0.138565 0.052731
0.201207 0.000000 0.000000
0.131249 0.000000 0.000000
0.345608 0.000000 0.034758
0.857499 0.273299 0.548129
1.000000 0.752385 1.000000
1.000000 1.000000 1.000000
1.000000 1.000000 1.000000
0.936527 0.618962 0.552759
0.623195 0.279195 0.298465
0.450747 0.072942 0.176734
0.472380 0.029252 0.227894
0.714555 0.147318 0.479002
1.000000 0.396476 0.943845
1.000000 0.716204 1.000000
1.000000 1.000000 1.000000
1.000000 1.000000 1.000000
0.713374 0.638963 0.454607
0.542817 0.389921 0.329495
0.470552 0.242590 0.297772
0.536281 0.214121 0.389992
0.752967 0.291812 0.623435
1.000000 0.433099 1.000000
1.000000 0.565564 1.000000
1.000000 0.586931 1.000000
1.000000 0.365066 1.000000
0.474669 0.650406 0.268346
0.410201 0.494611 0.252726
0.395622 0.403226 0.286688
0.457140 0.381507 0.391010
0.594223 0.404852 0.573198
0.779603 0.418802 0.827490
0.959272 0.339041 1.000000
1.000000 0.051394 1.000000
0.951759 0.000000 1.000000
0.427241 0.678880 0.177126
0.431364 0.621796 0.250719
0.431166 0.586324 0.325454
0.439359 0.565825 0.412333
0.441916 0.523797 0.509086
0.398074 0.393885 0.600177
0.240329 0.079875 0.656799
0.000000 0.000000 0.636876
0.000000 0.000000 0.485063
0.848131 0.754640 0.439751
0.882539 0.804672 0.581690
0.852606 0.828023 0.671697
0.757549 0.806154 0.710998
0.569848 0.690667 0.687549
0.235242 0.403311 0.576038
0.000000 0.000000 0.337883
0.000000 0.000000 0.000000
0.000000 0.000000 0.000000
1.000000 0.912604 1.000000
1.000000 1.000000 1.000000
1.000000 1.000000 1.000000
1.000000 1.000000 1.000000
1.000000 0.952149 1.000000
0.634313 0.496707 1.000000
0.000000 0.000000 0.509036
0.000000 0.000000 0.000000
0.000000 0.000000 0.000000
1.000000 1.000000 1.000000
1.000000 1.000000 1.000000
1.000000 1.000000 1.000000
1.000000 1.000000 1.000000
1.000000 1.000000 1.000000
1.000000 0.728365 1.000000
0.431383 0.000000 1.000000
0.000000 0.000000 0.218379
0.000000 0.000000 0.000000
1.000000 1.000000 1.000000
1.000000 1.000000 1.000000
1.000000 1.000000 1.000000
1.000000 1.000000 1.000000
1.000000 1.000000 1.000000
1.000000 1.000000 1.000000
1.000000 0.000000 1.000000
0.000000 0.000000 1.000000
0.000000 0.000000 0.000000
1.000000 0.511554 0.407939
0.555294 0.102471 0.011012
0.230604 0.000000 0.000000
0.194534 0.000000 0.000000
0.500110 0.250965 0.109244
1.000000 0.806643 0.777405
1.000000 1.000000 1.000000
1.000000 1.000000 1.000000
1.000000 1.000000 1.000000
1.000000 0.607376 0.545880
0.730857 0.264020 0.302051
0.550616 0.101540 0.189961
0.609625 0.152174 0.274828
0.947417 0.418306 0.608601
1.000000 0.872460 1.000000
1.000000 1.000000 1.000000
1.000000 1.000000 1.000000
1.000000 1.000000 1.000000
0.896635 0.661642 0.472965
0.685681 0.383872 0.357907
0.606028 0.257513 0.334643
0.710449 0.302908 0.458613
1.000000 0.510541 0.771993
1.000000 0.841041 1.000000
1.000000 1.000000 1.000000
1.000000 1.000000 1.000000
1.000000 1.000000 1.000000
0.658220 0.695887 0.290566
0.550676 0.486503 0.279365
0.526943 0.393570 0.315377
0.626299 0.425532 0.444269
0.861287 0.560976 0.698440
1.000000 0.748635 1.000000
1.000000 0.907380 1.000000
1.000000 0.926229 1.000000
1.000000 0.664339 1.000000
0.570768 0.736315 0.175712
0.526966 0.601059 0.242864
0.513675 0.541796 0.308015
0.556680 0.555073 0.407059
0.655027 0.607580 0.562617
0.781024 0.636150 0.784044
0.880241 0.547760 1.000000
0.871511 0.219529 1.000000
0.646928 0.000000 1.000000
0.906424 0.813790 0.381087
0.885884 0.761348 0.500499
0.836749 0.738942 0.564064
0.771307 0.731224 0.597900
0.675110 0.692985 0.614853
0.506969 0.549164 0.614502
0.198961 0.194837 0.583157
0.000000 0.000000 0.493858
0.000000 0.000000 0.306376
1.000000 0.963843 1.000000
1.000000 1.000000 1.000000
1.000000 1.000000 1.000000
1.000000 0.998339 1.000000
1.000000 0.864491 1.000000
0.733853 0.537914 0.913790
0.000000 0.000000 0.517872
0.000000 0.000000 0.000000
0.000000 0.000000 0.000000
1.000000 1.000000 1.000000
1.000000 1.000000 1.000000
1.000000 1.000000 1.000000
1.000000 1.000000 1.000000
1.000000 1.000000 1.000000
1.000000 0.657305 1.000000
0.535936 0.000000 1.000000
0.000000 0.000000 0.183804
0.000000 0.000000 0.000000
1.000000 1.000000 1.000000
1.000000 1.000000 1.000000
1.000000 1.000000 1.000000
1.000000 1.000000 1.000000
1.000000 1.000000 1.000000
1.000000 0.966906 1.000000
1.000000 0.000000 1.000000
0.000000 0.000000 1.000000
0.000000 0.000000 0.000000
0.987348 0.334803 0.148344
0.457544 0.034450 0.000000
0.169100 0.000000 0.000000
0.214853 0.248245 0.000000
0.660903 0.827190 0.228376
1.000000 1.000000 1.000000
1.000000 1.000000 1.000000
1.000000 1.000000 1.000000
1.000000 1.000000 1.000000
1.000000 0.505323 0.375504
0.756420 0.238710 0.214965
0.612818 0.206195 0.177089
0.754958 0.443207 0.351984
1.000000 0.955317 0.816491
1.000000 1.000000 1.000000
1.000000 1.000000 1.000000
1.000000 1.000000 1.000000
1.000000 1.000000 1.000000
1.000000 0.617625 0.373706
0.794833 0.384891 0.337757
0.750044 0.359129 0.383752
0.936732 0.563871 0.592025
1.000000 0.992793 1.000000
1.000000 1.000000 1.000000
1.000000 1.000000 1.000000
1.000000 1.000000 1.000000
1.000000 1.000000 1.000000
0.810669 0.693860 0.238201
0.698800 0.498082 0.296702
0.705983 0.476655 0.391795
0.884570 0.641213 0.594038
1.000000 0.973533 0.960721
1.000000 1.000000 1.000000
1.000000 1.000000 1.000000
1.000000 1.000000 1.000000
1.000000 1.000000 1.000000
0.719707 0.760839 0.139896
0.664548 0.608039 0.262118
0.676054 0.591471 0.370947
0.793081 0.710871 0.527165
1.000000 0.936120 0.778286
1.000000 1.000000 1.000000
1.000000 1.000000 1.000000
1.000000 1.000000 1.000000
1.000000 1.000000 1.000000
0.999613 0.850042 0.325353
0.958514 0.749183 0.479981
0.925884 0.740939 0.566594
0.927086 0.813150 0.636203
0.960741 0.923798 0.726545
0.998737 1.000000 0.862091
0.986219 0.943054 1.000000
0.841598 0.618340 1.000000
0.456545 0.000000 1.000000
1.000000 0.997610 1.000000
1.000000 0.960596 1.000000
1.000000 0.967084 1.000000
1.000000 0.993015 1.000000
1.000000 0.984477 1.000000
1.000000 0.857696 0.965746
0.568093 0.499045 0.764178
0.000000 0.000000 0.508818
0.000000 0.000000 0.174550
1.000000 1.000000 1.000000
1.000000 1.000000 1.000000
1.000000 1.000000 1.000000
1.000000 1.000000 1.000000
1.000000 1.000000 1.000000
1.000000 0.832815 1.000000
0.913225 0.160829 1.000000
0.000000 0.000000 0.396403
0.000000 0.000000 0.000000
1.000000 1.000000 1.000000
1.000000 1.000000 1.000000
1.000000 1.000000 1.000000
1.000000 1.000000 1.000000
1.000000 1.000000 1.000000
1.000000 0.986547 1.000000
1.000000 0.000000 1.000000
0.264296 0.000000 1.000000
0.000000 0.000000 0.000000
0.573220 0.000000 0.000000
0.106403 0.000000 0.000000
0.000000 0.107876 0.000000
0.104240 0.699527 0.000000
0.753976 1.000000 0.344710
1.000000 1.000000 1.000000
1.000000 1.000000 1.000000
1.000000 1.000000 1.000000
1.000000 1.000000 1.000000
0.891617 0.248453 0.000000
0.601906 0.159837 0.000000
0.553333 0.364400 0.083900
0.838313 0.900762 0.419246
1.000000 1.000000 1.000000
1.000000 1.000000 1.000000
1.000000 1.000000 1.000000
1.000000 1.000000 1.000000
1.000000 1.000000 1.000000
0.945196 0.454430 0.095841
0.790197 0.361415 0.222155
0.836478 0.536794 0.412313
1.000000 1.000000 0.771539
1.000000 1.000000 1.000000
1.000000 1.000000 1.000000
1.000000 1.000000 1.000000
1.000000 1.000000 1.000000
1.000000 1.000000 1.000000
0.855884 0.603704 0.071689
0.792394 0.509648 0.279276
0.884519 0.653703 0.504582
1.000000 1.000000 0.843057
1.000000 1.000000 1.000000
1.000000 1.000000 1.000000
1.000000 1.000000 1.000000
1.000000 1.000000 1.000000
1.000000 1.000000 1.000000
0.815821 0.723699 0.051544
0.799829 0.634901 0.304451
0.887975 0.748434 0.524318
1.000000 1.000000 0.796821
1.000000 1.000000 1.000000
1.000000 1.000000 1.000000
1.000000 1.000000 1.000000
1.000000 1.000000 1.000000
1.000000 1.000000 1.000000
1.000000 0.846506 0.275847
1.000000 0.772208 0.537531
1.000000 0.858963 0.710785
1.000000 1.000000 0.871507
1.000000 1.000000 1.000000
1.000000 1.000000 1.000000
1.000000 1.000000 1.000000
1.000000 1.000000 1.000000
1.000000 1.000000 1.000000
1.000000 1.000000 1.000000
1.000000 0.961263 1.000000
1.000000 1.000000 1.000000
1.000000 1.000000 1.000000
1.000000 1.000000 1.000000
1.000000 1.000000 1.000000
1.000000 1.000000 1.000000
1.000000 1.000000 1.000000
0.623158 0.569172 1.000000
1.000000 1.000000 1.000000
1.000000 1.000000 1.000000
1.000000 1.000000 1.000000
1.000000 1.000000 1.000000
1.000000 1.000000 1.000000
1.000000 1.000000 1.000000
1.000000 1.000000 1.000000
0.622832 0.321958 1.000000
0.000000 0.000000 0.395398
1.000000 1.000000 1.000000
1.000000 1.000000 1.000000
1.000000 1.000000 1.000000
1.000000 1.000000 1.000000
1.000000 1.000000 1.000000
1.000000 1.000000 1.000000
1.000000 0.669532 1.000000
1.000000 0.000000 1.000000
0.000000 0.000000 0.229627
0.000000 0.000000 0.000000
0.000000 0.000000 0.000000
0.000000 0.185646 0.000000
0.000000 1.000000 0.000000
0.666017 1.000000 0.397111
1.000000 1.000000 1.000000
1.000000 1.000000 1.000000
1.000000 1.000000 1.000000
1.000000 1.000000 1.000000
0.288440 0.000000 0.000000
0.130041 0.000000 0.000000
0.248839 0.521273 0.000000
0.750321 1.000000 0.422806
1.000000 1.000000 1.000000
1.000000 1.000000 1.000000
1.000000 1.000000 1.000000
1.000000 1.000000 1.000000
1.000000 1.000000 1.000000
0.583131 0.087199 0.000000
0.552393 0.249508 0.000000
0.759907 0.747492 0.373843
1.000000 1.000000 0.964777
1.000000 1.000000 1.000000
1.000000 1.000000 1.000000
1.000000 1.000000 1.000000
1.000000 1.000000 1.000000
1.000000 1.000000 1.000000
0.678428 0.352426 0.000000
0.729977 0.469127 0.187934
0.975022 0.893559 0.628687
1.000000 1.000000 1.000000
1.000000 1.000000 1.000000
1.000000 1.000000 1.000000
1.000000 1.000000 1.000000
1.000000 1.000000 1.000000
1.000000 1.000000 1.000000
0.761575 0.563765 0.000000
0.849226 0.641436 0.352136
1.000000 0.993397 0.764506
1.000000 1.000000 1.000000
1.000000 1.000000 1.000000
1.000000 1.000000 1.000000
1.000000 1.000000 1.000000
1.000000 1.000000 1.000000
1.000000 1.000000 1.000000
1.000000 0.753917 0.222169
1.000000 0.802078 0.676856
1.000000 1.000000 1.000000
1.000000 1.000000 1.000000
1.000000 1.000000 1.000000
1.000000 1.000000 1.000000
1.000000 1.000000 1.000000
1.000000 1.000000 1.000000
1.000000 1.000000 1.000000
1.000000 0.960248 1.000000
1.000000 0.991360 1.000000
1.000000 1.000000 1.000000
1.000000 1.000000 1.000000
1.000000 1.000000 1.000000
1.000000 1.000000 1.000000
1.000000 1.000000 1.000000
1.000000 1.000000 1.000000
1.000000 1.000000 1.000000
1.000000 1.000000 1.000000
1.000000 1.000000 1.000000
1.000000 1.000000 1.000000
1.000000 1.000000 1.000000
1.000000 1.000000 1.000000
1.000000 1.000000 1.000000
1.000000 1.000000 1.000000
1.000000 1.000000 1.000000
1.000000 1.000000 1.000000
1.000000 1.000000 1.000000
1.000000 1.000000 1.000000
1.000000 1.000000 1.000000
1.000000 1.000000 1.000000
1.000000 1.000000 1.000000
1.000000 1.000000 1.000000
1.000000 1.000000 1.000000
1.000000 1.000000 1.000000
0.665406 0.000000 1.000000
