lrplugin/MindfulLensFilmEngine.lrplugin/profiles/luts/fuji_400h_cc.cube
# Generated from ColorChecker fit
LUT_3D_SIZE 9
DOMAIN_MIN 0.0 0.0 0.0
DOMAIN_MAX 1.0 1.0 1.0
0.187511 0.000000 0.195143
0.000000 0.000000 0.091373
0.000000 0.000000 0.024057
0.000000 0.000000 0.000000
0.000000 0.000000 0.000000
0.000000 0.000000 0.000000
0.000000 0.000000 0.000000
0.000000 0.000000 0.000000
0.000000 0.000000 0.000000
0.103975 0.000000 0.339133
0.000000 0.000000 0.324144
0.000000 0.000000 0.348473
0.000000 0.000000 0.403173
0.000000 0.000000 0.473480
0.000000 0.000000 0.538815
0.000000 0.000000 0.572789
0.000000 0.000000 0.543196
0.000000 0.176564 0.412016
0.000000 0.000000 0.293337
0.000000 0.000000 0.359618
0.000000 0.000000 0.463361
0.000000 0.000000 0.589629
0.000000 0.000000 0.717671
0.000000 0.000000 0.820924
0.000000 0.085348 0.867009
0.081908 0.319206 0.817733
0.251285 0.730980 0.629091
0.000000 0.000000 0.117704
0.000000 0.000000 0.261110
0.000000 0.022929 0.435394
0.061043 0.161214 0.619635
0.153354 0.276746 0.787095
0.231020 0.377589 0.905222
0.292287 0.489054 0.935652
0.346079 0.653689 0.834205
0.411994 0.931288 0.550888
0.000000 0.000000 0.000000
0.068595 0.112596 0.147614
0.189382 0.332595 0.386931
0.311244 0.514967 0.618911
0.401060 0.640153 0.810831
0.436385 0.705833 0.924152
0.405452 0.726932 0.914522
0.307172 0.735616 0.731775
0.151133 0.781293 0.319931
0.533509 0.181555 0.000000
0.625406 0.462409 0.193810
0.741031 0.717757 0.496011
0.826572 0.900411 0.768858
0.838896 0.980427 0.973642
0.745545 0.945101 1.000000
0.524742 0.798974 0.995103
0.165384 0.563827 0.705289
0.000000 0.278685 0.134427
1.000000 0.602165 0.246556
1.000000 0.920131 0.630061
1.000000 1.000000 0.996358
1.000000 1.000000 1.000000
1.000000 1.000000 1.000000
1.000000 1.000000 1.000000
0.905898 0.699051 1.000000
0.174608 0.131044 1.000000
0.000000 0.000000 0.248268
1.000000 1.000000 1.000000
1.000000 1.000000 1.000000
1.000000 1.000000 1.000000
1.000000 1.000000 1.000000
1.000000 1.000000 1.000000
1.000000 1.000000 1.000000
1.000000 0.414920 1.000000
0.642434 0.000000 1.000000
0.000000 0.000000 0.971027
1.000000 1.000000 1.000000
1.000000 1.000000 1.000000
1.000000 1.000000 1.000000
1.000000 1.000000 1.000000
1.000000 1.000000 1.000000
1.000000 1.000000 1.000000
1.000000 0.000000 1.000000
1.000000 0.000000 1.000000
0.000000 0.000000 1.000000
0.565039 0.519730 0.093926
0.142703 0.223959 0.000000
0.000000 0.000000 0.000000
0.000000 0.000000 0.000000
0.000000 0.000000 0.000000
0.000000 0.000000 0.000000
0.000000 0.000000 0.000000
0.000000 0.000000 0.000000
0.000000 0.000000 0.000000
0.454062 0.289834 0.294896
0.195393 0.126302 0.216564
0.002143 0.004606 0.189290
0.000000 0.000000 0.208714
0.000000 0.000000 0.264663
0.000000 0.000000 0.341149
0.000000 0.000000 0.416369
0.000000 0.000000 0.462707
0.000000 0.262259 0.446734
0.267279 0.150104 0.290792
0.140327 0.104357 0.293629
0.088355 0.107843 0.344447
0.080366 0.130577 0.432896
0.096043 0.159814 0.542817
0.125744 0.200054 0.652235
0.170505 0.273038 0.733360
0.242042 0.417748 0.752590
0.362745 0.690410 0.670508
0.106961 0.118603 0.141639
0.077927 0.175037 0.222196
0.122097 0.277083 0.342929
0.198463 0.384372 0.487505
0.276694 0.473774 0.633777
0.337137 0.539405 0.753781
0.370818 0.592621 0.813742
0.379437 0.662020 0.774071
0.375376 0.793444 0.589363
0.129076 0.207278 0.000000
0.162312 0.349139 0.121332
0.255640 0.521972 0.307168
0.358040 0.675024 0.498334
0.429170 0.774782 0.666694
0.439364 0.804975 0.778300
0.369635 0.766576 0.793389
0.211674 0.677799 0.666385
0.000000 0.574102 0.345896
0.543290 0.421958 0.000000
0.601298 0.631341 0.165791
0.694950 0.846038 0.415278
0.763215 1.000000 0.646857
0.755737 1.000000 0.826407
0.632841 0.996840 0.913991
0.365526 0.793830 0.863861
0.000000 0.462862 0.624452
0.000000 0.029009 0.138388
1.000000 0.762357 0.259387
1.000000 1.000000 0.586007
1.000000 1.000000 0.901054
1.000000 1.000000 1.000000
1.000000 1.000000 1.000000
1.000000 1.000000 1.000000
0.610757 0.667190 1.000000
0.000000 0.008865 0.898877
0.000000 0.000000 0.220803
1.000000 1.000000 1.000000
1.000000 1.000000 1.000000
1.000000 1.000000 1.000000
1.000000 1.000000 1.000000
1.000000 1.000000 1.000000
1.000000 1.000000 1.000000
1.000000 0.373350 1.000000
0.113113 0.000000 1.000000
0.000000 0.000000 0.902788
1.000000 1.000000 1.000000
1.000000 1.000000 1.000000
1.000000 1.000000 1.000000
1.000000 1.000000 1.000000
1.000000 1.000000 1.000000
1.000000 1.000000 1.000000
1.000000 0.000000 1.000000
1.000000 0.000000 1.000000
0.000000 0.000000 1.000000
0.896083 0.979377 0.035385
0.395452 0.575410 0.000000
0.000000 0.237449 0.000000
0.000000 0.000000 0.000000
0.000000 0.000000 0.000000
0.000000 0.000000 0.000000
0.000000 0.000000 0.000000
0.000000 0.000000 0.000000
0.000000 0.000000 0.000000
0.764595 0.692355 0.294328
0.428191 0.415494 0.148965
0.189194 0.222078 0.065496
0.019400 0.078555 0.044151
0.000000 0.000000 0.079345
0.000000 0.000000 0.159678
0.000000 0.000000 0.267939
0.000000 0.000000 0.381101
0.000000 0.141914 0.470323
0.533074 0.492962 0.329915
0.332439 0.332617 0.266138
0.235472 0.262139 0.259955
0.203955 0.237591 0.305609
0.210350 0.232278 0.391527
0.237795 0.236746 0.500325
0.280107 0.258785 0.608803
0.341779 0.323426 0.687947
0.437982 0.472943 0.702930
0.300312 0.398198 0.202247
0.205142 0.342628 0.217300
0.208563 0.372329 0.280925
0.262345 0.432980 0.381376
0.328940 0.487500 0.501094
0.381472 0.516053 0.616707
0.403746 0.516042 0.699029
0.390244 0.502116 0.713058
0.346127 0.506163 0.617982
0.218801 0.418945 0.027103
0.196940 0.455260 0.121595
0.257258 0.561231 0.250910
0.341513 0.672153 0.397317
0.402143 0.740560 0.537270
0.402263 0.736232 0.641410
0.315666 0.646189 0.674564
0.126821 0.474694 0.595744
0.000000 0.243251 0.358149
0.494729 0.559970 0.000000
0.512173 0.674128 0.153847
0.584046 0.831309 0.348097
0.642097 0.956422 0.534980
0.628751 0.991621 0.684966
0.497112 0.896297 0.762706
0.210958 0.647088 0.727041
0.000000 0.237872 0.530997
0.000000 0.000000 0.121785
1.000000 0.819920 0.275934
1.000000 0.996728 0.544566
1.000000 1.000000 0.806356
1.000000 1.000000 1.000000
1.000000 1.000000 1.000000
0.916654 0.989142 1.000000
0.338411 0.510482 1.000000
0.000000 0.000000 0.769495
0.000000 0.000000 0.162929
1.000000 1.000000 1.000000
1.000000 1.000000 1.000000
1.000000 1.000000 1.000000
1.000000 1.000000 1.000000
1.000000 1.000000 1.000000
1.000000 1.000000 1.000000
1.000000 0.222000 1.000000
0.000000 0.000000 1.000000
0.000000 0.000000 0.791301
1.000000 1.000000 1.000000
1.000000 1.000000 1.000000
1.000000 1.000000 1.000000
1.000000 1.000000 1.000000
1.000000 1.000000 1.000000
1.000000 0.914165 1.000000
1.000000 0.000000 1.000000
0.624525 0.000000 1.000000
0.000000 0.000000 1.000000
1.000000 1.000000 0.011308
0.586491 0.801038 0.000000
0.097389 0.378771 0.000000
0.000000 0.034861 0.000000
0.000000 0.000000 0.000000
0.000000 0.000000 0.000000
0.000000 0.000000 0.000000
0.000000 0.000000 0.000000
0.000000 0.000000 0.000000
1.000000 1.000000 0.332462
0.619250 0.592888 0.122502
0.314974 0.311890 0.000000
0.111538 0.115330 0.000000
0.000000 0.000000 0.000000
0.000000 0.000000 0.020040
0.000000 0.000000 0.159258
0.000000 0.000000 0.336255
0.114513 0.000000 0.526780
0.793104 0.756284 0.408986
0.498132 0.461422 0.281543
0.342384 0.303948 0.220406
0.280422 0.225975 0.224407
0.277489 0.186855 0.286563
0.309501 0.163184 0.394077
0.363055 0.148798 0.528340
0.435424 0.154777 0.664927
0.534560 0.209444 0.773599
0.492822 0.606087 0.301051
0.316606 0.421425 0.254068
0.271236 0.368581 0.263147
0.301265 0.379282 0.321131
0.361921 0.402495 0.415053
0.419110 0.404432 0.526128
0.449416 0.368546 0.629759
0.440101 0.295533 0.695536
0.389105 0.203329 0.687232
0.307958 0.565054 0.124512
0.221835 0.481565 0.159292
0.246846 0.513305 0.235166
0.317531 0.581615 0.338990
0.379106 0.625079 0.451810
0.387466 0.599525 0.548854
0.309183 0.478019 0.599539
0.121507 0.250875 0.567466
0.000000 0.000000 0.410423
0.441222 0.636887 0.050907
0.414680 0.644394 0.172115
0.468225 0.739521 0.314724
0.526382 0.833225 0.459605
0.524358 0.853707 0.581816
0.408034 0.746409 0.650599
0.133971 0.474015 0.629383
0.000000 0.016451 0.475783
0.000000 0.000000 0.141600
1.000000 0.819169 0.307457
1.000000 0.906343 0.523118
1.000000 1.000000 0.735765
1.000000 1.000000 0.920281
1.000000 1.000000 1.000000
0.727973 0.836916 1.000000
0.169089 0.347212 0.966680
0.000000 0.000000 0.671236
0.000000 0.000000 0.134872
1.000000 1.000000 1.000000
1.000000 1.000000 1.000000
1.000000 1.000000 1.000000
1.000000 1.000000 1.000000
1.000000 1.000000 1.000000
1.000000 0.856759 1.000000
0.713546 0.082174 1.000000
0.000000 0.000000 1.000000
0.000000 0.000000 0.700035
1.000000 1.000000 1.000000
1.000000 1.000000 1.000000
1.000000 1.000000 1.000000
1.000000 1.000000 1.000000
1.000000 1.000000 1.000000
1.000000 0.785536 1.000000
1.000000 0.000000 1.000000
0.215162 0.000000 1.000000
0.000000 0.000000 1.000000
1.000000 1.000000 0.000000
0.721417 0.929467 0.000000
0.142010 0.416530 0.000000
0.000000 0.024358 0.000000
0.000000 0.000000 0.000000
0.000000 0.000000 0.000000
0.000000 0.000000 0.000000
0.000000 0.000000 0.000000
0.000000 0.000000 0.000000
1.000000 1.000000 0.388578
0.781459 0.690129 0.122573
0.395629 0.318015 0.000000
0.149146 0.071771 0.000000
0.010041 0.000000 0.000000
0.000000 0.000000 0.000000
0.000000 0.000000 0.106326
0.077483 0.000000 0.350292
0.261767 0.000000 0.644350
1.000000 0.962408 0.510527
0.657589 0.525437 0.328490
0.432530 0.280265 0.220566
0.336465 0.155051 0.190177
0.327412 0.095196 0.234929
0.374071 0.063345 0.346617
0.455816 0.039381 0.511217
0.562701 0.020435 0.708897
0.695458 0.020875 0.914006
0.708713 0.767625 0.423821
0.439797 0.449112 0.324389
0.340853 0.315851 0.287606
0.349214 0.285617 0.310905
0.412886 0.293427 0.385906
0.490557 0.291540 0.498416
0.551590 0.249458 0.628427
0.576025 0.153924 0.750117
0.554583 0.008924 0.831850
0.428062 0.673978 0.244387
0.271769 0.468758 0.229560
0.262435 0.431226 0.261193
0.327381 0.468771 0.330732
0.404602 0.506027 0.423811
0.442772 0.484868 0.520249
0.401243 0.364411 0.594052
0.250045 0.121016 0.613410
0.000000 0.000000 0.540700
0.421578 0.684103 0.143836
0.350889 0.585862 0.218975
0.392811 0.626725 0.319661
0.464652 0.703699 0.431354
0.494394 0.731031 0.533701
0.420701 0.640212 0.600533
0.192913 0.379974 0.599869
0.000000 0.000000 0.493914
0.000000 0.000000 0.239057
0.942192 0.794519 0.349463
0.928239 0.795793 0.523290
0.981213 0.896569 0.697027
1.000000 0.983469 0.850149
0.927796 0.960357 0.956314
0.668029 0.748338 0.983367
0.168434 0.285762 0.893341
0.000000 0.000000 0.642452
0.000000 0.000000 0.181103
1.000000 0.995631 1.000000
1.000000 1.000000 1.000000
1.000000 1.000000 1.000000
1.000000 1.000000 1.000000
1.000000 1.000000 1.000000
1.000000 0.793898 1.000000
0.623336 0.065276 1.000000
0.000000 0.000000 1.000000
0.000000 0.000000 0.676707
1.000000 1.000000 1.000000
1.000000 1.000000 1.000000
1.000000 1.000000 1.000000
1.000000 1.000000 1.000000
1.000000 1.000000 1.000000
1.000000 0.755422 1.000000
1.000000 0.000000 1.000000
0.084280 0.000000 1.000000
0.000000 0.000000 1.000000
1.000000 1.000000 0.000000
0.791239 0.979423 0.000000
0.102764 0.381778 0.000000
0.000000 0.000000 0.000000
0.000000 0.000000 0.000000
0.000000 0.000000 0.000000
0.000000 0.000000 0.000000
0.000000 0.000000 0.000000
0.000000 0.000000 0.070519
1.000000 1.000000 0.426200
0.913125 0.728961 0.118825
0.432723 0.274524 0.000000
0.137043 0.000000 0.000000
0.000000 0.000000 0.000000
0.000000 0.000000 0.000000
0.019845 0.000000 0.109395
0.177949 0.000000 0.429582
0.431611 0.000000 0.835523
1.000000 1.000000 0.601311
0.816412 0.549424 0.379869
0.514769 0.228178 0.239446
0.384196 0.074236 0.188051
0.375491 0.019048 0.227881
0.450132 0.011305 0.355318
0.580274 0.016940 0.560931
0.748750 0.019131 0.829473
0.949072 0.018296 1.000000
0.957625 0.898267 0.540574
0.587611 0.453470 0.404400
0.433566 0.254248 0.336559
0.425600 0.204424 0.339073
0.504501 0.225062 0.408152
0.621735 0.254471 0.534191
0.739444 0.248200 0.701773
0.830451 0.179041 0.889663
0.878254 0.037028 1.000000
0.596048 0.764191 0.359990
0.366933 0.447639 0.311780
0.327473 0.358122 0.314493
0.397766 0.389078 0.364165
0.508590 0.451188 0.451018
0.601396 0.472376 0.559461
0.628318 0.397806 0.668089
0.552164 0.189886 0.749682
0.346420 0.000000 0.771206
0.460027 0.723111 0.231243
0.348284 0.532353 0.277055
0.388547 0.539072 0.351656
0.490903 0.626321 0.445096
0.576115 0.694397 0.541609
0.575626 0.660839 0.619619
0.431554 0.460427 0.651731
0.096698 0.045186 0.604741
0.000000 0.000000 0.439627
0.799014 0.770482 0.381702
0.779269 0.701917 0.530954
0.862544 0.790252 0.682138
0.948915 0.908156 0.819316
0.949133 0.945541 0.920737
0.784629 0.809562 0.958837
0.387510 0.424615 0.900234
0.000000 0.000000 0.705738
0.000000 0.000000 0.330339
1.000000 0.895643 1.000000
1.000000 0.944520 1.000000
1.000000 1.000000 1.000000
1.000000 1.000000 1.000000
1.000000 1.000000 1.000000
1.000000 0.902131 1.000000
0.788238 0.272806 1.000000
0.000000 0.000000 1.000000
0.000000 0.000000 0.753280
1.000000 1.000000 1.000000
1.000000 1.000000 1.000000
1.000000 1.000000 1.000000
1.000000 1.000000 1.000000
1.000000 1.000000 1.000000
1.000000 0.916015 1.000000
1.000000 0.000000 1.000000
0.300787 0.000000 1.000000
0.000000 0.000000 1.000000
1.000000 1.000000 0.000000
0.772389 0.959727 0.000000
0.000000 0.295664 0.000000
0.000000 0.000000 0.000000
0.000000 0.000000 0.000000
0.000000 0.000000 0.000000
0.000000 0.000000 0.000000
0.000000 0.000000 0.000000
0.000000 0.000000 0.257520
1.000000 1.000000 0.393100
0.997973 0.721224 0.065150
0.413236 0.205586 0.000000
0.065468 0.000000 0.000000
0.000000 0.000000 0.000000
0.000000 0.000000 0.000000
0.033273 0.000000 0.152957
0.276068 0.000000 0.564740
0.630565 0.008513 1.000000
1.000000 1.000000 0.632353
0.965619 0.548244 0.392819
0.583376 0.174878 0.240304
0.421148 0.023049 0.187408
0.422513 0.010255 0.240917
0.541728 0.071237 0.401801
0.743729 0.157975 0.665220
1.000000 0.239696 1.000000
1.000000 0.302866 1.000000
1.000000 1.000000 0.605570
0.758362 0.452380 0.454484
0.550944 0.213982 0.376509
0.535250 0.178239 0.378260
0.644848 0.252266 0.460535
0.823982 0.360418 0.618318
1.000000 0.444294 0.840781
1.000000 0.462733 1.000000
1.000000 0.391818 1.000000
0.814268 0.844264 0.428827
0.512935 0.439108 0.369581
0.450823 0.327222 0.364816
0.540808 0.388092 0.415159
0.706447 0.518448 0.515421
0.881974 0.632261 0.654600
1.000000 0.660745 0.815881
1.000000 0.552355 0.976633
0.970376 0.272790 1.000000
0.566214 0.765500 0.273882
0.419768 0.507785 0.313229
0.471592 0.512806 0.383703
0.624552 0.649666 0.479944
0.792193 0.804709 0.590777
0.898735 0.881522 0.699212
0.879078 0.800935 0.782446
0.678800 0.501018 0.811862
0.254153 0.000000 0.753029
0.736429 0.761666 0.368174
0.722987 0.651654 0.516230
0.855529 0.762825 0.667335
1.000000 0.953899 0.810142
1.000000 1.000000 0.927488
1.000000 1.000000 0.996399
0.862795 0.852350 0.988083
0.331628 0.295059 0.867936
0.000000 0.000000 0.595542
1.000000 0.821035 0.994829
1.000000 0.857837 1.000000
1.000000 1.000000 1.000000
1.000000 1.000000 1.000000
1.000000 1.000000 1.000000
1.000000 1.000000 1.000000
1.000000 0.796361 1.000000
0.298223 0.000000 1.000000
0.000000 0.000000 0.945961
1.000000 0.925764 1.000000
1.000000 1.000000 1.000000
1.000000 1.000000 1.000000
1.000000 1.000000 1.000000
1.000000 1.000000 1.000000
1.000000 1.000000 1.000000
1.000000 0.608223 1.000000
0.919008 0.000000 1.000000
0.000000 0.000000 1.000000
1.000000 1.000000 0.000000
0.626712 0.869298 0.000000
0.000000 0.169436 0.000000
0.000000 0.000000 0.000000
0.000000 0.000000 0.000000
0.000000 0.000000 0.000000
0.000000 0.000000 0.000000
0.000000 0.000000 0.000000
0.000000 0.000394 0.474486
1.000000 1.000000 0.221295
1.000000 0.668858 0.000000
0.309566 0.125469 0.000000
0.000000 0.000000 0.000000
0.000000 0.000000 0.000000
0.000000 0.000000 0.000000
0.005193 0.092395 0.205755
0.360521 0.318215 0.730628
0.850564 0.577606 1.000000
1.000000 1.000000 0.538915
1.000000 0.526855 0.308721
0.618043 0.137650 0.170644
0.430270 0.031103 0.141872
0.454684 0.110761 0.233781
0.638323 0.297412 0.451932
0.938901 0.529087 0.796072
1.000000 0.761058 1.000000
1.000000 0.965840 1.000000
1.000000 1.000000 0.557319
0.935780 0.453819 0.419268
0.679975 0.215357 0.358207
0.668408 0.239697 0.385336
0.827426 0.420000 0.506045
1.000000 0.666672 0.719908
1.000000 0.907358 1.000000
1.000000 1.000000 1.000000
1.000000 1.000000 1.000000
1.000000 0.912865 0.392654
0.700801 0.454161 0.350836
0.626767 0.361850 0.366155
0.754044 0.501467 0.443828
0.998969 0.755788 0.583255
1.000000 1.000000 0.778023
1.000000 1.000000 1.000000
1.000000 1.000000 1.000000
1.000000 1.000000 1.000000
0.735204 0.812960 0.216750
0.563660 0.526175 0.278615
0.643521 0.574274 0.373042
0.870432 0.812406 0.499261
1.000000 1.000000 0.650685
1.000000 1.000000 0.814914
1.000000 1.000000 0.973735
1.000000 1.000000 1.000000
1.000000 0.990823 1.000000
0.756795 0.772779 0.257123
0.765008 0.662038 0.433482
0.969038 0.843654 0.613105
1.000000 1.000000 0.789233
1.000000 1.000000 0.949294
1.000000 1.000000 1.000000
1.000000 1.000000 1.000000
1.000000 1.000000 1.000000
0.648343 0.586710 0.973922
1.000000 0.779532 0.796969
1.000000 0.847810 1.000000
1.000000 1.000000 1.000000
1.000000 1.000000 1.000000
1.000000 1.000000 1.000000
1.000000 1.000000 1.000000
1.000000 1.000000 1.000000
1.000000 1.000000 1.000000
0.164667 0.000000 1.000000
1.000000 0.814312 1.000000
1.000000 1.000000 1.000000
1.000000 1.000000 1.000000
1.000000 1.000000 1.000000
1.000000 1.000000 1.000000
1.000000 1.000000 1.000000
1.000000 1.000000 1.000000
1.000000 0.660750 1.000000
0.189849 0.000000 1.000000
1.000000 1.000000 0.000000
0.301472 0.697154 0.000000
0.000000 0.004441 0.000000
0.000000 0.000000 0.000000
0.000000 0.000000 0.000000
0.000000 0.000000 0.000000
0.000000 0.016180 0.000000
0.000000 0.395896 0.000000
0.000000 0.859124 0.683401
1.000000 1.000000 0.000000
0.889192 0.563899 0.000000
0.079528 0.038538 0.000000
0.000000 0.000000 0.000000
0.000000 0.000000 0.000000
0.000000 0.242496 0.000000
0.000000 0.627899 0.220774
0.405405 1.000000 0.886353
1.000000 1.000000 1.000000
1.000000 1.000000 0.240508
1.000000 0.480314 0.053206
0.583880 0.123879 0.000000
0.379927 0.118112 0.000000
0.443626 0.352607 0.150466
0.714793 0.734201 0.455822
1.000000 1.000000 0.909718
1.000000 1.000000 1.000000
1.000000 1.000000 1.000000
1.000000 1.000000 0.318574
1.000000 0.455863 0.227629
0.793062 0.268778 0.216646
0.800733 0.411529 0.301417
1.000000 0.763326 0.491920
1.000000 1.000000 0.792318
1.000000 1.000000 1.000000
1.000000 1.000000 1.000000
1.000000 1.000000 1.000000
1.000000 0.958761 0.177468
0.906972 0.493894 0.187665
0.835003 0.475430 0.256752
1.000000 0.754953 0.394534
1.000000 1.000000 0.605002
1.000000 1.000000 0.886331
1.000000 1.000000 1.000000
1.000000 1.000000 1.000000
1.000000 1.000000 1.000000
0.947476 0.857276 0.000000
0.763698 0.591637 0.108579
0.891328 0.739916 0.261159
1.000000 1.000000 0.450652
1.000000 1.000000 0.675060
1.000000 1.000000 0.926573
1.000000 1.000000 1.000000
1.000000 1.000000 1.000000
1.000000 1.000000 1.000000
0.847887 0.798627 0.000000
0.896363 0.740204 0.221321
1.000000 1.000000 0.464178
1.000000 1.000000 0.707441
1.000000 1.000000 0.943127
1.000000 1.000000 1.000000
1.000000 1.000000 1.000000
1.000000 1.000000 1.000000
1.000000 1.000000 1.000000
1.000000 0.768960 0.436574
1.000000 0.924592 0.812522
1.000000 1.000000 1.000000
1.000000 1.000000 1.000000
1.000000 1.000000 1.000000
1.000000 1.000000 1.000000
1.000000 1.000000 1.000000
1.000000 1.000000 1.000000
1.000000 1.000000 1.000000
1.000000 0.748303 1.000000
1.000000 1.000000 1.000000
1.000000 1.000000 1.000000
1.000000 1.000000 1.000000
1.000000 1.000000 1.000000
1.000000 1.000000 1.000000
1.000000 1.000000 1.000000
1.000000 1.000000 1.000000
1.000000 1.000000 1.000000
