lrplugin/MindfulLensFilmEngine.lrplugin/profiles/luts/fuji_provia_rx.cube
# Generated from ColorChecker fit
LUT_3D_SIZE 5
DOMAIN_MIN 0.0 0.0 0.0
DOMAIN_MAX 1.0 1.0 1.0
0.189604 0.047765 0.242433
0.070360 0.080977 0.398228
0.234837 0.241124 0.670144
0.000000 0.000000 0.082495
0.000000 0.000000 0.000000
0.019079 0.000000 0.269677
0.041209 0.242942 0.371018
0.077177 0.453147 0.604569
0.000000 0.000000 0.000000
0.000000 0.000000 0.000000
0.530613 0.096758 0.772439
0.606632 0.753079 0.881784
0.357387 0.912880 1.000000
0.000000 0.000000 0.481380
0.000000 0.000000 0.000000
1.000000 1.000000 1.000000
1.000000 1.000000 1.000000
1.000000 1.000000 1.000000
0.942772 0.317245 1.000000
0.000000 0.000000 0.147793
1.000000 1.000000 1.000000
1.000000 1.000000 1.000000
1.000000 1.000000 1.000000
1.000000 1.000000 1.000000
1.000000 0.000000 1.000000
0.482895 0.496590 0.172966
0.153499 0.049965 0.113530
0.430479 0.057650 0.455904
0.762264 0.000000 0.486208
0.000000 0.000000 0.000000
0.347554 0.429775 0.295917
0.241180 0.336781 0.269439
0.447400 0.428387 0.619512
0.270241 0.009293 0.608219
0.000000 0.000000 0.000000
0.466658 0.536090 0.430241
0.471153 0.769097 0.447458
0.425240 0.825959 0.802557
0.000000 0.000000 0.733585
0.000000 0.000000 0.000000
1.000000 1.000000 1.000000
1.000000 1.000000 1.000000
1.000000 1.000000 1.000000
0.850303 0.296448 1.000000
0.000000 0.000000 0.477415
1.000000 1.000000 1.000000
1.000000 1.000000 1.000000
1.000000 1.000000 1.000000
1.000000 1.000000 1.000000
0.915684 0.000000 1.000000
0.795578 0.681418 0.216854
0.184815 0.000000 0.000000
0.429539 0.000000 0.182336
1.000000 0.163312 0.449705
1.000000 0.000000 0.000000
0.754617 0.687591 0.435568
0.474425 0.236192 0.310788
0.732039 0.294645 0.610535
1.000000 0.319802 0.858699
0.314234 0.000000 0.000000
0.491008 0.673024 0.219112
0.404566 0.548309 0.191391
0.469028 0.569198 0.508182
0.089406 0.044949 0.669338
0.000000 0.000000 0.000000
1.000000 1.000000 1.000000
1.000000 1.000000 1.000000
1.000000 1.000000 1.000000
0.605209 0.085420 1.000000
0.000000 0.000000 0.054642
1.000000 1.000000 1.000000
1.000000 1.000000 1.000000
1.000000 1.000000 1.000000
1.000000 1.000000 1.000000
0.292878 0.000000 1.000000
0.603161 0.437304 0.000000
0.000000 0.000000 0.000000
0.000000 0.000000 0.000000
1.000000 0.982803 0.000000
1.000000 1.000000 0.000000
1.000000 0.684813 0.340952
0.689582 0.207510 0.334106
1.000000 0.566685 0.603399
1.000000 1.000000 0.934528
1.000000 1.000000 0.470250
0.751594 0.708317 0.175945
0.691718 0.539901 0.337198
0.910517 0.840215 0.653228
1.000000 1.000000 0.885696
0.041627 0.051317 0.153318
1.000000 1.000000 0.663275
1.000000 1.000000 0.902516
1.000000 1.000000 1.000000
1.000000 0.813062 1.000000
0.000000 0.000000 0.047823
1.000000 1.000000 1.000000
1.000000 1.000000 1.000000
1.000000 1.000000 1.000000
1.000000 1.000000 1.000000
0.685684 0.000000 1.000000
0.000000 0.000000 0.000000
0.000000 0.000000 0.000000
0.000000 0.192696 0.000000
0.000000 1.000000 0.000000
1.000000 1.000000 0.000000
0.430702 0.142305 0.000000
0.214602 0.220028 0.000000
0.766106 1.000000 0.000000
1.000000 1.000000 0.423703
1.000000 1.000000 0.231481
0.775657 0.545682 0.000000
0.996771 0.896018 0.484007
1.000000 1.000000 1.000000
1.000000 1.000000 1.000000
1.000000 1.000000 0.859580
1.000000 1.000000 0.547322
1.000000 1.000000 1.000000
1.000000 1.000000 1.000000
1.000000 1.000000 1.000000
1.000000 1.000000 1.000000
1.000000 1.000000 1.000000
1.000000 1.000000 1.000000
1.000000 1.000000 1.000000
1.000000 1.000000 1.000000
1.000000 1.000000 1.000000
