lrplugin/MindfulLensFilmEngine.lrplugin/profiles/luts/fuji_provia_100f.cube
# Generated from ColorChecker fit
LUT_3D_SIZE 5
DOMAIN_MIN 0.0 0.0 0.0
DOMAIN_MAX 1.0 1.0 1.0
0.075098 0.004038 0.120243
0.000000 0.000000 0.322513
0.000000 0.046469 0.652859
0.042696 0.289240 0.556347
0.000000 0.024963 0.000000
0.000000 0.000000 0.000000
0.000000 0.129594 0.449187
0.023731 0.295081 0.732543
0.000000 0.000000 0.084304
0.000000 0.000000 0.000000
0.000000 0.000000 0.000000
0.130825 0.311660 0.518270
0.000000 0.404629 0.671641
0.000000 0.000000 0.000000
0.000000 0.000000 0.000000
1.000000 0.000000 1.000000
1.000000 0.704205 1.000000
1.000000 0.673048 1.000000
0.000000 0.000000 0.182499
0.000000 0.000000 0.000000
1.000000 0.000000 1.000000
1.000000 1.000000 1.000000
1.000000 1.000000 1.000000
1.000000 0.000000 1.000000
0.000000 0.000000 0.000000
0.619232 0.471818 0.260301
0.080874 0.000000 0.000000
0.155011 0.000000 0.141025
0.845170 0.240370 0.761450
1.000000 0.383190 1.000000
0.302542 0.441583 0.240540
0.293210 0.353524 0.323436
0.456312 0.358260 0.603462
0.579451 0.183693 0.767540
0.022422 0.000000 0.290284
0.192859 0.418429 0.080815
0.430560 0.743777 0.492701
0.307695 0.708929 0.666883
0.000000 0.000000 0.133883
0.000000 0.000000 0.000000
1.000000 0.615939 1.000000
1.000000 1.000000 1.000000
1.000000 1.000000 1.000000
0.000000 0.000000 0.697982
0.000000 0.000000 0.000000
1.000000 1.000000 1.000000
1.000000 1.000000 1.000000
1.000000 1.000000 1.000000
1.000000 0.000000 1.000000
0.000000 0.000000 0.000000
1.000000 0.569477 0.455309
0.201207 0.000000 0.000000
0.345608 0.000000 0.034758
1.000000 0.752385 1.000000
1.000000 1.000000 1.000000
0.713374 0.638963 0.454607
0.470552 0.242590 0.297772
0.752967 0.291812 0.623435
1.000000 0.565564 1.000000
1.000000 0.365066 1.000000
0.427241 0.678880 0.177126
0.431166 0.586324 0.325454
0.441916 0.523797 0.509086
0.240329 0.079875 0.656799
0.000000 0.000000 0.485063
1.000000 0.912604 1.000000
1.000000 1.000000 1.000000
1.000000 0.952149 1.000000
0.000000 0.000000 0.509036
0.000000 0.000000 0.000000
1.000000 1.000000 1.000000
1.000000 1.000000 1.000000
1.000000 1.000000 1.000000
1.000000 0.000000 1.000000
0.000000 0.000000 0.000000
0.987348 0.334803 0.148344
0.169100 0.000000 0.000000
0.660903 0.827190 0.228376
1.000000 1.000000 1.000000
1.000000 1.000000 1.000000
1.000000 0.617625 0.373706
0.750044 0.359129 0.383752
1.000000 0.992793 1.000000
1.000000 1.000000 1.000000
1.000000 1.000000 1.000000
0.719707 0.760839 0.139896
0.676054 0.591471 0.370947
1.000000 0.936120 0.778286
1.000000 1.000000 1.000000
1.000000 1.000000 1.000000
1.000000 0.997610 1.000000
1.000000 0.967084 1.000000
1.000000 0.984477 1.000000
0.568093 0.499045 0.764178
0.000000 0.000000 0.174550
1.000000 1.000000 1.000000
1.000000 1.000000 1.000000
1.000000 1.000000 1.000000
1.000000 0.000000 1.000000
0.000000 0.000000 0.000000
0.000000 0.000000 0.000000
0.000000 0.185646 0.000000
0.666017 1.000000 0.397111
1.000000 1.000000 1.000000
1.000000 1.000000 1.000000
0.583131 0.087199 0.000000
0.759907 0.747492 0.373843
1.000000 1.000000 1.000000
1.000000 1.000000 1.000000
1.000000 1.000000 1.000000
0.761575 0.563765 0.000000
1.000000 0.993397 0.764506
1.000000 1.000000 1.000000
1.000000 1.000000 1.000000
1.000000 1.000000 1.000000
1.000000 0.960248 1.000000
1.000000 1.000000 1.000000
1.000000 1.000000 1.000000
1.000000 1.000000 1.000000
1.000000 1.000000 1.000000
1.000000 1.000000 1.000000
1.000000 1.000000 1.000000
1.000000 1.000000 1.000000
1.000000 1.000000 1.000000
0.665406 0.000000 1.000000
