lrplugin/MindfulLensFilmEngine.lrplugin/profiles/luts/fuji_provia_rx.cube
# Generated from ColorChecker fit
LUT_3D_SIZE 33
DOMAIN_MIN 0.0 0.0 0.0
DOMAIN_MAX 1.0 1.0 1.0
0.189604 0.047765 0.242433
0.150223 0.036810 0.238004
0.117588 0.030008 0.241311
0.092048 0.027637 0.252098
0.073774 0.029816 0.269950
0.062753 0.036511 0.294296
0.058791 0.047528 0.324408
0.061513 0.062519 0.359399
0.070360 0.080977 0.398228
0.084594 0.102241 0.439696
0.103295 0.125491 0.482446
0.125359 0.149753 0.524964
0.149503 0.173893 0.565582
0.174261 0.196624 0.602472
0.197985 0.216500 0.633648
0.218848 0.231920 0.656972
0.234837 0.241124 0.670144
0.243760 0.242199 0.670709
0.243244 0.233072 0.656055
0.230732 0.211516 0.623414
0.203488 0.175145 0.569860
0.158592 0.121419 0.492309
0.092942 0.047639 0.387522
0.003258 0.000000 0.252102
0.000000 0.000000 0.082495
0.000000 0.000000 0.000000
0.000000 0.000000 0.000000
0.000000 0.000000 0.000000
0.000000 0.000000 0.000000
0.000000 0.000000 0.000000
0.000000 0.000000 0.000000
0.000000 0.000000 0.000000
0.000000 0.000000 0.000000
0.184692 0.025795 0.252516
0.149188 0.020714 0.246567
0.120208 0.019596 0.248439
0.098068 0.022683 0.257868
0.082901 0.030058 0.274435
0.074660 0.041651 0.297563
0.073116 0.057232 0.326515
0.077858 0.076417 0.360403
0.088294 0.098663 0.398177
0.103648 0.123273 0.438633
0.122965 0.149391 0.480408
0.145108 0.176005 0.521982
0.168757 0.201949 0.561681
0.192410 0.225896 0.597672
0.214386 0.246367 0.627963
0.232820 0.261723 0.650408
0.245667 0.270169 0.662704
0.250697 0.269755 0.662388
0.245503 0.258373 0.646845
0.227493 0.233759 0.613298
0.193894 0.193492 0.558815
0.141752 0.134995 0.480309
0.067931 0.055534 0.374533
0.000000 0.000000 0.238085
0.000000 0.000000 0.067405
0.000000 0.000000 0.000000
0.000000 0.000000 0.000000
0.000000 0.000000 0.000000
0.000000 0.000000 0.000000
0.000000 0.000000 0.000000
0.000000 0.000000 0.000000
0.000000 0.000000 0.000000
0.000000 0.000000 0.000000
0.171136 0.003414 0.258859
0.139377 0.004286 0.251520
0.113905 0.008909 0.252082
0.094998 0.017489 0.260276
0.082757 0.030073 0.275677
0.077098 0.046554 0.297701
0.077756 0.066667 0.325609
0.084287 0.089991 0.358502
0.096060 0.115949 0.395327
0.112268 0.143805 0.434873
0.131919 0.172670 0.475773
0.153840 0.201494 0.516500
0.176676 0.229075 0.555373
0.198891 0.254052 0.590554
0.218768 0.274907 0.620046
0.234406 0.289967 0.641696
0.243725 0.297400 0.653195
0.244461 0.295221 0.652076
0.234170 0.281285 0.635716
0.210226 0.253292 0.601333
0.169820 0.208786 0.545989
0.109964 0.145153 0.466591
0.027486 0.059623 0.359887
0.000000 0.000000 0.222468
0.000000 0.000000 0.050768
0.000000 0.000000 0.000000
0.000000 0.000000 0.000000
0.000000 0.000000 0.000000
0.000000 0.000000 0.000000
0.000000 0.000000 0.000000
0.000000 0.000000 0.000000
0.000000 0.000000 0.000000
0.000000 0.000000 0.000000
0.150525 0.000000 0.262039
0.122383 0.000000 0.253439
0.100272 0.000000 0.252817
0.084438 0.012500 0.259900
0.074943 0.030303 0.274255
0.071669 0.051659 0.295292
0.074317 0.076269 0.322267
0.082406 0.103676 0.354276
0.095272 0.133266 0.390259
0.112069 0.164267 0.428999
0.131773 0.195754 0.469123
0.153175 0.226643 0.509100
0.174884 0.255694 0.547241
0.195330 0.281509 0.581702
0.212759 0.302536 0.610482
0.225236 0.317064 0.631421
0.230645 0.323228 0.642205
0.226688 0.319004 0.640359
0.210885 0.302212 0.623256
0.180574 0.270517 0.588107
0.132913 0.221425 0.531971
0.064875 0.152288 0.451745
0.000000 0.060298 0.344173
0.000000 0.000000 0.205840
0.000000 0.000000 0.033176
0.000000 0.000000 0.000000
0.000000 0.000000 0.000000
0.000000 0.000000 0.000000
0.000000 0.000000 0.000000
0.000000 0.000000 0.000000
0.000000 0.000000 0.000000
0.000000 0.000000 0.000000
0.000000 0.000000 0.000000
0.124760 0.000000 0.262903
0.100110 0.000000 0.253172
0.081218 0.000000 0.251494
0.068296 0.008271 0.257589
0.061371 0.031298 0.271018
0.060290 0.057515 0.291186
0.064717 0.086584 0.317342
0.074137 0.118013 0.348578
0.087850 0.151153 0.383826
0.104978 0.185195 0.421864
0.124457 0.219178 0.461314
0.145044 0.251982 0.500637
0.165315 0.282331 0.538140
0.183663 0.308792 0.571973
0.198299 0.329775 0.600129
0.207253 0.343534 0.620441
0.208374 0.348168 0.630590
0.199328 0.341617 0.628096
0.177599 0.321666 0.610324
0.140492 0.285941 0.574482
0.085127 0.231915 0.517620
0.008446 0.156902 0.436631
0.000000 0.058059 0.328253
0.000000 0.000000 0.189066
0.000000 0.000000 0.015491
0.000000 0.000000 0.000000
0.000000 0.000000 0.000000
0.000000 0.000000 0.000000
0.000000 0.000000 0.000000
0.000000 0.000000 0.000000
0.000000 0.000000 0.000000
0.000000 0.000000 0.000000
0.000000 0.000000 0.000000
0.096053 0.000000 0.262571
0.074771 0.000000 0.251840
0.058960 0.000000 0.249234
0.048793 0.005461 0.254465
0.044264 0.033717 0.267089
0.045185 0.064775 0.286506
0.051185 0.098263 0.311958
0.061712 0.133652 0.342531
0.076032 0.170256 0.377152
0.093230 0.207233 0.414594
0.112209 0.243582 0.453470
0.131691 0.278150 0.492238
0.150215 0.309623 0.529199
0.166139 0.336533 0.562495
0.177640 0.357254 0.590114
0.182712 0.370004 0.609885
0.179167 0.372845 0.619481
0.164638 0.363683 0.616417
0.136575 0.340264 0.598052
0.092244 0.300180 0.561588
0.028733 0.240868 0.504069
0.000000 0.159605 0.422383
0.000000 0.053514 0.313262
0.000000 0.000000 0.173278
0.000000 0.000000 0.000000
0.000000 0.000000 0.000000
0.000000 0.000000 0.000000
0.000000 0.000000 0.000000
0.000000 0.000000 0.000000
0.000000 0.000000 0.000000
0.000000 0.000000 0.000000
0.000000 0.000000 0.000000
0.000000 0.000000 0.000000
0.066929 0.000000 0.262435
0.048895 0.000000 0.250836
0.036027 0.000000 0.247429
0.028462 0.004838 0.251921
0.026159 0.038323 0.263863
0.028894 0.074202 0.282647
0.036261 0.112066 0.307510
0.047673 0.151349 0.337532
0.062362 0.191330 0.371635
0.079376 0.231130 0.408585
0.097583 0.269714 0.446990
0.115670 0.305891 0.485302
0.132141 0.338312 0.521815
0.145319 0.365472 0.554668
0.153344 0.385709 0.581840
0.154177 0.397207 0.601155
0.145594 0.397990 0.610280
0.125192 0.385928 0.606725
0.090386 0.358732 0.587843
0.038407 0.313957 0.550830
0.000000 0.249004 0.492723
0.000000 0.161115 0.410406
0.000000 0.047376 0.300604
0.000000 0.000000 0.159883
0.000000 0.000000 0.000000
0.000000 0.000000 0.000000
0.000000 0.000000 0.000000
0.000000 0.000000 0.000000
0.000000 0.000000 0.000000
0.000000 0.000000 0.000000
0.000000 0.000000 0.000000
0.000000 0.000000 0.000000
0.000000 0.000000 0.000000
0.040222 0.000000 0.264159
0.025320 0.000000 0.251824
0.015259 0.000000 0.247745
0.010145 0.007277 0.251624
0.009900 0.045991 0.263005
0.014264 0.086666 0.281275
0.022797 0.128859 0.305666
0.034876 0.171968 0.335250
0.049698 0.215236 0.368944
0.066275 0.257747 0.405508
0.083442 0.298430 0.443545
0.099848 0.336059 0.481500
0.113962 0.369247 0.517662
0.124073 0.396456 0.550163
0.128286 0.415987 0.576977
0.124526 0.425986 0.595923
0.110534 0.424442 0.604661
0.083871 0.409189 0.600695
0.041917 0.377903 0.581372
0.000000 0.328103 0.543883
0.000000 0.257152 0.485259
0.000000 0.162257 0.402377
0.000000 0.040467 0.291957
0.000000 0.000000 0.150559
0.000000 0.000000 0.000000
0.000000 0.000000 0.000000
0.000000 0.000000 0.000000
0.000000 0.000000 0.000000
0.000000 0.000000 0.000000
0.000000 0.000000 0.000000
0.000000 0.000000 0.000000
0.000000 0.000000 0.000000
0.000000 0.000000 0.000000
0.019079 0.000000 0.269677
0.007194 0.000000 0.256740
0.000000 0.000000 0.252119
0.000000 0.013761 0.255511
0.000000 0.057698 0.266454
0.004457 0.103144 0.284330
0.013957 0.149617 0.308364
0.026487 0.196481 0.337623
0.041209 0.242942 0.371018
0.057100 0.288048 0.407303
0.072958 0.330693 0.445075
0.087400 0.369613 0.482773
0.098858 0.403388 0.518681
0.105585 0.430440 0.550924
0.105652 0.449037 0.577471
0.096947 0.457288 0.596134
0.077177 0.453147 0.604569
0.043869 0.434410 0.600272
0.000000 0.398718 0.580586
0.000000 0.343554 0.542694
0.000000 0.266245 0.483624
0.000000 0.163962 0.400245
0.000000 0.033718 0.289271
0.000000 0.000000 0.147258
0.000000 0.000000 0.000000
0.000000 0.000000 0.000000
0.000000 0.000000 0.000000
0.000000 0.000000 0.000000
0.000000 0.000000 0.000000
0.000000 0.000000 0.000000
0.000000 0.000000 0.000000
0.000000 0.000000 0.000000
0.000000 0.000000 0.000000
0.006959 0.000000 0.281199
0.000000 0.000000 0.267791
0.000000 0.000000 0.262758
0.000000 0.025381 0.265790
0.000000 0.074534 0.276420
0.002945 0.124720 0.294022
0.013216 0.175422 0.317816
0.025984 0.225967 0.346864
0.040375 0.275524 0.380071
0.055333 0.323107 0.416184
0.069620 0.367573 0.453795
0.081816 0.407621 0.491337
0.090320 0.441797 0.527088
0.093348 0.468486 0.559167
0.088937 0.485920 0.585538
0.074940 0.492171 0.604006
0.049028 0.485158 0.612221
0.008692 0.462641 0.607675
0.000000 0.422225 0.587703
0.000000 0.361356 0.549484
0.000000 0.277326 0.490038
0.000000 0.167270 0.406230
0.000000 0.028165 0.294767
0.000000 0.000000 0.152199
0.000000 0.000000 0.000000
0.000000 0.000000 0.000000
0.000000 0.000000 0.000000
0.000000 0.000000 0.000000
0.000000 0.000000 0.000000
0.000000 0.000000 0.000000
0.000000 0.000000 0.000000
0.000000 0.000000 0.000000
0.000000 0.000000 0.000000
0.007630 0.000000 0.301202
0.001445 0.000000 0.287459
0.000000 0.000000 0.282145
0.000393 0.043332 0.284944
0.005341 0.097692 0.295384
0.013511 0.152586 0.312833
0.024359 0.207462 0.336506
0.037154 0.261611 0.365457
0.050988 0.314165 0.398587
0.064769 0.364104 0.434636
0.077223 0.410247 0.472191
0.086896 0.451259 0.509678
0.092151 0.485648 0.545370
0.091169 0.511764 0.577380
0.081951 0.527801 0.603666
0.062316 0.531799 0.622028
0.029899 0.521637 0.630108
0.000000 0.495041 0.625394
0.000000 0.449579 0.605215
0.000000 0.382662 0.566743
0.000000 0.291546 0.506994
0.000000 0.173328 0.422825
0.000000 0.024951 0.310938
0.000000 0.000000 0.167878
0.000000 0.000000 0.000000
0.000000 0.000000 0.000000
0.000000 0.000000 0.000000
0.000000 0.000000 0.000000
0.000000 0.000000 0.000000
0.000000 0.000000 0.000000
0.000000 0.000000 0.000000
0.000000 0.000000 0.000000
0.000000 0.000000 0.000000
0.025174 0.000000 0.332438
0.021679 0.000000 0.318494
0.021567 0.009816 0.313030
0.024801 0.068922 0.315726
0.031162 0.128474 0.326100
0.040250 0.188041 0.343519
0.051484 0.247034 0.367188
0.064099 0.304707 0.396158
0.077151 0.360158 0.429322
0.089514 0.412328 0.465415
0.099877 0.460003 0.503019
0.106751 0.501809 0.540554
0.108465 0.536220 0.576285
0.103164 0.561549 0.608322
0.088814 0.575956 0.634615
0.063198 0.577442 0.652959
0.023917 0.563852 0.660991
0.000000 0.532875 0.656192
0.000000 0.482043 0.635884
0.000000 0.408732 0.597235
0.000000 0.310161 0.537255
0.000000 0.183391 0.452794
0.000000 0.025329 0.340550
0.000000 0.000000 0.197061
0.000000 0.000000 0.018708
0.000000 0.000000 0.000000
0.000000 0.000000 0.000000
0.000000 0.000000 0.000000
0.000000 0.000000 0.000000
0.000000 0.000000 0.000000
0.000000 0.000000 0.000000
0.000000 0.000000 0.000000
0.000000 0.000000 0.000000
0.063982 0.000000 0.377930
0.063074 0.000000 0.363921
0.065142 0.038771 0.358440
0.070112 0.103560 0.361159
0.077733 0.168291 0.371595
0.087568 0.232493 0.389104
0.099000 0.295542 0.412889
0.111231 0.356657 0.441993
0.123280 0.414899 0.475304
0.133985 0.469174 0.511551
0.142001 0.518231 0.549309
0.145805 0.560661 0.586994
0.143688 0.594900 0.622865
0.133763 0.619227 0.655024
0.113957 0.631765 0.681417
0.082020 0.630479 0.699833
0.035517 0.613178 0.707902
0.000000 0.577516 0.703100
0.000000 0.520988 0.682745
0.000000 0.440933 0.643995
0.000000 0.334535 0.583857
0.000000 0.198820 0.499175
0.000000 0.030658 0.386640
0.000000 0.000000 0.242784
0.000000 0.000000 0.063984
0.000000 0.000000 0.000000
0.000000 0.000000 0.000000
0.000000 0.000000 0.000000
0.000000 0.000000 0.000000
0.000000 0.000000 0.000000
0.000000 0.000000 0.000000
0.000000 0.000000 0.000000
0.000000 0.000000 0.000000
0.128760 0.000000 0.440974
0.130338 0.007573 0.427035
0.134467 0.078291 0.421669
0.141040 0.148769 0.424542
0.149769 0.218658 0.435165
0.160183 0.287454 0.452888
0.171628 0.354497 0.476908
0.183272 0.418969 0.506262
0.194099 0.479895 0.539833
0.202911 0.536145 0.576344
0.208328 0.586432 0.614363
0.208792 0.629311 0.652301
0.202558 0.663183 0.688411
0.187704 0.686289 0.720790
0.162123 0.696717 0.747376
0.123528 0.692397 0.765954
0.069449 0.671100 0.774148
0.000000 0.630445 0.769427
0.000000 0.567890 0.749103
0.000000 0.480741 0.710331
0.000000 0.366142 0.650108
0.000000 0.221085 0.565275
0.000000 0.042403 0.452516
0.000000 0.000000 0.308358
0.000000 0.000000 0.129171
0.000000 0.000000 0.000000
0.000000 0.000000 0.000000
0.000000 0.000000 0.000000
0.000000 0.000000 0.000000
0.000000 0.000000 0.000000
0.000000 0.000000 0.000000
0.000000 0.000000 0.000000
0.000000 0.000000 0.000000
0.224521 0.000000 0.525135
0.228487 0.053086 0.511403
0.234563 0.130007 0.506286
0.242608 0.206174 0.509443
0.252297 0.281200 0.520379
0.263123 0.354548 0.538440
0.274400 0.425518 0.562815
0.285258 0.493259 0.592537
0.294646 0.556759 0.626482
0.301332 0.614851 0.663367
0.303901 0.666214 0.701755
0.300757 0.709365 0.740049
0.290123 0.742670 0.776499
0.270039 0.764335 0.809194
0.238365 0.772409 0.836068
0.192777 0.764788 0.854899
0.130772 0.739208 0.863304
0.049664 0.693249 0.858749
0.000000 0.624336 0.838538
0.000000 0.529736 0.799820
0.000000 0.406560 0.739587
0.000000 0.251762 0.654674
0.000000 0.062140 0.541759
0.000000 0.000000 0.397364
0.000000 0.000000 0.217851
0.000000 0.000000 0.000000
0.000000 0.000000 0.000000
0.000000 0.000000 0.000000
0.000000 0.000000 0.000000
0.000000 0.000000 0.000000
0.000000 0.000000 0.000000
0.000000 0.000000 0.000000
0.000000 0.000000 0.000000
0.356593 0.028337 0.634253
0.362852 0.112511 0.620866
0.370763 0.195657 0.616131
0.380150 0.277509 0.619703
0.390653 0.357650 0.631080
0.401730 0.435502 0.649603
0.412658 0.510332 0.674454
0.422534 0.581250 0.704661
0.430270 0.647211 0.739093
0.434600 0.707011 0.776464
0.434073 0.759291 0.815328
0.427058 0.802535 0.854084
0.411742 0.835071 0.890975
0.386131 0.855070 0.924084
0.348049 0.860545 0.951341
0.295138 0.849354 0.970515
0.224857 0.819199 0.979221
0.134487 0.767624 0.974916
0.021123 0.692017 0.954899
0.000000 0.589610 0.916314
0.000000 0.457476 0.856146
0.000000 0.292535 0.771225
0.000000 0.091548 0.658223
0.000000 0.000000 0.513655
0.000000 0.000000 0.333879
0.000000 0.000000 0.115096
0.000000 0.000000 0.000000
0.000000 0.000000 0.000000
0.000000 0.000000 0.000000
0.000000 0.000000 0.000000
0.000000 0.000000 0.000000
0.000000 0.000000 0.000000
0.000000 0.000000 0.000000
0.530613 0.096758 0.772439
0.539072 0.187697 0.759534
0.548710 0.277084 0.755316
0.559314 0.364619 0.759434
0.570487 0.449846 0.771380
0.581655 0.532153 0.790489
0.592058 0.610770 0.815939
0.600758 0.684773 0.846749
0.606632 0.753079 0.881784
0.608378 0.814448 0.919751
0.604510 0.867486 0.959200
0.593363 0.910640 0.998523
0.573088 0.942203 1.000000
0.541655 0.960308 1.000000
0.496853 0.962934 1.000000
0.436288 0.947903 1.000000
0.357387 0.912880 1.000000
0.257392 0.855373 1.000000
0.133365 0.772734 1.000000
0.000000 0.662158 1.000000
0.000000 0.520685 1.000000
0.000000 0.345196 0.919052
0.000000 0.132418 0.806031
0.000000 0.000000 0.661356
0.000000 0.000000 0.481380
0.000000 0.000000 0.262296
0.000000 0.000000 0.000144
0.000000 0.000000 0.000000
0.000000 0.000000 0.000000
0.000000 0.000000 0.000000
0.000000 0.000000 0.000000
0.000000 0.000000 0.000000
0.000000 0.000000 0.000000
0.752531 0.182857 0.944075
0.763102 0.280598 0.931790
0.774360 0.376241 0.928225
0.786056 0.469450 0.933021
0.797760 0.559734 0.945665
0.808861 0.646444 0.965486
0.818566 0.728776 0.991655
0.825898 0.805766 1.000000
0.829703 0.876298 1.000000
0.828640 0.939096 1.000000
0.821190 0.992729 1.000000
0.805652 1.000000 1.000000
0.780142 1.000000 1.000000
0.742595 1.000000 1.000000
0.690764 1.000000 1.000000
0.622220 1.000000 1.000000
0.534355 1.000000 1.000000
0.424376 0.958405 1.000000
0.289309 0.868393 1.000000
0.125999 0.749286 1.000000
0.000000 0.598088 1.000000
0.000000 0.411644 1.000000
0.000000 0.186644 0.989581
0.000000 0.000000 0.844866
0.000000 0.000000 0.664751
0.000000 0.000000 0.445427
0.000000 0.000000 0.182924
0.000000 0.000000 0.000000
0.000000 0.000000 0.000000
0.000000 0.000000 0.000000
0.000000 0.000000 0.000000
0.000000 0.000000 0.000000
0.000000 0.000000 0.000000
1.000000 0.288700 1.000000
1.000000 0.393276 1.000000
1.000000 0.495187 1.000000
1.000000 0.594061 1.000000
1.000000 0.689369 1.000000
1.000000 0.780428 1.000000
1.000000 0.866396 1.000000
1.000000 0.946275 1.000000
1.000000 1.000000 1.000000
1.000000 1.000000 1.000000
1.000000 1.000000 1.000000
1.000000 1.000000 1.000000
1.000000 1.000000 1.000000
0.995248 1.000000 1.000000
0.936082 1.000000 1.000000
0.859237 1.000000 1.000000
0.762067 1.000000 1.000000
0.641746 1.000000 1.000000
0.495265 0.981010 1.000000
0.319434 0.853006 1.000000
0.110881 0.691695 1.000000
0.000000 0.493885 1.000000
0.000000 0.256230 1.000000
0.000000 0.000000 1.000000
0.000000 0.000000 0.888664
0.000000 0.000000 0.669159
0.000000 0.000000 0.406363
0.000000 0.000000 0.096147
0.000000 0.000000 0.000000
0.000000 0.000000 0.000000
0.000000 0.000000 0.000000
0.000000 0.000000 0.000000
0.000000 0.000000 0.000000
1.000000 0.416459 1.000000
1.000000 0.527902 1.000000
1.000000 0.636090 1.000000
1.000000 0.740615 1.000000
1.000000 0.840912 1.000000
1.000000 0.936262 1.000000
1.000000 1.000000 1.000000
1.000000 1.000000 1.000000
1.000000 1.000000 1.000000
1.000000 1.000000 1.000000
1.000000 1.000000 1.000000
1.000000 1.000000 1.000000
1.000000 1.000000 1.000000
1.000000 1.000000 1.000000
1.000000 1.000000 1.000000
1.000000 1.000000 1.000000
1.000000 1.000000 1.000000
0.916123 1.000000 1.000000
0.757857 1.000000 1.000000
0.569116 0.975437 1.000000
0.346492 0.803621 1.000000
0.086398 0.594032 1.000000
0.000000 0.343288 1.000000
0.000000 0.047850 1.000000
0.000000 0.000000 1.000000
0.000000 0.000000 0.938434
0.000000 0.000000 0.675404
0.000000 0.000000 0.364831
0.000000 0.000000 0.002422
0.000000 0.000000 0.000000
0.000000 0.000000 0.000000
0.000000 0.000000 0.000000
0.000000 0.000000 0.000000
1.000000 0.568414 1.000000
1.000000 0.686753 1.000000
1.000000 0.801224 1.000000
1.000000 0.911384 1.000000
1.000000 1.000000 1.000000
1.000000 1.000000 1.000000
1.000000 1.000000 1.000000
1.000000 1.000000 1.000000
1.000000 1.000000 1.000000
1.000000 1.000000 1.000000
1.000000 1.000000 1.000000
1.000000 1.000000 1.000000
1.000000 1.000000 1.000000
1.000000 1.000000 1.000000
1.000000 1.000000 1.000000
1.000000 1.000000 1.000000
1.000000 1.000000 1.000000
1.000000 1.000000 1.000000
1.000000 1.000000 1.000000
0.881981 1.000000 1.000000
0.644886 0.936091 1.000000
0.369107 0.714307 1.000000
0.050839 0.450035 1.000000
0.000000 0.139700 1.000000
0.000000 0.000000 1.000000
0.000000 0.000000 1.000000
0.000000 0.000000 0.995260
0.000000 0.000000 0.684386
0.000000 0.000000 0.321545
0.000000 0.000000 0.000000
0.000000 0.000000 0.000000
0.000000 0.000000 0.000000
0.000000 0.000000 0.000000
1.000000 0.746953 1.000000
1.000000 0.872213 1.000000
1.000000 0.992971 1.000000
1.000000 1.000000 1.000000
1.000000 1.000000 1.000000
1.000000 1.000000 1.000000
1.000000 1.000000 1.000000
1.000000 1.000000 1.000000
1.000000 1.000000 1.000000
1.000000 1.000000 1.000000
1.000000 1.000000 1.000000
1.000000 1.000000 1.000000
1.000000 1.000000 1.000000
1.000000 1.000000 1.000000
1.000000 1.000000 1.000000
1.000000 1.000000 1.000000
1.000000 1.000000 1.000000
1.000000 1.000000 1.000000
1.000000 1.000000 1.000000
1.000000 1.000000 1.000000
1.000000 1.000000 1.000000
0.721431 0.857039 1.000000
0.385799 0.578798 1.000000
0.002390 0.253103 1.000000
0.000000 0.000000 1.000000
0.000000 0.000000 1.000000
0.000000 0.000000 1.000000
0.000000 0.000000 1.000000
0.000000 0.000000 0.697079
0.000000 0.000000 0.277297
0.000000 0.000000 0.000000
0.000000 0.000000 0.000000
0.000000 0.000000 0.000000
1.000000 0.954570 1.000000
1.000000 1.000000 1.000000
1.000000 1.000000 1.000000
1.000000 1.000000 1.000000
1.000000 1.000000 1.000000
1.000000 1.000000 1.000000
1.000000 1.000000 1.000000
1.000000 1.000000 1.000000
1.000000 1.000000 1.000000
1.000000 1.000000 1.000000
1.000000 1.000000 1.000000
1.000000 1.000000 1.000000
1.000000 1.000000 1.000000
1.000000 1.000000 1.000000
1.000000 1.000000 1.000000
1.000000 1.000000 1.000000
1.000000 1.000000 1.000000
1.000000 1.000000 1.000000
1.000000 1.000000 1.000000
1.000000 1.000000 1.000000
1.000000 1.000000 1.000000
1.000000 1.000000 1.000000
0.797509 0.732009 1.000000
0.394988 0.390488 1.000000
0.000000 0.000000 1.000000
0.000000 0.000000 1.000000
0.000000 0.000000 1.000000
0.000000 0.000000 1.000000
0.000000 0.000000 1.000000
0.000000 0.000000 0.714533
0.000000 0.000000 0.232951
0.000000 0.000000 0.000000
0.000000 0.000000 0.000000
1.000000 1.000000 1.000000
1.000000 1.000000 1.000000
1.000000 1.000000 1.000000
1.000000 1.000000 1.000000
1.000000 1.000000 1.000000
1.000000 1.000000 1.000000
1.000000 1.000000 1.000000
1.000000 1.000000 1.000000
1.000000 1.000000 1.000000
1.000000 1.000000 1.000000
1.000000 1.000000 1.000000
1.000000 1.000000 1.000000
1.000000 1.000000 1.000000
1.000000 1.000000 1.000000
1.000000 1.000000 1.000000
1.000000 1.000000 1.000000
1.000000 1.000000 1.000000
1.000000 1.000000 1.000000
1.000000 1.000000 1.000000
1.000000 1.000000 1.000000
1.000000 1.000000 1.000000
1.000000 1.000000 1.000000
1.000000 0.912210 1.000000
0.871771 0.554394 1.000000
0.394994 0.142435 1.000000
0.000000 0.000000 1.000000
0.000000 0.000000 1.000000
0.000000 0.000000 1.000000
0.000000 0.000000 1.000000
0.000000 0.000000 1.000000
0.000000 0.000000 0.737869
0.000000 0.000000 0.189445
0.000000 0.000000 0.000000
1.000000 1.000000 1.000000
1.000000 1.000000 1.000000
1.000000 1.000000 1.000000
1.000000 1.000000 1.000000
1.000000 1.000000 1.000000
1.000000 1.000000 1.000000
1.000000 1.000000 1.000000
1.000000 1.000000 1.000000
1.000000 1.000000 1.000000
1.000000 1.000000 1.000000
1.000000 1.000000 1.000000
1.000000 1.000000 1.000000
1.000000 1.000000 1.000000
1.000000 1.000000 1.000000
1.000000 1.000000 1.000000
1.000000 1.000000 1.000000
1.000000 1.000000 1.000000
1.000000 1.000000 1.000000
1.000000 1.000000 1.000000
1.000000 1.000000 1.000000
1.000000 1.000000 1.000000
1.000000 1.000000 1.000000
1.000000 1.000000 1.000000
1.000000 0.747465 1.000000
0.942772 0.317245 1.000000
0.384032 0.000000 1.000000
0.000000 0.000000 1.000000
0.000000 0.000000 1.000000
0.000000 0.000000 1.000000
0.000000 0.000000 1.000000
0.000000 0.000000 1.000000
0.000000 0.000000 0.768284
0.000000 0.000000 0.147793
1.000000 1.000000 1.000000
1.000000 1.000000 1.000000
1.000000 1.000000 1.000000
1.000000 1.000000 1.000000
1.000000 1.000000 1.000000
1.000000 1.000000 1.000000
1.000000 1.000000 1.000000
1.000000 1.000000 1.000000
1.000000 1.000000 1.000000
1.000000 1.000000 1.000000
1.000000 1.000000 1.000000
1.000000 1.000000 1.000000
1.000000 1.000000 1.000000
1.000000 1.000000 1.000000
1.000000 1.000000 1.000000
1.000000 1.000000 1.000000
1.000000 1.000000 1.000000
1.000000 1.000000 1.000000
1.000000 1.000000 1.000000
1.000000 1.000000 1.000000
1.000000 1.000000 1.000000
1.000000 1.000000 1.000000
1.000000 1.000000 1.000000
1.000000 0.972454 1.000000
1.000000 0.523477 1.000000
1.000000 0.013279 1.000000
0.360218 0.000000 1.000000
0.000000 0.000000 1.000000
0.000000 0.000000 1.000000
0.000000 0.000000 1.000000
0.000000 0.000000 1.000000
0.000000 0.000000 1.000000
0.000000 0.000000 0.807050
1.000000 1.000000 1.000000
1.000000 1.000000 1.000000
1.000000 1.000000 1.000000
1.000000 1.000000 1.000000
1.000000 1.000000 1.000000
1.000000 1.000000 1.000000
1.000000 1.000000 1.000000
1.000000 1.000000 1.000000
1.000000 1.000000 1.000000
1.000000 1.000000 1.000000
1.000000 1.000000 1.000000
1.000000 1.000000 1.000000
1.000000 1.000000 1.000000
1.000000 1.000000 1.000000
1.000000 1.000000 1.000000
1.000000 1.000000 1.000000
1.000000 1.000000 1.000000
1.000000 1.000000 1.000000
1.000000 1.000000 1.000000
1.000000 1.000000 1.000000
1.000000 1.000000 1.000000
1.000000 1.000000 1.000000
1.000000 1.000000 1.000000
1.000000 1.000000 1.000000
1.000000 0.763987 1.000000
1.000000 0.232959 1.000000
1.000000 0.000000 1.000000
