lrplugin/MindfulLensFilmEngine.lrplugin/profiles/luts/fuji_400h_cc.cube
# Generated from ColorChecker fit
LUT_3D_SIZE 5
DOMAIN_MIN 0.0 0.0 0.0
DOMAIN_MAX 1.0 1.0 1.0
0.187511 0.000000 0.195143
0.000000 0.000000 0.024057
0.000000 0.000000 0.000000
0.000000 0.000000 0.000000
0.000000 0.000000 0.000000
0.000000 0.000000 0.293337
0.000000 0.000000 0.463361
0.000000 0.000000 0.717671
0.000000 0.085348 0.867009
0.251285 0.730980 0.629091
0.000000 0.000000 0.000000
0.189382 0.332595 0.386931
0.401060 0.640153 0.810831
0.405452 0.726932 0.914522
0.151133 0.781293 0.319931
1.000000 0.602165 0.246556
1.000000 1.000000 0.996358
1.000000 1.000000 1.000000
0.905898 0.699051 1.000000
0.000000 0.000000 0.248268
1.000000 1.000000 1.000000
1.000000 1.000000 1.000000
1.000000 1.000000 1.000000
1.000000 0.000000 1.000000
0.000000 0.000000 1.000000
0.896083 0.979377 0.035385
0.000000 0.237449 0.000000
0.000000 0.000000 0.000000
0.000000 0.000000 0.000000
0.000000 0.000000 0.000000
0.533074 0.492962 0.329915
0.235472 0.262139 0.259955
0.210350 0.232278 0.391527
0.280107 0.258785 0.608803
0.437982 0.472943 0.702930
0.218801 0.418945 0.027103
0.257258 0.561231 0.250910
0.402143 0.740560 0.537270
0.315666 0.646189 0.674564
0.000000 0.243251 0.358149
1.000000 0.819920 0.275934
1.000000 1.000000 0.806356
1.000000 1.000000 1.000000
0.338411 0.510482 1.000000
0.000000 0.000000 0.162929
1.000000 1.000000 1.000000
1.000000 1.000000 1.000000
1.000000 1.000000 1.000000
1.000000 0.000000 1.000000
0.000000 0.000000 1.000000
1.000000 1.000000 0.000000
0.142010 0.416530 0.000000
0.000000 0.000000 0.000000
0.000000 0.000000 0.000000
0.000000 0.000000 0.000000
1.000000 0.962408 0.510527
0.432530 0.280265 0.220566
0.327412 0.095196 0.234929
0.455816 0.039381 0.511217
0.695458 0.020875 0.914006
0.428062 0.673978 0.244387
0.262435 0.431226 0.261193
0.404602 0.506027 0.423811
0.401243 0.364411 0.594052
0.000000 0.000000 0.540700
0.942192 0.794519 0.349463
0.981213 0.896569 0.697027
0.927796 0.960357 0.956314
0.168434 0.285762 0.893341
0.000000 0.000000 0.181103
1.000000 1.000000 1.000000
1.000000 1.000000 1.000000
1.000000 1.000000 1.000000
1.000000 0.000000 1.000000
0.000000 0.000000 1.000000
1.000000 1.000000 0.000000
0.000000 0.295664 0.000000
0.000000 0.000000 0.000000
0.000000 0.000000 0.000000
0.000000 0.000000 0.257520
1.000000 1.000000 0.632353
0.583376 0.174878 0.240304
0.422513 0.010255 0.240917
0.743729 0.157975 0.665220
1.000000 0.302866 1.000000
0.814268 0.844264 0.428827
0.450823 0.327222 0.364816
0.706447 0.518448 0.515421
1.000000 0.660745 0.815881
0.970376 0.272790 1.000000
0.736429 0.761666 0.368174
0.855529 0.762825 0.667335
1.000000 1.000000 0.927488
0.862795 0.852350 0.988083
0.000000 0.000000 0.595542
1.000000 0.925764 1.000000
1.000000 1.000000 1.000000
1.000000 1.000000 1.000000
1.000000 0.608223 1.000000
0.000000 0.000000 1.000000
1.000000 1.000000 0.000000
0.000000 0.004441 0.000000
0.000000 0.000000 0.000000
0.000000 0.016180 0.000000
0.000000 0.859124 0.683401
1.000000 1.000000 0.240508
0.583880 0.123879 0.000000
0.443626 0.352607 0.150466
1.000000 1.000000 0.909718
1.000000 1.000000 1.000000
1.000000 0.958761 0.177468
0.835003 0.475430 0.256752
1.000000 1.000000 0.605002
1.000000 1.000000 1.000000
1.000000 1.000000 1.000000
0.847887 0.798627 0.000000
1.000000 1.000000 0.464178
1.000000 1.000000 0.943127
1.000000 1.000000 1.000000
1.000000 1.000000 1.000000
1.000000 0.748303 1.000000
1.000000 1.000000 1.000000
1.000000 1.000000 1.000000
1.000000 1.000000 1.000000
1.000000 1.000000 1.000000
