lrplugin/MindfulLensFilmEngine.lrplugin/profiles/luts/fuji_provia_100f.cube
# Generated from ColorChecker fit
LUT_3D_SIZE 33
DOMAIN_MIN 0.0 0.0 0.0
DOMAIN_MAX 1.0 1.0 1.0
0.075098 0.004038 0.120243
0.032715 0.000000 0.124771
0.000000 0.000000 0.136438
0.000000 0.000000 0.154704
0.000000 0.000000 0.178979
0.000000 0.000000 0.208618
0.000000 0.000000 0.242926
0.000000 0.000000 0.281158
0.000000 0.000000 0.322513
0.000000 0.000000 0.366142
0.000000 0.000000 0.411141
0.000000 0.000000 0.456557
0.000000 0.000000 0.501384
0.000000 0.000000 0.544563
0.000000 0.000000 0.584985
0.000000 0.016081 0.621488
0.000000 0.046469 0.652859
0.000000 0.079086 0.677832
0.000000 0.113147 0.695091
0.000000 0.147752 0.703266
0.000000 0.181883 0.700937
0.007726 0.214407 0.686630
0.024727 0.244072 0.658823
0.036883 0.269511 0.615938
0.042696 0.289240 0.556347
0.040562 0.301659 0.478370
0.028775 0.305051 0.380276
0.005523 0.297581 0.260280
0.000000 0.277299 0.116549
0.000000 0.242139 0.000000
0.000000 0.189915 0.000000
0.000000 0.118329 0.000000
0.000000 0.024963 0.000000
0.060941 0.000000 0.138454
0.029283 0.000000 0.149202
0.000000 0.000000 0.166740
0.000000 0.000000 0.190489
0.000000 0.000000 0.219819
0.000000 0.000000 0.254051
0.000000 0.000000 0.292449
0.000000 0.000000 0.334230
0.000000 0.000000 0.378555
0.000000 0.000000 0.424537
0.000000 0.000000 0.471235
0.000000 0.000000 0.517656
0.000000 0.000000 0.562756
0.000000 0.014564 0.605439
0.000000 0.038618 0.644556
0.000000 0.065129 0.678909
0.000000 0.093500 0.707245
0.000000 0.123018 0.728261
0.009683 0.152850 0.740601
0.028021 0.182051 0.742860
0.043995 0.209555 0.733577
0.056365 0.234183 0.711242
0.063790 0.254638 0.674292
0.064823 0.269505 0.621113
0.057913 0.277255 0.550038
0.041404 0.276240 0.459350
0.013538 0.264696 0.347278
0.000000 0.240743 0.212000
0.000000 0.202385 0.051644
0.000000 0.147507 0.000000
0.000000 0.073880 0.000000
0.000000 0.000000 0.000000
0.000000 0.000000 0.000000
0.035727 0.000000 0.143021
0.014412 0.000000 0.160051
0.000000 0.000000 0.183503
0.000000 0.000000 0.212760
0.000000 0.000000 0.247155
0.000000 0.000000 0.285969
0.000000 0.000000 0.328429
0.000000 0.000000 0.373712
0.000000 0.000000 0.420943
0.000000 0.000000 0.469196
0.000000 0.002273 0.517491
0.000000 0.018995 0.564798
0.000000 0.038395 0.610034
0.000000 0.060180 0.652065
0.000000 0.083937 0.689705
0.008695 0.109141 0.721716
0.025623 0.135147 0.746808
0.042019 0.161194 0.763639
0.056905 0.186407 0.770816
0.069201 0.209790 0.766894
0.077720 0.230234 0.750376
0.081172 0.246511 0.719712
0.078163 0.257278 0.673302
0.067192 0.261075 0.609492
0.046656 0.256324 0.526580
0.014848 0.241333 0.422808
0.000000 0.214291 0.296368
0.000000 0.173271 0.145400
0.000000 0.116230 0.000000
0.000000 0.041008 0.000000
0.000000 0.000000 0.000000
0.000000 0.000000 0.000000
0.000000 0.000000 0.000000
0.000661 0.000000 0.134675
0.000000 0.000000 0.158047
0.000000 0.000000 0.187455
0.000000 0.000000 0.222244
0.000000 0.000000 0.261709
0.000000 0.000000 0.305092
0.000000 0.000000 0.351583
0.000000 0.000000 0.400320
0.000000 0.008109 0.450390
0.000000 0.022937 0.500828
0.000000 0.039879 0.550618
0.000000 0.058831 0.598690
0.003758 0.079567 0.643923
0.018124 0.101747 0.685145
0.033145 0.124914 0.721132
0.048105 0.148494 0.750607
0.062182 0.171798 0.772244
0.074451 0.194018 0.784660
0.083883 0.214230 0.786426
0.089343 0.231395 0.776058
0.089593 0.244355 0.752020
0.083289 0.251837 0.712725
0.068984 0.252451 0.656534
0.045125 0.244690 0.581757
0.010058 0.226931 0.486650
0.000000 0.197434 0.369419
0.000000 0.154342 0.228219
0.000000 0.095682 0.061150
0.000000 0.019364 0.000000
0.000000 0.000000 0.000000
0.000000 0.000000 0.000000
0.000000 0.000000 0.000000
0.000000 0.000000 0.000000
0.000000 0.000000 0.114444
0.000000 0.000000 0.144216
0.000000 0.000000 0.179619
0.000000 0.000000 0.219962
0.000000 0.000000 0.264500
0.000000 0.000000 0.312437
0.000000 0.003037 0.362926
0.000000 0.018983 0.415066
0.000000 0.036180 0.467906
0.000000 0.054708 0.520443
0.002438 0.074530 0.571621
0.015885 0.095492 0.620334
0.030072 0.117324 0.665423
0.044438 0.139639 0.705676
0.058319 0.161934 0.739832
0.070946 0.183588 0.766577
0.081444 0.203864 0.784543
0.088837 0.221909 0.792314
0.092040 0.236753 0.788418
0.089868 0.247309 0.771335
0.081029 0.252375 0.739491
0.064128 0.250629 0.691261
0.037663 0.240636 0.624967
0.000031 0.220842 0.538880
0.000000 0.189577 0.431220
0.000000 0.145055 0.300155
0.000000 0.085373 0.143798
0.000000 0.008511 0.000000
0.000000 0.000000 0.000000
0.000000 0.000000 0.000000
0.000000 0.000000 0.000000
0.000000 0.000000 0.000000
0.000000 0.000000 0.000000
0.000000 0.000000 0.083651
0.000000 0.000000 0.119878
0.000000 0.000000 0.161314
0.000000 0.000000 0.207230
0.000000 0.000000 0.256842
0.000000 0.000000 0.309316
0.000000 0.019439 0.363767
0.000000 0.040470 0.419257
0.000000 0.062001 0.474795
0.000000 0.084067 0.529341
0.013996 0.106583 0.581800
0.028948 0.129350 0.631029
0.043583 0.152050 0.675829
0.057286 0.174251 0.714952
0.069341 0.195401 0.747098
0.078926 0.214836 0.770913
0.085115 0.231770 0.784993
0.086876 0.245306 0.787883
0.083075 0.254425 0.778073
0.072472 0.257995 0.754005
0.053723 0.254765 0.714066
0.025379 0.243370 0.656594
0.000000 0.222327 0.579872
0.000000 0.190036 0.482134
0.000000 0.144780 0.361560
0.000000 0.084726 0.216279
0.000000 0.007925 0.044370
0.000000 0.000000 0.000000
0.000000 0.000000 0.000000
0.000000 0.000000 0.000000
0.000000 0.000000 0.000000
0.000000 0.000000 0.000000
0.000000 0.000000 0.000000
0.000000 0.000000 0.043916
0.000000 0.000000 0.086651
0.000000 0.000000 0.134155
0.000000 0.000000 0.185659
0.000000 0.000000 0.240344
0.000000 0.007805 0.297336
0.000000 0.034185 0.355712
0.000000 0.060192 0.414495
0.000000 0.085927 0.472658
0.000000 0.111378 0.529121
0.016007 0.136415 0.582752
0.031843 0.160791 0.632368
0.046281 0.184143 0.676734
0.058655 0.205991 0.714562
0.068195 0.225738 0.744514
0.074027 0.242673 0.765200
0.075172 0.255964 0.775175
0.070545 0.264665 0.772947
0.058959 0.267714 0.756969
0.039123 0.263930 0.725643
0.009638 0.252018 0.677319
0.000000 0.230564 0.610295
0.000000 0.198040 0.522818
0.000000 0.152798 0.413083
0.000000 0.093077 0.279231
0.000000 0.016996 0.119355
0.000000 0.000000 0.000000
0.000000 0.000000 0.000000
0.000000 0.000000 0.000000
0.000000 0.000000 0.000000
0.000000 0.000000 0.000000
0.000000 0.000000 0.000000
0.000000 0.000000 0.000000
0.000000 0.000000 0.000000
0.000000 0.000000 0.046446
0.000000 0.000000 0.100050
0.000000 0.000000 0.157158
0.000000 0.000000 0.216912
0.000000 0.015619 0.278400
0.000000 0.047624 0.340661
0.000000 0.078508 0.402680
0.000000 0.108328 0.463392
0.000000 0.137023 0.521677
0.010743 0.164419 0.576367
0.026838 0.190221 0.626241
0.040433 0.214020 0.670023
0.050808 0.235289 0.706390
0.057142 0.253386 0.733965
0.058505 0.267550 0.751317
0.053868 0.276907 0.756968
0.042093 0.280462 0.749383
0.021940 0.277106 0.726979
0.000000 0.265614 0.688120
0.000000 0.244642 0.631117
0.000000 0.212732 0.554231
0.000000 0.168306 0.455669
0.000000 0.109673 0.333589
0.000000 0.035024 0.186094
0.000000 0.000000 0.011239
0.000000 0.000000 0.000000
0.000000 0.000000 0.000000
0.000000 0.000000 0.000000
0.000000 0.000000 0.000000
0.000000 0.000000 0.000000
0.000000 0.000000 0.000000
0.000000 0.000000 0.000000
0.000000 0.000000 0.000000
0.000000 0.000000 0.001471
0.000000 0.000000 0.061205
0.000000 0.000000 0.123929
0.000000 0.000000 0.188746
0.000000 0.022557 0.254706
0.000000 0.060121 0.320810
0.000000 0.095797 0.386005
0.000000 0.129594 0.449187
0.000000 0.161406 0.509199
0.000748 0.191009 0.564833
0.016476 0.218065 0.614831
0.028578 0.242117 0.657880
0.036282 0.262592 0.692617
0.038713 0.278802 0.717626
0.034891 0.289939 0.731441
0.023731 0.295081 0.732543
0.004045 0.293189 0.719361
0.000000 0.283107 0.690272
0.000000 0.263563 0.643602
0.000000 0.233166 0.577625
0.000000 0.190412 0.490562
0.000000 0.133677 0.380584
0.000000 0.061223 0.245809
0.000000 0.000000 0.084304
0.000000 0.000000 0.000000
0.000000 0.000000 0.000000
0.000000 0.000000 0.000000
0.000000 0.000000 0.000000
0.000000 0.000000 0.000000
0.000000 0.000000 0.000000
0.000000 0.000000 0.000000
0.000000 0.000000 0.000000
0.000000 0.000000 0.000000
0.000000 0.000000 0.000000
0.000000 0.000000 0.020121
0.000000 0.000000 0.088471
0.000000 0.000000 0.158343
0.000000 0.028991 0.228749
0.000000 0.072063 0.298651
0.000000 0.112456 0.366959
0.000000 0.150133 0.432530
0.000000 0.184943 0.494170
0.000000 0.216616 0.550632
0.003575 0.244765 0.600620
0.013531 0.268888 0.642782
0.017888 0.288366 0.675717
0.015718 0.302463 0.697973
0.005988 0.310327 0.708043
0.000000 0.310987 0.704371
0.000000 0.303359 0.685347
0.000000 0.286240 0.649311
0.000000 0.258310 0.594551
0.000000 0.218135 0.519302
0.000000 0.164162 0.421747
0.000000 0.094721 0.300019
0.000000 0.008028 0.152197
0.000000 0.000000 0.000000
0.000000 0.000000 0.000000
0.000000 0.000000 0.000000
0.000000 0.000000 0.000000
0.000000 0.000000 0.000000
0.000000 0.000000 0.000000
0.000000 0.000000 0.000000
0.000000 0.000000 0.000000
0.000000 0.000000 0.000000
0.000000 0.000000 0.000000
0.000000 0.000000 0.000000
0.000000 0.000000 0.000000
0.000000 0.000000 0.053578
0.000000 0.000000 0.128494
0.000000 0.035315 0.203317
0.000000 0.083852 0.276971
0.000000 0.128899 0.348328
0.000000 0.170373 0.416205
0.000000 0.208074 0.479371
0.000000 0.241688 0.536542
0.000000 0.270782 0.586382
0.000000 0.294806 0.627502
0.000000 0.313095 0.658462
0.000000 0.324866 0.677772
0.000000 0.329221 0.683888
0.000000 0.325143 0.675214
0.000000 0.311500 0.650103
0.000000 0.287044 0.606857
0.000000 0.250409 0.543724
0.000000 0.200113 0.458902
0.000000 0.134557 0.350537
0.000000 0.052025 0.216722
0.000000 0.000000 0.055499
0.000000 0.000000 0.000000
0.000000 0.000000 0.000000
0.000000 0.000000 0.000000
0.000000 0.000000 0.000000
0.000000 0.000000 0.000000
0.000000 0.000000 0.000000
0.000000 0.000000 0.000000
0.000000 0.000000 0.000000
0.000000 0.000000 0.000000
0.000000 0.000000 0.000000
0.000000 0.000000 0.000000
0.000000 0.000000 0.000000
0.000000 0.000000 0.022340
0.000000 0.000000 0.102287
0.000000 0.041938 0.181496
0.000000 0.095909 0.258853
0.000000 0.145558 0.333190
0.000000 0.190756 0.403289
0.000000 0.231255 0.467879
0.000000 0.266694 0.525637
0.000000 0.296595 0.575189
0.000000 0.320361 0.615109
0.000000 0.337280 0.643919
0.000000 0.346523 0.660090
0.000000 0.347145 0.662039
0.000000 0.338084 0.648133
0.000000 0.318161 0.616687
0.000000 0.286081 0.565964
0.000000 0.240431 0.494174
0.000000 0.179683 0.399478
0.000000 0.102192 0.279981
0.000000 0.006195 0.133741
0.000000 0.000000 0.000000
0.000000 0.000000 0.000000
0.000000 0.000000 0.000000
0.000000 0.000000 0.000000
0.000000 0.000000 0.000000
0.000000 0.000000 0.000000
0.000000 0.000000 0.000000
0.000000 0.000000 0.000000
0.000000 0.000000 0.000000
0.000000 0.000000 0.000000
0.000000 0.000000 0.000000
0.000000 0.000000 0.000000
0.000000 0.000000 0.000000
0.000000 0.000000 0.000000
0.000000 0.000000 0.083104
0.000000 0.049287 0.166667
0.000000 0.108675 0.247675
0.000000 0.162887 0.324924
0.000000 0.211745 0.397156
0.000000 0.254959 0.463063
0.000000 0.292119 0.521285
0.000000 0.322700 0.570408
0.000000 0.346061 0.608968
0.000000 0.361441 0.635450
0.000000 0.367966 0.648285
0.000000 0.364644 0.645853
0.000000 0.350366 0.626483
0.000000 0.323908 0.588451
0.000000 0.283926 0.529983
0.000000 0.228964 0.449250
0.000000 0.157445 0.344373
0.000000 0.067678 0.213423
0.000000 0.000000 0.054417
0.000000 0.000000 0.000000
0.000000 0.000000 0.000000
0.000000 0.000000 0.000000
0.000000 0.000000 0.000000
0.000000 0.000000 0.000000
0.000000 0.000000 0.000000
0.000000 0.000000 0.000000
0.000000 0.000000 0.000000
0.000000 0.000000 0.000000
0.000000 0.000000 0.000000
0.000000 0.000000 0.000000
0.000000 0.000000 0.000000
0.000000 0.000000 0.000000
0.000000 0.000000 0.000000
0.000000 0.000000 0.074625
0.000000 0.057810 0.162505
0.000000 0.122608 0.247110
0.000000 0.181352 0.327199
0.000000 0.233822 0.401475
0.000000 0.279679 0.468592
0.000000 0.318467 0.527151
0.000000 0.349614 0.575701
0.000000 0.372433 0.612739
0.000000 0.386117 0.636712
0.000000 0.389745 0.646013
0.000000 0.382278 0.638984
0.000000 0.362562 0.613915
0.000000 0.329324 0.569045
0.000000 0.281177 0.502560
0.000000 0.216616 0.412594
0.000000 0.134018 0.297232
0.000000 0.031646 0.154502
0.000000 0.000000 0.000000
0.000000 0.000000 0.000000
0.000000 0.000000 0.000000
0.000000 0.000000 0.000000
0.000000 0.000000 0.000000
0.000000 0.000000 0.000000
0.000000 0.000000 0.000000
0.000000 0.000000 0.000000
0.000000 0.000000 0.000000
0.000000 0.000000 0.000000
0.000000 0.000000 0.000000
0.000000 0.000000 0.000000
0.000000 0.000000 0.000000
0.000000 0.000000 0.000000
0.000000 0.000000 0.000000
0.000000 0.000000 0.080822
0.000000 0.067971 0.172981
0.000000 0.138182 0.261129
0.000000 0.201443 0.343983
0.000000 0.257486 0.420211
0.008556 0.305925 0.488428
0.018604 0.346259 0.547195
0.018778 0.377870 0.595025
0.008096 0.400022 0.630377
0.000000 0.411864 0.651658
0.000000 0.412427 0.657224
0.000000 0.400627 0.645379
0.000000 0.375262 0.614375
0.000000 0.335013 0.562411
0.000000 0.278447 0.487636
0.000000 0.204011 0.388147
0.000000 0.110038 0.261989
0.000000 0.000000 0.107153
0.000000 0.000000 0.000000
0.000000 0.000000 0.000000
0.000000 0.000000 0.000000
0.000000 0.000000 0.000000
0.000000 0.000000 0.000000
0.000000 0.000000 0.000000
0.000000 0.000000 0.000000
0.000000 0.000000 0.000000
0.000000 0.000000 0.000000
0.000000 0.000000 0.000000
0.000000 0.000000 0.000000
0.000000 0.000000 0.000000
0.000000 0.000000 0.000000
0.000000 0.000000 0.000000
0.000000 0.000000 0.006067
0.000000 0.000000 0.105965
0.000000 0.080253 0.202364
0.000000 0.155893 0.293995
0.020841 0.223665 0.379539
0.046794 0.283253 0.457624
0.063401 0.334226 0.526828
0.069833 0.376037 0.585674
0.065161 0.408019 0.632635
0.048348 0.429391 0.666134
0.018254 0.439256 0.684538
0.000000 0.436599 0.686166
0.000000 0.420288 0.669284
0.000000 0.389075 0.632104
0.000000 0.341595 0.572790
0.000000 0.276368 0.489450
0.000000 0.191795 0.380144
0.000000 0.086162 0.242878
0.000000 0.000000 0.075606
0.000000 0.000000 0.000000
0.000000 0.000000 0.000000
0.000000 0.000000 0.000000
0.000000 0.000000 0.000000
0.000000 0.000000 0.000000
0.000000 0.000000 0.000000
0.000000 0.000000 0.000000
0.000000 0.000000 0.000000
0.000000 0.000000 0.000000
0.000000 0.000000 0.000000
0.000000 0.000000 0.000000
0.000000 0.000000 0.000000
0.000000 0.000000 0.000000
0.000000 0.000000 0.000000
0.000000 0.000000 0.049789
0.000000 0.005497 0.154620
0.030157 0.095157 0.255216
0.072986 0.176253 0.350270
0.106766 0.248541 0.438424
0.130825 0.311660 0.518270
0.144388 0.365130 0.588345
0.146576 0.408358 0.647137
0.136404 0.440631 0.693079
0.112785 0.461123 0.724555
0.074525 0.468888 0.739896
0.020328 0.462866 0.737381
0.000000 0.441878 0.715237
0.000000 0.404629 0.671641
0.000000 0.349710 0.604716
0.000000 0.275591 0.512534
0.000000 0.180629 0.393115
0.000000 0.063063 0.244427
0.000000 0.000000 0.064387
0.000000 0.000000 0.000000
0.000000 0.000000 0.000000
0.000000 0.000000 0.000000
0.000000 0.000000 0.000000
0.000000 0.000000 0.000000
0.000000 0.000000 0.000000
0.000000 0.000000 0.000000
0.000000 0.000000 0.000000
0.000000 0.000000 0.000000
0.000000 0.000000 0.000000
0.000000 0.000000 0.000000
0.000000 0.000000 0.000000
0.000000 0.000000 0.000000
0.000000 0.000000 0.008476
0.037056 0.000000 0.121909
0.098070 0.017132 0.231646
0.150100 0.113202 0.336394
0.192633 0.199794 0.434808
0.225050 0.276616 0.525493
0.246627 0.343260 0.607000
0.256536 0.399201 0.677830
0.253846 0.443799 0.736432
0.237520 0.476296 0.781201
0.206416 0.495817 0.810483
0.159289 0.501370 0.822571
0.094789 0.491850 0.815705
0.011462 0.466030 0.788075
0.000000 0.422570 0.737818
0.000000 0.360013 0.663021
0.000000 0.276784 0.561716
0.000000 0.171193 0.431886
0.000000 0.041431 0.271460
0.000000 0.000000 0.078318
0.000000 0.000000 0.000000
0.000000 0.000000 0.000000
0.000000 0.000000 0.000000
0.000000 0.000000 0.000000
0.000000 0.000000 0.000000
0.000000 0.000000 0.000000
0.000000 0.000000 0.000000
0.000000 0.000000 0.000000
0.000000 0.000000 0.000000
0.000000 0.000000 0.000000
0.000000 0.000000 0.000000
0.000000 0.000000 0.000000
0.041864 0.000000 0.000000
0.122704 0.000000 0.108542
0.194398 0.000000 0.227586
0.256589 0.032373 0.342200
0.308814 0.134926 0.451053
0.350504 0.227063 0.552762
0.380990 0.308447 0.645893
0.399494 0.378624 0.728961
0.405137 0.437023 0.800426
0.396933 0.482956 0.858701
0.373793 0.515618 0.902141
0.334523 0.534089 0.929056
0.277825 0.537332 0.937698
0.202296 0.524191 0.926272
0.106429 0.493397 0.892927
0.000000 0.443562 0.835764
0.000000 0.373181 0.752830
0.000000 0.280635 0.642120
0.000000 0.164185 0.501578
0.000000 0.021978 0.329097
0.000000 0.000000 0.122515
0.000000 0.000000 0.000000
0.000000 0.000000 0.000000
0.000000 0.000000 0.000000
0.000000 0.000000 0.000000
0.000000 0.000000 0.000000
0.000000 0.000000 0.000000
0.000000 0.000000 0.000000
0.000000 0.000000 0.000000
0.000000 0.000000 0.000000
0.000000 0.000000 0.000000
0.000000 0.000000 0.000000
0.147321 0.000000 0.000000
0.240429 0.000000 0.119124
0.323797 0.000000 0.247631
0.397119 0.000000 0.372273
0.459984 0.051766 0.491733
0.511876 0.160884 0.604642
0.552177 0.258628 0.709578
0.580160 0.344615 0.805071
0.594998 0.418344 0.889595
0.595757 0.479198 0.961574
0.581400 0.526441 1.000000
0.550784 0.559224 1.000000
0.502663 0.576578 1.000000
0.435687 0.577421 1.000000
0.348398 0.560550 1.000000
0.239239 0.524650 1.000000
0.106543 0.468286 0.970902
0.000000 0.389908 0.879565
0.000000 0.287847 0.759165
0.000000 0.160322 0.607609
0.000000 0.005430 0.422751
0.000000 0.000000 0.202391
0.000000 0.000000 0.000000
0.000000 0.000000 0.000000
0.000000 0.000000 0.000000
0.000000 0.000000 0.000000
0.000000 0.000000 0.000000
0.000000 0.000000 0.000000
0.000000 0.000000 0.000000
0.000000 0.000000 0.000000
0.000000 0.000000 0.000000
0.000000 0.000000 0.000000
0.000000 0.000000 0.000000
0.395130 0.000000 0.158559
0.491175 0.000000 0.296675
0.576611 0.000000 0.431496
0.651077 0.000000 0.561720
0.714110 0.075872 0.685992
0.765142 0.191650 0.802905
0.803500 0.295075 0.911000
0.828406 0.385717 1.000000
0.838981 0.463028 1.000000
0.834236 0.526345 1.000000
0.813084 0.574886 1.000000
0.774327 0.607755 1.000000
0.716668 0.623937 1.000000
0.638702 0.622303 1.000000
0.538921 0.601604 1.000000
0.415713 0.560478 1.000000
0.267360 0.497444 1.000000
0.092042 0.410904 1.000000
0.000000 0.299146 0.918567
0.000000 0.160338 0.755692
0.000000 0.000000 0.558133
0.000000 0.000000 0.323653
0.000000 0.000000 0.049966
0.000000 0.000000 0.000000
0.000000 0.000000 0.000000
0.000000 0.000000 0.000000
0.000000 0.000000 0.000000
0.000000 0.000000 0.000000
0.000000 0.000000 0.000000
0.000000 0.000000 0.000000
0.000000 0.000000 0.000000
0.000000 0.000000 0.000000
0.000000 0.000000 0.000000
0.701702 0.000000 0.379906
0.800245 0.000000 0.525047
0.887284 0.000000 0.666183
0.962407 0.000000 0.801972
1.000000 0.105272 0.931021
1.000000 0.227817 1.000000
1.000000 0.337007 1.000000
1.000000 0.432367 1.000000
1.000000 0.513302 1.000000
1.000000 0.579102 1.000000
1.000000 0.628940 1.000000
1.000000 0.661872 1.000000
0.982641 0.676839 1.000000
0.892972 0.672662 1.000000
0.779963 0.648048 1.000000
0.641947 0.601587 1.000000
0.477155 0.531753 1.000000
0.283714 0.436901 1.000000
0.059644 0.315271 1.000000
0.000000 0.164988 0.951833
0.000000 0.000000 0.741248
0.000000 0.000000 0.492306
0.000000 0.000000 0.202681
0.000000 0.000000 0.000000
0.000000 0.000000 0.000000
0.000000 0.000000 0.000000
0.000000 0.000000 0.000000
0.000000 0.000000 0.000000
0.000000 0.000000 0.000000
0.000000 0.000000 0.000000
0.000000 0.000000 0.000000
0.000000 0.000000 0.000000
0.000000 0.000000 0.000000
1.000000 0.000000 0.658403
1.000000 0.000000 0.810587
1.000000 0.000000 0.958035
1.000000 0.000000 1.000000
1.000000 0.140566 1.000000
1.000000 0.269994 1.000000
1.000000 0.385046 1.000000
1.000000 0.485199 1.000000
1.000000 0.569811 1.000000
1.000000 0.638127 1.000000
1.000000 0.689272 1.000000
1.000000 0.722256 1.000000
1.000000 0.735974 1.000000
1.000000 0.729200 1.000000
1.000000 0.700595 1.000000
0.924311 0.648703 1.000000
0.742296 0.571950 1.000000
0.529924 0.468646 1.000000
0.285163 0.336984 1.000000
0.005879 0.175042 1.000000
0.000000 0.000000 0.978400
0.000000 0.000000 0.714649
0.000000 0.000000 0.408721
0.000000 0.000000 0.058200
0.000000 0.000000 0.000000
0.000000 0.000000 0.000000
0.000000 0.000000 0.000000
0.000000 0.000000 0.000000
0.000000 0.000000 0.000000
0.000000 0.000000 0.000000
0.000000 0.000000 0.000000
0.000000 0.000000 0.000000
0.000000 0.000000 0.000000
1.000000 0.000000 1.000000
1.000000 0.000000 1.000000
1.000000 0.000000 1.000000
1.000000 0.030962 1.000000
1.000000 0.182370 1.000000
1.000000 0.318811 1.000000
1.000000 0.439832 1.000000
1.000000 0.544864 1.000000
1.000000 0.633218 1.000000
1.000000 0.704093 1.000000
1.000000 0.756567 1.000000
1.000000 0.789604 1.000000
1.000000 0.802051 1.000000
1.000000 0.792638 1.000000
1.000000 0.759979 1.000000
1.000000 0.702570 1.000000
1.000000 0.618791 1.000000
0.837309 0.506906 1.000000
0.571025 0.365062 1.000000
0.268382 0.191289 1.000000
0.000000 0.000000 1.000000
0.000000 0.000000 0.997275
0.000000 0.000000 0.674679
0.000000 0.000000 0.305940
0.000000 0.000000 0.000000
0.000000 0.000000 0.000000
0.000000 0.000000 0.000000
0.000000 0.000000 0.000000
0.000000 0.000000 0.000000
0.000000 0.000000 0.000000
0.000000 0.000000 0.000000
0.000000 0.000000 0.000000
0.000000 0.000000 0.000000
1.000000 0.000000 1.000000
1.000000 0.000000 1.000000
1.000000 0.000000 1.000000
1.000000 0.071739 1.000000
1.000000 0.231319 1.000000
1.000000 0.374914 1.000000
1.000000 0.502024 1.000000
1.000000 0.612032 1.000000
1.000000 0.704205 1.000000
1.000000 0.777693 1.000000
1.000000 0.831529 1.000000
1.000000 0.864631 1.000000
1.000000 0.875799 1.000000
1.000000 0.863715 1.000000
1.000000 0.826948 1.000000
1.000000 0.763948 1.000000
1.000000 0.673048 1.000000
1.000000 0.552465 1.000000
0.924138 0.400300 1.000000
0.597277 0.214537 1.000000
0.229854 0.000000 1.000000
0.000000 0.000000 1.000000
0.000000 0.000000 1.000000
0.000000 0.000000 0.620099
0.000000 0.000000 0.182499
0.000000 0.000000 0.000000
0.000000 0.000000 0.000000
0.000000 0.000000 0.000000
0.000000 0.000000 0.000000
0.000000 0.000000 0.000000
0.000000 0.000000 0.000000
0.000000 0.000000 0.000000
0.000000 0.000000 0.000000
1.000000 0.000000 1.000000
1.000000 0.000000 1.000000
1.000000 0.000000 1.000000
1.000000 0.120141 1.000000
1.000000 0.288068 1.000000
1.000000 0.438969 1.000000
1.000000 0.572298 1.000000
1.000000 0.687392 1.000000
1.000000 0.783471 1.000000
1.000000 0.859638 1.000000
1.000000 0.914882 1.000000
1.000000 0.948072 1.000000
1.000000 0.957961 1.000000
1.000000 0.943188 1.000000
1.000000 0.902273 1.000000
1.000000 0.833619 1.000000
1.000000 0.735513 1.000000
1.000000 0.606127 1.000000
1.000000 0.443514 1.000000
0.999744 0.245612 1.000000
0.605308 0.010242 1.000000
0.165873 0.000000 1.000000
0.000000 0.000000 1.000000
0.000000 0.000000 1.000000
0.000000 0.000000 0.549640
0.000000 0.000000 0.036909
0.000000 0.000000 0.000000
0.000000 0.000000 0.000000
0.000000 0.000000 0.000000
0.000000 0.000000 0.000000
0.000000 0.000000 0.000000
0.000000 0.000000 0.000000
0.000000 0.000000 0.000000
1.000000 0.000000 1.000000
1.000000 0.000000 1.000000
1.000000 0.000000 1.000000
1.000000 0.176828 1.000000
1.000000 0.353287 1.000000
1.000000 0.511658 1.000000
1.000000 0.651348 1.000000
1.000000 0.771648 1.000000
1.000000 0.871733 1.000000
1.000000 0.950658 1.000000
1.000000 1.000000 1.000000
1.000000 1.000000 1.000000
1.000000 1.000000 1.000000
1.000000 1.000000 1.000000
1.000000 0.986738 1.000000
1.000000 0.912379 1.000000
1.000000 0.806996 1.000000
1.000000 0.668713 1.000000
1.000000 0.495537 1.000000
1.000000 0.285359 1.000000
1.000000 0.035954 1.000000
0.591555 0.000000 1.000000
0.072544 0.000000 1.000000
0.000000 0.000000 1.000000
0.000000 0.000000 0.997448
0.000000 0.000000 0.462009
0.000000 0.000000 0.000000
