lrplugin/MindfulLensFilmEngine.lrplugin/profiles/luts/gaf_500.cube
# Generated from ColorChecker fit
LUT_3D_SIZE 33
DOMAIN_MIN 0.0 0.0 0.0
DOMAIN_MAX 1.0 1.0 1.0
0.097500 0.035829 0.000000
0.069615 0.026606 0.000000
0.036092 0.009507 0.000000
0.000000 0.000000 0.003241
0.000000 0.000000 0.017277
0.000000 0.000000 0.033726
0.000000 0.000000 0.052215
0.000000 0.000000 0.072311
0.000000 0.000000 0.093517
0.000000 0.000000 0.115277
0.000000 0.000000 0.136971
0.000000 0.000000 0.157920
0.000000 0.000000 0.177382
0.000000 0.000000 0.194551
0.000000 0.000000 0.208564
0.000000 0.000000 0.218493
0.000000 0.000000 0.223348
0.000000 0.000000 0.222081
0.000000 0.000000 0.213578
0.000000 0.000000 0.196665
0.000000 0.000000 0.170109
0.000000 0.000000 0.132610
0.000000 0.000000 0.082811
0.000000 0.000000 0.019291
0.000000 0.000000 0.000000
0.000000 0.000000 0.000000
0.000000 0.000000 0.000000
0.000000 0.000000 0.000000
0.000000 0.000000 0.000000
0.000000 0.000000 0.000000
0.000000 0.000000 0.000000
0.000000 0.000000 0.000000
0.000000 0.000000 0.000000
0.102383 0.027138 0.033154
0.078996 0.020897 0.043638
0.050348 0.007243 0.057059
0.016340 0.000000 0.073211
0.000000 0.000000 0.091828
0.000000 0.000000 0.112580
0.000000 0.000000 0.135076
0.000000 0.000000 0.158865
0.000000 0.000000 0.183431
0.000000 0.000000 0.208200
0.000000 0.000000 0.232534
0.000000 0.000000 0.255734
0.000000 0.000000 0.277039
0.000000 0.000000 0.295628
0.000000 0.000000 0.310615
0.000000 0.000000 0.321056
0.000000 0.000000 0.325942
0.000000 0.000000 0.324206
0.000000 0.000000 0.314716
0.000000 0.000000 0.296279
0.000000 0.000000 0.267643
0.000000 0.000000 0.227491
0.000000 0.000000 0.174447
0.000000 0.000000 0.107070
0.000000 0.000000 0.023861
0.000000 0.000000 0.000000
0.000000 0.000000 0.000000
0.000000 0.000000 0.000000
0.000000 0.000000 0.000000
0.000000 0.000000 0.000000
0.000000 0.000000 0.000000
0.000000 0.000000 0.000000
0.000000 0.000000 0.000000
0.105010 0.024451 0.080404
0.086017 0.021295 0.096133
0.062112 0.011149 0.114567
0.033157 0.000000 0.135482
0.000000 0.000000 0.158592
0.000000 0.000000 0.183549
0.000000 0.000000 0.209944
0.000000 0.000000 0.237306
0.000000 0.000000 0.265102
0.000000 0.000000 0.292739
0.000000 0.000000 0.319560
0.000000 0.000000 0.344848
0.000000 0.000000 0.367823
0.000000 0.000000 0.387645
0.000000 0.000000 0.403410
0.000000 0.000000 0.414156
0.000000 0.000000 0.418856
0.000000 0.000000 0.416421
0.000000 0.000000 0.405705
0.000000 0.000000 0.385494
0.000000 0.000000 0.354517
0.000000 0.000000 0.311440
0.000000 0.000000 0.254866
0.000000 0.000000 0.183339
0.000000 0.000000 0.095338
0.000000 0.000000 0.000000
0.000000 0.000000 0.000000
0.000000 0.000000 0.000000
0.000000 0.000000 0.000000
0.000000 0.000000 0.000000
0.000000 0.000000 0.000000
0.000000 0.000000 0.000000
0.000000 0.000000 0.000000
0.104905 0.026771 0.119920
0.090209 0.026823 0.140844
0.070922 0.020269 0.164229
0.046866 0.007255 0.189834
0.017883 0.000000 0.217353
0.000000 0.000000 0.246421
0.000000 0.000000 0.276609
0.000000 0.000000 0.307428
0.000000 0.000000 0.338327
0.000000 0.000000 0.368693
0.000000 0.000000 0.397852
0.000000 0.000000 0.425068
0.000000 0.000000 0.449542
0.000000 0.000000 0.470416
0.000000 0.000000 0.486767
0.000000 0.000000 0.497615
0.000000 0.000000 0.501913
0.000000 0.000000 0.498556
0.000000 0.000000 0.486376
0.000000 0.000000 0.464144
0.000000 0.000000 0.430568
0.000000 0.000000 0.384296
0.000000 0.000000 0.323914
0.000000 0.000000 0.247945
0.000000 0.000000 0.154851
0.000000 0.000000 0.043034
0.000000 0.000000 0.000000
0.000000 0.000000 0.000000
0.000000 0.000000 0.000000
0.000000 0.000000 0.000000
0.000000 0.000000 0.000000
0.000000 0.000000 0.000000
0.000000 0.000000 0.000000
0.101708 0.033058 0.151594
0.091220 0.036461 0.177665
0.076432 0.033604 0.205944
0.057128 0.024575 0.236169
0.033109 0.009496 0.268018
0.004203 0.000000 0.301105
0.000000 0.000000 0.334984
0.000000 0.000000 0.369148
0.000000 0.000000 0.403026
0.000000 0.000000 0.435987
0.000000 0.000000 0.467339
0.000000 0.000000 0.496326
0.000000 0.000000 0.522132
0.000000 0.000000 0.543879
0.000000 0.000000 0.560627
0.000000 0.000000 0.571376
0.000000 0.000000 0.575062
0.000000 0.000000 0.570560
0.000000 0.000000 0.556685
0.000000 0.000000 0.532187
0.000000 0.000000 0.495758
0.000000 0.000000 0.446026
0.000000 0.000000 0.381559
0.000000 0.000000 0.300861
0.000000 0.000000 0.202377
0.000000 0.000000 0.084487
0.000000 0.000000 0.000000
0.000000 0.000000 0.000000
0.000000 0.000000 0.000000
0.000000 0.000000 0.000000
0.000000 0.000000 0.000000
0.000000 0.000000 0.000000
0.000000 0.000000 0.000000
0.095174 0.042230 0.175444
0.088810 0.049148 0.206619
0.078411 0.050113 0.239736
0.063718 0.045155 0.274516
0.044497 0.034339 0.310618
0.020531 0.017767 0.347637
0.000000 0.000000 0.385109
0.000000 0.000000 0.422508
0.000000 0.000000 0.459245
0.000000 0.000000 0.494670
0.000000 0.000000 0.528072
0.000000 0.000000 0.558677
0.000000 0.000000 0.585651
0.000000 0.000000 0.608097
0.000000 0.000000 0.625056
0.000000 0.000000 0.635510
0.000000 0.000000 0.638376
0.000000 0.000000 0.632511
0.000000 0.000000 0.616710
0.000000 0.000000 0.589707
0.000000 0.000000 0.550174
0.000000 0.000000 0.496720
0.000000 0.000000 0.427895
0.000000 0.000000 0.342184
0.000000 0.000000 0.238014
0.000000 0.000000 0.113747
0.000000 0.000000 0.000000
0.000000 0.000000 0.000000
0.000000 0.000000 0.000000
0.000000 0.000000 0.000000
0.000000 0.000000 0.000000
0.000000 0.000000 0.000000
0.000000 0.000000 0.000000
0.085176 0.053162 0.191613
0.082860 0.063780 0.227850
0.076743 0.068712 0.265755
0.066529 0.067932 0.305027
0.051942 0.061446 0.345308
0.032729 0.049298 0.386175
0.008655 0.031571 0.427145
0.000000 0.008381 0.467673
0.000000 0.000000 0.507152
0.000000 0.000000 0.544913
0.000000 0.000000 0.580227
0.000000 0.000000 0.612301
0.000000 0.000000 0.640282
0.000000 0.000000 0.663256
0.000000 0.000000 0.680244
0.000000 0.000000 0.690210
0.000000 0.000000 0.692052
0.000000 0.000000 0.684609
0.000000 0.000000 0.666657
0.000000 0.000000 0.636912
0.000000 0.000000 0.594026
0.000000 0.000000 0.536592
0.000000 0.000000 0.463139
0.000000 0.000000 0.372135
0.000000 0.000000 0.261988
0.000000 0.000000 0.131041
0.000000 0.000000 0.000000
0.000000 0.000000 0.000000
0.000000 0.000000 0.000000
0.000000 0.000000 0.000000
0.000000 0.000000 0.000000
0.000000 0.000000 0.000000
0.000000 0.000000 0.000000
0.071701 0.064689 0.200366
0.073362 0.079211 0.241629
0.071430 0.088278 0.284272
0.065568 0.091801 0.327979
0.055461 0.089733 0.372369
0.040815 0.082060 0.417004
0.021358 0.068805 0.461380
0.000000 0.050027 0.504935
0.000000 0.025823 0.547042
0.000000 0.000000 0.587015
0.000000 0.000000 0.624106
0.000000 0.000000 0.657503
0.000000 0.000000 0.686334
0.000000 0.000000 0.709667
0.000000 0.000000 0.726506
0.000000 0.000000 0.735793
0.000000 0.000000 0.736411
0.000000 0.000000 0.727178
0.000000 0.000000 0.706853
0.000000 0.000000 0.674132
0.000000 0.000000 0.627651
0.000000 0.000000 0.565981
0.000000 0.000000 0.487634
0.000000 0.000000 0.391060
0.000000 0.000000 0.274647
0.000000 0.000000 0.136722
0.000000 0.000000 0.000000
0.000000 0.000000 0.000000
0.000000 0.000000 0.000000
0.000000 0.000000 0.000000
0.000000 0.000000 0.000000
0.000000 0.000000 0.000000
0.000000 0.000000 0.000000
0.054852 0.075601 0.202093
0.060427 0.094255 0.248349
0.062587 0.107641 0.295687
0.060957 0.115617 0.343772
0.055182 0.118075 0.392206
0.044927 0.114945 0.440531
0.029881 0.106192 0.488225
0.009754 0.091819 0.534707
0.000000 0.071863 0.579333
0.000000 0.046400 0.621397
0.000000 0.015540 0.660133
0.000000 0.000000 0.694710
0.000000 0.000000 0.724238
0.000000 0.000000 0.747766
0.000000 0.000000 0.764280
0.000000 0.000000 0.772703
0.000000 0.000000 0.771899
0.000000 0.000000 0.760668
0.000000 0.000000 0.737751
0.000000 0.000000 0.701825
0.000000 0.000000 0.651506
0.000000 0.000000 0.585348
0.000000 0.000000 0.501845
0.000000 0.000000 0.399428
0.000000 0.000000 0.276466
0.000000 0.000000 0.131266
0.000000 0.000000 0.000000
0.000000 0.000000 0.000000
0.000000 0.000000 0.000000
0.000000 0.000000 0.000000
0.000000 0.000000 0.000000
0.000000 0.000000 0.000000
0.000000 0.000000 0.000000
0.034847 0.084648 0.197310
0.044280 0.107679 0.248528
0.050448 0.125593 0.300520
0.052936 0.138189 0.352931
0.051350 0.145303 0.405346
0.045317 0.146806 0.457287
0.034484 0.142607 0.508215
0.018522 0.132649 0.557529
0.000000 0.116914 0.604567
0.000000 0.095420 0.648605
0.000000 0.068218 0.688857
0.000000 0.035400 0.724475
0.000000 0.000000 0.754550
0.000000 0.000000 0.778112
0.000000 0.000000 0.794129
0.000000 0.000000 0.801505
0.000000 0.000000 0.799085
0.000000 0.000000 0.785652
0.000000 0.000000 0.759927
0.000000 0.000000 0.720569
0.000000 0.000000 0.666175
0.000000 0.000000 0.595282
0.000000 0.000000 0.506364
0.000000 0.000000 0.397833
0.000000 0.000000 0.268040
0.000000 0.000000 0.115275
0.000000 0.000000 0.000000
0.000000 0.000000 0.000000
0.000000 0.000000 0.000000
0.000000 0.000000 0.000000
0.000000 0.000000 0.000000
0.000000 0.000000 0.000000
0.000000 0.000000 0.000000
0.012022 0.090539 0.186656
0.025262 0.118214 0.242810
0.035360 0.140883 0.299418
0.041860 0.158288 0.356107
0.044329 0.170207 0.412443
0.042353 0.176454 0.467930
0.035542 0.176879 0.522010
0.023525 0.171370 0.574064
0.005955 0.159849 0.623411
0.000000 0.142277 0.669309
0.000000 0.118649 0.710952
0.000000 0.088998 0.747476
0.000000 0.053392 0.777951
0.000000 0.011936 0.801390
0.000000 0.000000 0.816740
0.000000 0.000000 0.822890
0.000000 0.000000 0.818664
0.000000 0.000000 0.802828
0.000000 0.000000 0.774083
0.000000 0.000000 0.731070
0.000000 0.000000 0.672368
0.000000 0.000000 0.596495
0.000000 0.000000 0.501905
0.000000 0.000000 0.386994
0.000000 0.000000 0.250093
0.000000 0.000000 0.089474
0.000000 0.000000 0.000000
0.000000 0.000000 0.000000
0.000000 0.000000 0.000000
0.000000 0.000000 0.000000
0.000000 0.000000 0.000000
0.000000 0.000000 0.000000
0.000000 0.000000 0.000000
0.000000 0.091937 0.170895
0.003831 0.124544 0.231960
0.017787 0.152217 0.293150
0.028199 0.174640 0.354072
0.034593 0.191534 0.414273
0.036519 0.202656 0.473239
0.033544 0.207798 0.530394
0.025259 0.206789 0.585100
0.011276 0.199497 0.636656
0.000000 0.185822 0.684303
0.000000 0.165703 0.727217
0.000000 0.139115 0.764513
0.000000 0.106069 0.795245
0.000000 0.066612 0.818406
0.000000 0.020828 0.832926
0.000000 0.000000 0.837673
0.000000 0.000000 0.831456
0.000000 0.000000 0.813018
0.000000 0.000000 0.781044
0.000000 0.000000 0.734157
0.000000 0.000000 0.670916
0.000000 0.000000 0.589820
0.000000 0.000000 0.489308
0.000000 0.000000 0.367753
0.000000 0.000000 0.223470
0.000000 0.000000 0.054712
0.000000 0.000000 0.000000
0.000000 0.000000 0.000000
0.000000 0.000000 0.000000
0.000000 0.000000 0.000000
0.000000 0.000000 0.000000
0.000000 0.000000 0.000000
0.000000 0.000000 0.000000
0.000000 0.087466 0.150913
0.000000 0.125313 0.216871
0.000000 0.158258 0.282611
0.012538 0.185930 0.347725
0.022737 0.207990 0.411739
0.028414 0.224138 0.474120
0.029097 0.234109 0.534276
0.024337 0.237675 0.591547
0.013707 0.234645 0.645217
0.000000 0.224863 0.694506
0.000000 0.208209 0.738572
0.000000 0.184601 0.776513
0.000000 0.153993 0.807362
0.000000 0.116374 0.830095
0.000000 0.071771 0.843622
0.000000 0.020246 0.846795
0.000000 0.000000 0.838401
0.000000 0.000000 0.817168
0.000000 0.000000 0.781760
0.000000 0.000000 0.730782
0.000000 0.000000 0.662775
0.000000 0.000000 0.576220
0.000000 0.000000 0.469535
0.000000 0.000000 0.341077
0.000000 0.000000 0.189142
0.000000 0.000000 0.011963
0.000000 0.000000 0.000000
0.000000 0.000000 0.000000
0.000000 0.000000 0.000000
0.000000 0.000000 0.000000
0.000000 0.000000 0.000000
0.000000 0.000000 0.000000
0.000000 0.000000 0.000000
0.000000 0.075708 0.127723
0.000000 0.119122 0.198557
0.000000 0.157630 0.268822
0.000000 0.190800 0.338088
0.009470 0.218238 0.405865
0.018754 0.239584 0.471603
0.022923 0.254518 0.534687
0.021488 0.262753 0.594443
0.013983 0.264040 0.650134
0.000000 0.258166 0.700961
0.000000 0.244954 0.746065
0.000000 0.224264 0.784524
0.000000 0.195992 0.815355
0.000000 0.160071 0.837512
0.000000 0.116469 0.849889
0.000000 0.065190 0.851318
0.000000 0.006278 0.840568
0.000000 0.000000 0.816348
0.000000 0.000000 0.777305
0.000000 0.000000 0.722024
0.000000 0.000000 0.649028
0.000000 0.000000 0.556778
0.000000 0.000000 0.443676
0.000000 0.000000 0.308058
0.000000 0.000000 0.148203
0.000000 0.000000 0.000000
0.000000 0.000000 0.000000
0.000000 0.000000 0.000000
0.000000 0.000000 0.000000
0.000000 0.000000 0.000000
0.000000 0.000000 0.000000
0.000000 0.000000 0.000000
0.000000 0.000000 0.000000
0.000000 0.055200 0.102461
0.000000 0.104532 0.178159
0.000000 0.148912 0.252923
0.000000 0.187852 0.326308
0.000000 0.220898 0.397803
0.008369 0.247636 0.466840
0.015859 0.267686 0.532786
0.017556 0.280704 0.594948
0.012954 0.286384 0.652570
0.001565 0.284454 0.704836
0.000000 0.274682 0.750867
0.000000 0.256868 0.789723
0.000000 0.230852 0.820401
0.000000 0.196508 0.841839
0.000000 0.153747 0.852911
0.000000 0.102518 0.852430
0.000000 0.042803 0.839148
0.000000 0.000000 0.811754
0.000000 0.000000 0.768877
0.000000 0.000000 0.709084
0.000000 0.000000 0.630878
0.000000 0.000000 0.532703
0.000000 0.000000 0.412941
0.000000 0.000000 0.269912
0.000000 0.000000 0.101873
0.000000 0.000000 0.000000
0.000000 0.000000 0.000000
0.000000 0.000000 0.000000
0.000000 0.000000 0.000000
0.000000 0.000000 0.000000
0.000000 0.000000 0.000000
0.000000 0.000000 0.000000
0.000000 0.000000 0.000000
0.000000 0.024440 0.076389
0.000000 0.080060 0.156940
0.000000 0.130643 0.236184
0.000000 0.175643 0.313655
0.000000 0.214552 0.388827
0.000000 0.246894 0.461110
0.008860 0.272234 0.529854
0.013502 0.290171 0.594347
0.011587 0.300339 0.653815
0.002589 0.302411 0.707422
0.000000 0.296096 0.754272
0.000000 0.281137 0.793406
0.000000 0.257316 0.823803
0.000000 0.224450 0.844381
0.000000 0.182392 0.853997
0.000000 0.131033 0.851444
0.000000 0.070299 0.835457
0.000000 0.000153 0.804705
0.000000 0.000000 0.757800
0.000000 0.000000 0.693288
0.000000 0.000000 0.609656
0.000000 0.000000 0.505328
0.000000 0.000000 0.378668
0.000000 0.000000 0.227977
0.000000 0.000000 0.051494
0.000000 0.000000 0.000000
0.000000 0.000000 0.000000
0.000000 0.000000 0.000000
0.000000 0.000000 0.000000
0.000000 0.000000 0.000000
0.000000 0.000000 0.000000
0.000000 0.000000 0.000000
0.000000 0.000000 0.000000
0.000000 0.000000 0.050890
0.000000 0.044180 0.136289
0.000000 0.101317 0.219996
0.000000 0.152691 0.301526
0.000000 0.197734 0.380335
0.000000 0.235915 0.455815
0.002995 0.266740 0.527296
0.010402 0.289750 0.594048
0.010966 0.304524 0.655279
0.004122 0.310676 0.710135
0.000000 0.307855 0.757700
0.000000 0.295751 0.796997
0.000000 0.274085 0.826987
0.000000 0.242618 0.846568
0.000000 0.201145 0.854580
0.000000 0.149500 0.849797
0.000000 0.087551 0.830934
0.000000 0.015203 0.796645
0.000000 0.000000 0.745519
0.000000 0.000000 0.676086
0.000000 0.000000 0.586815
0.000000 0.000000 0.476110
0.000000 0.000000 0.342317
0.000000 0.000000 0.183718
0.000000 0.000000 0.000000
0.000000 0.000000 0.000000
0.000000 0.000000 0.000000
0.000000 0.000000 0.000000
0.000000 0.000000 0.000000
0.000000 0.000000 0.000000
0.000000 0.000000 0.000000
0.000000 0.000000 0.000000
0.000000 0.000000 0.000000
0.000000 0.000000 0.027475
0.000000 0.000000 0.117719
0.000000 0.059389 0.205875
0.000000 0.117469 0.291440
0.000000 0.168940 0.373851
0.000000 0.213214 0.452481
0.000000 0.249740 0.526642
0.009447 0.278000 0.595586
0.012288 0.297517 0.658501
0.007367 0.307845 0.714516
0.000000 0.308579 0.762695
0.000000 0.299349 0.802043
0.000000 0.279819 0.831503
0.000000 0.249693 0.849954
0.000000 0.208708 0.856217
0.000000 0.156640 0.849049
0.000000 0.093299 0.827145
0.000000 0.018535 0.789140
0.000000 0.000000 0.733606
0.000000 0.000000 0.659054
0.000000 0.000000 0.563933
0.000000 0.000000 0.446631
0.000000 0.000000 0.305473
0.000000 0.000000 0.138724
0.000000 0.000000 0.000000
0.000000 0.000000 0.000000
0.000000 0.000000 0.000000
0.000000 0.000000 0.000000
0.000000 0.000000 0.000000
0.000000 0.000000 0.000000
0.000000 0.000000 0.000000
0.000000 0.000000 0.000000
0.000000 0.000000 0.000000
0.000000 0.000000 0.007776
0.000000 0.000000 0.102866
0.000000 0.003270 0.195461
0.000000 0.068409 0.285041
0.000000 0.126623 0.371021
0.000000 0.177265 0.452758
0.000000 0.219727 0.529546
0.011945 0.253435 0.600617
0.016868 0.277851 0.665142
0.013648 0.292476 0.722228
0.001661 0.296844 0.770925
0.000000 0.290528 0.810216
0.000000 0.273135 0.839026
0.000000 0.244312 0.856218
0.000000 0.203738 0.860592
0.000000 0.151131 0.850886
0.000000 0.086245 0.825778
0.000000 0.008869 0.783884
0.000000 0.000000 0.723757
0.000000 0.000000 0.643891
0.000000 0.000000 0.542714
0.000000 0.000000 0.418597
0.000000 0.000000 0.269846
0.000000 0.000000 0.094708
0.000000 0.000000 0.000000
0.000000 0.000000 0.000000
0.000000 0.000000 0.000000
0.000000 0.000000 0.000000
0.000000 0.000000 0.000000
0.000000 0.000000 0.000000
0.000000 0.000000 0.000000
0.000000 0.000000 0.000000
0.000000 0.000000 0.000000
0.000000 0.000000 0.000000
0.000000 0.000000 0.093492
0.000000 0.000000 0.190520
0.000000 0.003902 0.284096
0.000000 0.069193 0.373618
0.000000 0.126499 0.458424
0.004631 0.175154 0.537788
0.019318 0.214526 0.610925
0.026136 0.244021 0.676986
0.024399 0.263080 0.735062
0.013446 0.271182 0.784181
0.000000 0.267842 0.823311
0.000000 0.252609 0.851357
0.000000 0.225071 0.867162
0.000000 0.184851 0.869508
0.000000 0.131610 0.857117
0.000000 0.065043 0.828646
0.000000 0.000000 0.782693
0.000000 0.000000 0.717792
0.000000 0.000000 0.632419
0.000000 0.000000 0.524984
0.000000 0.000000 0.393838
0.000000 0.000000 0.237270
0.000000 0.000000 0.053507
0.000000 0.000000 0.000000
0.000000 0.000000 0.000000
0.000000 0.000000 0.000000
0.000000 0.000000 0.000000
0.000000 0.000000 0.000000
0.000000 0.000000 0.000000
0.000000 0.000000 0.000000
0.000000 0.000000 0.000000
0.000000 0.000000 0.000000
0.000000 0.000000 0.000000
0.000000 0.000000 0.091483
0.000000 0.000000 0.192941
0.000000 0.000000 0.290499
0.000000 0.000000 0.383537
0.000000 0.059305 0.471375
0.016309 0.114429 0.553269
0.033108 0.159704 0.628414
0.041637 0.194476 0.695944
0.041174 0.218130 0.754929
0.031016 0.230087 0.804382
0.010483 0.229803 0.843249
0.000000 0.216772 0.870417
0.000000 0.190523 0.884713
0.000000 0.150623 0.884898
0.000000 0.096672 0.869676
0.000000 0.028311 0.837686
0.000000 0.000000 0.787507
0.000000 0.000000 0.717655
0.000000 0.000000 0.626586
0.000000 0.000000 0.512693
0.000000 0.000000 0.374308
0.000000 0.000000 0.209701
0.000000 0.000000 0.017081
0.000000 0.000000 0.000000
0.000000 0.000000 0.000000
0.000000 0.000000 0.000000
0.000000 0.000000 0.000000
0.000000 0.000000 0.000000
0.000000 0.000000 0.000000
0.000000 0.000000 0.000000
0.000000 0.000000 0.000000
0.000000 0.000000 0.000000
0.000000 0.000000 0.000000
0.000000 0.000000 0.098849
0.000000 0.000000 0.204736
0.000000 0.000000 0.306266
0.000000 0.000000 0.402800
0.009527 0.000000 0.493637
0.036203 0.035921 0.578017
0.054967 0.087357 0.655116
0.065033 0.127626 0.724049
0.065640 0.156055 0.783868
0.056045 0.172008 0.833566
0.035530 0.174883 0.872073
0.003394 0.164117 0.898256
0.000000 0.139181 0.910922
0.000000 0.099584 0.908816
0.000000 0.044870 0.890622
0.000000 0.000000 0.854960
0.000000 0.000000 0.800392
0.000000 0.000000 0.725414
0.000000 0.000000 0.628465
0.000000 0.000000 0.507918
0.000000 0.000000 0.362087
0.000000 0.000000 0.189224
0.000000 0.000000 0.000000
0.000000 0.000000 0.000000
0.000000 0.000000 0.000000
0.000000 0.000000 0.000000
0.000000 0.000000 0.000000
0.000000 0.000000 0.000000
0.000000 0.000000 0.000000
0.000000 0.000000 0.000000
0.000000 0.000000 0.000000
0.000000 0.000000 0.000000
0.000000 0.000000 0.003172
0.000000 0.000000 0.117723
0.000000 0.000000 0.228044
0.000000 0.000000 0.333538
0.000759 0.000000 0.433549
0.037161 0.000000 0.527358
0.066078 0.000000 0.614184
0.086667 0.000000 0.693186
0.098102 0.041837 0.763460
0.099582 0.075242 0.824041
0.090326 0.095352 0.873901
0.069573 0.101509 0.911952
0.036587 0.093091 0.937044
0.000000 0.069513 0.947965
0.000000 0.030225 0.943441
0.000000 0.000000 0.922136
0.000000 0.000000 0.882654
0.000000 0.000000 0.823537
0.000000 0.000000 0.743263
0.000000 0.000000 0.640251
0.000000 0.000000 0.512858
0.000000 0.000000 0.359377
0.000000 0.000000 0.178043
0.000000 0.000000 0.000000
0.000000 0.000000 0.000000
0.000000 0.000000 0.000000
0.000000 0.000000 0.000000
0.000000 0.000000 0.000000
0.000000 0.000000 0.000000
0.000000 0.000000 0.000000
0.000000 0.000000 0.000000
0.000000 0.000000 0.000000
0.000000 0.000000 0.000000
0.000000 0.000000 0.030911
0.000000 0.000000 0.150365
0.000000 0.000000 0.265126
0.000000 0.000000 0.374581
0.037818 0.000000 0.478055
0.076761 0.000000 0.574809
0.107814 0.000000 0.664045
0.130094 0.000000 0.744903
0.142736 0.000000 0.816460
0.144899 0.000000 0.877733
0.135763 0.000000 0.927676
0.114527 0.008068 0.965181
0.080415 0.002102 0.989080
0.032671 0.000000 0.998142
0.000000 0.000000 0.991075
0.000000 0.000000 0.966526
0.000000 0.000000 0.923078
0.000000 0.000000 0.859255
0.000000 0.000000 0.773518
0.000000 0.000000 0.664266
0.000000 0.000000 0.529837
0.000000 0.000000 0.368507
0.000000 0.000000 0.178490
0.000000 0.000000 0.000000
0.000000 0.000000 0.000000
0.000000 0.000000 0.000000
0.000000 0.000000 0.000000
0.000000 0.000000 0.000000
0.000000 0.000000 0.000000
0.000000 0.000000 0.000000
0.000000 0.000000 0.000000
0.000000 0.000000 0.000000
0.000000 0.000000 0.000000
0.000000 0.000000 0.074780
0.000000 0.000000 0.199157
0.000000 0.000000 0.318370
0.040111 0.000000 0.431785
0.088901 0.000000 0.538710
0.130315 0.000000 0.638387
0.163406 0.000000 0.730001
0.187250 0.000000 0.812670
0.200944 0.000000 0.885456
0.203607 0.000000 0.947355
0.194379 0.000000 0.997303
0.172420 0.000000 1.000000
0.136914 0.000000 1.000000
0.087064 0.000000 1.000000
0.022097 0.000000 1.000000
0.000000 0.000000 1.000000
0.000000 0.000000 0.978667
0.000000 0.000000 0.909986
0.000000 0.000000 0.818621
0.000000 0.000000 0.702953
0.000000 0.000000 0.561303
0.000000 0.000000 0.391927
0.000000 0.000000 0.193021
0.000000 0.000000 0.000000
0.000000 0.000000 0.000000
0.000000 0.000000 0.000000
0.000000 0.000000 0.000000
0.000000 0.000000 0.000000
0.000000 0.000000 0.000000
0.000000 0.000000 0.000000
0.000000 0.000000 0.000000
0.000000 0.000000 0.000000
0.000000 0.000000 0.000000
0.000000 0.000000 0.137281
0.000000 0.000000 0.266606
0.046075 0.000000 0.390284
0.104487 0.000000 0.507664
0.156106 0.000000 0.618032
0.199927 0.000000 0.720614
0.234964 0.000000 0.814575
0.260253 0.000000 0.899016
0.274851 0.000000 0.972979
0.277837 0.000000 1.000000
0.268312 0.000000 1.000000
0.245397 0.000000 1.000000
0.208234 0.000000 1.000000
0.155990 0.000000 1.000000
0.087849 0.000000 1.000000
0.003018 0.000000 1.000000
0.000000 0.000000 1.000000
0.000000 0.000000 0.978290
0.000000 0.000000 0.881137
0.000000 0.000000 0.758883
0.000000 0.000000 0.609829
0.000000 0.000000 0.432214
0.000000 0.000000 0.224215
0.000000 0.000000 0.000000
0.000000 0.000000 0.000000
0.000000 0.000000 0.000000
0.000000 0.000000 0.000000
0.000000 0.000000 0.000000
0.000000 0.000000 0.000000
0.000000 0.000000 0.000000
0.000000 0.000000 0.000000
0.000000 0.000000 0.000000
0.000000 0.000000 0.000000
0.000000 0.000000 0.221042
0.057842 0.000000 0.355345
0.125602 0.000000 0.483506
0.187226 0.000000 0.604855
0.241647 0.000000 0.718663
0.287819 0.000000 0.824134
0.324717 0.000000 0.920416
0.351337 0.000000 1.000000
0.366697 0.000000 1.000000
0.369836 0.000000 1.000000
0.359816 0.000000 1.000000
0.335717 0.000000 1.000000
0.296644 0.000000 1.000000
0.241721 0.000000 1.000000
0.170094 0.000000 1.000000
0.080932 0.000000 1.000000
0.000000 0.000000 1.000000
0.000000 0.000000 1.000000
0.000000 0.000000 0.963757
0.000000 0.000000 0.834749
0.000000 0.000000 0.678112
0.000000 0.000000 0.492068
0.000000 0.000000 0.274775
0.000000 0.000000 0.024330
0.000000 0.000000 0.000000
0.000000 0.000000 0.000000
0.000000 0.000000 0.000000
