lrplugin/MindfulLensFilmEngine.lrplugin/profiles/luts/gaf_500.cube
# Generated from ColorChecker fit
LUT_3D_SIZE 9
DOMAIN_MIN 0.0 0.0 0.0
DOMAIN_MAX 1.0 1.0 1.0
0.097500 0.035829 0.000000
0.000000 0.000000 0.017277
0.000000 0.000000 0.093517
0.000000 0.000000 0.177382
0.000000 0.000000 0.223348
0.000000 0.000000 0.170109
0.000000 0.000000 0.000000
0.000000 0.000000 0.000000
0.000000 0.000000 0.000000
0.101708 0.033058 0.151594
0.033109 0.009496 0.268018
0.000000 0.000000 0.403026
0.000000 0.000000 0.522132
0.000000 0.000000 0.575062
0.000000 0.000000 0.495758
0.000000 0.000000 0.202377
0.000000 0.000000 0.000000
0.000000 0.000000 0.000000
0.054852 0.075601 0.202093
0.055182 0.118075 0.392206
0.000000 0.071863 0.579333
0.000000 0.000000 0.724238
0.000000 0.000000 0.771899
0.000000 0.000000 0.651506
0.000000 0.000000 0.276466
0.000000 0.000000 0.000000
0.000000 0.000000 0.000000
0.000000 0.087466 0.150913
0.022737 0.207990 0.411739
0.013707 0.234645 0.645217
0.000000 0.153993 0.807362
0.000000 0.000000 0.838401
0.000000 0.000000 0.662775
0.000000 0.000000 0.189142
0.000000 0.000000 0.000000
0.000000 0.000000 0.000000
0.000000 0.000000 0.050890
0.000000 0.197734 0.380335
0.010966 0.304524 0.655279
0.000000 0.274085 0.826987
0.000000 0.087551 0.830934
0.000000 0.000000 0.586815
0.000000 0.000000 0.000000
0.000000 0.000000 0.000000
0.000000 0.000000 0.000000
0.000000 0.000000 0.000000
0.000000 0.000000 0.383537
0.041637 0.194476 0.695944
0.000000 0.216772 0.870417
0.000000 0.028311 0.837686
0.000000 0.000000 0.512693
0.000000 0.000000 0.000000
0.000000 0.000000 0.000000
0.000000 0.000000 0.000000
0.000000 0.000000 0.074780
0.088901 0.000000 0.538710
0.200944 0.000000 0.885456
0.136914 0.000000 1.000000
0.000000 0.000000 0.978667
0.000000 0.000000 0.561303
0.000000 0.000000 0.000000
0.000000 0.000000 0.000000
0.000000 0.000000 0.000000
0.193256 0.000000 0.463480
0.477169 0.000000 0.995039
0.613747 0.000000 1.000000
0.534376 0.000000 1.000000
0.175923 0.000000 1.000000
0.000000 0.000000 0.885359
0.000000 0.000000 0.000000
0.000000 0.000000 0.000000
0.000000 0.000000 0.000000
0.938115 0.000000 1.000000
1.000000 0.000000 1.000000
1.000000 0.000000 1.000000
1.000000 0.000000 1.000000
0.884121 0.000000 1.000000
0.036583 0.000000 1.000000
0.000000 0.000000 0.479636
0.000000 0.000000 0.000000
0.000000 0.000000 0.000000
0.141666 0.102240 0.000000
0.055030 0.072101 0.000000
0.000000 0.000000 0.000000
0.000000 0.000000 0.065578
0.000000 0.000000 0.142513
0.000000 0.000000 0.181936
0.000000 0.000000 0.121930
0.000000 0.000000 0.000000
0.000000 0.148282 0.000000
0.170768 0.138322 0.163584
0.144883 0.143485 0.221133
0.084931 0.099108 0.313876
0.000000 0.016460 0.422501
0.000000 0.000000 0.511909
0.000000 0.000000 0.531218
0.000000 0.000000 0.413756
0.000000 0.000000 0.077070
0.000000 0.074801 0.000000
0.151130 0.222798 0.220036
0.180719 0.277146 0.354924
0.181747 0.287407 0.503875
0.135742 0.250117 0.642825
0.029710 0.171120 0.731927
0.000000 0.065559 0.715547
0.000000 0.000000 0.522267
0.000000 0.000000 0.064880
0.000000 0.000000 0.000000
0.085796 0.280523 0.184520
0.167291 0.403204 0.393225
0.218472 0.477241 0.592068
0.210730 0.484439 0.752237
0.120931 0.415911 0.829134
0.000000 0.272070 0.762376
0.000000 0.062638 0.475794
0.000000 0.000000 0.000000
0.000000 0.000000 0.000000
0.007449 0.225569 0.111900
0.138991 0.440997 0.391780
0.231208 0.593212 0.635083
0.245352 0.649291 0.808247
0.148151 0.585615 0.861923
0.000000 0.387869 0.730978
0.000000 0.051041 0.334495
0.000000 0.000000 0.000000
0.000000 0.000000 0.000000
0.000000 0.000000 0.088862
0.159845 0.299081 0.438159
0.285689 0.549141 0.721372
0.307052 0.663758 0.900187
0.180524 0.604582 0.920507
0.000000 0.342567 0.712449
0.000000 0.000000 0.190346
0.000000 0.000000 0.000000
0.000000 0.000000 0.000000
0.090629 0.000000 0.233915
0.323520 0.000000 0.651753
0.477289 0.248067 0.971205
0.492912 0.436143 1.000000
0.316839 0.386379 1.000000
0.000000 0.054998 0.829708
0.000000 0.000000 0.167148
0.000000 0.000000 0.000000
0.000000 0.000000 0.000000
0.465705 0.000000 0.697390
0.753314 0.000000 1.000000
0.931017 0.000000 1.000000
0.929650 0.000000 1.000000
0.685525 0.000000 1.000000
0.140431 0.000000 1.000000
0.000000 0.000000 0.420525
0.000000 0.000000 0.000000
0.000000 0.000000 0.000000
1.000000 0.000000 1.000000
1.000000 0.000000 1.000000
1.000000 0.000000 1.000000
1.000000 0.000000 1.000000
1.000000 0.000000 1.000000
0.746237 0.000000 1.000000
0.000000 0.000000 1.000000
0.000000 0.000000 0.000000
0.000000 0.000000 0.000000
0.186165 0.144301 0.017819
0.108923 0.114072 0.000000
0.024765 0.057057 0.000000
0.000000 0.000000 0.000000
0.000000 0.000000 0.030393
0.000000 0.000000 0.133995
0.000000 0.125574 0.207970
0.000000 0.439370 0.189785
0.000000 0.993404 0.001126
0.230268 0.207704 0.178942
0.198019 0.186648 0.175451
0.170567 0.154891 0.216695
0.139029 0.118948 0.298538
0.099995 0.094636 0.401055
0.055531 0.107078 0.488537
0.013183 0.190698 0.509489
0.000000 0.389228 0.396631
0.000000 0.755701 0.066896
0.227026 0.321653 0.231064
0.237272 0.330789 0.306609
0.256773 0.335300 0.406196
0.266505 0.326970 0.520936
0.252921 0.306888 0.626157
0.207948 0.285444 0.681399
0.128993 0.282335 0.630418
0.018937 0.326559 0.401183
0.000000 0.456421 0.000000
0.179633 0.411849 0.199251
0.231587 0.477458 0.349763
0.289995 0.534510 0.500831
0.325694 0.560057 0.638816
0.314996 0.540458 0.734295
0.239694 0.471373 0.742061
0.087054 0.357768 0.601117
0.000000 0.213912 0.234685
0.000000 0.063378 0.000000
0.120921 0.393208 0.140394
0.215505 0.546838 0.362686
0.306482 0.677968 0.559255
0.354552 0.748920 0.711713
0.325888 0.731322 0.785888
0.192144 0.606104 0.731821
0.000000 0.363502 0.483768
0.000000 0.003054 0.000000
0.000000 0.000000 0.000000
0.113361 0.169868 0.143206
0.253203 0.448330 0.434972
0.372121 0.680340 0.671944
0.420674 0.813489 0.830986
0.354899 0.804674 0.873175
0.136311 0.620096 0.743802
0.000000 0.235259 0.372374
0.000000 0.000000 0.000000
0.000000 0.000000 0.000000
0.249058 0.000000 0.328223
0.438496 0.080556 0.688038
0.582433 0.445510 0.961198
0.621292 0.662911 1.000000
0.500969 0.674926 1.000000
0.172841 0.433024 0.902950
0.000000 0.000000 0.392764
0.000000 0.000000 0.000000
0.000000 0.000000 0.000000
0.649753 0.000000 0.847802
0.894834 0.000000 1.000000
1.000000 0.000000 1.000000
1.000000 0.195557 1.000000
0.892675 0.245711 1.000000
0.432020 0.000000 1.000000
0.000000 0.000000 0.702586
0.000000 0.000000 0.000000
0.000000 0.000000 0.000000
1.000000 0.000000 1.000000
1.000000 0.000000 1.000000
1.000000 0.000000 1.000000
1.000000 0.000000 1.000000
1.000000 0.000000 1.000000
1.000000 0.000000 1.000000
0.056324 0.000000 1.000000
0.000000 0.000000 0.157444
0.000000 0.000000 0.000000
0.262349 0.188625 0.067906
0.164906 0.132348 0.000000
0.095602 0.082364 0.000000
0.055138 0.055163 0.000000
0.049689 0.076539 0.000000
0.090910 0.181590 0.092799
0.195930 0.414719 0.276020
0.387355 0.829632 0.444991
0.693268 1.000000 0.536570
0.315664 0.272255 0.213981
0.247931 0.196879 0.158104
0.219002 0.144506 0.149436
0.219439 0.116895 0.199013
0.245281 0.125112 0.302088
0.298042 0.189524 0.438125
0.384714 0.339803 0.570804
0.517764 0.614925 0.648019
0.715137 1.000000 0.601878
0.322101 0.407656 0.255385
0.284361 0.341333 0.278288
0.288832 0.304714 0.328144
0.315939 0.284828 0.411240
0.351581 0.278010 0.518076
0.387134 0.289897 0.623368
0.419452 0.335431 0.686046
0.450862 0.438857 0.649255
0.489172 0.633725 0.440353
0.285005 0.521370 0.219210
0.279250 0.497518 0.316278
0.311857 0.500061 0.417250
0.353110 0.501298 0.523663
0.378770 0.482834 0.621268
0.370075 0.435575 0.680031
0.313740 0.359732 0.654133
0.201955 0.264822 0.481967
0.032387 0.169662 0.086143
0.237357 0.529161 0.164375
0.267290 0.586461 0.331872
0.324474 0.656838 0.477433
0.369058 0.697861 0.597845
0.366663 0.676403 0.674109
0.288389 0.568640 0.671442
0.110812 0.360054 0.539272
0.000000 0.045431 0.211247
0.000000 0.000000 0.000000
0.241778 0.336011 0.181617
0.312807 0.518409 0.416692
0.392721 0.690556 0.601198
0.431529 0.795291 0.727172
0.384715 0.784755 0.770866
0.213238 0.620397 0.692747
0.000000 0.272965 0.437495
0.000000 0.000000 0.000000
0.000000 0.000000 0.000000
0.390523 0.000000 0.393500
0.509766 0.192828 0.694181
0.612270 0.505945 0.912869
0.637904 0.703582 1.000000
0.532013 0.723150 1.000000
0.245420 0.511366 0.870921
0.000000 0.024250 0.476655
0.000000 0.000000 0.000000
0.000000 0.000000 0.000000
0.805484 0.000000 0.954407
0.981769 0.000000 1.000000
1.000000 0.000000 1.000000
1.000000 0.321947 1.000000
0.937286 0.396064 1.000000
0.515370 0.151290 1.000000
0.000000 0.000000 0.816429
0.000000 0.000000 0.000000
0.000000 0.000000 0.000000
1.000000 0.000000 1.000000
1.000000 0.000000 1.000000
1.000000 0.000000 1.000000
1.000000 0.000000 1.000000
1.000000 0.000000 1.000000
1.000000 0.000000 1.000000
0.228887 0.000000 1.000000
0.000000 0.000000 0.509626
0.000000 0.000000 0.000000
0.378000 0.240168 0.139054
0.250719 0.158727 0.000000
0.181773 0.111523 0.000000
0.171310 0.110292 0.000000
0.224955 0.176073 0.000000
0.353807 0.339212 0.109117
0.574444 0.639357 0.387671
0.908919 1.000000 0.722815
1.000000 1.000000 1.000000
0.438842 0.341370 0.269269
0.326462 0.210414 0.180480
0.282035 0.131028 0.134305
0.295568 0.100221 0.156955
0.362549 0.124301 0.258857
0.483938 0.218883 0.434650
0.666174 0.408884 0.663188
0.921173 0.728527 0.907540
1.000000 1.000000 1.000000
0.452346 0.494637 0.297465
0.357932 0.349452 0.285247
0.333828 0.263164 0.295825
0.359906 0.218049 0.350660
0.421513 0.205686 0.455427
0.509471 0.226959 0.600017
0.620081 0.292057 0.758534
0.755119 0.420470 0.889298
0.921839 0.640994 0.934840
0.422006 0.627356 0.252761
0.350331 0.508495 0.311952
0.344067 0.445847 0.371327
0.372946 0.406957 0.447599
0.412176 0.368674 0.541692
0.442444 0.317153 0.638749
0.449909 0.247849 0.708122
0.426211 0.165526 0.703381
0.368464 0.084248 0.562310
0.380956 0.656136 0.196100
0.338500 0.609415 0.322418
0.349298 0.606213 0.423518
0.372944 0.599345 0.511361
0.374506 0.550930 0.582124
0.324531 0.432391 0.616197
0.199043 0.224455 0.578185
0.000000 0.000000 0.416908
0.000000 0.000000 0.065399
0.391963 0.486805 0.220250
0.386917 0.563304 0.410295
0.415710 0.660619 0.546927
0.427795 0.716834 0.637359
0.378104 0.679338 0.673015
0.227045 0.504823 0.629538
0.000000 0.159286 0.466782
0.000000 0.000000 0.128817
0.000000 0.000000 0.000000
0.547433 0.014408 0.449797
0.589697 0.270472 0.701052
0.639124 0.514639 0.867907
0.635031 0.670262 0.952825
0.522211 0.670000 0.942482
0.250934 0.455814 0.807770
0.000000 0.000000 0.503793
0.000000 0.000000 0.000000
0.000000 0.000000 0.000000
0.969410 0.000000 1.000000
1.000000 0.000000 1.000000
1.000000 0.063065 1.000000
1.000000 0.359686 1.000000
0.935703 0.428238 1.000000
0.526781 0.195952 1.000000
0.000000 0.000000 0.850919
0.000000 0.000000 0.102653
0.000000 0.000000 0.000000
1.000000 0.000000 1.000000
1.000000 0.000000 1.000000
1.000000 0.000000 1.000000
1.000000 0.000000 1.000000
1.000000 0.000000 1.000000
1.000000 0.000000 1.000000
0.293584 0.000000 1.000000
0.000000 0.000000 0.721572
0.000000 0.000000 0.000000
0.517329 0.282231 0.212195
0.370529 0.203352 0.041784
0.307403 0.181518 0.000000
0.327545 0.223712 0.000000
0.436027 0.346219 0.000000
0.643396 0.574631 0.217978
0.965677 0.943842 0.588770
1.000000 1.000000 1.000000
1.000000 1.000000 1.000000
0.588118 0.402786 0.329634
0.441887 0.241831 0.238226
0.387898 0.155881 0.177769
0.415606 0.137188 0.189649
0.519944 0.187308 0.299467
0.701323 0.317100 0.517036
0.965626 0.546730 0.836386
1.000000 0.905665 1.000000
1.000000 1.000000 1.000000
0.610180 0.574771 0.346027
0.470363 0.374163 0.327029
0.424097 0.256509 0.319600
0.450700 0.199332 0.360378
0.534966 0.189457 0.470212
0.667165 0.223014 0.654168
0.843046 0.305437 0.901523
1.000000 0.451464 1.000000
1.000000 0.685137 1.000000
0.587162 0.726419 0.292521
0.461312 0.533844 0.340223
0.423065 0.422164 0.377321
0.441599 0.354171 0.435702
0.491571 0.301959 0.531467
0.553112 0.246929 0.664930
0.611832 0.179783 0.820621
0.658816 0.100530 0.967283
0.690625 0.018481 1.000000
0.552345 0.775183 0.232087
0.449724 0.643592 0.341659
0.421499 0.580827 0.415663
0.426710 0.534949 0.481236
0.429875 0.463322 0.549727
0.400988 0.332616 0.616702
0.315518 0.118805 0.661940
0.154413 0.000000 0.649436
0.000000 0.000000 0.527397
0.568648 0.627736 0.259516
0.500226 0.615344 0.427013
0.485735 0.649699 0.531184
0.474077 0.664131 0.594417
0.419632 0.601275 0.623312
0.282253 0.413071 0.608685
0.027273 0.060759 0.525565
0.000000 0.000000 0.333197
0.000000 0.000000 0.000000
0.728626 0.179967 0.501423
0.707082 0.350254 0.723779
0.711746 0.535198 0.852262
0.681382 0.653401 0.904507
0.560230 0.632766 0.882366
0.298007 0.410503 0.771905
0.000000 0.000000 0.543402
0.000000 0.000000 0.151354
0.000000 0.000000 0.000000
1.000000 0.000000 1.000000
1.000000 0.000000 1.000000
1.000000 0.132964 1.000000
1.000000 0.403661 1.000000
0.980697 0.463962 1.000000
0.578983 0.236344 1.000000
0.000000 0.000000 0.879180
0.000000 0.000000 0.268517
0.000000 0.000000 0.000000
1.000000 0.000000 1.000000
1.000000 0.000000 1.000000
1.000000 0.000000 1.000000
1.000000 0.000000 1.000000
1.000000 0.000000 1.000000
1.000000 0.000000 1.000000
0.387207 0.000000 1.000000
0.000000 0.000000 0.881121
0.000000 0.000000 0.000000
0.640976 0.276457 0.252515
0.504936 0.254708 0.126168
0.473048 0.307677 0.028192
0.544356 0.437592 0.019898
0.723377 0.655987 0.146810
1.000000 0.983698 0.438667
1.000000 1.000000 0.909423
1.000000 1.000000 1.000000
1.000000 1.000000 1.000000
0.728235 0.422584 0.364158
0.578907 0.284055 0.311244
0.541251 0.238829 0.270551
0.604170 0.274403 0.298637
0.762044 0.387580 0.436279
1.000000 0.584467 0.708465
1.000000 0.880472 1.000000
1.000000 1.000000 1.000000
1.000000 1.000000 1.000000
0.764453 0.618577 0.374051
0.610463 0.412826 0.387432
0.568404 0.308952 0.394090
0.617043 0.279722 0.445834
0.740621 0.307210 0.578691
0.928856 0.382790 0.812898
1.000000 0.507143 1.000000
1.000000 0.690252 1.000000
1.000000 0.951406 1.000000
0.753425 0.793515 0.315370
0.605105 0.575363 0.388788
0.561720 0.457652 0.433747
0.591897 0.398421 0.497308
0.669738 0.365011 0.610746
0.774823 0.334068 0.789550
0.892208 0.291540 1.000000
1.000000 0.232683 1.000000
1.000000 0.162053 1.000000
0.728583 0.865696 0.253108
0.597976 0.695227 0.381189
0.558048 0.613756 0.456282
0.567288 0.564590 0.520701
0.589660 0.500339 0.600969
0.594604 0.382918 0.707826
0.557040 0.183548 0.836228
0.457359 0.000000 0.965341
0.281434 0.000000 1.000000
0.752996 0.742635 0.284086
0.653852 0.685201 0.462335
0.623875 0.695310 0.560278
0.611412 0.701538 0.615476
0.570290 0.641766 0.649706
0.459813 0.463180 0.668956
0.244757 0.122268 0.663431
0.000000 0.000000 0.607550
0.000000 0.000000 0.459946
0.919369 0.321070 0.536944
0.867148 0.447284 0.761750
0.855321 0.609576 0.876139
0.822099 0.721794 0.912922
0.711169 0.707086 0.889126
0.471695 0.497909 0.805989
0.058318 0.036020 0.648968
0.000000 0.000000 0.387730
0.000000 0.000000 0.000000
1.000000 0.000000 1.000000
1.000000 0.000000 1.000000
1.000000 0.253039 1.000000
1.000000 0.527104 1.000000
1.000000 0.603310 1.000000
0.761137 0.399381 1.000000
0.130315 0.000000 0.958593
0.000000 0.000000 0.472517
0.000000 0.000000 0.000000
1.000000 0.000000 1.000000
1.000000 0.000000 1.000000
1.000000 0.000000 1.000000
1.000000 0.008436 1.000000
1.000000 0.226668 1.000000
1.000000 0.069091 1.000000
0.622978 0.000000 1.000000
0.000000 0.000000 1.000000
0.000000 0.000000 0.054930
0.686011 0.162835 0.209460
0.610966 0.279624 0.181061
0.655694 0.483669 0.154797
0.818686 0.772446 0.207151
1.000000 1.000000 0.398823
1.000000 1.000000 0.774727
1.000000 1.000000 1.000000
1.000000 1.000000 1.000000
1.000000 1.000000 1.000000
0.800370 0.345189 0.326183
0.698655 0.308352 0.363697
0.723184 0.377979 0.387631
0.862307 0.536816 0.469720
1.000000 0.776911 0.665914
1.000000 1.000000 1.000000
1.000000 1.000000 1.000000
1.000000 1.000000 1.000000
1.000000 1.000000 1.000000
0.860445 0.574918 0.338776
0.743466 0.441145 0.434516
0.751943 0.423037 0.498171
0.864087 0.488607 0.596724
1.000000 0.615173 0.781377
1.000000 0.789357 1.000000
1.000000 1.000000 1.000000
1.000000 1.000000 1.000000
1.000000 1.000000 1.000000
0.870181 0.781944 0.282439
0.751052 0.613192 0.429601
0.749332 0.559294 0.523380
0.833095 0.573533 0.626010
0.975891 0.618498 0.783943
1.000000 0.666078 1.000000
1.000000 0.697471 1.000000
1.000000 0.703176 1.000000
1.000000 0.682996 1.000000
0.863160 0.885410 0.224195
0.756703 0.748899 0.416856
0.752352 0.716422 0.532045
0.808039 0.726531 0.627246
0.887179 0.727085 0.744160
0.958658 0.675243 0.908700
0.996843 0.537472 1.000000
0.981573 0.289541 1.000000
0.898167 0.000000 1.000000
0.902601 0.793678 0.262888
0.825348 0.761892 0.496009
0.827637 0.813310 0.624775
0.857264 0.871755 0.701923
0.867504 0.870352 0.764401
0.817105 0.751534 0.833376
0.670294 0.467035 0.914226
0.396774 0.000000 0.996543
0.000000 0.000000 1.000000
1.000000 0.404327 0.529185
1.000000 0.555016 0.798607
1.000000 0.758068 0.934001
1.000000 0.922577 0.983353
1.000000 0.966938 0.978863
0.833484 0.818853 0.936946
0.483627 0.415326 0.858231
0.000000 0.000000 0.727562
0.000000 0.000000 0.513996
1.000000 0.000000 1.000000
1.000000 0.020334 1.000000
1.000000 0.448023 1.000000
1.000000 0.781589 1.000000
1.000000 0.924698 1.000000
1.000000 0.790320 1.000000
0.569585 0.300729 1.000000
0.000000 0.000000 0.767111
0.000000 0.000000 0.259566
1.000000 0.000000 1.000000
1.000000 0.000000 1.000000
1.000000 0.000000 1.000000
1.000000 0.340604 1.000000
1.000000 0.640708 1.000000
1.000000 0.568275 1.000000
1.000000 0.030849 1.000000
0.000000 0.000000 1.000000
0.000000 0.000000 0.492214
0.565936 0.000000 0.016731
0.622078 0.223272 0.150986
0.808757 0.681510 0.254070
1.000000 1.000000 0.417642
1.000000 1.000000 0.717576
1.000000 1.000000 1.000000
1.000000 1.000000 1.000000
1.000000 1.000000 1.000000
1.000000 1.000000 1.000000
0.722127 0.093370 0.153308
0.738694 0.264331 0.344001
0.891218 0.549784 0.488247
1.000000 0.927721 0.672954
1.000000 1.000000 0.969248
1.000000 1.000000 1.000000
1.000000 1.000000 1.000000
1.000000 1.000000 1.000000
1.000000 1.000000 1.000000
0.819863 0.370999 0.181697
0.811041 0.413168 0.420594
0.936338 0.579654 0.594977
1.000000 0.833717 0.787003
1.000000 1.000000 1.000000
1.000000 1.000000 1.000000
1.000000 1.000000 1.000000
1.000000 1.000000 1.000000
1.000000 1.000000 1.000000
0.863241 0.623349 0.139122
0.844923 0.605818 0.418874
0.951629 0.712417 0.613249
1.000000 0.891676 0.799659
1.000000 1.000000 1.000000
1.000000 1.000000 1.000000
1.000000 1.000000 1.000000
1.000000 1.000000 1.000000
1.000000 1.000000 1.000000
0.885991 0.770407 0.094635
0.875780 0.767530 0.408770
0.974241 0.878588 0.613878
1.000000 1.000000 0.782619
1.000000 1.000000 0.971866
1.000000 1.000000 1.000000
1.000000 1.000000 1.000000
1.000000 1.000000 1.000000
1.000000 0.881600 1.000000
0.951483 0.721381 0.149105
0.968691 0.812777 0.492038
1.000000 0.997901 0.699499
1.000000 1.000000 0.839399
1.000000 1.000000 0.963862
1.000000 1.000000 1.000000
1.000000 1.000000 1.000000
1.000000 0.822517 1.000000
0.899832 0.196105 1.000000
1.000000 0.374695 0.435227
1.000000 0.645247 0.802252
1.000000 0.979312 1.000000
1.000000 1.000000 1.000000
1.000000 1.000000 1.000000
1.000000 1.000000 1.000000
1.000000 1.000000 1.000000
0.740601 0.579843 1.000000
0.056470 0.000000 1.000000
1.000000 0.000000 1.000000
1.000000 0.157849 1.000000
1.000000 0.720993 1.000000
1.000000 1.000000 1.000000
1.000000 1.000000 1.000000
1.000000 1.000000 1.000000
1.000000 1.000000 1.000000
0.542864 0.347982 1.000000
0.000000 0.000000 0.873290
1.000000 0.000000 1.000000
1.000000 0.000000 1.000000
1.000000 0.110336 1.000000
1.000000 0.835893 1.000000
1.000000 1.000000 1.000000
1.000000 1.000000 1.000000
1.000000 0.988499 1.000000
0.774430 0.040646 1.000000
0.000000 0.000000 1.000000
