lrplugin/MindfulLensFilmEngine.lrplugin/profiles/luts/gaf_500.cube
# Generated from ColorChecker fit
LUT_3D_SIZE 5
DOMAIN_MIN 0.0 0.0 0.0
DOMAIN_MAX 1.0 1.0 1.0
0.097500 0.035829 0.000000
0.000000 0.000000 0.093517
0.000000 0.000000 0.223348
0.000000 0.000000 0.000000
0.000000 0.000000 0.000000
0.054852 0.075601 0.202093
0.000000 0.071863 0.579333
0.000000 0.000000 0.771899
0.000000 0.000000 0.276466
0.000000 0.000000 0.000000
0.000000 0.000000 0.050890
0.010966 0.304524 0.655279
0.000000 0.087551 0.830934
0.000000 0.000000 0.000000
0.000000 0.000000 0.000000
0.000000 0.000000 0.074780
0.200944 0.000000 0.885456
0.000000 0.000000 0.978667
0.000000 0.000000 0.000000
0.000000 0.000000 0.000000
0.938115 0.000000 1.000000
1.000000 0.000000 1.000000
0.884121 0.000000 1.000000
0.000000 0.000000 0.479636
0.000000 0.000000 0.000000
0.186165 0.144301 0.017819
0.024765 0.057057 0.000000
0.000000 0.000000 0.030393
0.000000 0.125574 0.207970
0.000000 0.993404 0.001126
0.227026 0.321653 0.231064
0.256773 0.335300 0.406196
0.252921 0.306888 0.626157
0.128993 0.282335 0.630418
0.000000 0.456421 0.000000
0.120921 0.393208 0.140394
0.306482 0.677968 0.559255
0.325888 0.731322 0.785888
0.000000 0.363502 0.483768
0.000000 0.000000 0.000000
0.249058 0.000000 0.328223
0.582433 0.445510 0.961198
0.500969 0.674926 1.000000
0.000000 0.000000 0.392764
0.000000 0.000000 0.000000
1.000000 0.000000 1.000000
1.000000 0.000000 1.000000
1.000000 0.000000 1.000000
0.056324 0.000000 1.000000
0.000000 0.000000 0.000000
0.378000 0.240168 0.139054
0.181773 0.111523 0.000000
0.224955 0.176073 0.000000
0.574444 0.639357 0.387671
1.000000 1.000000 1.000000
0.452346 0.494637 0.297465
0.333828 0.263164 0.295825
0.421513 0.205686 0.455427
0.620081 0.292057 0.758534
0.921839 0.640994 0.934840
0.380956 0.656136 0.196100
0.349298 0.606213 0.423518
0.374506 0.550930 0.582124
0.199043 0.224455 0.578185
0.000000 0.000000 0.065399
0.547433 0.014408 0.449797
0.639124 0.514639 0.867907
0.522211 0.670000 0.942482
0.000000 0.000000 0.503793
0.000000 0.000000 0.000000
1.000000 0.000000 1.000000
1.000000 0.000000 1.000000
1.000000 0.000000 1.000000
0.293584 0.000000 1.000000
0.000000 0.000000 0.000000
0.640976 0.276457 0.252515
0.473048 0.307677 0.028192
0.723377 0.655987 0.146810
1.000000 1.000000 0.909423
1.000000 1.000000 1.000000
0.764453 0.618577 0.374051
0.568404 0.308952 0.394090
0.740621 0.307210 0.578691
1.000000 0.507143 1.000000
1.000000 0.951406 1.000000
0.728583 0.865696 0.253108
0.558048 0.613756 0.456282
0.589660 0.500339 0.600969
0.557040 0.183548 0.836228
0.281434 0.000000 1.000000
0.919369 0.321070 0.536944
0.855321 0.609576 0.876139
0.711169 0.707086 0.889126
0.058318 0.036020 0.648968
0.000000 0.000000 0.000000
1.000000 0.000000 1.000000
1.000000 0.000000 1.000000
1.000000 0.226668 1.000000
0.622978 0.000000 1.000000
0.000000 0.000000 0.054930
0.565936 0.000000 0.016731
0.808757 0.681510 0.254070
1.000000 1.000000 0.717576
1.000000 1.000000 1.000000
1.000000 1.000000 1.000000
0.819863 0.370999 0.181697
0.936338 0.579654 0.594977
1.000000 1.000000 1.000000
1.000000 1.000000 1.000000
1.000000 1.000000 1.000000
0.885991 0.770407 0.094635
0.974241 0.878588 0.613878
1.000000 1.000000 0.971866
1.000000 1.000000 1.000000
1.000000 0.881600 1.000000
1.000000 0.374695 0.435227
1.000000 0.979312 1.000000
1.000000 1.000000 1.000000
1.000000 1.000000 1.000000
0.056470 0.000000 1.000000
1.000000 0.000000 1.000000
1.000000 0.110336 1.000000
1.000000 1.000000 1.000000
1.000000 0.988499 1.000000
0.000000 0.000000 1.000000
