lrplugin/MindfulLensFilmEngine.lrplugin/profiles/luts/gold_200.cube
# Generated from ColorChecker fit
LUT_3D_SIZE 9
DOMAIN_MIN 0.0 0.0 0.0
DOMAIN_MAX 1.0 1.0 1.0
0.190327 0.194295 0.151385
0.000000 0.090916 0.060095
0.000000 0.000000 0.000000
0.000000 0.000000 0.000000
0.000000 0.000000 0.000000
0.000000 0.000000 0.000000
0.000000 0.000000 0.000000
0.000000 0.000000 0.000000
0.000000 0.000000 0.041733
0.368149 0.291312 0.352089
0.135594 0.167209 0.327317
0.000000 0.056698 0.302713
0.000000 0.000000 0.238750
0.000000 0.000000 0.126672
0.000000 0.000000 0.000000
0.000000 0.000000 0.000000
0.000000 0.000000 0.000000
0.000000 0.124624 0.099155
0.554113 0.464160 0.443891
0.325839 0.334287 0.490490
0.130400 0.224657 0.518421
0.000000 0.095418 0.483309
0.000000 0.000000 0.371549
0.000000 0.000000 0.200311
0.000000 0.000000 0.017539
0.000000 0.000000 0.000000
0.215244 0.587386 0.000000
0.656860 0.584485 0.390602
0.443959 0.468631 0.517244
0.265978 0.376699 0.601973
0.083834 0.271515 0.595563
0.000000 0.156292 0.479565
0.000000 0.074628 0.266299
0.000000 0.110509 0.000000
0.000000 0.388306 0.000000
0.652327 1.000000 0.000000
0.571926 0.497221 0.185277
0.387970 0.420004 0.404454
0.237526 0.367423 0.554061
0.084242 0.304977 0.580027
0.000000 0.238555 0.459053
0.000000 0.214431 0.198612
0.000000 0.319269 0.000000
0.170466 0.680114 0.000000
0.912501 1.000000 0.000000
0.181743 0.020585 0.000000
0.042781 0.011462 0.178240
0.000000 0.024715 0.404628
0.000000 0.028522 0.470461
0.000000 0.031446 0.347593
0.000000 0.082440 0.038649
0.000000 0.270841 0.000000
0.087932 0.726372 0.000000
0.898021 1.000000 0.000000
0.000000 0.000000 0.000000
0.000000 0.000000 0.000000
0.000000 0.000000 0.212859
0.000000 0.000000 0.329871
0.000000 0.000000 0.212010
0.000000 0.000000 0.000000
0.000000 0.000000 0.000000
0.000000 0.352419 0.000000
0.498037 1.000000 0.000000
0.000000 0.000000 0.000000
0.000000 0.000000 0.000000
0.000000 0.000000 0.067188
0.000000 0.000000 0.250508
0.000000 0.000000 0.148375
0.000000 0.000000 0.000000
0.000000 0.000000 0.000000
0.000000 0.000000 0.000000
0.000000 0.511961 0.000000
0.000000 0.000000 0.000000
0.000000 0.000000 0.000000
0.000000 0.000000 0.085293
0.000000 0.000000 0.353871
0.000000 0.000000 0.282006
0.000000 0.000000 0.000000
0.000000 0.000000 0.000000
0.000000 0.000000 0.000000
0.000000 0.000000 0.000000
0.156538 0.162869 0.067293
0.060328 0.150147 0.000000
0.009004 0.162156 0.000000
0.000000 0.140453 0.000000
0.000000 0.066984 0.000000
0.000000 0.000000 0.000000
0.000000 0.000000 0.100242
0.000000 0.000000 0.413874
0.086457 0.307861 1.000000
0.294232 0.252319 0.262607
0.174539 0.198603 0.253373
0.105064 0.176452 0.270939
0.026630 0.130101 0.278261
0.000000 0.044169 0.269069
0.000000 0.000000 0.267868
0.000000 0.000000 0.329933
0.000000 0.000899 0.541313
0.338538 0.410587 1.000000
0.448319 0.432492 0.366681
0.320883 0.361210 0.423594
0.245503 0.325358 0.488205
0.165735 0.271846 0.518622
0.066701 0.187971 0.503728
0.000000 0.101416 0.463179
0.000000 0.080252 0.447402
0.128703 0.232936 0.537600
0.635133 0.708310 0.845746
0.544899 0.589536 0.347565
0.427937 0.528948 0.481972
0.361377 0.504686 0.600565
0.291507 0.466336 0.656605
0.206180 0.403870 0.634126
0.134814 0.347648 0.547936
0.148396 0.368417 0.443616
0.359474 0.577309 0.397520
0.922164 1.000000 0.516774
0.496964 0.582884 0.202556
0.411173 0.566085 0.429624
0.370636 0.583537 0.612955
0.324374 0.587504 0.700964
0.262971 0.570632 0.672837
0.218578 0.565960 0.538534
0.264911 0.646908 0.338788
0.517253 0.927286 0.145106
1.000000 1.000000 0.059765
0.204406 0.245257 0.000000
0.172959 0.310174 0.296910
0.178126 0.404299 0.559556
0.171659 0.482570 0.689699
0.146876 0.540312 0.661681
0.138658 0.613238 0.480612
0.223453 0.777446 0.182378
0.519276 1.000000 0.000000
1.000000 1.000000 0.000000
0.000000 0.000000 0.000000
0.000000 0.000000 0.143441
0.000000 0.000000 0.503795
0.000000 0.000000 0.690059
0.000000 0.138250 0.671725
0.000000 0.319657 0.449056
0.000000 0.595038 0.053089
0.269674 1.000000 0.000000
0.988537 1.000000 0.000000
0.000000 0.000000 0.000000
0.000000 0.000000 0.058069
0.000000 0.000000 0.538347
0.000000 0.000000 0.798536
0.000000 0.000000 0.803281
0.000000 0.000000 0.547997
0.000000 0.000000 0.058874
0.000000 0.542811 0.000000
0.434450 1.000000 0.000000
0.000000 0.000000 0.000000
0.000000 0.000000 0.158897
0.000000 0.000000 0.785132
0.000000 0.000000 1.000000
0.000000 0.000000 1.000000
0.000000 0.000000 0.910815
0.000000 0.000000 0.336931
0.000000 0.000000 0.000000
0.000000 0.509230 0.000000
0.159239 0.146906 0.014619
0.151262 0.183120 0.000000
0.214882 0.263302 0.000000
0.273562 0.315770 0.000000
0.292332 0.309230 0.058574
0.277787 0.252774 0.201813
0.278088 0.195880 0.477013
0.382961 0.228414 0.977556
0.723697 0.480628 1.000000
0.246705 0.216117 0.188304
0.196291 0.190306 0.169925
0.219065 0.212512 0.202748
0.241224 0.213729 0.252215
0.230529 0.165339 0.314542
0.196306 0.079111 0.416718
0.189448 0.007198 0.616505
0.302413 0.042143 1.000000
0.669225 0.316874 1.000000
0.352443 0.383140 0.285105
0.282456 0.327205 0.324785
0.283757 0.320366 0.396297
0.285274 0.296294 0.460238
0.257500 0.229047 0.507976
0.212492 0.133069 0.561651
0.203876 0.063191 0.674177
0.326841 0.114631 0.929243
0.718143 0.422993 1.000000
0.420010 0.548624 0.277315
0.355793 0.499298 0.389073
0.357470 0.497179 0.508886
0.356702 0.478613 0.592503
0.326712 0.420334 0.626443
0.282292 0.339462 0.628000
0.279796 0.293506 0.645239
0.417148 0.380357 0.757001
0.833833 0.738298 1.000000
0.379858 0.586503 0.166471
0.349230 0.585354 0.368147
0.375612 0.626552 0.549693
0.393393 0.649120 0.662006
0.378530 0.632468 0.686760
0.348546 0.596393 0.636400
0.362528 0.601077 0.554144
0.521129 0.747091 0.513984
0.966569 1.000000 0.620686
0.149333 0.343998 0.000000
0.182594 0.437427 0.296612
0.260485 0.565374 0.557139
0.320129 0.669538 0.710989
0.340213 0.732005 0.734987
0.340993 0.775248 0.636732
0.384286 0.862127 0.454592
0.573479 1.000000 0.257713
1.000000 1.000000 0.146011
0.000000 0.000000 0.000000
0.000000 0.000000 0.238315
0.000000 0.143818 0.598893
0.048586 0.374873 0.810940
0.125915 0.558786 0.846434
0.176264 0.720704 0.708122
0.264181 0.926163 0.429530
0.495786 1.000000 0.074953
1.000000 1.000000 0.000000
0.000000 0.000000 0.000000
0.000000 0.000000 0.286354
0.000000 0.000000 0.771872
0.000000 0.000000 1.000000
0.000000 0.000000 1.000000
0.000000 0.250720 0.958945
0.000000 0.615980 0.591150
0.196533 1.000000 0.081715
0.773242 1.000000 0.000000
0.000000 0.000000 0.000000
0.000000 0.000000 0.563069
0.000000 0.000000 1.000000
0.000000 0.000000 1.000000
0.000000 0.000000 1.000000
0.000000 0.000000 1.000000
0.000000 0.000000 1.000000
0.000000 0.444494 0.423258
0.214827 1.000000 0.000000
0.229588 0.176531 0.030078
0.275800 0.235248 0.000000
0.420329 0.355649 0.000000
0.572012 0.452811 0.052042
0.681248 0.482203 0.194737
0.740005 0.439675 0.436678
0.781814 0.361469 0.842961
0.881773 0.324209 1.000000
1.000000 0.444911 1.000000
0.268083 0.223219 0.173353
0.253097 0.198118 0.135376
0.334283 0.235964 0.170774
0.423206 0.254513 0.247475
0.473001 0.211906 0.364180
0.478363 0.106672 0.550365
0.475559 0.000000 0.866276
0.542416 0.000000 1.000000
0.798330 0.006302 1.000000
0.320356 0.367005 0.250796
0.274163 0.298460 0.259921
0.318501 0.291157 0.322787
0.367669 0.265526 0.402475
0.377531 0.182386 0.492838
0.345519 0.042942 0.618503
0.310626 0.000000 0.834870
0.353414 0.000000 1.000000
0.596011 0.000000 1.000000
0.347422 0.523038 0.238941
0.302488 0.456257 0.311863
0.338952 0.446041 0.414483
0.373847 0.415499 0.505033
0.365767 0.328125 0.572521
0.314874 0.187800 0.636723
0.262897 0.038792 0.748193
0.293127 0.000000 0.988255
0.530423 0.093732 1.000000
0.297190 0.579753 0.143566
0.288460 0.564776 0.300800
0.348503 0.598720 0.459279
0.397083 0.607369 0.572388
0.395528 0.556892 0.624285
0.346730 0.453849 0.629901
0.295149 0.345182 0.634940
0.326810 0.318222 0.715880
0.569302 0.500688 0.979971
0.104465 0.398873 0.000000
0.169362 0.490574 0.265578
0.286915 0.620582 0.499840
0.379618 0.717356 0.651022
0.411532 0.749743 0.698433
0.388280 0.726977 0.652158
0.357055 0.698678 0.553052
0.406613 0.754852 0.472746
0.667274 1.000000 0.513641
0.000000 0.000000 0.000000
0.000000 0.073493 0.274285
0.080843 0.356302 0.608075
0.250585 0.594970 0.816664
0.345390 0.761020 0.874515
0.373615 0.866360 0.786863
0.385183 0.963288 0.589718
0.471582 1.000000 0.349861
0.765865 1.000000 0.164846
0.000000 0.000000 0.000000
0.000000 0.000000 0.424261
0.000000 0.000000 0.885140
0.000000 0.063008 1.000000
0.115611 0.418352 1.000000
0.223720 0.704462 1.000000
0.302996 0.976310 0.861370
0.447658 1.000000 0.467477
0.793492 1.000000 0.057658
0.000000 0.000000 0.066071
0.000000 0.000000 0.842086
0.000000 0.000000 1.000000
0.000000 0.000000 1.000000
0.000000 0.000000 1.000000
0.000000 0.047031 1.000000
0.020853 0.548326 1.000000
0.247680 1.000000 0.975094
0.665472 1.000000 0.345395
0.367645 0.251447 0.115751
0.443735 0.321523 0.044221
0.644874 0.469475 0.081500
0.865270 0.597144 0.202850
1.000000 0.646756 0.414306
1.000000 0.600926 0.752676
1.000000 0.482653 1.000000
1.000000 0.355326 1.000000
1.000000 0.322717 1.000000
0.369783 0.283717 0.227290
0.366109 0.247420 0.173490
0.481600 0.287479 0.213010
0.613193 0.308409 0.316262
0.699393 0.255113 0.484436
0.720270 0.112881 0.749490
0.697457 0.000000 1.000000
0.694157 0.000000 1.000000
0.815135 0.000000 1.000000
0.374833 0.404566 0.280747
0.328510 0.310746 0.260227
0.391973 0.288788 0.313127
0.464892 0.245887 0.405013
0.488503 0.129622 0.532225
0.445607 0.000000 0.721876
0.360570 0.000000 1.000000
0.299326 0.000000 1.000000
0.369373 0.000000 1.000000
0.361266 0.543646 0.256895
0.311886 0.445981 0.289024
0.359420 0.412719 0.370265
0.406271 0.353729 0.461336
0.396406 0.219265 0.553727
0.315359 0.000000 0.669704
0.190227 0.000000 0.862305
0.089674 0.000000 1.000000
0.123932 0.000000 1.000000
0.294451 0.603892 0.165753
0.284083 0.560897 0.273722
0.354266 0.571875 0.402083
0.410133 0.549370 0.506707
0.398384 0.446314 0.574238
0.307283 0.256025 0.622093
0.166661 0.012207 0.698462
0.047914 0.000000 0.882306
0.064003 0.000000 1.000000
0.126648 0.461528 0.046590
0.199840 0.536550 0.257405
0.333727 0.652145 0.455485
0.436172 0.723534 0.591852
0.456608 0.706324 0.648303
0.386031 0.596509 0.637405
0.257003 0.430472 0.602501
0.143653 0.284979 0.617707
0.161672 0.277185 0.787911
0.000000 0.000000 0.000000
0.000795 0.227283 0.312406
0.241917 0.512706 0.606623
0.430982 0.740230 0.796742
0.520150 0.868139 0.859710
0.503152 0.895102 0.803249
0.415280 0.860177 0.665853
0.333394 0.842808 0.516790
0.375920 0.962825 0.456099
0.000000 0.000000 0.027490
0.000000 0.000000 0.540303
0.009847 0.000000 0.960894
0.328048 0.436757 1.000000
0.524975 0.773889 1.000000
0.597088 0.998765 1.000000
0.582411 1.000000 1.000000
0.560538 1.000000 0.704048
0.652625 1.000000 0.416243
0.000000 0.000000 0.352317
0.000000 0.000000 1.000000
0.000000 0.000000 1.000000
0.047755 0.000000 1.000000
0.393943 0.238992 1.000000
0.593177 0.727750 1.000000
0.686214 1.000000 1.000000
0.755378 1.000000 1.000000
0.924558 1.000000 0.825903
0.542376 0.340938 0.239078
0.633764 0.426515 0.189092
0.876946 0.604641 0.265896
1.000000 0.763915 0.447238
1.000000 0.833327 0.741640
1.000000 0.782250 1.000000
1.000000 0.620445 1.000000
1.000000 0.398061 1.000000
1.000000 0.205633 1.000000
0.532128 0.377282 0.325017
0.525381 0.333172 0.273398
0.660804 0.377303 0.332814
0.820705 0.400953 0.476166
0.928961 0.335784 0.707126
0.951011 0.153848 1.000000
0.893863 0.000000 1.000000
0.806089 0.000000 1.000000
0.777825 0.000000 1.000000
0.507552 0.485886 0.357317
0.446910 0.369408 0.322290
0.515319 0.333896 0.378134
0.597821 0.273302 0.492900
0.621024 0.121965 0.665413
0.553099 0.000000 0.925272
0.403786 0.000000 1.000000
0.224387 0.000000 1.000000
0.107773 0.000000 1.000000
0.464578 0.610898 0.320993
0.396757 0.484208 0.324602
0.441376 0.428237 0.394508
0.486211 0.339613 0.493913
0.460599 0.155354 0.616795
0.335444 0.000000 0.787905
0.123218 0.000000 1.000000
0.000000 0.000000 1.000000
0.000000 0.000000 1.000000
0.386031 0.669758 0.230306
0.360225 0.599842 0.298415
0.426756 0.587429 0.403836
0.476132 0.531825 0.504925
0.440421 0.372721 0.590811
0.293261 0.090197 0.681396
0.049853 0.000000 0.827357
0.000000 0.000000 1.000000
0.000000 0.000000 1.000000
0.241631 0.553189 0.128764
0.309512 0.611868 0.291056
0.446136 0.711864 0.457265
0.544739 0.755160 0.580901
0.540124 0.684124 0.646244
0.408659 0.481511 0.668350
0.168278 0.170463 0.693045
0.000000 0.000000 0.796932
0.000000 0.000000 1.000000
0.000000 0.125203 0.089120
0.203712 0.389130 0.379097
0.461085 0.675220 0.635187
0.656081 0.888131 0.806053
0.726234 0.972908 0.871127
0.650644 0.914982 0.840616
0.449976 0.740170 0.755501
0.186460 0.514677 0.687533
0.000000 0.345096 0.739241
0.000000 0.000000 0.213375
0.000000 0.000000 0.668357
0.420072 0.324461 1.000000
0.761103 0.782535 1.000000
0.952174 1.000000 1.000000
0.975116 1.000000 1.000000
0.853325 1.000000 1.000000
0.651766 1.000000 0.910681
0.476964 1.000000 0.730098
0.000000 0.000000 0.632772
0.000000 0.000000 1.000000
0.258458 0.000000 1.000000
0.797646 0.263457 1.000000
1.000000 0.882429 1.000000
1.000000 1.000000 1.000000
1.000000 1.000000 1.000000
1.000000 1.000000 1.000000
1.000000 1.000000 1.000000
0.691648 0.383867 0.332867
0.793490 0.504377 0.339523
1.000000 0.730584 0.488723
1.000000 0.937852 0.760701
1.000000 1.000000 1.000000
1.000000 0.998949 1.000000
1.000000 0.805435 1.000000
1.000000 0.498296 1.000000
1.000000 0.154827 1.000000
0.704342 0.453167 0.406797
0.689871 0.419913 0.389593
0.840586 0.485264 0.498911
1.000000 0.527259 0.710138
1.000000 0.464322 1.000000
1.000000 0.255266 1.000000
1.000000 0.000000 1.000000
0.895566 0.000000 1.000000
0.713489 0.000000 1.000000
0.679095 0.570602 0.428228
0.599677 0.449377 0.408062
0.668586 0.416696 0.493988
0.756238 0.353273 0.656544
0.774609 0.180209 0.897040
0.677244 0.000000 1.000000
0.459252 0.000000 1.000000
0.157309 0.000000 1.000000
0.000000 0.000000 1.000000
0.629297 0.694822 0.386416
0.538771 0.556254 0.388006
0.576224 0.493198 0.470849
0.614802 0.389045 0.600633
0.569214 0.167572 0.773822
0.395735 0.000000 1.000000
0.092209 0.000000 1.000000
0.000000 0.000000 1.000000
0.000000 0.000000 1.000000
0.555228 0.757767 0.299863
0.509914 0.677315 0.351748
0.568738 0.656376 0.455635
0.607575 0.581014 0.572367
0.543869 0.377683 0.693557
0.336625 0.013223 0.841594
0.000000 0.000000 1.000000
0.000000 0.000000 1.000000
0.000000 0.000000 1.000000
0.444067 0.664661 0.216317
0.502762 0.722620 0.350855
0.638260 0.821121 0.503734
0.729169 0.848905 0.630950
0.695663 0.735102 0.719270
0.499481 0.449227 0.786234
0.143928 0.001183 0.880155
0.000000 0.000000 1.000000
0.000000 0.000000 1.000000
0.269887 0.294017 0.212775
0.493866 0.575514 0.466140
0.763821 0.875612 0.699779
0.961091 1.000000 0.864837
1.000000 1.000000 0.943234
0.870765 1.000000 0.947663
0.553677 0.696189 0.921588
0.104920 0.268305 0.939249
0.000000 0.000000 1.000000
0.000000 0.000000 0.395475
0.446673 0.092629 0.807665
0.911344 0.681315 1.000000
1.000000 1.000000 1.000000
1.000000 1.000000 1.000000
1.000000 1.000000 1.000000
1.000000 1.000000 1.000000
0.806838 1.000000 1.000000
0.361742 0.977334 1.000000
0.000000 0.000000 0.899906
0.311524 0.000000 1.000000
1.000000 0.072983 1.000000
1.000000 0.904666 1.000000
1.000000 1.000000 1.000000
1.000000 1.000000 1.000000
1.000000 1.000000 1.000000
1.000000 1.000000 1.000000
1.000000 1.000000 1.000000
0.722234 0.288676 0.295289
0.839416 0.478837 0.407916
1.000000 0.786324 0.676612
1.000000 1.000000 1.000000
1.000000 1.000000 1.000000
1.000000 1.000000 1.000000
1.000000 1.000000 1.000000
1.000000 0.671487 1.000000
1.000000 0.201044 1.000000
0.804553 0.430202 0.378260
0.787441 0.441761 0.441932
0.958540 0.560768 0.645386
1.000000 0.652023 0.966493
1.000000 0.620711 1.000000
1.000000 0.412404 1.000000
1.000000 0.013061 1.000000
0.948849 0.000000 1.000000
0.618118 0.000000 1.000000
0.818948 0.587934 0.406567
0.726029 0.495157 0.444858
0.800727 0.496983 0.602234
0.898825 0.460884 0.851719
0.917675 0.294723 1.000000
0.796190 0.000000 1.000000
0.514852 0.000000 1.000000
0.095708 0.000000 1.000000
0.000000 0.000000 1.000000
0.796264 0.735025 0.373707
0.688504 0.617013 0.414009
0.724273 0.577787 0.548291
0.762086 0.487496 0.744728
0.702026 0.256678 1.000000
0.485739 0.000000 1.000000
0.096438 0.000000 1.000000
0.000000 0.000000 1.000000
0.000000 0.000000 1.000000
0.754240 0.817914 0.302425
0.695083 0.758601 0.375951
0.751874 0.759287 0.513940
0.785861 0.692798 0.679721
0.699857 0.472348 0.867395
0.438240 0.051538 1.000000
0.000000 0.000000 1.000000
0.000000 0.000000 1.000000
0.000000 0.000000 1.000000
0.697511 0.756327 0.244709
0.752880 0.844480 0.386490
0.893122 0.970875 0.558810
0.982219 1.000000 0.720148
0.925714 0.880793 0.859757
0.670718 0.536482 0.997663
0.205908 0.000000 1.000000
0.000000 0.000000 1.000000
0.000000 0.000000 1.000000
0.617610 0.443278 0.281796
0.855903 0.772497 0.530683
1.000000 1.000000 0.771774
1.000000 1.000000 0.958700
1.000000 1.000000 1.000000
1.000000 1.000000 1.000000
0.759695 0.790734 1.000000
0.131816 0.181480 1.000000
0.000000 0.000000 1.000000
0.492961 0.000000 0.524167
0.985057 0.413784 0.922831
1.000000 1.000000 1.000000
1.000000 1.000000 1.000000
1.000000 1.000000 1.000000
1.000000 1.000000 1.000000
1.000000 1.000000 1.000000
1.000000 1.000000 1.000000
0.371091 0.852810 1.000000
0.288887 0.000000 1.000000
1.000000 0.000000 1.000000
1.000000 0.679405 1.000000
1.000000 1.000000 1.000000
1.000000 1.000000 1.000000
1.000000 1.000000 1.000000
1.000000 1.000000 1.000000
1.000000 1.000000 1.000000
1.000000 1.000000 1.000000
0.509808 0.000000 0.000000
0.656951 0.243207 0.272033
1.000000 0.680459 0.721553
1.000000 1.000000 1.000000
1.000000 1.000000 1.000000
1.000000 1.000000 1.000000
1.000000 1.000000 1.000000
1.000000 0.902673 1.000000
1.000000 0.344611 1.000000
0.719795 0.196797 0.110397
0.714855 0.302415 0.315637
0.921165 0.522802 0.671690
1.000000 0.709520 1.000000
1.000000 0.754513 1.000000
1.000000 0.590114 1.000000
1.000000 0.189044 1.000000
0.921101 0.000000 1.000000
0.456609 0.000000 1.000000
0.825500 0.436681 0.170783
0.734090 0.420838 0.325356
0.829595 0.504131 0.609780
0.953172 0.540798 0.999562
0.987542 0.425459 1.000000
0.856992 0.093125 1.000000
0.527373 0.000000 1.000000
0.006104 0.000000 1.000000
0.000000 0.000000 1.000000
0.875226 0.640694 0.168776
0.765435 0.590962 0.302749
0.814734 0.621766 0.541201
0.867009 0.590016 0.854792
0.807713 0.393012 1.000000
0.563865 0.000000 1.000000
0.104049 0.000000 1.000000
0.000000 0.000000 1.000000
0.000000 0.000000 1.000000
0.904170 0.769775 0.131359
0.846568 0.778563 0.278619
0.916735 0.846313 0.500576
0.961291 0.832615 0.763043
0.868420 0.637443 1.000000
0.567872 0.201157 1.000000
0.030963 0.000000 1.000000
0.000000 0.000000 1.000000
0.000000 0.000000 1.000000
0.934425 0.758153 0.114764
1.000000 0.922699 0.313016
1.000000 1.000000 0.551774
1.000000 1.000000 0.792004
1.000000 1.000000 1.000000
0.903495 0.749679 1.000000
0.345077 0.112843 1.000000
0.000000 0.000000 1.000000
0.000000 0.000000 1.000000
0.974980 0.513340 0.204467
1.000000 0.935718 0.495237
1.000000 1.000000 0.787912
1.000000 1.000000 1.000000
1.000000 1.000000 1.000000
1.000000 1.000000 1.000000
1.000000 1.000000 1.000000
0.279097 0.301569 1.000000
0.000000 0.000000 1.000000
1.000000 0.000000 0.515191
1.000000 0.703255 0.943824
1.000000 1.000000 1.000000
1.000000 1.000000 1.000000
1.000000 1.000000 1.000000
1.000000 1.000000 1.000000
1.000000 1.000000 1.000000
1.000000 1.000000 1.000000
0.538048 0.966734 1.000000
1.000000 0.000000 1.000000
1.000000 0.084231 1.000000
1.000000 1.000000 1.000000
1.000000 1.000000 1.000000
1.000000 1.000000 1.000000
1.000000 1.000000 1.000000
1.000000 1.000000 1.000000
1.000000 1.000000 1.000000
1.000000 1.000000 1.000000
