lrplugin/MindfulLensFilmEngine.lrplugin/profiles/luts/gold_200.cube
# Generated from ColorChecker fit
LUT_3D_SIZE 5
DOMAIN_MIN 0.0 0.0 0.0
DOMAIN_MAX 1.0 1.0 1.0
0.190327 0.194295 0.151385
0.000000 0.000000 0.000000
0.000000 0.000000 0.000000
0.000000 0.000000 0.000000
0.000000 0.000000 0.041733
0.554113 0.464160 0.443891
0.130400 0.224657 0.518421
0.000000 0.000000 0.371549
0.000000 0.000000 0.017539
0.215244 0.587386 0.000000
0.571926 0.497221 0.185277
0.237526 0.367423 0.554061
0.000000 0.238555 0.459053
0.000000 0.319269 0.000000
0.912501 1.000000 0.000000
0.000000 0.000000 0.000000
0.000000 0.000000 0.212859
0.000000 0.000000 0.212010
0.000000 0.000000 0.000000
0.498037 1.000000 0.000000
0.000000 0.000000 0.000000
0.000000 0.000000 0.085293
0.000000 0.000000 0.282006
0.000000 0.000000 0.000000
0.000000 0.000000 0.000000
0.159239 0.146906 0.014619
0.214882 0.263302 0.000000
0.292332 0.309230 0.058574
0.278088 0.195880 0.477013
0.723697 0.480628 1.000000
0.352443 0.383140 0.285105
0.283757 0.320366 0.396297
0.257500 0.229047 0.507976
0.203876 0.063191 0.674177
0.718143 0.422993 1.000000
0.379858 0.586503 0.166471
0.375612 0.626552 0.549693
0.378530 0.632468 0.686760
0.362528 0.601077 0.554144
0.966569 1.000000 0.620686
0.000000 0.000000 0.000000
0.000000 0.143818 0.598893
0.125915 0.558786 0.846434
0.264181 0.926163 0.429530
1.000000 1.000000 0.000000
0.000000 0.000000 0.000000
0.000000 0.000000 1.000000
0.000000 0.000000 1.000000
0.000000 0.000000 1.000000
0.214827 1.000000 0.000000
0.367645 0.251447 0.115751
0.644874 0.469475 0.081500
1.000000 0.646756 0.414306
1.000000 0.482653 1.000000
1.000000 0.322717 1.000000
0.374833 0.404566 0.280747
0.391973 0.288788 0.313127
0.488503 0.129622 0.532225
0.360570 0.000000 1.000000
0.369373 0.000000 1.000000
0.294451 0.603892 0.165753
0.354266 0.571875 0.402083
0.398384 0.446314 0.574238
0.166661 0.012207 0.698462
0.064003 0.000000 1.000000
0.000000 0.000000 0.000000
0.241917 0.512706 0.606623
0.520150 0.868139 0.859710
0.415280 0.860177 0.665853
0.375920 0.962825 0.456099
0.000000 0.000000 0.352317
0.000000 0.000000 1.000000
0.393943 0.238992 1.000000
0.686214 1.000000 1.000000
0.924558 1.000000 0.825903
0.691648 0.383867 0.332867
1.000000 0.730584 0.488723
1.000000 1.000000 1.000000
1.000000 0.805435 1.000000
1.000000 0.154827 1.000000
0.679095 0.570602 0.428228
0.668586 0.416696 0.493988
0.774609 0.180209 0.897040
0.459252 0.000000 1.000000
0.000000 0.000000 1.000000
0.555228 0.757767 0.299863
0.568738 0.656376 0.455635
0.543869 0.377683 0.693557
0.000000 0.000000 1.000000
0.000000 0.000000 1.000000
0.269887 0.294017 0.212775
0.763821 0.875612 0.699779
1.000000 1.000000 0.943234
0.553677 0.696189 0.921588
0.000000 0.000000 1.000000
0.000000 0.000000 0.899906
1.000000 0.072983 1.000000
1.000000 1.000000 1.000000
1.000000 1.000000 1.000000
1.000000 1.000000 1.000000
0.509808 0.000000 0.000000
1.000000 0.680459 0.721553
1.000000 1.000000 1.000000
1.000000 1.000000 1.000000
1.000000 0.344611 1.000000
0.825500 0.436681 0.170783
0.829595 0.504131 0.609780
0.987542 0.425459 1.000000
0.527373 0.000000 1.000000
0.000000 0.000000 1.000000
0.904170 0.769775 0.131359
0.916735 0.846313 0.500576
0.868420 0.637443 1.000000
0.030963 0.000000 1.000000
0.000000 0.000000 1.000000
0.974980 0.513340 0.204467
1.000000 1.000000 0.787912
1.000000 1.000000 1.000000
1.000000 1.000000 1.000000
0.000000 0.000000 1.000000
1.000000 0.000000 1.000000
1.000000 1.000000 1.000000
1.000000 1.000000 1.000000
1.000000 1.000000 1.000000
1.000000 1.000000 1.000000
