lrplugin/MindfulLensFilmEngine.lrplugin/profiles/luts/gold_200.cube
# Generated from ColorChecker fit
LUT_3D_SIZE 33
DOMAIN_MIN 0.0 0.0 0.0
DOMAIN_MAX 1.0 1.0 1.0
0.190327 0.194295 0.151385
0.127418 0.164087 0.124141
0.069364 0.137706 0.100546
0.014696 0.113735 0.079518
0.000000 0.090916 0.060095
0.000000 0.068148 0.041433
0.000000 0.044488 0.022811
0.000000 0.019151 0.003628
0.000000 0.000000 0.000000
0.000000 0.000000 0.000000
0.000000 0.000000 0.000000
0.000000 0.000000 0.000000
0.000000 0.000000 0.000000
0.000000 0.000000 0.000000
0.000000 0.000000 0.000000
0.000000 0.000000 0.000000
0.000000 0.000000 0.000000
0.000000 0.000000 0.000000
0.000000 0.000000 0.000000
0.000000 0.000000 0.000000
0.000000 0.000000 0.000000
0.000000 0.000000 0.000000
0.000000 0.000000 0.000000
0.000000 0.000000 0.000000
0.000000 0.000000 0.000000
0.000000 0.000000 0.000000
0.000000 0.000000 0.000000
0.000000 0.000000 0.000000
0.000000 0.000000 0.000000
0.000000 0.000000 0.000000
0.000000 0.000000 0.000000
0.000000 0.000000 0.000000
0.000000 0.000000 0.041733
0.229516 0.205425 0.208692
0.165962 0.173423 0.185776
0.107394 0.145383 0.166368
0.052352 0.119901 0.149364
0.000000 0.095728 0.133785
0.000000 0.071773 0.118768
0.000000 0.047105 0.103572
0.000000 0.020948 0.087576
0.000000 0.000000 0.070280
0.000000 0.000000 0.051303
0.000000 0.000000 0.030385
0.000000 0.000000 0.007386
0.000000 0.000000 0.000000
0.000000 0.000000 0.000000
0.000000 0.000000 0.000000
0.000000 0.000000 0.000000
0.000000 0.000000 0.000000
0.000000 0.000000 0.000000
0.000000 0.000000 0.000000
0.000000 0.000000 0.000000
0.000000 0.000000 0.000000
0.000000 0.000000 0.000000
0.000000 0.000000 0.000000
0.000000 0.000000 0.000000
0.000000 0.000000 0.000000
0.000000 0.000000 0.000000
0.000000 0.000000 0.000000
0.000000 0.000000 0.000000
0.000000 0.000000 0.000000
0.000000 0.000000 0.000000
0.000000 0.000000 0.000000
0.000000 0.000000 0.000000
0.000000 0.000000 0.072826
0.273022 0.226346 0.261945
0.208950 0.192743 0.243416
0.149979 0.163229 0.228233
0.094662 0.136406 0.215277
0.041712 0.111038 0.203546
0.000000 0.086045 0.192161
0.000000 0.060504 0.180362
0.000000 0.033653 0.167508
0.000000 0.004883 0.153080
0.000000 0.000000 0.136679
0.000000 0.000000 0.118025
0.000000 0.000000 0.096959
0.000000 0.000000 0.073443
0.000000 0.000000 0.047558
0.000000 0.000000 0.019505
0.000000 0.000000 0.000000
0.000000 0.000000 0.000000
0.000000 0.000000 0.000000
0.000000 0.000000 0.000000
0.000000 0.000000 0.000000
0.000000 0.000000 0.000000
0.000000 0.000000 0.000000
0.000000 0.000000 0.000000
0.000000 0.000000 0.000000
0.000000 0.000000 0.000000
0.000000 0.000000 0.000000
0.000000 0.000000 0.000000
0.000000 0.000000 0.000000
0.000000 0.000000 0.000000
0.000000 0.000000 0.000000
0.000000 0.000000 0.000000
0.000000 0.000000 0.000000
0.000000 0.000000 0.093143
0.319650 0.255522 0.310066
0.255194 0.220532 0.295994
0.195943 0.189744 0.285092
0.140459 0.161771 0.276220
0.087467 0.135387 0.268359
0.035855 0.109522 0.260609
0.000000 0.083265 0.252192
0.000000 0.055862 0.242448
0.000000 0.026717 0.230840
0.000000 0.000000 0.216948
0.000000 0.000000 0.200475
0.000000 0.000000 0.181243
0.000000 0.000000 0.159194
0.000000 0.000000 0.134389
0.000000 0.000000 0.107013
0.000000 0.000000 0.077368
0.000000 0.000000 0.045876
0.000000 0.000000 0.013082
0.000000 0.000000 0.000000
0.000000 0.000000 0.000000
0.000000 0.000000 0.000000
0.000000 0.000000 0.000000
0.000000 0.000000 0.000000
0.000000 0.000000 0.000000
0.000000 0.000000 0.000000
0.000000 0.000000 0.000000
0.000000 0.000000 0.000000
0.000000 0.000000 0.000000
0.000000 0.000000 0.000000
0.000000 0.000000 0.000000
0.000000 0.000000 0.000000
0.000000 0.000000 0.007486
0.000000 0.023567 0.102082
0.368149 0.291312 0.352089
0.303456 0.255168 0.342561
0.244057 0.223326 0.336009
0.188524 0.194412 0.331274
0.135594 0.167209 0.327317
0.084165 0.140659 0.323220
0.033297 0.113859 0.318186
0.000000 0.086068 0.311536
0.000000 0.056698 0.302713
0.000000 0.025323 0.291280
0.000000 0.000000 0.276920
0.000000 0.000000 0.259436
0.000000 0.000000 0.238750
0.000000 0.000000 0.214907
0.000000 0.000000 0.188070
0.000000 0.000000 0.158524
0.000000 0.000000 0.126672
0.000000 0.000000 0.093038
0.000000 0.000000 0.058268
0.000000 0.000000 0.023125
0.000000 0.000000 0.000000
0.000000 0.000000 0.000000
0.000000 0.000000 0.000000
0.000000 0.000000 0.000000
0.000000 0.000000 0.000000
0.000000 0.000000 0.000000
0.000000 0.000000 0.000000
0.000000 0.000000 0.000000
0.000000 0.000000 0.000000
0.000000 0.000000 0.000000
0.000000 0.000000 0.000000
0.000000 0.000000 0.014848
0.000000 0.124624 0.099155
0.417222 0.331972 0.387162
0.352446 0.294924 0.382281
0.293039 0.262269 0.380163
0.237586 0.232641 0.379631
0.184832 0.204836 0.379629
0.133687 0.177804 0.379218
0.083221 0.150656 0.377582
0.032668 0.122657 0.374024
0.000000 0.093233 0.367968
0.000000 0.061966 0.358958
0.000000 0.028598 0.346657
0.000000 0.000000 0.330850
0.000000 0.000000 0.311440
0.000000 0.000000 0.288454
0.000000 0.000000 0.262034
0.000000 0.000000 0.232447
0.000000 0.000000 0.200078
0.000000 0.000000 0.165431
0.000000 0.000000 0.129133
0.000000 0.000000 0.091929
0.000000 0.000000 0.054686
0.000000 0.000000 0.018389
0.000000 0.000000 0.000000
0.000000 0.000000 0.000000
0.000000 0.000000 0.000000
0.000000 0.000000 0.000000
0.000000 0.000000 0.000000
0.000000 0.000000 0.000000
0.000000 0.000000 0.000000
0.000000 0.000000 0.000000
0.000000 0.000000 0.000000
0.000000 0.058825 0.010402
0.000000 0.232831 0.083988
0.465516 0.375653 0.414550
0.400823 0.337972 0.414431
0.341560 0.304761 0.416847
0.286323 0.274667 0.420602
0.233870 0.246494 0.424618
0.183118 0.219205 0.427941
0.133151 0.191918 0.429733
0.083211 0.163913 0.429281
0.032707 0.134623 0.425988
0.000000 0.103643 0.419379
0.000000 0.070722 0.409099
0.000000 0.035769 0.394913
0.000000 0.000000 0.376707
0.000000 0.000000 0.354486
0.000000 0.000000 0.328377
0.000000 0.000000 0.298625
0.000000 0.000000 0.265596
0.000000 0.000000 0.229778
0.000000 0.000000 0.191775
0.000000 0.000000 0.152317
0.000000 0.000000 0.112249
0.000000 0.000000 0.072539
0.000000 0.000000 0.034274
0.000000 0.000000 0.000000
0.000000 0.000000 0.000000
0.000000 0.000000 0.000000
0.000000 0.000000 0.000000
0.000000 0.000000 0.000000
0.000000 0.000000 0.000000
0.000000 0.000000 0.000000
0.000000 0.018112 0.000000
0.000000 0.166282 0.000000
0.000000 0.346944 0.056323
0.511631 0.420402 0.433629
0.447194 0.382375 0.438404
0.388236 0.348886 0.445468
0.333364 0.318591 0.453606
0.281343 0.290305 0.461721
0.231106 0.263001 0.468840
0.181743 0.235808 0.474107
0.132510 0.208015 0.476788
0.082824 0.179067 0.476269
0.032265 0.148568 0.472054
0.000000 0.116279 0.463772
0.000000 0.082120 0.451167
0.000000 0.046167 0.434106
0.000000 0.008654 0.412576
0.000000 0.000000 0.386685
0.000000 0.000000 0.356658
0.000000 0.000000 0.322843
0.000000 0.000000 0.285708
0.000000 0.000000 0.245841
0.000000 0.000000 0.203949
0.000000 0.000000 0.160861
0.000000 0.000000 0.117524
0.000000 0.000000 0.075009
0.000000 0.000000 0.034502
0.000000 0.000000 0.000000
0.000000 0.000000 0.000000
0.000000 0.000000 0.000000
0.000000 0.000000 0.000000
0.000000 0.000000 0.000000
0.000000 0.000000 0.000000
0.000000 0.123991 0.000000
0.000000 0.278366 0.000000
0.088538 0.465614 0.016013
0.554113 0.464160 0.443891
0.490117 0.426096 0.453707
0.431634 0.392625 0.465548
0.377282 0.362414 0.478181
0.325839 0.334287 0.490490
0.276244 0.307229 0.501482
0.227602 0.280379 0.510284
0.179178 0.253037 0.516141
0.130400 0.224657 0.518421
0.080857 0.194855 0.516611
0.030303 0.163402 0.510317
0.000000 0.130227 0.499267
0.000000 0.095418 0.483309
0.000000 0.059220 0.462410
0.000000 0.022035 0.436658
0.000000 0.000000 0.406261
0.000000 0.000000 0.371549
0.000000 0.000000 0.332968
0.000000 0.000000 0.291089
0.000000 0.000000 0.246600
0.000000 0.000000 0.200311
0.000000 0.000000 0.153150
0.000000 0.000000 0.106168
0.000000 0.000000 0.060534
0.000000 0.000000 0.017539
0.000000 0.000000 0.000000
0.000000 0.000000 0.000000
0.000000 0.000000 0.000000
0.000000 0.000000 0.000000
0.000000 0.102523 0.000000
0.000000 0.233065 0.000000
0.022032 0.393605 0.000000
0.215244 0.587386 0.000000
0.591458 0.504766 0.444942
0.528096 0.466992 0.459960
0.470269 0.433854 0.476723
0.416604 0.404029 0.493977
0.365890 0.376354 0.510590
0.317079 0.349822 0.525548
0.269283 0.323584 0.537959
0.221779 0.296949 0.547051
0.174007 0.269383 0.552172
0.125565 0.240511 0.552788
0.076219 0.210116 0.548489
0.025893 0.178136 0.538983
0.000000 0.144671 0.524099
0.000000 0.109974 0.503785
0.000000 0.074461 0.478111
0.000000 0.038700 0.447265
0.000000 0.003422 0.411558
0.000000 0.000000 0.371418
0.000000 0.000000 0.327396
0.000000 0.000000 0.280161
0.000000 0.000000 0.230504
0.000000 0.000000 0.179336
0.000000 0.000000 0.127687
0.000000 0.000000 0.076709
0.000000 0.000000 0.027671
0.000000 0.000000 0.000000
0.000000 0.000000 0.000000
0.000000 0.013535 0.000000
0.000000 0.098311 0.000000
0.000000 0.207400 0.000000
0.000000 0.343739 0.000000
0.136787 0.510422 0.000000
0.336248 0.710703 0.000000
0.622110 0.539954 0.436502
0.559586 0.502814 0.456899
0.502605 0.470343 0.478742
0.449803 0.441227 0.500760
0.399981 0.414314 0.521800
0.352101 0.388608 0.540832
0.305287 0.363269 0.556943
0.258826 0.337617 0.569342
0.212167 0.311129 0.577359
0.164921 0.283441 0.580441
0.116863 0.254344 0.578158
0.067929 0.223789 0.570201
0.018217 0.191885 0.556377
0.000000 0.158897 0.536618
0.000000 0.125248 0.510974
0.000000 0.091522 0.479614
0.000000 0.058455 0.442829
0.000000 0.026946 0.401030
0.000000 0.000000 0.354748
0.000000 0.000000 0.304634
0.000000 0.000000 0.251459
0.000000 0.000000 0.196116
0.000000 0.000000 0.139614
0.000000 0.000000 0.083088
0.000000 0.000000 0.027788
0.000000 0.000000 0.000000
0.000000 0.039547 0.000000
0.000000 0.107654 0.000000
0.000000 0.197598 0.000000
0.000000 0.312167 0.000000
0.074616 0.454311 0.000000
0.244813 0.627135 0.000000
0.450302 0.833903 0.000000
0.644463 0.567352 0.418406
0.582990 0.531211 0.444372
0.527054 0.499759 0.471469
0.475302 0.471695 0.498407
0.426544 0.445873 0.524016
0.379754 0.421310 0.547243
0.334066 0.397176 0.567159
0.288779 0.372802 0.582954
0.243351 0.347676 0.593936
0.197405 0.321442 0.599537
0.150726 0.293904 0.599307
0.103260 0.265022 0.592917
0.055117 0.234916 0.580156
0.006569 0.203861 0.560936
0.000000 0.172292 0.535289
0.000000 0.140800 0.503364
0.000000 0.110136 0.465435
0.000000 0.081207 0.421893
0.000000 0.055077 0.373250
0.000000 0.032970 0.320137
0.000000 0.016267 0.263309
0.000000 0.006505 0.203636
0.000000 0.005382 0.142112
0.000000 0.014751 0.079849
0.000000 0.036624 0.018082
0.000000 0.073170 0.000000
0.000000 0.126717 0.000000
0.000000 0.199750 0.000000
0.000000 0.294911 0.000000
0.025647 0.415002 0.000000
0.169101 0.562979 0.000000
0.344804 0.741960 0.000000
0.556112 0.955219 0.000000
0.656860 0.584485 0.390602
0.596661 0.549727 0.422343
0.541978 0.519667 0.454884
0.491470 0.493012 0.486914
0.443959 0.468631 0.517244
0.398427 0.445547 0.544804
0.354021 0.422944 0.568645
0.310048 0.400162 0.587938
0.265978 0.376699 0.601973
0.221446 0.352210 0.610161
0.176246 0.326509 0.612034
0.130335 0.299568 0.607245
0.083834 0.271515 0.595563
0.037025 0.242638 0.576882
0.000000 0.213380 0.551214
0.000000 0.184345 0.518690
0.000000 0.156292 0.479565
0.000000 0.130140 0.434209
0.000000 0.106963 0.383118
0.000000 0.087995 0.326903
0.000000 0.074628 0.266299
0.000000 0.068410 0.202159
0.000000 0.071049 0.135456
0.000000 0.084407 0.067286
0.000000 0.110509 0.000000
0.000000 0.151533 0.000000
0.000000 0.209817 0.000000
0.000000 0.287857 0.000000
0.000000 0.388306 0.000000
0.105896 0.513975 0.000000
0.254379 0.667833 0.000000
0.435401 0.853007 0.000000
0.652327 1.000000 0.000000
0.657590 0.588775 0.353152
0.598897 0.555802 0.390890
0.545687 0.527522 0.429078
0.496630 0.502657 0.466387
0.450556 0.480083 0.501608
0.406461 0.458835 0.533653
0.363500 0.438107 0.561554
0.320992 0.417249 0.584462
0.278418 0.395770 0.601650
0.235423 0.373336 0.612509
0.191811 0.349770 0.616552
0.147552 0.325055 0.613411
0.102775 0.299331 0.602841
0.057774 0.272894 0.584712
0.013004 0.246199 0.559020
0.000000 0.219860 0.525878
0.000000 0.194646 0.485518
0.000000 0.171487 0.438295
0.000000 0.151468 0.384684
0.000000 0.135833 0.325278
0.000000 0.125984 0.260792
0.000000 0.123480 0.192061
0.000000 0.130038 0.120039
0.000000 0.147533 0.045802
0.000000 0.177998 0.000000
0.000000 0.223624 0.000000
0.000000 0.286757 0.000000
0.000000 0.369905 0.000000
0.051933 0.475731 0.000000
0.175683 0.607057 0.000000
0.329032 0.766861 0.000000
0.515195 0.958280 0.000000
0.737550 1.000000 0.000000
0.644894 0.577537 0.306235
0.587950 0.546769 0.350205
0.536441 0.520681 0.394259
0.489049 0.498002 0.437048
0.444614 0.477622 0.477345
0.402142 0.458585 0.514042
0.360801 0.440094 0.546152
0.319918 0.421512 0.572809
0.278987 0.402357 0.593264
0.237662 0.382305 0.606891
0.195758 0.361191 0.613185
0.153255 0.339008 0.611758
0.110295 0.315905 0.602344
0.067181 0.292189 0.584799
0.024379 0.268328 0.559095
0.000000 0.244943 0.525327
0.000000 0.222816 0.483711
0.000000 0.202885 0.434582
0.000000 0.186248 0.378393
0.000000 0.174158 0.315722
0.000000 0.168027 0.247263
0.000000 0.169426 0.173832
0.000000 0.180081 0.096366
0.000000 0.201879 0.015919
0.000000 0.236862 0.000000
0.000000 0.287231 0.000000
0.000000 0.355346 0.000000
0.003893 0.443721 0.000000
0.105317 0.555031 0.000000
0.233528 0.692109 0.000000
0.391589 0.857944 0.000000
0.582727 1.000000 0.000000
0.810330 1.000000 0.000000
0.616960 0.547983 0.250141
0.562016 0.519860 0.300595
0.512448 0.496391 0.350748
0.466944 0.476317 0.399233
0.424360 0.458535 0.444805
0.383709 0.442101 0.486336
0.344171 0.426231 0.522821
0.305084 0.410294 0.553373
0.265951 0.393821 0.577226
0.226438 0.376499 0.593735
0.186372 0.358173 0.602375
0.145742 0.338845 0.602740
0.104700 0.318675 0.594545
0.063560 0.297983 0.577626
0.022800 0.277243 0.551937
0.000000 0.257090 0.517555
0.000000 0.238316 0.474675
0.000000 0.221868 0.423613
0.000000 0.208855 0.364806
0.000000 0.200541 0.298810
0.000000 0.198348 0.226302
0.000000 0.203857 0.148078
0.000000 0.218806 0.065055
0.000000 0.245091 0.000000
0.000000 0.284765 0.000000
0.000000 0.340040 0.000000
0.000000 0.413284 0.000000
0.039831 0.507025 0.000000
0.145359 0.623947 0.000000
0.277900 0.766892 0.000000
0.440530 0.938861 0.000000
0.636485 1.000000 0.000000
0.869164 1.000000 0.000000
0.571926 0.497221 0.185277
0.519244 0.472202 0.242479
0.471863 0.451799 0.298980
0.428484 0.434764 0.353393
0.387970 0.420004 0.404454
0.349347 0.406587 0.451016
0.311805 0.393737 0.492054
0.274693 0.380836 0.526664
0.237526 0.367423 0.554061
0.199978 0.353196 0.573580
0.161887 0.338011 0.584677
0.123254 0.321881 0.586927
0.084242 0.304977 0.580027
0.045175 0.287627 0.563793
0.006541 0.270317 0.538162
0.000000 0.253693 0.503189
0.000000 0.238555 0.459053
0.000000 0.225863 0.406049
0.000000 0.216736 0.344597
0.000000 0.212448 0.275232
0.000000 0.214431 0.198612
0.000000 0.224278 0.115516
0.000000 0.243736 0.026842
0.000000 0.274711 0.000000
0.000000 0.319269 0.000000
0.000000 0.379629 0.000000
0.000000 0.458172 0.000000
0.060942 0.557436 0.000000
0.170466 0.680114 0.000000
0.307218 0.829061 0.000000
0.474282 1.000000 0.000000
0.674907 1.000000 0.000000
0.912501 1.000000 0.000000
0.507878 0.422253 0.112160
0.457729 0.400816 0.176393
0.412793 0.383946 0.239505
0.371782 0.370404 0.300092
0.333569 0.359110 0.356871
0.297191 0.349140 0.408676
0.261848 0.339730 0.454463
0.226901 0.330272 0.493308
0.191874 0.320315 0.524408
0.156453 0.309569 0.547080
0.120487 0.297899 0.560759
0.083986 0.285329 0.565004
0.047125 0.272039 0.559490
0.010238 0.258370 0.544015
0.000000 0.244817 0.518497
0.000000 0.232036 0.482974
0.000000 0.220839 0.437604
0.000000 0.212196 0.382664
0.000000 0.207234 0.318553
0.000000 0.207241 0.245789
0.000000 0.213658 0.165013
0.000000 0.228088 0.076981
0.000000 0.252288 0.000000
0.000000 0.288177 0.000000
0.000000 0.337828 0.000000
0.000000 0.403473 0.000000
0.000000 0.487503 0.000000
0.065573 0.592465 0.000000
0.178997 0.721065 0.000000
0.319848 0.876167 0.000000
0.491222 1.000000 0.000000
0.696378 1.000000 0.000000
0.938736 1.000000 0.000000
0.422850 0.319979 0.031427
0.375516 0.302620 0.102985
0.333293 0.289767 0.172987
0.294903 0.280193 0.240010
0.259230 0.272825 0.302750
0.225324 0.266753 0.360024
0.192393 0.261221 0.410769
0.159810 0.255633 0.454042
0.127108 0.249548 0.489021
0.093986 0.242686 0.515003
0.060302 0.234923 0.531406
0.026079 0.226293 0.537767
0.000000 0.216987 0.533746
0.000000 0.207356 0.519119
0.000000 0.197906 0.493787
0.000000 0.189302 0.457768
0.000000 0.182368 0.411200
0.000000 0.178084 0.354344
0.000000 0.177589 0.287577
0.000000 0.182177 0.211401
0.000000 0.193304 0.126435
0.000000 0.212581 0.033419
0.000000 0.241778 0.000000
0.000000 0.282821 0.000000
0.000000 0.337795 0.000000
0.000000 0.408944 0.000000
0.000000 0.498667 0.000000
0.052021 0.609523 0.000000
0.169256 0.744227 0.000000
0.314106 0.905654 0.000000
0.489675 1.000000 0.000000
0.699234 1.000000 0.000000
0.946213 1.000000 0.000000
0.314828 0.187193 0.000000
0.270599 0.174428 0.023019
0.231365 0.166096 0.100204
0.195859 0.160980 0.173938
0.162977 0.158021 0.242899
0.131778 0.156315 0.305884
0.101482 0.155119 0.361812
0.071471 0.153846 0.409720
0.041290 0.152068 0.448767
0.010649 0.149513 0.478232
0.000000 0.146068 0.497513
0.000000 0.141777 0.506130
0.000000 0.136843 0.503722
0.000000 0.131625 0.490048
0.000000 0.126643 0.464988
0.000000 0.122570 0.428542
0.000000 0.120240 0.380829
0.000000 0.120645 0.322091
0.000000 0.124933 0.252688
0.000000 0.134411 0.173099
0.000000 0.150543 0.083927
0.000000 0.174950 0.000000
0.000000 0.209414 0.000000
0.000000 0.255872 0.000000
0.000000 0.316418 0.000000
0.000000 0.393307 0.000000
0.000000 0.488949 0.000000
0.018530 0.605912 0.000000
0.139500 0.746923 0.000000
0.288256 0.914867 0.000000
0.467916 1.000000 0.000000
0.681759 1.000000 0.000000
0.933228 1.000000 0.000000
0.181743 0.020585 0.000000
0.140919 0.012948 0.000000
0.104961 0.009660 0.022048
0.072613 0.009514 0.102785
0.042781 0.011462 0.178240
0.014535 0.014611 0.247193
0.000000 0.018227 0.308542
0.000000 0.021734 0.361307
0.000000 0.024715 0.404628
0.000000 0.026908 0.437764
0.000000 0.028210 0.460094
0.000000 0.028677 0.471120
0.000000 0.028522 0.470461
0.000000 0.028114 0.457858
0.000000 0.027981 0.433172
0.000000 0.028811 0.396383
0.000000 0.031446 0.347593
0.000000 0.036889 0.287023
0.000000 0.046298 0.215014
0.000000 0.060990 0.132029
0.000000 0.082440 0.038649
0.000000 0.112281 0.000000
0.000000 0.152303 0.000000
0.000000 0.204454 0.000000
0.000000 0.270841 0.000000
0.000000 0.353725 0.000000
0.000000 0.455530 0.000000
0.000000 0.578833 0.000000
0.087932 0.726372 0.000000
0.240513 0.901042 0.000000
0.424168 1.000000 0.000000
0.642186 1.000000 0.000000
0.898021 1.000000 0.000000
0.021477 0.000000 0.000000
0.000000 0.000000 0.000000
0.000000 0.000000 0.000000
0.000000 0.000000 0.027572
0.000000 0.000000 0.109810
0.000000 0.000000 0.185002
0.000000 0.000000 0.252027
0.000000 0.000000 0.309886
0.000000 0.000000 0.357700
0.000000 0.000000 0.394709
0.000000 0.000000 0.420274
0.000000 0.000000 0.433877
0.000000 0.000000 0.435118
0.000000 0.000000 0.423720
0.000000 0.000000 0.399524
0.000000 0.000000 0.362491
0.000000 0.000000 0.312705
0.000000 0.000000 0.250368
0.000000 0.000000 0.175803
0.000000 0.000000 0.089451
0.000000 0.000000 0.000000
0.000000 0.021556 0.000000
0.000000 0.067446 0.000000
0.000000 0.125588 0.000000
0.000000 0.198100 0.000000
0.000000 0.287256 0.000000
0.000000 0.395486 0.000000
0.000000 0.525381 0.000000
0.012703 0.679688 0.000000
0.169038 0.861313 0.000000
0.356601 1.000000 0.000000
0.578696 1.000000 0.000000
0.838784 1.000000 0.000000
0.000000 0.000000 0.000000
0.000000 0.000000 0.000000
0.000000 0.000000 0.000000
0.000000 0.000000 0.000000
0.000000 0.000000 0.038759
0.000000 0.000000 0.120477
0.000000 0.000000 0.193447
0.000000 0.000000 0.256652
0.000000 0.000000 0.309194
0.000000 0.000000 0.350294
0.000000 0.000000 0.379294
0.000000 0.000000 0.395656
0.000000 0.000000 0.398964
0.000000 0.000000 0.388918
0.000000 0.000000 0.365344
0.000000 0.000000 0.328182
0.000000 0.000000 0.277497
0.000000 0.000000 0.213473
0.000000 0.000000 0.136412
0.000000 0.000000 0.046739
0.000000 0.000000 0.000000
0.000000 0.000000 0.000000
0.000000 0.000000 0.000000
0.000000 0.016190 0.000000
0.000000 0.095133 0.000000
0.000000 0.190853 0.000000
0.000000 0.305791 0.000000
0.000000 0.442548 0.000000
0.000000 0.603882 0.000000
0.071941 0.792708 0.000000
0.263338 1.000000 0.000000
0.489419 1.000000 0.000000
0.753657 1.000000 0.000000
0.000000 0.000000 0.000000
0.000000 0.000000 0.000000
0.000000 0.000000 0.000000
0.000000 0.000000 0.000000
0.000000 0.000000 0.000000
0.000000 0.000000 0.054897
0.000000 0.000000 0.134097
0.000000 0.000000 0.202915
0.000000 0.000000 0.260434
0.000000 0.000000 0.305857
0.000000 0.000000 0.338507
0.000000 0.000000 0.357827
0.000000 0.000000 0.363381
0.000000 0.000000 0.354853
0.000000 0.000000 0.332046
0.000000 0.000000 0.294884
0.000000 0.000000 0.243413
0.000000 0.000000 0.177795
0.000000 0.000000 0.098317
0.000000 0.000000 0.005383
0.000000 0.000000 0.000000
0.000000 0.000000 0.000000
0.000000 0.000000 0.000000
0.000000 0.000000 0.000000
0.000000 0.000000 0.000000
0.000000 0.061364 0.000000
0.000000 0.183312 0.000000
0.000000 0.327220 0.000000
0.000000 0.495858 0.000000
0.000000 0.692152 0.000000
0.142448 0.919185 0.000000
0.372434 1.000000 0.000000
0.640729 1.000000 0.000000
0.000000 0.000000 0.000000
0.000000 0.000000 0.000000
0.000000 0.000000 0.000000
0.000000 0.000000 0.000000
0.000000 0.000000 0.000000
0.000000 0.000000 0.000000
0.000000 0.000000 0.075385
0.000000 0.000000 0.150098
0.000000 0.000000 0.212859
0.000000 0.000000 0.262853
0.000000 0.000000 0.299383
0.000000 0.000000 0.321874
0.000000 0.000000 0.329871
0.000000 0.000000 0.323037
0.000000 0.000000 0.301159
0.000000 0.000000 0.264141
0.000000 0.000000 0.212010
0.000000 0.000000 0.144909
0.000000 0.000000 0.063106
0.000000 0.000000 0.000000
0.000000 0.000000 0.000000
0.000000 0.000000 0.000000
0.000000 0.000000 0.000000
0.000000 0.000000 0.000000
0.000000 0.000000 0.000000
0.000000 0.000000 0.000000
0.000000 0.024812 0.000000
0.000000 0.176180 0.000000
0.000000 0.352419 0.000000
0.000000 0.556465 0.000000
0.000000 0.791413 0.000000
0.225770 1.000000 0.000000
0.498037 1.000000 0.000000
0.000000 0.000000 0.000000
0.000000 0.000000 0.000000
0.000000 0.000000 0.000000
0.000000 0.000000 0.000000
0.000000 0.000000 0.000000
0.000000 0.000000 0.000000
0.000000 0.000000 0.018836
0.000000 0.000000 0.099740
0.000000 0.000000 0.168023
0.000000 0.000000 0.222849
0.000000 0.000000 0.263505
0.000000 0.000000 0.289394
0.000000 0.000000 0.300044
0.000000 0.000000 0.295099
0.000000 0.000000 0.274326
0.000000 0.000000 0.237611
0.000000 0.000000 0.184960
0.000000 0.000000 0.116501
0.000000 0.000000 0.032480
0.000000 0.000000 0.000000
0.000000 0.000000 0.000000
0.000000 0.000000 0.000000
0.000000 0.000000 0.000000
0.000000 0.000000 0.000000
0.000000 0.000000 0.000000
0.000000 0.000000 0.000000
0.000000 0.000000 0.000000
0.000000 0.000000 0.000000
0.000000 0.170261 0.000000
0.000000 0.382364 0.000000
0.000000 0.625519 0.000000
0.047404 0.902989 0.000000
0.323568 1.000000 0.000000
0.000000 0.000000 0.000000
0.000000 0.000000 0.000000
0.000000 0.000000 0.000000
0.000000 0.000000 0.000000
0.000000 0.000000 0.000000
0.000000 0.000000 0.000000
0.000000 0.000000 0.000000
0.000000 0.000000 0.053493
0.000000 0.000000 0.127592
0.000000 0.000000 0.187528
0.000000 0.000000 0.232569
0.000000 0.000000 0.262100
0.000000 0.000000 0.275627
0.000000 0.000000 0.272779
0.000000 0.000000 0.253303
0.000000 0.000000 0.217064
0.000000 0.000000 0.164052
0.000000 0.000000 0.094373
0.000000 0.000000 0.008256
0.000000 0.000000 0.000000
0.000000 0.000000 0.000000
0.000000 0.000000 0.000000
0.000000 0.000000 0.000000
0.000000 0.000000 0.000000
0.000000 0.000000 0.000000
0.000000 0.000000 0.000000
0.000000 0.000000 0.000000
