lrplugin/MindfulLensFilmEngine.lrplugin/profiles/luts/gold_luxe.cube
# Generated from ColorChecker fit
LUT_3D_SIZE 9
DOMAIN_MIN 0.0 0.0 0.0
DOMAIN_MAX 1.0 1.0 1.0
0.271909 0.181474 0.290140
0.175607 0.105458 0.396186
0.147267 0.013826 0.468425
0.189559 0.000000 0.467283
0.291552 0.000000 0.338153
0.428711 0.000000 0.011390
0.562900 0.000000 0.000000
0.642379 0.000000 0.000000
0.601806 0.000000 0.000000
0.026262 0.000000 0.120168
0.000506 0.059447 0.356569
0.020331 0.105190 0.559245
0.079069 0.123902 0.683718
0.156449 0.090364 0.670475
0.218597 0.000000 0.444964
0.218040 0.000000 0.000000
0.093698 0.000000 0.000000
0.000000 0.000000 0.000000
0.000000 0.000000 0.000000
0.000000 0.000000 0.087582
0.000000 0.023353 0.401788
0.000000 0.150206 0.627116
0.000000 0.199111 0.699144
0.000000 0.121162 0.538418
0.000000 0.000000 0.050445
0.000000 0.000000 0.000000
0.000000 0.000000 0.000000
0.000000 0.000000 0.000000
0.000000 0.000000 0.000000
0.000000 0.000000 0.034757
0.000000 0.000000 0.343273
0.000000 0.094631 0.477055
0.000000 0.038211 0.351742
0.000000 0.000000 0.000000
0.000000 0.000000 0.000000
0.000000 0.000000 0.000000
0.000000 0.000000 0.000000
0.000000 0.000000 0.000000
0.000000 0.000000 0.000000
0.000000 0.000000 0.000000
0.000000 0.000000 0.127521
0.000000 0.000000 0.015343
0.000000 0.000000 0.000000
0.000000 0.000000 0.000000
0.000000 0.000000 0.000000
0.000000 0.000000 0.000000
0.000000 0.000000 0.000000
0.000000 0.000000 0.000000
0.000000 0.000000 0.000000
0.000000 0.000000 0.000000
0.000000 0.000000 0.000000
0.000000 0.000000 0.000000
0.000000 0.000000 0.000000
0.000000 0.000000 0.000000
0.000000 0.000000 0.000000
0.000000 0.000000 0.000000
0.000000 0.000000 0.000000
0.000000 0.000000 0.000000
0.000000 0.000000 0.000000
0.000000 0.000000 0.000000
0.000000 0.000000 0.000000
0.000000 0.000000 0.000000
0.000000 0.000000 0.000000
0.000000 0.000000 0.000000
0.000000 0.000000 0.000000
0.000000 0.000000 0.000000
0.000000 0.000000 0.316139
0.000000 0.000000 0.603654
0.000000 0.000000 0.468176
0.000000 0.000000 0.000000
0.000000 0.000000 0.000000
0.000000 0.000000 0.000000
0.000000 0.000000 0.000000
0.000000 0.000000 0.356255
0.000000 0.000000 1.000000
0.000000 0.000000 1.000000
0.000000 0.000000 1.000000
0.000000 0.000000 1.000000
0.000000 0.000000 1.000000
0.000000 0.000000 0.017805
0.000000 0.000000 0.000000
0.337607 0.217108 0.155134
0.205306 0.087520 0.159344
0.169237 0.000000 0.171245
0.227845 0.000000 0.149634
0.365968 0.000000 0.038273
0.554844 0.000000 0.000000
0.752107 0.000000 0.000000
0.901789 0.000000 0.000000
0.934321 0.000000 0.000000
0.184348 0.162619 0.116809
0.127563 0.160356 0.252897
0.144888 0.163783 0.396151
0.225425 0.156907 0.500461
0.344678 0.106746 0.504682
0.464542 0.000000 0.332634
0.533316 0.000000 0.000000
0.485691 0.000000 0.000000
0.242760 0.000000 0.000000
0.000000 0.000000 0.000000
0.000000 0.105072 0.145504
0.034972 0.226747 0.401283
0.119502 0.318571 0.606833
0.196669 0.340865 0.696103
0.219033 0.236958 0.588007
0.125551 0.000000 0.186422
0.000000 0.000000 0.000000
0.000000 0.000000 0.000000
0.000000 0.000000 0.000000
0.000000 0.000000 0.000000
0.000000 0.151927 0.223174
0.000000 0.337060 0.512380
0.000000 0.417297 0.663261
0.000000 0.329272 0.589825
0.000000 0.000000 0.191043
0.000000 0.000000 0.000000
0.000000 0.000000 0.000000
0.000000 0.000000 0.000000
0.000000 0.000000 0.000000
0.000000 0.000000 0.000000
0.000000 0.222562 0.331149
0.000000 0.355308 0.527298
0.000000 0.268608 0.466327
0.000000 0.000000 0.042300
0.000000 0.000000 0.000000
0.000000 0.000000 0.000000
0.000000 0.000000 0.000000
0.000000 0.000000 0.000000
0.000000 0.000000 0.000000
0.000000 0.000000 0.247608
0.000000 0.179592 0.479779
0.000000 0.088738 0.416171
0.000000 0.000000 0.000000
0.000000 0.000000 0.000000
0.000000 0.000000 0.000000
0.000000 0.000000 0.000000
0.000000 0.000000 0.000000
0.000000 0.000000 0.011025
0.000000 0.000000 0.516642
0.000000 0.000000 0.782682
0.000000 0.000000 0.708433
0.000000 0.000000 0.178149
0.000000 0.000000 0.000000
0.000000 0.000000 0.000000
0.000000 0.000000 0.000000
0.000000 0.000000 0.089323
0.000000 0.000000 0.873667
0.000000 0.000000 1.000000
0.000000 0.000000 1.000000
0.000000 0.000000 1.000000
0.000000 0.000000 1.000000
0.000000 0.000000 0.000000
0.000000 0.000000 0.000000
0.000000 0.000000 0.765783
0.000000 0.000000 1.000000
0.000000 0.000000 1.000000
0.043449 0.000000 1.000000
0.055867 0.000000 1.000000
0.000000 0.000000 1.000000
0.000000 0.000000 1.000000
0.000000 0.000000 1.000000
0.000000 0.000000 0.000000
0.459531 0.269844 0.133357
0.279589 0.067928 0.017014
0.226196 0.000000 0.000000
0.293566 0.000000 0.000000
0.462309 0.000000 0.000000
0.699434 0.000000 0.000000
0.958347 0.000000 0.000000
1.000000 0.000000 0.000000
1.000000 0.000000 0.000000
0.348932 0.305192 0.179611
0.242422 0.209754 0.190270
0.240595 0.151563 0.252792
0.328324 0.106861 0.319440
0.476883 0.034898 0.327438
0.643941 0.000000 0.198975
0.773566 0.000000 0.000000
0.796223 0.000000 0.000000
0.628773 0.000000 0.000000
0.197908 0.231166 0.059240
0.159331 0.250865 0.184008
0.198293 0.294415 0.353651
0.290331 0.331361 0.515524
0.397378 0.314258 0.601947
0.467767 0.178672 0.530201
0.436224 0.000000 0.202536
0.223878 0.000000 0.000000
0.000000 0.000000 0.000000
0.000000 0.031327 0.000000
0.012912 0.183898 0.025499
0.093947 0.337803 0.290611
0.186301 0.455891 0.530206
0.242568 0.484020 0.671695
0.201741 0.351058 0.627457
0.000000 0.000000 0.294832
0.000000 0.000000 0.000000
0.000000 0.000000 0.000000
0.000000 0.000000 0.000000
0.000000 0.006923 0.000000
0.000000 0.288876 0.168455
0.056014 0.496675 0.475362
0.064290 0.569483 0.655657
0.000000 0.429474 0.616811
0.000000 0.000000 0.251259
0.000000 0.000000 0.000000
0.000000 0.000000 0.000000
0.000000 0.000000 0.000000
0.000000 0.000000 0.000000
0.000000 0.160209 0.162384
0.000000 0.475367 0.533292
0.000000 0.601381 0.743226
0.000000 0.453727 0.694753
0.000000 0.000000 0.275400
0.000000 0.000000 0.000000
0.000000 0.000000 0.000000
0.000000 0.000000 0.000000
0.000000 0.000000 0.000000
0.000000 0.000000 0.518019
0.041144 0.419052 0.956710
0.010039 0.615874 1.000000
0.000000 0.469058 1.000000
0.000000 0.000000 0.641258
0.000000 0.000000 0.000000
0.000000 0.000000 0.000000
0.000000 0.000000 0.128739
0.000000 0.000000 0.879004
0.106620 0.000000 1.000000
0.401468 0.360248 1.000000
0.403088 0.654558 1.000000
0.013117 0.526138 1.000000
0.000000 0.000000 1.000000
0.000000 0.000000 0.517961
0.000000 0.000000 0.000000
0.000000 0.000000 1.000000
0.036601 0.000000 1.000000
0.769279 0.000000 1.000000
1.000000 0.336902 1.000000
1.000000 0.764458 1.000000
0.917681 0.681068 1.000000
0.000000 0.000000 1.000000
0.000000 0.000000 1.000000
0.000000 0.000000 0.376671
0.602517 0.335357 0.204764
0.380026 0.065975 0.000000
0.316442 0.000000 0.000000
0.401749 0.000000 0.000000
0.612332 0.000000 0.000000
0.910969 0.000000 0.000000
1.000000 0.000000 0.000000
1.000000 0.000000 0.000000
1.000000 0.000000 0.000000
0.504016 0.431605 0.302337
0.345816 0.240247 0.185268
0.324913 0.124755 0.168572
0.421955 0.053606 0.202879
0.603984 0.000000 0.223785
0.824443 0.000000 0.151848
1.000000 0.000000 0.000000
1.000000 0.000000 0.000000
1.000000 0.000000 0.000000
0.383683 0.433549 0.247643
0.286162 0.333756 0.233486
0.299054 0.295889 0.312104
0.393665 0.281729 0.429221
0.527701 0.236065 0.515526
0.645265 0.086697 0.486671
0.676857 0.000000 0.243275
0.539375 0.000000 0.000000
0.136115 0.000000 0.000000
0.211303 0.330784 0.058685
0.182907 0.345175 0.141724
0.232761 0.398431 0.304086
0.322836 0.445636 0.486590
0.401497 0.424883 0.615017
0.403508 0.257275 0.600116
0.250032 0.000000 0.337597
0.000000 0.000000 0.000000
0.000000 0.000000 0.000000
0.000000 0.118338 0.000000
0.050958 0.278610 0.005500
0.153004 0.445564 0.247132
0.248494 0.567587 0.484695
0.276456 0.576076 0.639065
0.162316 0.385438 0.616083
0.000000 0.000000 0.306554
0.000000 0.000000 0.000000
0.000000 0.000000 0.000000
0.000000 0.000000 0.000000
0.000000 0.143596 0.000000
0.119819 0.455899 0.314274
0.242735 0.675271 0.603664
0.236733 0.726410 0.774891
0.017898 0.517030 0.728889
0.000000 0.000000 0.351558
0.000000 0.000000 0.000000
0.000000 0.000000 0.000000
0.000000 0.000000 0.000000
0.000000 0.000000 0.333830
0.226312 0.453483 0.748963
0.410722 0.801810 1.000000
0.399547 0.918086 1.000000
0.099536 0.703328 1.000000
0.000000 0.041559 0.744444
0.000000 0.000000 0.000000
0.000000 0.000000 0.000000
0.000000 0.000000 0.784943
0.128085 0.000000 1.000000
0.598655 0.467789 1.000000
0.890686 0.985757 1.000000
0.915191 1.000000 1.000000
0.569577 1.000000 1.000000
0.000000 0.269998 1.000000
0.000000 0.000000 0.703130
0.000000 0.000000 0.000000
0.000000 0.000000 1.000000
0.691837 0.000000 1.000000
1.000000 0.533726 1.000000
1.000000 1.000000 1.000000
1.000000 1.000000 1.000000
1.000000 1.000000 1.000000
0.697651 0.694385 1.000000
0.000000 0.000000 1.000000
0.000000 0.000000 0.651372
0.732371 0.394851 0.328753
0.489150 0.086486 0.006430
0.439238 0.000000 0.000000
0.568391 0.000000 0.000000
0.848762 0.000000 0.000000
1.000000 0.000000 0.000000
1.000000 0.000000 0.000000
1.000000 0.000000 0.000000
1.000000 0.000000 0.000000
0.634566 0.536375 0.458194
0.439440 0.269970 0.233918
0.416271 0.125114 0.162333
0.541476 0.062519 0.192441
0.777870 0.025904 0.258206
1.000000 0.000000 0.278556
1.000000 0.000000 0.157384
1.000000 0.000000 0.000000
1.000000 0.000000 0.000000
0.527026 0.591211 0.442733
0.378270 0.385191 0.303772
0.374843 0.286237 0.309295
0.483822 0.248362 0.403395
0.658686 0.208591 0.515132
0.839308 0.086959 0.558529
0.951960 0.000000 0.432572
0.909311 0.000000 0.021211
0.610427 0.000000 0.000000
0.378778 0.554992 0.298203
0.286725 0.436859 0.238922
0.308096 0.402187 0.310063
0.400632 0.398292 0.450814
0.508469 0.355503 0.585329
0.562146 0.187157 0.622724
0.478593 0.000000 0.457080
0.161142 0.000000 0.000000
0.000000 0.000000 0.000000
0.191918 0.428781 0.110857
0.178959 0.435116 0.132716
0.242244 0.492183 0.265082
0.330174 0.540604 0.442238
0.377549 0.504010 0.583430
0.305567 0.289045 0.592871
0.021821 0.000000 0.359733
0.000000 0.000000 0.000000
0.000000 0.000000 0.000000
0.001611 0.219074 0.037368
0.102194 0.395532 0.148922
0.236566 0.580873 0.345215
0.343788 0.709023 0.555624
0.349322 0.696918 0.694490
0.165027 0.444502 0.661118
0.000000 0.000000 0.339776
0.000000 0.000000 0.000000
0.000000 0.000000 0.000000
0.000000 0.000000 0.304825
0.136722 0.339111 0.521725
0.383412 0.698339 0.791744
0.545882 0.942708 1.000000
0.540255 0.982459 1.000000
0.269050 0.710841 1.000000
0.000000 0.004113 0.666872
0.000000 0.000000 0.000000
0.000000 0.000000 0.000000
0.000000 0.000000 1.000000
0.395903 0.292287 1.000000
0.808200 0.880090 1.000000
1.000000 1.000000 1.000000
1.000000 1.000000 1.000000
0.779228 1.000000 1.000000
0.000000 0.365321 1.000000
0.000000 0.000000 0.612708
0.000000 0.000000 0.000000
0.257678 0.000000 1.000000
1.000000 0.286925 1.000000
1.000000 1.000000 1.000000
1.000000 1.000000 1.000000
1.000000 1.000000 1.000000
1.000000 1.000000 1.000000
1.000000 0.995607 1.000000
0.000000 0.000000 1.000000
0.000000 0.000000 0.539665
0.815864 0.415064 0.444164
0.590464 0.119818 0.082054
0.594816 0.004774 0.000000
0.810450 0.029574 0.000000
1.000000 0.136868 0.060506
1.000000 0.252318 0.199050
1.000000 0.284596 0.268268
1.000000 0.125384 0.160292
1.000000 0.000000 0.000000
0.726516 0.599547 0.599832
0.525960 0.302589 0.311689
0.534062 0.179928 0.232367
0.723011 0.184506 0.309236
1.000000 0.252280 0.474630
1.000000 0.302215 0.645847
1.000000 0.236286 0.725150
1.000000 0.000000 0.599764
1.000000 0.000000 0.141880
0.633033 0.697509 0.610969
0.457482 0.422148 0.384143
0.464218 0.306054 0.357320
0.616091 0.295477 0.472964
0.862351 0.319674 0.658504
1.000000 0.290915 0.826331
1.000000 0.104479 0.873802
1.000000 0.000000 0.683238
1.000000 0.000000 0.121921
0.503684 0.710618 0.491241
0.365358 0.489239 0.320177
0.377672 0.402977 0.334445
0.494138 0.391386 0.471604
0.654665 0.377026 0.654175
0.785562 0.265472 0.789644
0.799532 0.000000 0.770463
0.595678 0.000000 0.474045
0.059498 0.000000 0.000000
0.339809 0.645974 0.324730
0.262986 0.520039 0.210970
0.299880 0.495950 0.262017
0.394665 0.506563 0.410524
0.477911 0.467745 0.574108
0.466587 0.278372 0.655348
0.264060 0.000000 0.541789
0.000000 0.000000 0.105939
0.000000 0.000000 0.000000
0.175817 0.516107 0.265940
0.196833 0.536156 0.218120
0.289367 0.615658 0.308729
0.388255 0.680772 0.465515
0.414728 0.640670 0.601187
0.276417 0.387531 0.613421
0.000000 0.000000 0.384854
0.000000 0.000000 0.000000
0.000000 0.000000 0.000000
0.079186 0.338979 0.539791
0.246435 0.564629 0.573642
0.437728 0.798216 0.713693
0.578561 0.959206 0.882782
0.580828 0.950071 0.988716
0.342819 0.656296 0.924262
0.000000 0.000000 0.567152
0.000000 0.000000 0.000000
0.000000 0.000000 0.000000
0.150461 0.137983 1.000000
0.524396 0.637927 1.000000
0.869624 1.000000 1.000000
1.000000 1.000000 1.000000
1.000000 1.000000 1.000000
0.826631 1.000000 1.000000
0.082583 0.347678 1.000000
0.000000 0.000000 0.441933
0.000000 0.000000 0.000000
0.523258 0.000000 1.000000
1.000000 0.793953 1.000000
1.000000 1.000000 1.000000
1.000000 1.000000 1.000000
1.000000 1.000000 1.000000
1.000000 1.000000 1.000000
1.000000 1.000000 1.000000
0.000000 0.000000 1.000000
0.000000 0.000000 0.273414
0.820732 0.348263 0.469281
0.668433 0.141858 0.139947
0.784375 0.176009 0.082945
1.000000 0.402592 0.248923
1.000000 0.756491 0.573490
1.000000 1.000000 0.977219
1.000000 1.000000 1.000000
1.000000 1.000000 1.000000
1.000000 1.000000 1.000000
0.766768 0.586700 0.659341
0.609005 0.327304 0.373493
0.698645 0.302012 0.356404
1.000000 0.456005 0.553814
1.000000 0.717471 0.896427
1.000000 0.997611 1.000000
1.000000 1.000000 1.000000
1.000000 1.000000 1.000000
1.000000 0.807224 1.000000
0.707767 0.731332 0.698251
0.546589 0.447135 0.443320
0.606701 0.381470 0.447721
0.846724 0.472821 0.652288
1.000000 0.642680 0.982819
1.000000 0.795553 1.000000
1.000000 0.818951 1.000000
1.000000 0.583400 1.000000
1.000000 0.000000 1.000000
0.611245 0.789861 0.597506
0.460759 0.518132 0.368019
0.500173 0.440241 0.382584
0.678769 0.487975 0.577127
0.932230 0.576131 0.872543
1.000000 0.602518 1.000000
1.000000 0.447952 1.000000
1.000000 0.000000 1.000000
0.932248 0.000000 0.954498
0.477786 0.775425 0.439021
0.364157 0.562508 0.236600
0.403761 0.509615 0.257096
0.536545 0.541834 0.431532
0.688849 0.567268 0.675893
0.773415 0.477028 0.891131
0.689380 0.145235 0.963158
0.322277 0.000000 0.762852
0.000000 0.000000 0.146057
0.341043 0.706588 0.375127
0.302493 0.607907 0.208490
0.375236 0.626312 0.237782
0.489878 0.680197 0.389121
0.563421 0.670966 0.573586
0.499269 0.483035 0.687222
0.187219 0.000000 0.611037
0.000000 0.000000 0.211002
0.000000 0.000000 0.000000
0.267737 0.607349 0.628578
0.354548 0.687404 0.513537
0.505435 0.832485 0.561585
0.641664 0.954291 0.693933
0.670900 0.947531 0.816755
0.487208 0.689923 0.821189
0.000000 0.042196 0.583338
0.000000 0.000000 0.000000
0.000000 0.000000 0.000000
0.357659 0.507137 1.000000
0.632170 0.839504 1.000000
0.918263 1.000000 1.000000
1.000000 1.000000 1.000000
1.000000 1.000000 1.000000
0.897312 1.000000 1.000000
0.212997 0.404227 1.000000
0.000000 0.000000 0.365485
0.000000 0.000000 0.000000
0.743666 0.440811 1.000000
1.000000 1.000000 1.000000
1.000000 1.000000 1.000000
1.000000 1.000000 1.000000
1.000000 1.000000 1.000000
1.000000 1.000000 1.000000
1.000000 1.000000 1.000000
0.000000 0.000000 1.000000
0.000000 0.000000 0.063929
0.715681 0.132246 0.301834
0.708493 0.114026 0.100654
1.000000 0.403777 0.236166
1.000000 0.945611 0.657385
1.000000 1.000000 1.000000
1.000000 1.000000 1.000000
1.000000 1.000000 1.000000
1.000000 1.000000 1.000000
1.000000 1.000000 1.000000
0.743186 0.448943 0.548260
0.693172 0.318842 0.353686
0.931349 0.489718 0.491619
1.000000 0.898984 0.906170
1.000000 1.000000 1.000000
1.000000 1.000000 1.000000
1.000000 1.000000 1.000000
1.000000 1.000000 1.000000
1.000000 1.000000 1.000000
0.758257 0.657098 0.629924
0.669352 0.448190 0.429468
0.842782 0.524143 0.551482
1.000000 0.815673 0.935170
1.000000 1.000000 1.000000
1.000000 1.000000 1.000000
1.000000 1.000000 1.000000
1.000000 1.000000 1.000000
1.000000 1.000000 1.000000
0.727654 0.770451 0.556153
0.615852 0.524888 0.344421
0.735252 0.538947 0.439270
1.000000 0.736650 0.774997
1.000000 1.000000 1.000000
1.000000 1.000000 1.000000
1.000000 1.000000 1.000000
1.000000 1.000000 1.000000
1.000000 0.631293 1.000000
0.651204 0.808174 0.406691
0.544557 0.577183 0.185387
0.632703 0.571456 0.248919
0.851359 0.708316 0.526681
1.000000 0.888100 0.933027
1.000000 0.994153 1.000000
1.000000 0.892831 1.000000
1.000000 0.433502 1.000000
0.700192 0.000000 1.000000
0.561805 0.794868 0.331701
0.500422 0.638756 0.109622
0.592149 0.664426 0.144784
0.763363 0.782506 0.361672
0.926840 0.886636 0.669736
0.981751 0.853465 0.963391
0.813669 0.542654 1.000000
0.294559 0.000000 1.000000
0.000000 0.000000 0.476492
0.525421 0.760567 0.551765
0.561472 0.748717 0.344806
0.703672 0.866045 0.361638
0.869060 1.000000 0.521839
0.961073 1.000000 0.729955
0.869545 0.947481 0.875493
0.470708 0.450954 0.832925
0.000000 0.000000 0.461687
0.000000 0.000000 0.000000
0.641089 0.740736 1.000000
0.838799 0.951607 1.000000
1.000000 1.000000 1.000000
1.000000 1.000000 1.000000
1.000000 1.000000 1.000000
1.000000 1.000000 1.000000
0.586019 0.707660 1.000000
0.000000 0.000000 0.537489
0.000000 0.000000 0.000000
1.000000 0.776270 1.000000
1.000000 1.000000 1.000000
1.000000 1.000000 1.000000
1.000000 1.000000 1.000000
1.000000 1.000000 1.000000
1.000000 1.000000 1.000000
1.000000 1.000000 1.000000
0.000000 0.000000 1.000000
0.000000 0.000000 0.101963
0.470380 0.000000 0.000000
0.697044 0.000000 0.000000
1.000000 0.658648 0.314203
1.000000 1.000000 1.000000
1.000000 1.000000 1.000000
1.000000 1.000000 1.000000
1.000000 1.000000 1.000000
1.000000 1.000000 1.000000
1.000000 1.000000 1.000000
0.644605 0.122916 0.157566
0.784024 0.237464 0.166066
1.000000 0.726924 0.574632
1.000000 1.000000 1.000000
1.000000 1.000000 1.000000
1.000000 1.000000 1.000000
1.000000 1.000000 1.000000
1.000000 1.000000 1.000000
1.000000 1.000000 1.000000
0.792501 0.424759 0.310777
0.850497 0.398885 0.270193
1.000000 0.731263 0.619028
1.000000 1.000000 1.000000
1.000000 1.000000 1.000000
1.000000 1.000000 1.000000
1.000000 1.000000 1.000000
1.000000 1.000000 1.000000
1.000000 1.000000 1.000000
0.880069 0.615648 0.285778
0.874525 0.496388 0.190799
1.000000 0.709596 0.468739
1.000000 1.000000 1.000000
1.000000 1.000000 1.000000
1.000000 1.000000 1.000000
1.000000 1.000000 1.000000
1.000000 1.000000 1.000000
1.000000 1.000000 1.000000
0.906385 0.720792 0.160146
0.867237 0.564255 0.012555
1.000000 0.705285 0.215530
1.000000 1.000000 0.696835
1.000000 1.000000 1.000000
1.000000 1.000000 1.000000
1.000000 1.000000 1.000000
1.000000 1.000000 1.000000
1.000000 1.000000 1.000000
0.903587 0.770827 0.081873
0.872834 0.642204 0.000000
1.000000 0.767121 0.021587
1.000000 1.000000 0.397840
1.000000 1.000000 0.927129
1.000000 1.000000 1.000000
1.000000 1.000000 1.000000
1.000000 1.000000 1.000000
0.860894 0.212054 1.000000
0.936887 0.801823 0.269373
0.968583 0.775379 0.050292
1.000000 0.949328 0.119512
1.000000 1.000000 0.394982
1.000000 1.000000 0.779617
1.000000 1.000000 1.000000
1.000000 1.000000 1.000000
0.786646 0.596194 1.000000
0.000000 0.000000 0.941808
1.000000 0.855282 1.000000
1.000000 1.000000 0.787709
1.000000 1.000000 0.812328
1.000000 1.000000 0.998379
1.000000 1.000000 1.000000
1.000000 1.000000 1.000000
1.000000 1.000000 1.000000
0.435854 0.406298 1.000000
0.000000 0.000000 0.254116
1.000000 0.978133 1.000000
1.000000 1.000000 1.000000
1.000000 1.000000 1.000000
1.000000 1.000000 1.000000
1.000000 1.000000 1.000000
1.000000 1.000000 1.000000
1.000000 1.000000 1.000000
0.787192 0.741182 1.000000
0.000000 0.000000 0.557711
