lrplugin/MindfulLensFilmEngine.lrplugin/profiles/luts/gold_luxe.cube
# Generated from ColorChecker fit
LUT_3D_SIZE 5
DOMAIN_MIN 0.0 0.0 0.0
DOMAIN_MAX 1.0 1.0 1.0
0.271909 0.181474 0.290140
0.147267 0.013826 0.468425
0.291552 0.000000 0.338153
0.562900 0.000000 0.000000
0.601806 0.000000 0.000000
0.000000 0.000000 0.000000
0.000000 0.023353 0.401788
0.000000 0.199111 0.699144
0.000000 0.000000 0.050445
0.000000 0.000000 0.000000
0.000000 0.000000 0.000000
0.000000 0.000000 0.000000
0.000000 0.000000 0.127521
0.000000 0.000000 0.000000
0.000000 0.000000 0.000000
0.000000 0.000000 0.000000
0.000000 0.000000 0.000000
0.000000 0.000000 0.000000
0.000000 0.000000 0.000000
0.000000 0.000000 0.000000
0.000000 0.000000 0.000000
0.000000 0.000000 1.000000
0.000000 0.000000 1.000000
0.000000 0.000000 1.000000
0.000000 0.000000 0.000000
0.459531 0.269844 0.133357
0.226196 0.000000 0.000000
0.462309 0.000000 0.000000
0.958347 0.000000 0.000000
1.000000 0.000000 0.000000
0.197908 0.231166 0.059240
0.198293 0.294415 0.353651
0.397378 0.314258 0.601947
0.436224 0.000000 0.202536
0.000000 0.000000 0.000000
0.000000 0.000000 0.000000
0.000000 0.288876 0.168455
0.064290 0.569483 0.655657
0.000000 0.000000 0.251259
0.000000 0.000000 0.000000
0.000000 0.000000 0.000000
0.000000 0.000000 0.518019
0.010039 0.615874 1.000000
0.000000 0.000000 0.641258
0.000000 0.000000 0.000000
0.000000 0.000000 1.000000
0.769279 0.000000 1.000000
1.000000 0.764458 1.000000
0.000000 0.000000 1.000000
0.000000 0.000000 0.376671
0.732371 0.394851 0.328753
0.439238 0.000000 0.000000
0.848762 0.000000 0.000000
1.000000 0.000000 0.000000
1.000000 0.000000 0.000000
0.527026 0.591211 0.442733
0.374843 0.286237 0.309295
0.658686 0.208591 0.515132
0.951960 0.000000 0.432572
0.610427 0.000000 0.000000
0.191918 0.428781 0.110857
0.242244 0.492183 0.265082
0.377549 0.504010 0.583430
0.021821 0.000000 0.359733
0.000000 0.000000 0.000000
0.000000 0.000000 0.304825
0.383412 0.698339 0.791744
0.540255 0.982459 1.000000
0.000000 0.004113 0.666872
0.000000 0.000000 0.000000
0.257678 0.000000 1.000000
1.000000 1.000000 1.000000
1.000000 1.000000 1.000000
1.000000 0.995607 1.000000
0.000000 0.000000 0.539665
0.820732 0.348263 0.469281
0.784375 0.176009 0.082945
1.000000 0.756491 0.573490
1.000000 1.000000 1.000000
1.000000 1.000000 1.000000
0.707767 0.731332 0.698251
0.606701 0.381470 0.447721
1.000000 0.642680 0.982819
1.000000 0.818951 1.000000
1.000000 0.000000 1.000000
0.477786 0.775425 0.439021
0.403761 0.509615 0.257096
0.688849 0.567268 0.675893
0.689380 0.145235 0.963158
0.000000 0.000000 0.146057
0.267737 0.607349 0.628578
0.505435 0.832485 0.561585
0.670900 0.947531 0.816755
0.000000 0.042196 0.583338
0.000000 0.000000 0.000000
0.743666 0.440811 1.000000
1.000000 1.000000 1.000000
1.000000 1.000000 1.000000
1.000000 1.000000 1.000000
0.000000 0.000000 0.063929
0.470380 0.000000 0.000000
1.000000 0.658648 0.314203
1.000000 1.000000 1.000000
1.000000 1.000000 1.000000
1.000000 1.000000 1.000000
0.792501 0.424759 0.310777
1.000000 0.731263 0.619028
1.000000 1.000000 1.000000
1.000000 1.000000 1.000000
1.000000 1.000000 1.000000
0.906385 0.720792 0.160146
1.000000 0.705285 0.215530
1.000000 1.000000 1.000000
1.000000 1.000000 1.000000
1.000000 1.000000 1.000000
0.936887 0.801823 0.269373
1.000000 0.949328 0.119512
1.000000 1.000000 0.779617
1.000000 1.000000 1.000000
0.000000 0.000000 0.941808
1.000000 0.978133 1.000000
1.000000 1.000000 1.000000
1.000000 1.000000 1.000000
1.000000 1.000000 1.000000
0.000000 0.000000 0.557711
