lrplugin/MindfulLensFilmEngine.lrplugin/profiles/luts/gold_luxe.cube
# Generated from ColorChecker fit
LUT_3D_SIZE 33
DOMAIN_MIN 0.0 0.0 0.0
DOMAIN_MAX 1.0 1.0 1.0
0.271909 0.181474 0.290140
0.242119 0.164489 0.318222
0.215961 0.145986 0.345503
0.193714 0.126239 0.371629
0.175607 0.105458 0.396186
0.161814 0.083783 0.418704
0.152456 0.061291 0.438652
0.147602 0.037991 0.455442
0.147267 0.013826 0.468425
0.151413 0.000000 0.476895
0.159948 0.000000 0.480087
0.172730 0.000000 0.477177
0.189559 0.000000 0.467283
0.210186 0.000000 0.449463
0.234308 0.000000 0.422717
0.261566 0.000000 0.385986
0.291552 0.000000 0.338153
0.323802 0.000000 0.278041
0.357801 0.000000 0.204415
0.392978 0.000000 0.115982
0.428711 0.000000 0.011390
0.464326 0.000000 0.000000
0.499092 0.000000 0.000000
0.532228 0.000000 0.000000
0.562900 0.000000 0.000000
0.590219 0.000000 0.000000
0.613243 0.000000 0.000000
0.630979 0.000000 0.000000
0.642379 0.000000 0.000000
0.646342 0.000000 0.000000
0.641714 0.000000 0.000000
0.627289 0.000000 0.000000
0.601806 0.000000 0.000000
0.216829 0.148242 0.266620
0.192181 0.140096 0.303132
0.170955 0.130513 0.338935
0.153395 0.119742 0.373657
0.139693 0.107967 0.406866
0.129985 0.095302 0.438071
0.124357 0.081797 0.466723
0.122842 0.067436 0.492213
0.125417 0.052134 0.513875
0.132009 0.035742 0.530983
0.142489 0.018045 0.542752
0.156677 0.000000 0.548341
0.174339 0.000000 0.546846
0.195188 0.000000 0.537308
0.218884 0.000000 0.518707
0.245034 0.000000 0.489965
0.273191 0.000000 0.449946
0.302856 0.000000 0.397453
0.333476 0.000000 0.331234
0.364445 0.000000 0.249974
0.395105 0.000000 0.152303
0.424743 0.000000 0.036789
0.452594 0.000000 0.000000
0.477840 0.000000 0.000000
0.499609 0.000000 0.000000
0.516977 0.000000 0.000000
0.528966 0.000000 0.000000
0.534544 0.000000 0.000000
0.532629 0.000000 0.000000
0.522083 0.000000 0.000000
0.501715 0.000000 0.000000
0.470282 0.000000 0.000000
0.426488 0.000000 0.000000
0.158185 0.106427 0.230975
0.138424 0.107048 0.275664
0.121855 0.106280 0.319714
0.108685 0.104344 0.362735
0.099069 0.101397 0.404273
0.093109 0.097529 0.443821
0.090854 0.092763 0.480809
0.092298 0.087056 0.514610
0.097384 0.080298 0.544538
0.106001 0.072314 0.569847
0.117985 0.062862 0.589736
0.133118 0.051632 0.603341
0.151131 0.038250 0.609742
0.171699 0.022275 0.607959
0.194447 0.003199 0.596953
0.218944 0.000000 0.575627
0.244708 0.000000 0.542825
0.271203 0.000000 0.497334
0.297839 0.000000 0.437879
0.323974 0.000000 0.363128
0.348913 0.000000 0.271691
0.371907 0.000000 0.162117
0.392155 0.000000 0.032899
0.408802 0.000000 0.000000
0.420939 0.000000 0.000000
0.427606 0.000000 0.000000
0.427788 0.000000 0.000000
0.420419 0.000000 0.000000
0.404377 0.000000 0.000000
0.378489 0.000000 0.000000
0.341528 0.000000 0.000000
0.292215 0.000000 0.000000
0.229216 0.000000 0.000000
0.094959 0.055487 0.182351
0.079876 0.064841 0.234991
0.067735 0.072817 0.287041
0.058706 0.079610 0.338089
0.052907 0.085350 0.387664
0.050405 0.090102 0.435238
0.051210 0.093862 0.480223
0.055282 0.096560 0.521972
0.062526 0.098063 0.559780
0.072795 0.098166 0.592884
0.085889 0.096603 0.620461
0.101553 0.093038 0.641629
0.119482 0.087070 0.655448
0.139314 0.078232 0.660920
0.160638 0.065990 0.656987
0.182986 0.049745 0.642532
0.205839 0.028828 0.616381
0.228625 0.002508 0.577299
0.250719 0.000000 0.523994
0.271441 0.000000 0.455116
0.290059 0.000000 0.369253
0.305790 0.000000 0.264937
0.317793 0.000000 0.140641
0.325179 0.000000 0.000000
0.327002 0.000000 0.000000
0.322265 0.000000 0.000000
0.309918 0.000000 0.000000
0.288856 0.000000 0.000000
0.257923 0.000000 0.000000
0.215908 0.000000 0.000000
0.161549 0.000000 0.000000
0.093528 0.000000 0.000000
0.010477 0.000000 0.000000
0.026262 0.000000 0.120168
0.015696 0.012990 0.180563
0.007801 0.029675 0.240392
0.002710 0.045126 0.299223
0.000506 0.059447 0.356569
0.001217 0.072677 0.411880
0.004819 0.084785 0.464550
0.011234 0.095677 0.513913
0.020331 0.105190 0.559245
0.031927 0.113097 0.599762
0.045784 0.119102 0.634624
0.061612 0.122847 0.662929
0.079069 0.123902 0.683718
0.097757 0.121774 0.695974
0.117227 0.115904 0.698618
0.136976 0.105665 0.690517
0.156449 0.090364 0.670475
0.175036 0.069243 0.637240
0.192075 0.041476 0.589500
0.206852 0.006172 0.525884
0.218597 0.000000 0.444964
0.226490 0.000000 0.345252
0.229655 0.000000 0.225200
0.227166 0.000000 0.083204
0.218040 0.000000 0.000000
0.201244 0.000000 0.000000
0.175690 0.000000 0.000000
0.140240 0.000000 0.000000
0.093698 0.000000 0.000000
0.034818 0.000000 0.000000
0.000000 0.000000 0.000000
0.000000 0.000000 0.000000
0.000000 0.000000 0.000000
0.000000 0.000000 0.044122
0.000000 0.000000 0.112102
0.000000 0.000000 0.179516
0.000000 0.000501 0.245917
0.000000 0.023332 0.310794
0.000000 0.044933 0.373582
0.000000 0.065248 0.433653
0.000000 0.084154 0.490323
0.000000 0.101466 0.542848
0.000000 0.116927 0.590427
0.000000 0.130217 0.632198
0.013054 0.140950 0.667242
0.029697 0.148672 0.694579
0.046879 0.152863 0.713174
0.064114 0.152938 0.721930
0.080862 0.148243 0.719692
0.096530 0.138060 0.705247
0.110475 0.121604 0.677323
0.121996 0.098023 0.634589
0.130342 0.066399 0.575655
0.134709 0.025748 0.499074
0.134238 0.000000 0.403338
0.128019 0.000000 0.286881
0.115086 0.000000 0.148079
0.094423 0.000000 0.000000
0.064959 0.000000 0.000000
0.025571 0.000000 0.000000
0.000000 0.000000 0.000000
0.000000 0.000000 0.000000
0.000000 0.000000 0.000000
0.000000 0.000000 0.000000
0.000000 0.000000 0.000000
0.000000 0.000000 0.000000
0.000000 0.000000 0.000000
0.000000 0.000000 0.029605
0.000000 0.000000 0.104441
0.000000 0.000000 0.178223
0.000000 0.000000 0.250422
0.000000 0.006571 0.320452
0.000000 0.034985 0.387668
0.000000 0.061765 0.451365
0.000000 0.086696 0.510783
0.000000 0.109498 0.565098
0.000000 0.129824 0.613430
0.000000 0.147261 0.654842
0.000000 0.161330 0.688335
0.000000 0.171484 0.712852
0.001328 0.177112 0.727280
0.014719 0.177534 0.730444
0.026208 0.172005 0.721111
0.035113 0.159715 0.697990
0.040699 0.139786 0.659732
0.042177 0.111273 0.604926
0.038707 0.073166 0.532107
0.029393 0.024389 0.439748
0.013289 0.000000 0.326263
0.000000 0.000000 0.190010
0.000000 0.000000 0.029285
0.000000 0.000000 0.000000
0.000000 0.000000 0.000000
0.000000 0.000000 0.000000
0.000000 0.000000 0.000000
0.000000 0.000000 0.000000
0.000000 0.000000 0.000000
0.000000 0.000000 0.000000
0.000000 0.000000 0.000000
0.000000 0.000000 0.000000
0.000000 0.000000 0.000000
0.000000 0.000000 0.015467
0.000000 0.000000 0.096469
0.000000 0.000000 0.175807
0.000000 0.000000 0.252874
0.000000 0.000000 0.327006
0.000000 0.028300 0.397481
0.000000 0.060709 0.463515
0.000000 0.090674 0.524269
0.000000 0.117822 0.578843
0.000000 0.141714 0.626280
0.000000 0.161844 0.665562
0.000000 0.177641 0.695615
0.000000 0.188465 0.715303
0.000000 0.193612 0.723433
0.000000 0.192311 0.718755
0.000000 0.183725 0.699958
0.000000 0.166948 0.665672
0.000000 0.141012 0.614469
0.000000 0.104880 0.544864
0.000000 0.057448 0.455310
0.000000 0.000000 0.344203
0.000000 0.000000 0.209881
0.000000 0.000000 0.050622
0.000000 0.000000 0.000000
0.000000 0.000000 0.000000
0.000000 0.000000 0.000000
0.000000 0.000000 0.000000
0.000000 0.000000 0.000000
0.000000 0.000000 0.000000
0.000000 0.000000 0.000000
0.000000 0.000000 0.000000
0.000000 0.000000 0.000000
0.000000 0.000000 0.000000
0.000000 0.000000 0.000000
0.000000 0.000000 0.001261
0.000000 0.000000 0.087582
0.000000 0.000000 0.171508
0.000000 0.000000 0.252356
0.000000 0.000000 0.329383
0.000000 0.023353 0.401788
0.000000 0.060338 0.468712
0.000000 0.094130 0.529235
0.000000 0.124263 0.582382
0.000000 0.150206 0.627116
0.000000 0.171360 0.662341
0.000000 0.187060 0.686906
0.000000 0.196576 0.699597
0.000000 0.199111 0.699144
0.000000 0.193800 0.684218
0.000000 0.179713 0.653429
0.000000 0.155855 0.605331
0.000000 0.121162 0.538418
0.000000 0.074506 0.451126
0.000000 0.014690 0.341831
0.000000 0.000000 0.208850
0.000000 0.000000 0.050445
0.000000 0.000000 0.000000
0.000000 0.000000 0.000000
0.000000 0.000000 0.000000
0.000000 0.000000 0.000000
0.000000 0.000000 0.000000
0.000000 0.000000 0.000000
0.000000 0.000000 0.000000
0.000000 0.000000 0.000000
0.000000 0.000000 0.000000
0.000000 0.000000 0.000000
0.000000 0.000000 0.000000
0.000000 0.000000 0.000000
0.000000 0.000000 0.000000
0.000000 0.000000 0.077288
0.000000 0.000000 0.164678
0.000000 0.000000 0.248062
0.000000 0.000000 0.326619
0.000000 0.018396 0.399470
0.000000 0.058690 0.465679
0.000000 0.094886 0.524248
0.000000 0.126427 0.574122
0.000000 0.152688 0.614188
0.000000 0.172980 0.643274
0.000000 0.186543 0.660147
0.000000 0.192557 0.663517
0.000000 0.190129 0.652037
0.000000 0.178305 0.624298
0.000000 0.156061 0.578834
0.000000 0.122309 0.514121
0.000000 0.075894 0.428574
0.000000 0.015593 0.320551
0.000000 0.000000 0.188351
0.000000 0.000000 0.030214
0.000000 0.000000 0.000000
0.000000 0.000000 0.000000
0.000000 0.000000 0.000000
0.000000 0.000000 0.000000
0.000000 0.000000 0.000000
0.000000 0.000000 0.000000
0.000000 0.000000 0.000000
0.000000 0.000000 0.000000
0.000000 0.000000 0.000000
0.000000 0.000000 0.000000
0.000000 0.000000 0.000000
0.000000 0.000000 0.000000
0.000000 0.000000 0.000000
0.000000 0.000000 0.000000
0.000000 0.000000 0.065210
0.000000 0.000000 0.154782
0.000000 0.000000 0.239300
0.000000 0.000000 0.317865
0.000000 0.011463 0.389521
0.000000 0.053579 0.453253
0.000000 0.090540 0.507986
0.000000 0.121695 0.552587
0.000000 0.146327 0.585865
0.000000 0.163653 0.606568
0.000000 0.172824 0.613388
0.000000 0.172924 0.604957
0.000000 0.162969 0.579848
0.000000 0.141912 0.536576
0.000000 0.108637 0.473596
0.000000 0.061964 0.389306
0.000000 0.000643 0.282044
0.000000 0.000000 0.150090
0.000000 0.000000 0.000000
0.000000 0.000000 0.000000
0.000000 0.000000 0.000000
0.000000 0.000000 0.000000
0.000000 0.000000 0.000000
0.000000 0.000000 0.000000
0.000000 0.000000 0.000000
0.000000 0.000000 0.000000
0.000000 0.000000 0.000000
0.000000 0.000000 0.000000
0.000000 0.000000 0.000000
0.000000 0.000000 0.000000
0.000000 0.000000 0.000000
0.000000 0.000000 0.000000
0.000000 0.000000 0.000000
0.000000 0.000000 0.000000
0.000000 0.000000 0.051083
0.000000 0.000000 0.141398
0.000000 0.000000 0.225491
0.000000 0.000000 0.302386
0.000000 0.000361 0.371049
0.000000 0.042599 0.430385
0.000000 0.078469 0.479243
0.000000 0.107228 0.516413
0.000000 0.128067 0.540623
0.000000 0.140110 0.550546
0.000000 0.142415 0.544795
0.000000 0.133974 0.521924
0.000000 0.113711 0.480428
0.000000 0.080485 0.418745
0.000000 0.033089 0.335251
0.000000 0.000000 0.228267
0.000000 0.000000 0.096053
0.000000 0.000000 0.000000
0.000000 0.000000 0.000000
0.000000 0.000000 0.000000
0.000000 0.000000 0.000000
0.000000 0.000000 0.000000
0.000000 0.000000 0.000000
0.000000 0.000000 0.000000
0.000000 0.000000 0.000000
0.000000 0.000000 0.000000
0.000000 0.000000 0.000000
0.000000 0.000000 0.000000
0.000000 0.000000 0.000000
0.000000 0.000000 0.000000
0.000000 0.000000 0.000000
0.000000 0.000000 0.000000
0.000000 0.000000 0.000000
0.000000 0.000000 0.000000
0.000000 0.000000 0.034757
0.000000 0.000000 0.124219
0.000000 0.000000 0.206172
0.000000 0.000000 0.279560
0.000000 0.000000 0.343273
0.000000 0.023121 0.396138
0.000000 0.055828 0.436926
0.000000 0.079965 0.464348
0.000000 0.094631 0.477055
0.000000 0.098856 0.473643
0.000000 0.091606 0.452646
0.000000 0.071780 0.412539
0.000000 0.038211 0.351742
0.000000 0.000000 0.268612
0.000000 0.000000 0.161449
0.000000 0.000000 0.028495
0.000000 0.000000 0.000000
0.000000 0.000000 0.000000
0.000000 0.000000 0.000000
0.000000 0.000000 0.000000
0.000000 0.000000 0.000000
0.000000 0.000000 0.000000
0.000000 0.000000 0.000000
0.000000 0.000000 0.000000
0.000000 0.000000 0.000000
0.000000 0.000000 0.000000
0.000000 0.000000 0.000000
0.000000 0.000000 0.000000
0.000000 0.000000 0.000000
0.000000 0.000000 0.000000
0.000000 0.000000 0.000000
0.000000 0.000000 0.000000
0.000000 0.000000 0.000000
0.000000 0.000000 0.000000
0.000000 0.000000 0.016194
0.000000 0.000000 0.103050
0.000000 0.000000 0.180989
0.000000 0.000000 0.248878
0.000000 0.000000 0.305528
0.000000 0.000000 0.349690
0.000000 0.019552 0.380054
0.000000 0.036625 0.395256
0.000000 0.042520 0.393868
0.000000 0.036176 0.374407
0.000000 0.016465 0.335331
0.000000 0.000000 0.275037
0.000000 0.000000 0.191865
0.000000 0.000000 0.084096
0.000000 0.000000 0.000000
0.000000 0.000000 0.000000
0.000000 0.000000 0.000000
0.000000 0.000000 0.000000
0.000000 0.000000 0.000000
0.000000 0.000000 0.000000
0.000000 0.000000 0.000000
0.000000 0.000000 0.000000
0.000000 0.000000 0.000000
0.000000 0.000000 0.000000
0.000000 0.000000 0.000000
0.000000 0.000000 0.000000
0.000000 0.000000 0.000000
0.000000 0.000000 0.000000
0.000000 0.000000 0.000000
0.000000 0.000000 0.000000
0.000000 0.000000 0.000000
0.000000 0.000000 0.000000
0.000000 0.000000 0.000000
0.000000 0.000000 0.000000
0.000000 0.000000 0.000000
0.000000 0.000000 0.077810
0.000000 0.000000 0.149704
0.000000 0.000000 0.209945
0.000000 0.000000 0.257262
0.000000 0.000000 0.290329
0.000000 0.000000 0.307761
0.000000 0.000000 0.308112
0.000000 0.000000 0.289880
0.000000 0.000000 0.251501
0.000000 0.000000 0.191356
0.000000 0.000000 0.107765
0.000000 0.000000 0.000000
0.000000 0.000000 0.000000
0.000000 0.000000 0.000000
0.000000 0.000000 0.000000
0.000000 0.000000 0.000000
0.000000 0.000000 0.000000
0.000000 0.000000 0.000000
0.000000 0.000000 0.000000
0.000000 0.000000 0.000000
0.000000 0.000000 0.000000
0.000000 0.000000 0.000000
0.000000 0.000000 0.000000
0.000000 0.000000 0.000000
0.000000 0.000000 0.000000
0.000000 0.000000 0.000000
0.000000 0.000000 0.000000
0.000000 0.000000 0.000000
0.000000 0.000000 0.000000
0.000000 0.000000 0.000000
0.000000 0.000000 0.000000
0.000000 0.000000 0.000000
0.000000 0.000000 0.000000
0.000000 0.000000 0.000000
0.000000 0.000000 0.048530
0.000000 0.000000 0.112193
0.000000 0.000000 0.162477
0.000000 0.000000 0.198035
0.000000 0.000000 0.217461
0.000000 0.000000 0.219293
0.000000 0.000000 0.202007
0.000000 0.000000 0.164022
0.000000 0.000000 0.103699
0.000000 0.000000 0.019339
0.000000 0.000000 0.000000
0.000000 0.000000 0.000000
0.000000 0.000000 0.000000
0.000000 0.000000 0.000000
0.000000 0.000000 0.000000
0.000000 0.000000 0.000000
0.000000 0.000000 0.000000
0.000000 0.000000 0.000000
0.000000 0.000000 0.000000
0.000000 0.000000 0.000000
0.000000 0.000000 0.000000
0.000000 0.000000 0.000000
0.000000 0.000000 0.000000
0.000000 0.000000 0.000000
0.000000 0.000000 0.000000
0.000000 0.000000 0.000000
0.000000 0.000000 0.000000
0.000000 0.000000 0.000000
0.000000 0.000000 0.000000
0.000000 0.000000 0.000000
0.000000 0.000000 0.000000
0.000000 0.000000 0.000000
0.000000 0.000000 0.000000
0.000000 0.000000 0.000000
0.000000 0.000000 0.015356
0.000000 0.000000 0.068444
0.000000 0.000000 0.106307
0.000000 0.000000 0.127521
0.000000 0.000000 0.130602
0.000000 0.000000 0.114010
0.000000 0.000000 0.076143
0.000000 0.000000 0.015343
0.000000 0.000000 0.000000
0.000000 0.000000 0.000000
0.000000 0.000000 0.000000
0.000000 0.000000 0.000000
0.000000 0.000000 0.000000
0.000000 0.000000 0.000000
0.000000 0.000000 0.000000
0.000000 0.000000 0.000000
0.000000 0.000000 0.000000
0.000000 0.000000 0.000000
0.000000 0.000000 0.000000
0.000000 0.000000 0.000000
0.000000 0.000000 0.000000
0.000000 0.000000 0.000000
0.000000 0.000000 0.000000
0.000000 0.000000 0.000000
0.000000 0.000000 0.000000
0.000000 0.000000 0.000000
0.000000 0.000000 0.000000
0.000000 0.000000 0.000000
0.000000 0.000000 0.000000
0.000000 0.000000 0.000000
0.000000 0.000000 0.000000
0.000000 0.000000 0.000000
0.000000 0.000000 0.000000
0.000000 0.000000 0.000000
0.000000 0.000000 0.000000
0.000000 0.000000 0.018559
0.000000 0.000000 0.041379
0.000000 0.000000 0.045508
0.000000 0.000000 0.029383
0.000000 0.000000 0.000000
0.000000 0.000000 0.000000
0.000000 0.000000 0.000000
0.000000 0.000000 0.000000
0.000000 0.000000 0.000000
0.000000 0.000000 0.000000
0.000000 0.000000 0.000000
0.000000 0.000000 0.000000
0.000000 0.000000 0.000000
0.000000 0.000000 0.000000
0.000000 0.000000 0.000000
0.000000 0.000000 0.000000
0.000000 0.000000 0.000000
0.000000 0.000000 0.000000
0.000000 0.000000 0.000000
0.000000 0.000000 0.000000
0.000000 0.000000 0.000000
0.000000 0.000000 0.000000
0.000000 0.000000 0.000000
0.000000 0.000000 0.000000
0.000000 0.000000 0.000000
0.000000 0.000000 0.000000
0.000000 0.000000 0.000000
0.000000 0.000000 0.000000
0.000000 0.000000 0.000000
0.000000 0.000000 0.000000
0.000000 0.000000 0.000000
0.000000 0.000000 0.000000
0.000000 0.000000 0.000000
0.000000 0.000000 0.000000
0.000000 0.000000 0.000000
0.000000 0.000000 0.000000
0.000000 0.000000 0.000000
0.000000 0.000000 0.000000
0.000000 0.000000 0.000000
0.000000 0.000000 0.000000
0.000000 0.000000 0.000000
0.000000 0.000000 0.000000
0.000000 0.000000 0.000000
0.000000 0.000000 0.000000
0.000000 0.000000 0.000000
0.000000 0.000000 0.000000
0.000000 0.000000 0.000000
0.000000 0.000000 0.000000
0.000000 0.000000 0.000000
0.000000 0.000000 0.000000
0.000000 0.000000 0.000000
0.000000 0.000000 0.000000
0.000000 0.000000 0.000000
0.000000 0.000000 0.000000
0.000000 0.000000 0.000000
0.000000 0.000000 0.000000
0.000000 0.000000 0.000000
0.000000 0.000000 0.000000
0.000000 0.000000 0.000000
0.000000 0.000000 0.000000
0.000000 0.000000 0.000000
0.000000 0.000000 0.000000
0.000000 0.000000 0.000000
0.000000 0.000000 0.000000
0.000000 0.000000 0.000000
0.000000 0.000000 0.000000
0.000000 0.000000 0.000000
0.000000 0.000000 0.000000
0.000000 0.000000 0.000000
0.000000 0.000000 0.000000
0.000000 0.000000 0.000000
0.000000 0.000000 0.000000
0.000000 0.000000 0.000000
0.000000 0.000000 0.000000
0.000000 0.000000 0.000000
0.000000 0.000000 0.000000
0.000000 0.000000 0.000000
0.000000 0.000000 0.000000
0.000000 0.000000 0.000000
0.000000 0.000000 0.000000
0.000000 0.000000 0.000000
0.000000 0.000000 0.000000
0.000000 0.000000 0.000000
0.000000 0.000000 0.000000
0.000000 0.000000 0.000000
0.000000 0.000000 0.000000
0.000000 0.000000 0.000000
0.000000 0.000000 0.000000
0.000000 0.000000 0.000000
0.000000 0.000000 0.000000
0.000000 0.000000 0.000000
0.000000 0.000000 0.000000
0.000000 0.000000 0.000000
0.000000 0.000000 0.000000
0.000000 0.000000 0.000000
0.000000 0.000000 0.000000
0.000000 0.000000 0.000000
0.000000 0.000000 0.000000
0.000000 0.000000 0.000000
0.000000 0.000000 0.000000
0.000000 0.000000 0.000000
0.000000 0.000000 0.000000
0.000000 0.000000 0.000000
0.000000 0.000000 0.000000
0.000000 0.000000 0.000000
0.000000 0.000000 0.000000
0.000000 0.000000 0.000000
0.000000 0.000000 0.000000
0.000000 0.000000 0.000000
0.000000 0.000000 0.000000
0.000000 0.000000 0.000000
0.000000 0.000000 0.000000
0.000000 0.000000 0.000000
0.000000 0.000000 0.000000
0.000000 0.000000 0.000000
0.000000 0.000000 0.000000
0.000000 0.000000 0.000000
0.000000 0.000000 0.000000
0.000000 0.000000 0.000000
0.000000 0.000000 0.000000
0.000000 0.000000 0.000000
0.000000 0.000000 0.000000
0.000000 0.000000 0.000000
0.000000 0.000000 0.000000
0.000000 0.000000 0.000000
0.000000 0.000000 0.000000
0.000000 0.000000 0.000000
0.000000 0.000000 0.000000
0.000000 0.000000 0.000000
0.000000 0.000000 0.000000
0.000000 0.000000 0.000000
0.000000 0.000000 0.000000
0.000000 0.000000 0.000000
0.000000 0.000000 0.000000
0.000000 0.000000 0.000000
0.000000 0.000000 0.000000
0.000000 0.000000 0.000000
0.000000 0.000000 0.000000
0.000000 0.000000 0.000000
0.000000 0.000000 0.000000
0.000000 0.000000 0.000000
0.000000 0.000000 0.000000
0.000000 0.000000 0.000000
0.000000 0.000000 0.000000
0.000000 0.000000 0.000000
0.000000 0.000000 0.000000
0.000000 0.000000 0.000000
0.000000 0.000000 0.000000
0.000000 0.000000 0.000000
0.000000 0.000000 0.000000
0.000000 0.000000 0.000000
0.000000 0.000000 0.000000
0.000000 0.000000 0.000000
0.000000 0.000000 0.000000
0.000000 0.000000 0.000000
0.000000 0.000000 0.000000
0.000000 0.000000 0.000000
0.000000 0.000000 0.000000
0.000000 0.000000 0.000000
0.000000 0.000000 0.000000
0.000000 0.000000 0.000000
0.000000 0.000000 0.000000
0.000000 0.000000 0.000000
0.000000 0.000000 0.000000
0.000000 0.000000 0.000000
0.000000 0.000000 0.000000
0.000000 0.000000 0.000000
0.000000 0.000000 0.000000
0.000000 0.000000 0.000000
0.000000 0.000000 0.000000
0.000000 0.000000 0.000000
0.000000 0.000000 0.000000
0.000000 0.000000 0.000000
0.000000 0.000000 0.000000
0.000000 0.000000 0.000000
0.000000 0.000000 0.000000
0.000000 0.000000 0.000000
0.000000 0.000000 0.000000
0.000000 0.000000 0.000000
0.000000 0.000000 0.000000
0.000000 0.000000 0.000000
0.000000 0.000000 0.000000
0.000000 0.000000 0.000000
0.000000 0.000000 0.000000
0.000000 0.000000 0.000000
0.000000 0.000000 0.000000
0.000000 0.000000 0.000000
0.000000 0.000000 0.000000
0.000000 0.000000 0.000000
0.000000 0.000000 0.000000
0.000000 0.000000 0.000000
0.000000 0.000000 0.000000
0.000000 0.000000 0.000000
0.000000 0.000000 0.000000
0.000000 0.000000 0.000000
0.000000 0.000000 0.000000
0.000000 0.000000 0.000000
0.000000 0.000000 0.000000
0.000000 0.000000 0.000000
0.000000 0.000000 0.000000
0.000000 0.000000 0.000000
0.000000 0.000000 0.000000
0.000000 0.000000 0.000000
0.000000 0.000000 0.000000
0.000000 0.000000 0.000000
0.000000 0.000000 0.000000
0.000000 0.000000 0.000000
0.000000 0.000000 0.000000
0.000000 0.000000 0.000000
0.000000 0.000000 0.000000
0.000000 0.000000 0.000000
0.000000 0.000000 0.000000
0.000000 0.000000 0.000000
0.000000 0.000000 0.000000
0.000000 0.000000 0.000000
0.000000 0.000000 0.000000
0.000000 0.000000 0.000000
0.000000 0.000000 0.000000
0.000000 0.000000 0.000000
0.000000 0.000000 0.000000
0.000000 0.000000 0.000000
0.000000 0.000000 0.000000
0.000000 0.000000 0.000000
0.000000 0.000000 0.000000
0.000000 0.000000 0.000000
0.000000 0.000000 0.000000
0.000000 0.000000 0.000000
0.000000 0.000000 0.000000
0.000000 0.000000 0.000000
0.000000 0.000000 0.000000
0.000000 0.000000 0.000000
0.000000 0.000000 0.000000
0.000000 0.000000 0.000000
0.000000 0.000000 0.000000
0.000000 0.000000 0.000000
0.000000 0.000000 0.000000
0.000000 0.000000 0.000000
0.000000 0.000000 0.000000
0.000000 0.000000 0.000000
0.000000 0.000000 0.000000
0.000000 0.000000 0.000000
0.000000 0.000000 0.000000
0.000000 0.000000 0.000000
0.000000 0.000000 0.000000
0.000000 0.000000 0.000000
0.000000 0.000000 0.000000
0.000000 0.000000 0.000000
0.000000 0.000000 0.000000
0.000000 0.000000 0.000000
0.000000 0.000000 0.000000
0.000000 0.000000 0.000000
0.000000 0.000000 0.000000
0.000000 0.000000 0.000000
0.000000 0.000000 0.000000
0.000000 0.000000 0.000000
0.000000 0.000000 0.000000
0.000000 0.000000 0.000000
0.000000 0.000000 0.000000
0.000000 0.000000 0.000000
0.000000 0.000000 0.000000
0.000000 0.000000 0.000000
0.000000 0.000000 0.000000
0.000000 0.000000 0.000000
0.000000 0.000000 0.000000
0.000000 0.000000 0.000000
0.000000 0.000000 0.000000
0.000000 0.000000 0.001072
0.000000 0.000000 0.000000
0.000000 0.000000 0.000000
0.000000 0.000000 0.000000
0.000000 0.000000 0.000000
0.000000 0.000000 0.000000
0.000000 0.000000 0.000000
0.000000 0.000000 0.000000
0.000000 0.000000 0.000000
0.000000 0.000000 0.000000
0.000000 0.000000 0.000000
0.000000 0.000000 0.000000
0.000000 0.000000 0.000000
0.000000 0.000000 0.000000
0.000000 0.000000 0.000000
0.000000 0.000000 0.000000
0.000000 0.000000 0.000000
0.000000 0.000000 0.000000
0.000000 0.000000 0.000000
0.000000 0.000000 0.000000
0.000000 0.000000 0.000000
0.000000 0.000000 0.000000
0.000000 0.000000 0.000000
0.000000 0.000000 0.000000
0.000000 0.000000 0.000000
0.000000 0.000000 0.000000
0.000000 0.000000 0.000000
0.000000 0.000000 0.000000
0.000000 0.000000 0.000000
0.000000 0.000000 0.000000
0.000000 0.000000 0.050171
0.000000 0.000000 0.107015
0.000000 0.000000 0.140770
0.000000 0.000000 0.149762
0.000000 0.000000 0.132258
0.000000 0.000000 0.086465
0.000000 0.000000 0.010533
0.000000 0.000000 0.000000
0.000000 0.000000 0.000000
0.000000 0.000000 0.000000
0.000000 0.000000 0.000000
0.000000 0.000000 0.000000
0.000000 0.000000 0.000000
