lrplugin/MindfulLensFilmEngine.lrplugin/profiles/luts/harman_phoenix.cube
# Generated from ColorChecker fit
LUT_3D_SIZE 33
DOMAIN_MIN 0.0 0.0 0.0
DOMAIN_MAX 1.0 1.0 1.0
0.118866 0.007701 0.000000
0.087463 0.000000 0.000000
0.061041 0.000000 0.004239
0.039474 0.000000 0.028110
0.022604 0.000000 0.052621
0.010240 0.000000 0.077831
0.002157 0.000000 0.103719
0.000000 0.000000 0.130186
0.000000 0.000000 0.157053
0.000846 0.000000 0.184063
0.006972 0.000000 0.210880
0.015754 0.000000 0.237089
0.026768 0.000000 0.262197
0.039556 0.005281 0.285630
0.053626 0.021576 0.306737
0.068453 0.038233 0.324789
0.083479 0.054851 0.338975
0.098112 0.071026 0.348408
0.111729 0.086354 0.352120
0.123669 0.100429 0.349067
0.133243 0.112846 0.338123
0.139725 0.123196 0.318086
0.142357 0.131072 0.287672
0.140347 0.136064 0.245520
0.132870 0.137762 0.190191
0.119070 0.135754 0.120166
0.098053 0.129629 0.033847
0.068895 0.118972 0.000000
0.030638 0.103370 0.000000
0.000000 0.082407 0.000000
0.000000 0.055667 0.000000
0.000000 0.022732 0.000000
0.000000 0.000000 0.000000
0.137029 0.000000 0.000000
0.107224 0.000000 0.000000
0.082402 0.000000 0.000000
0.062424 0.000000 0.000000
0.047116 0.000000 0.000000
0.036270 0.000000 0.000000
0.029647 0.000000 0.000000
0.026973 0.000000 0.000000
0.027940 0.000000 0.016167
0.032209 0.000000 0.041347
0.039406 0.000000 0.066524
0.049124 0.000000 0.091311
0.060923 0.000000 0.115241
0.074329 0.000000 0.137767
0.088835 0.000000 0.158265
0.103900 0.000000 0.176031
0.118952 0.000000 0.190283
0.133383 0.015719 0.200157
0.146552 0.032883 0.204716
0.157788 0.048899 0.202938
0.166381 0.063365 0.193727
0.171593 0.075874 0.175905
0.172649 0.086023 0.148216
0.168742 0.093403 0.109326
0.159033 0.097607 0.057822
0.142648 0.098227 0.000000
0.118679 0.094853 0.000000
0.086186 0.087073 0.000000
0.044197 0.074477 0.000000
0.000000 0.056651 0.000000
0.000000 0.033183 0.000000
0.000000 0.003656 0.000000
0.000000 0.000000 0.000000
0.148953 0.000000 0.000000
0.120741 0.000000 0.000000
0.097504 0.000000 0.000000
0.079085 0.000000 0.000000
0.065295 0.000000 0.000000
0.055912 0.000000 0.000000
0.050680 0.000000 0.000000
0.049309 0.000000 0.000000
0.051479 0.000000 0.000000
0.056832 0.000000 0.000000
0.064980 0.000000 0.000000
0.075501 0.000000 0.000000
0.087938 0.000000 0.000000
0.101802 0.000000 0.018393
0.116572 0.000000 0.038347
0.131691 0.000000 0.055895
0.146571 0.000000 0.070280
0.160588 0.000000 0.080667
0.173088 0.000000 0.086143
0.183381 0.014390 0.085715
0.190745 0.030653 0.078311
0.194424 0.045057 0.062781
0.193629 0.057198 0.037895
0.187538 0.066672 0.002347
0.175295 0.073074 0.000000
0.156011 0.075999 0.000000
0.128763 0.075038 0.000000
0.092596 0.069785 0.000000
0.046521 0.059829 0.000000
0.000000 0.044761 0.000000
0.000000 0.024169 0.000000
0.000000 0.000000 0.000000
0.000000 0.000000 0.000000
0.154687 0.000000 0.000000
0.128070 0.000000 0.000000
0.106404 0.000000 0.000000
0.089519 0.000000 0.000000
0.077209 0.000000 0.000000
0.069238 0.000000 0.000000
0.065332 0.000000 0.000000
0.065190 0.000000 0.000000
0.068471 0.000000 0.000000
0.074806 0.000000 0.000000
0.083789 0.000000 0.000000
0.094983 0.000000 0.000000
0.107917 0.000000 0.000000
0.122086 0.000000 0.000000
0.136953 0.000000 0.000000
0.151945 0.000000 0.000000
0.166460 0.000000 0.000000
0.179858 0.000000 0.000000
0.191469 0.000000 0.000000
0.200588 0.000000 0.000000
0.206477 0.013552 0.000000
0.208366 0.029643 0.000000
0.205449 0.043556 0.000000
0.196890 0.054889 0.000000
0.181816 0.063240 0.000000
0.159324 0.068205 0.000000
0.128475 0.069380 0.000000
0.088298 0.066359 0.000000
0.037790 0.058736 0.000000
0.000000 0.046104 0.000000
0.000000 0.028053 0.000000
0.000000 0.004175 0.000000
0.000000 0.000000 0.000000
0.154406 0.000000 0.000000
0.129388 0.000000 0.000000
0.109286 0.000000 0.000000
0.093914 0.000000 0.000000
0.083051 0.000000 0.000000
0.076444 0.000000 0.000000
0.073806 0.000000 0.000000
0.074818 0.000000 0.000000
0.079127 0.000000 0.000000
0.086345 0.000000 0.000000
0.096052 0.000000 0.000000
0.107796 0.000000 0.000000
0.121090 0.000000 0.000000
0.135414 0.000000 0.000000
0.150214 0.000000 0.000000
0.164904 0.000000 0.000000
0.178864 0.000000 0.000000
0.191442 0.000000 0.000000
0.201949 0.000000 0.000000
0.209667 0.000000 0.000000
0.213841 0.011031 0.000000
0.213687 0.028661 0.000000
0.208382 0.044183 0.000000
0.197075 0.057197 0.000000
0.178879 0.067305 0.000000
0.152874 0.074105 0.000000
0.118106 0.077196 0.000000
0.073589 0.076174 0.000000
0.018303 0.070636 0.000000
0.000000 0.060177 0.000000
0.000000 0.044390 0.000000
0.000000 0.022870 0.000000
0.000000 0.000000 0.000000
0.148405 0.000000 0.000000
0.124996 0.000000 0.000000
0.106455 0.000000 0.000000
0.092579 0.000000 0.000000
0.083134 0.000000 0.000000
0.077850 0.000000 0.000000
0.076425 0.000000 0.000000
0.078524 0.000000 0.000000
0.083778 0.000000 0.000000
0.091785 0.000000 0.000000
0.102111 0.000000 0.000000
0.114285 0.000000 0.000000
0.127806 0.000000 0.000000
0.142139 0.000000 0.000000
0.156715 0.000000 0.000000
0.170932 0.000000 0.000000
0.184154 0.000000 0.000000
0.195713 0.000000 0.000000
0.204907 0.000000 0.000000
0.211001 0.001447 0.000000
0.213225 0.022183 0.000000
0.210778 0.041262 0.000000
0.202824 0.058289 0.000000
0.188496 0.072867 0.000000
0.166889 0.084600 0.000000
0.137071 0.093088 0.000000
0.098071 0.097933 0.000000
0.048887 0.098735 0.000000
0.000000 0.095091 0.000000
0.000000 0.086601 0.000000
0.000000 0.072860 0.000000
0.000000 0.053464 0.000000
0.000000 0.028009 0.000000
0.137103 0.000000 0.000000
0.115318 0.000000 0.000000
0.098338 0.000000 0.000000
0.085948 0.000000 0.000000
0.077895 0.000000 0.000000
0.073896 0.000000 0.000000
0.073634 0.000000 0.000000
0.076756 0.000000 0.000000
0.082880 0.000000 0.000000
0.091588 0.000000 0.000000
0.102429 0.000000 0.000000
0.114918 0.000000 0.000000
0.128539 0.000000 0.000000
0.142741 0.000000 0.000000
0.156938 0.000000 0.000000
0.170515 0.000000 0.000000
0.182820 0.000000 0.000000
0.193169 0.000000 0.000000
0.200844 0.000771 0.000000
0.205095 0.024114 0.000000
0.205138 0.046230 0.000000
0.200155 0.066727 0.000000
0.189295 0.085214 0.000000
0.171674 0.101296 0.000000
0.146375 0.114579 0.000000
0.112448 0.124667 0.000000
0.068907 0.131164 0.000000
0.014735 0.133672 0.000000
0.000000 0.131792 0.000000
0.000000 0.125124 0.000000
0.000000 0.113269 0.000000
0.000000 0.095824 0.000000
0.000000 0.072387 0.000000
0.121041 0.000000 0.000000
0.100898 0.000000 0.000000
0.085487 0.000000 0.000000
0.074574 0.000000 0.000000
0.067895 0.000000 0.000000
0.065148 0.000000 0.000000
0.066002 0.000000 0.000000
0.070090 0.000000 0.000000
0.077012 0.000000 0.000000
0.086335 0.000000 0.000000
0.097594 0.000000 0.000000
0.110289 0.000000 0.000000
0.123886 0.000000 0.000000
0.137819 0.000000 0.000000
0.151490 0.000000 0.000000
0.164265 0.000000 0.000000
0.175477 0.000000 0.000000
0.184428 0.008679 0.000000
0.190383 0.034238 0.000000
0.192578 0.058981 0.000000
0.190213 0.082518 0.000000
0.182454 0.104462 0.000000
0.168435 0.124422 0.000000
0.147258 0.142007 0.000000
0.117988 0.156825 0.000000
0.079660 0.168483 0.000000
0.031274 0.176588 0.000000
0.000000 0.180743 0.000000
0.000000 0.180554 0.000000
0.000000 0.175623 0.000000
0.000000 0.165551 0.000000
0.000000 0.149941 0.000000
0.000000 0.128392 0.000000
0.100885 0.000000 0.000000
0.082407 0.000000 0.000000
0.068574 0.000000 0.000000
0.059137 0.000000 0.000000
0.053815 0.000000 0.000000
0.052292 0.000000 0.000000
0.054221 0.000000 0.000000
0.059220 0.000000 0.000000
0.066873 0.000000 0.000000
0.076733 0.000000 0.000000
0.088317 0.000000 0.000000
0.101110 0.000000 0.000000
0.114565 0.000000 0.000000
0.128099 0.000000 0.000000
0.141098 0.000000 0.000000
0.152913 0.000000 0.000000
0.162863 0.024640 0.000000
0.170232 0.052137 0.000000
0.174272 0.079206 0.000000
0.174201 0.105462 0.000000
0.169206 0.130522 0.000000
0.158436 0.153998 0.000000
0.141011 0.175503 0.000000
0.116015 0.194648 0.000000
0.082501 0.211045 0.000000
0.039486 0.224302 0.000000
0.000000 0.234029 0.000000
0.000000 0.239833 0.000000
0.000000 0.241320 0.000000
0.000000 0.238096 0.000000
0.000000 0.229767 0.000000
0.000000 0.215934 0.000000
0.000000 0.196202 0.000000
0.077420 0.000000 0.000000
0.060635 0.000000 0.000000
0.048395 0.000000 0.000000
0.040436 0.000000 0.000000
0.036461 0.000000 0.000000
0.036139 0.000000 0.000000
0.039106 0.000000 0.000000
0.044966 0.000000 0.000000
0.053288 0.000000 0.000000
0.063608 0.000000 0.000000
0.075429 0.000000 0.000000
0.088220 0.000000 0.000000
0.101418 0.000000 0.000000
0.114426 0.000000 0.000000
0.126613 0.018975 0.000000
0.137316 0.047919 0.000000
0.145836 0.077183 0.000000
0.151445 0.106389 0.000000
0.153378 0.135156 0.009919
0.150838 0.163101 0.026537
0.142994 0.189841 0.039430
0.128984 0.214995 0.047632
0.107909 0.238175 0.050101
0.078839 0.258997 0.045713
0.040811 0.277074 0.033267
0.000000 0.292018 0.011485
0.000000 0.303440 0.000000
0.000000 0.310951 0.000000
0.000000 0.314159 0.000000
0.000000 0.312673 0.000000
0.000000 0.306101 0.000000
0.000000 0.294048 0.000000
0.000000 0.276119 0.000000
0.051557 0.000000 0.000000
0.036498 0.000000 0.000000
0.025871 0.000000 0.000000
0.019396 0.000000 0.000000
0.016761 0.000000 0.000000
0.017620 0.000000 0.000000
0.021594 0.000000 0.000000
0.028270 0.000000 0.000000
0.037202 0.000000 0.000000
0.047912 0.000000 0.000000
0.059886 0.000000 0.000000
0.072578 0.000000 0.000000
0.085410 0.017995 0.000000
0.097769 0.047263 0.000000
0.109009 0.077573 0.000722
0.118451 0.108547 0.026874
0.125382 0.139811 0.052734
0.129056 0.170988 0.077680
0.128694 0.201698 0.101009
0.123484 0.231563 0.121941
0.112580 0.260203 0.139618
0.095102 0.287237 0.153102
0.070139 0.312282 0.161374
0.036743 0.334956 0.163341
0.000000 0.354873 0.157826
0.000000 0.371650 0.143577
0.000000 0.384899 0.119262
0.000000 0.394234 0.083469
0.000000 0.399267 0.034708
0.000000 0.399608 0.000000
0.000000 0.394867 0.000000
0.000000 0.384653 0.000000
0.000000 0.368574 0.000000
0.024329 0.000000 0.000000
0.011032 0.000000 0.000000
0.002042 0.000000 0.000000
0.000000 0.000000 0.000000
0.000000 0.000000 0.000000
0.000000 0.000000 0.000000
0.002745 0.000000 0.000000
0.010196 0.000000 0.000000
0.019686 0.000000 0.000000
0.030719 0.000000 0.000000
0.042767 0.021667 0.000000
0.055268 0.050322 0.017307
0.067629 0.080708 0.043812
0.079221 0.112456 0.071704
0.089383 0.145192 0.100626
0.097420 0.178546 0.130138
0.102604 0.212143 0.159724
0.104174 0.245609 0.188787
0.101336 0.278569 0.216653
0.093260 0.310645 0.242567
0.079087 0.341461 0.265697
0.057921 0.370637 0.285132
0.028835 0.397794 0.299882
0.000000 0.422553 0.308876
0.000000 0.444530 0.310968
0.000000 0.463344 0.304930
0.000000 0.478611 0.289457
0.000000 0.489947 0.263163
0.000000 0.496965 0.224586
0.000000 0.499281 0.172183
0.000000 0.496504 0.104334
0.000000 0.488249 0.019337
0.000000 0.474124 0.000000
0.000000 0.000000 0.000000
0.000000 0.000000 0.000000
0.000000 0.000000 0.000000
0.000000 0.000000 0.000000
0.000000 0.000000 0.000000
0.000000 0.000000 0.000000
0.000000 0.000000 0.011392
0.000000 0.004643 0.030428
0.001930 0.029171 0.051622
0.013225 0.056458 0.075035
0.025272 0.086139 0.100649
0.037495 0.117847 0.128369
0.049284 0.151215 0.158018
0.059996 0.185877 0.189344
0.068953 0.221462 0.222013
0.075446 0.257602 0.255612
0.078732 0.293924 0.289653
0.078033 0.330058 0.323564
0.072539 0.365630 0.356699
0.061408 0.400267 0.388328
0.043762 0.433593 0.417647
0.018691 0.465233 0.443771
0.000000 0.494809 0.465736
0.000000 0.521944 0.482498
0.000000 0.546259 0.492938
0.000000 0.567373 0.495853
0.000000 0.584907 0.489966
0.000000 0.598478 0.473918
0.000000 0.607703 0.446272
0.000000 0.612198 0.405513
0.000000 0.611578 0.350045
0.000000 0.605458 0.278196
0.000000 0.593450 0.188213
0.000000 0.000000 0.027142
0.000000 0.000000 0.041443
0.000000 0.000000 0.055874
0.000000 0.000000 0.070998
0.000000 0.000000 0.087295
0.000000 0.016941 0.105169
0.000000 0.038903 0.124945
0.000000 0.064251 0.146869
0.000000 0.092626 0.171107
0.000000 0.123667 0.197746
0.008725 0.157010 0.226797
0.020587 0.192294 0.258188
0.031708 0.229153 0.291773
0.041431 0.267223 0.327322
0.049062 0.306136 0.364530
0.053877 0.345527 0.403011
0.055116 0.385026 0.442301
0.051987 0.424264 0.481858
0.043666 0.462871 0.521059
0.029292 0.500476 0.559204
0.007974 0.536706 0.595513
0.000000 0.571188 0.629129
0.000000 0.603548 0.659113
0.000000 0.633411 0.684449
0.000000 0.660399 0.704044
0.000000 0.684137 0.716722
0.000000 0.704245 0.721232
0.000000 0.720344 0.716241
0.000000 0.732054 0.700340
0.000000 0.738994 0.672038
0.000000 0.740781 0.629770
0.000000 0.737032 0.571886
0.000000 0.727363 0.496662
0.000000 0.000000 0.134132
0.000000 0.004737 0.151779
0.000000 0.014737 0.169554
0.000000 0.029432 0.188047
0.000000 0.048469 0.207765
0.000000 0.071492 0.229139
0.000000 0.098147 0.252519
0.000000 0.128076 0.278177
0.000000 0.160922 0.306308
0.000000 0.196326 0.337025
0.000000 0.233928 0.370364
0.005996 0.273369 0.406281
0.016358 0.314285 0.444656
0.024987 0.356316 0.485285
0.031175 0.399096 0.527890
0.034181 0.442261 0.572113
0.033231 0.485446 0.617514
0.027517 0.528284 0.663579
0.016198 0.570407 0.709712
0.000000 0.611446 0.755238
0.000000 0.651033 0.799405
0.000000 0.688795 0.841381
0.000000 0.724363 0.880255
0.000000 0.757362 0.915037
0.000000 0.787419 0.944660
0.000000 0.814159 0.967976
0.000000 0.837208 0.983758
0.000000 0.856187 0.990703
0.000000 0.870720 0.987426
0.000000 0.880428 0.972464
0.000000 0.884931 0.944277
0.000000 0.883847 0.901242
0.000000 0.876797 0.841663
0.000000 0.027723 0.248941
0.000000 0.038753 0.270838
0.000000 0.054692 0.292864
0.000000 0.075188 0.315633
0.000000 0.099891 0.339682
0.000000 0.128448 0.365465
0.000000 0.160507 0.393361
0.000000 0.195714 0.423669
0.000000 0.233714 0.456608
0.000000 0.274150 0.492319
0.000000 0.316665 0.530865
0.000000 0.360903 0.572228
0.004811 0.406502 0.616313
0.012247 0.453104 0.662946
0.016879 0.500347 0.711873
0.017951 0.547870 0.762762
0.014673 0.595309 0.815203
0.006222 0.642300 0.868704
0.000000 0.688479 0.922699
0.000000 0.733478 0.976538
0.000000 0.776932 1.000000
0.000000 0.818471 1.000000
0.000000 0.857728 1.000000
0.000000 0.894331 1.000000
0.000000 0.927910 1.000000
0.000000 0.958093 1.000000
0.000000 0.984507 1.000000
0.000000 1.000000 1.000000
0.000000 1.000000 1.000000
0.000000 1.000000 1.000000
0.000000 1.000000 1.000000
0.000000 1.000000 1.000000
0.000000 1.000000 1.000000
0.000000 0.053607 0.370487
0.000000 0.071558 0.397605
0.000000 0.094262 0.424853
0.000000 0.121372 0.452874
0.000000 0.152540 0.482227
0.000000 0.187416 0.513397
0.000000 0.225650 0.546788
0.000000 0.266890 0.582724
0.000000 0.310785 0.621453
0.000000 0.356980 0.663141
0.000000 0.405121 0.707878
0.000000 0.454853 0.755672
0.000000 0.505820 0.806456
0.004917 0.557663 0.860081
0.007885 0.610025 0.916320
0.006902 0.662546 0.974868
0.001162 0.714866 1.000000
0.000000 0.766623 1.000000
0.000000 0.817455 1.000000
0.000000 0.866998 1.000000
0.000000 0.914888 1.000000
0.000000 0.960760 1.000000
0.000000 1.000000 1.000000
0.000000 1.000000 1.000000
0.000000 1.000000 1.000000
0.000000 1.000000 1.000000
0.000000 1.000000 1.000000
0.000000 1.000000 1.000000
0.000000 1.000000 1.000000
0.000000 1.000000 1.000000
0.000000 1.000000 1.000000
0.000000 1.000000 1.000000
0.000000 1.000000 1.000000
0.000000 0.076877 0.497754
0.000000 0.102648 0.531129
0.000000 0.133003 0.564638
0.000000 0.167599 0.598949
0.000000 0.206089 0.634649
0.000000 0.248127 0.672248
0.000000 0.293364 0.712178
0.000000 0.341453 0.754788
0.000000 0.392042 0.800354
0.000000 0.444782 0.849068
0.000000 0.499321 0.901046
0.000000 0.555305 0.956323
0.000057 0.612381 1.000000
0.004826 0.670194 1.000000
0.006026 0.728389 1.000000
0.002872 0.786608 1.000000
0.000000 0.844494 1.000000
0.000000 0.901688 1.000000
0.000000 0.957830 1.000000
0.000000 1.000000 1.000000
0.000000 1.000000 1.000000
0.000000 1.000000 1.000000
0.000000 1.000000 1.000000
0.000000 1.000000 1.000000
0.000000 1.000000 1.000000
0.000000 1.000000 1.000000
0.000000 1.000000 1.000000
0.000000 1.000000 1.000000
0.000000 1.000000 1.000000
0.000000 1.000000 1.000000
0.000000 1.000000 1.000000
0.000000 1.000000 1.000000
0.000000 1.000000 1.000000
0.000000 0.097098 0.629787
0.000000 0.131648 0.670523
0.000000 0.170600 0.711397
0.000000 0.213612 0.753104
0.000000 0.260340 0.796258
0.000000 0.310441 0.841396
0.000000 0.363570 0.888974
0.000000 0.419379 0.939371
0.000000 0.477522 0.992887
0.000000 0.537651 1.000000
0.000000 0.599417 1.000000
0.004116 0.662468 1.000000
0.010621 0.726456 1.000000
0.013924 0.791026 1.000000
0.013258 0.855826 1.000000
0.007820 0.920501 1.000000
0.000000 0.984698 1.000000
0.000000 1.000000 1.000000
0.000000 1.000000 1.000000
0.000000 1.000000 1.000000
0.000000 1.000000 1.000000
0.000000 1.000000 1.000000
0.000000 1.000000 1.000000
0.000000 1.000000 1.000000
0.000000 1.000000 1.000000
0.000000 1.000000 1.000000
0.000000 1.000000 1.000000
0.000000 1.000000 1.000000
0.000000 1.000000 1.000000
0.000000 1.000000 1.000000
0.000000 1.000000 1.000000
0.000000 1.000000 1.000000
0.000000 1.000000 1.000000
0.000000 0.113964 0.765700
0.000000 0.158311 0.814965
0.000000 0.206862 0.864375
0.000000 0.259279 0.914649
0.000000 0.315220 0.966431
0.000000 0.374344 1.000000
0.000000 0.436309 1.000000
0.000000 0.500771 1.000000
0.000000 0.567385 1.000000
0.008634 0.635806 1.000000
0.018968 0.705687 1.000000
0.027173 0.776681 1.000000
0.032529 0.848439 1.000000
0.034287 0.920612 1.000000
0.031660 0.992848 1.000000
0.023831 1.000000 1.000000
0.009948 1.000000 1.000000
0.000000 1.000000 1.000000
0.000000 1.000000 1.000000
0.000000 1.000000 1.000000
0.000000 1.000000 1.000000
0.000000 1.000000 1.000000
0.000000 1.000000 1.000000
0.000000 1.000000 1.000000
0.000000 1.000000 1.000000
0.000000 1.000000 1.000000
0.000000 1.000000 1.000000
0.000000 1.000000 1.000000
0.000000 1.000000 1.000000
0.000000 1.000000 1.000000
0.000000 1.000000 1.000000
0.000000 1.000000 1.000000
0.000000 1.000000 1.000000
0.000000 0.127292 0.904670
0.000000 0.182512 0.963699
0.000000 0.241725 1.000000
0.000000 0.304594 1.000000
0.000000 0.370782 1.000000
0.000000 0.439948 1.000000
0.008610 0.511754 1.000000
0.021975 0.585859 1.000000
0.034829 0.661919 1.000000
0.046541 0.739594 1.000000
0.056441 0.818538 1.000000
0.063831 0.898407 1.000000
0.067976 0.978854 1.000000
0.068111 1.000000 1.000000
0.063433 1.000000 1.000000
0.053111 1.000000 1.000000
0.036276 1.000000 1.000000
0.012030 1.000000 1.000000
0.000000 1.000000 1.000000
0.000000 1.000000 1.000000
0.000000 1.000000 1.000000
0.000000 1.000000 1.000000
0.000000 1.000000 1.000000
0.000000 1.000000 1.000000
0.000000 1.000000 1.000000
0.000000 1.000000 1.000000
0.000000 1.000000 1.000000
0.000000 1.000000 1.000000
0.000000 1.000000 1.000000
0.000000 1.000000 1.000000
0.000000 1.000000 1.000000
0.000000 1.000000 1.000000
0.000000 1.000000 1.000000
0.000000 0.137030 1.000000
0.000000 0.204257 1.000000
0.008992 0.275252 1.000000
0.020586 0.349680 1.000000
0.033585 0.427205 1.000000
0.047473 0.507491 1.000000
0.061702 0.590201 1.000000
0.075689 0.674997 1.000000
0.088818 0.761539 1.000000
0.100440 0.849487 1.000000
0.109873 0.938500 1.000000
0.116402 1.000000 1.000000
0.119277 1.000000 1.000000
0.117715 1.000000 1.000000
0.110902 1.000000 1.000000
0.097988 1.000000 1.000000
0.078091 1.000000 1.000000
0.050295 1.000000 1.000000
0.013651 1.000000 1.000000
0.000000 1.000000 1.000000
0.000000 1.000000 1.000000
0.000000 1.000000 1.000000
0.000000 1.000000 1.000000
0.000000 1.000000 1.000000
0.000000 1.000000 1.000000
0.000000 1.000000 1.000000
0.000000 1.000000 1.000000
0.000000 1.000000 1.000000
0.000000 1.000000 1.000000
0.000000 1.000000 1.000000
0.000000 1.000000 1.000000
0.000000 1.000000 1.000000
0.000000 1.000000 1.000000
0.052937 0.143247 1.000000
0.062778 0.223676 1.000000
0.074687 0.307632 1.000000
0.088201 0.394782 1.000000
0.102821 0.484796 1.000000
0.118016 0.577338 1.000000
0.133221 0.672074 1.000000
0.147840 0.768669 1.000000
0.161240 0.866785 1.000000
0.172757 0.966085 1.000000
0.181694 1.000000 1.000000
0.187319 1.000000 1.000000
0.188868 1.000000 1.000000
0.185543 1.000000 1.000000
0.176513 1.000000 1.000000
0.160914 1.000000 1.000000
0.137847 1.000000 1.000000
0.106383 1.000000 1.000000
0.065555 1.000000 1.000000
0.014367 1.000000 1.000000
0.000000 1.000000 1.000000
0.000000 1.000000 1.000000
0.000000 1.000000 1.000000
0.000000 1.000000 1.000000
0.000000 1.000000 1.000000
0.000000 1.000000 1.000000
0.000000 1.000000 1.000000
0.000000 1.000000 1.000000
0.000000 1.000000 1.000000
0.000000 1.000000 1.000000
0.000000 1.000000 1.000000
0.000000 1.000000 1.000000
0.000000 1.000000 1.000000
0.134562 0.146144 1.000000
0.146965 0.241025 1.000000
0.161157 0.339180 1.000000
0.176656 0.440277 1.000000
0.192950 0.543987 1.000000
0.209491 0.649980 1.000000
0.225701 0.757922 1.000000
0.240965 0.867482 1.000000
0.254637 0.978324 1.000000
0.266038 1.000000 1.000000
0.274454 1.000000 1.000000
0.279138 1.000000 1.000000
0.279311 1.000000 1.000000
0.274160 1.000000 1.000000
0.262837 1.000000 1.000000
0.244464 1.000000 1.000000
0.218126 1.000000 1.000000
0.182877 1.000000 1.000000
0.137738 1.000000 1.000000
0.081695 1.000000 1.000000
0.013702 1.000000 1.000000
0.000000 1.000000 1.000000
0.000000 1.000000 1.000000
0.000000 1.000000 1.000000
0.000000 1.000000 1.000000
0.000000 1.000000 1.000000
0.000000 1.000000 1.000000
0.000000 1.000000 1.000000
0.000000 1.000000 1.000000
0.000000 1.000000 1.000000
0.000000 1.000000 1.000000
0.000000 1.000000 1.000000
0.000000 1.000000 1.000000
0.239419 0.146043 1.000000
0.254482 0.256689 1.000000
0.271038 0.370338 1.000000
0.288593 0.486664 1.000000
0.306618 0.605339 1.000000
0.324551 0.726035 1.000000
0.341796 0.848423 1.000000
0.357725 0.972172 1.000000
0.371676 1.000000 1.000000
0.382953 1.000000 1.000000
0.390828 1.000000 1.000000
0.394539 1.000000 1.000000
0.393290 1.000000 1.000000
0.386253 1.000000 1.000000
0.372567 1.000000 1.000000
0.351334 1.000000 1.000000
0.321628 1.000000 1.000000
0.282485 1.000000 1.000000
0.232911 1.000000 1.000000
0.171878 1.000000 1.000000
0.098322 1.000000 1.000000
0.011149 1.000000 1.000000
0.000000 1.000000 1.000000
0.000000 1.000000 1.000000
0.000000 1.000000 1.000000
0.000000 1.000000 1.000000
0.000000 1.000000 1.000000
0.000000 1.000000 1.000000
0.000000 1.000000 1.000000
0.000000 1.000000 1.000000
0.000000 1.000000 1.000000
0.000000 1.000000 1.000000
0.000000 1.000000 1.000000
0.370260 0.143398 1.000000
0.388082 0.271176 1.000000
0.407092 0.401675 1.000000
0.426778 0.534570 1.000000
0.446597 0.669536 1.000000
0.465970 0.806248 1.000000
0.484287 0.944378 1.000000
0.500904 1.000000 1.000000
0.515143 1.000000 1.000000
0.526295 1.000000 1.000000
0.533613 1.000000 1.000000
0.536323 1.000000 1.000000
0.533611 1.000000 1.000000
0.524635 1.000000 1.000000
0.508517 1.000000 1.000000
0.484346 1.000000 1.000000
0.451178 1.000000 1.000000
0.408035 1.000000 1.000000
0.353908 1.000000 1.000000
0.287752 1.000000 1.000000
0.208489 1.000000 1.000000
0.115009 1.000000 1.000000
0.006167 1.000000 1.000000
0.000000 1.000000 1.000000
0.000000 1.000000 1.000000
0.000000 1.000000 1.000000
0.000000 1.000000 1.000000
0.000000 1.000000 1.000000
0.000000 1.000000 1.000000
0.000000 1.000000 1.000000
0.000000 1.000000 1.000000
0.000000 1.000000 1.000000
0.000000 1.000000 1.000000
0.529959 0.138785 1.000000
0.550647 0.285124 1.000000
0.572202 0.433886 1.000000
0.594099 0.584748 1.000000
0.615777 0.737390 1.000000
0.636645 0.891488 1.000000
0.656075 1.000000 1.000000
0.673408 1.000000 1.000000
0.687951 1.000000 1.000000
0.698978 1.000000 1.000000
0.705730 1.000000 1.000000
0.707414 1.000000 1.000000
0.703203 1.000000 1.000000
0.692238 1.000000 1.000000
0.673626 1.000000 1.000000
0.646440 1.000000 1.000000
0.609723 1.000000 1.000000
0.562480 1.000000 1.000000
0.503685 1.000000 1.000000
0.432279 1.000000 1.000000
0.347169 1.000000 1.000000
0.247229 1.000000 1.000000
0.131299 1.000000 1.000000
0.000000 1.000000 1.000000
0.000000 1.000000 1.000000
0.000000 1.000000 1.000000
0.000000 1.000000 1.000000
