lrplugin/MindfulLensFilmEngine.lrplugin/profiles/luts/harman_phoenix.cube
# Generated from ColorChecker fit
LUT_3D_SIZE 9
DOMAIN_MIN 0.0 0.0 0.0
DOMAIN_MAX 1.0 1.0 1.0
0.118866 0.007701 0.000000
0.022604 0.000000 0.052621
0.000000 0.000000 0.157053
0.026768 0.000000 0.262197
0.083479 0.054851 0.338975
0.133243 0.112846 0.338123
0.132870 0.137762 0.190191
0.030638 0.103370 0.000000
0.000000 0.000000 0.000000
0.154406 0.000000 0.000000
0.083051 0.000000 0.000000
0.079127 0.000000 0.000000
0.121090 0.000000 0.000000
0.178864 0.000000 0.000000
0.213841 0.011031 0.000000
0.178879 0.067305 0.000000
0.018303 0.070636 0.000000
0.000000 0.000000 0.000000
0.100885 0.000000 0.000000
0.053815 0.000000 0.000000
0.066873 0.000000 0.000000
0.114565 0.000000 0.000000
0.162863 0.024640 0.000000
0.169206 0.130522 0.000000
0.082501 0.211045 0.000000
0.000000 0.241320 0.000000
0.000000 0.196202 0.000000
0.000000 0.000000 0.000000
0.000000 0.000000 0.000000
0.001930 0.029171 0.051622
0.049284 0.151215 0.158018
0.078732 0.293924 0.289653
0.043762 0.433593 0.417647
0.000000 0.546259 0.492938
0.000000 0.607703 0.446272
0.000000 0.593450 0.188213
0.000000 0.053607 0.370487
0.000000 0.152540 0.482227
0.000000 0.310785 0.621453
0.000000 0.505820 0.806456
0.001162 0.714866 1.000000
0.000000 0.914888 1.000000
0.000000 1.000000 1.000000
0.000000 1.000000 1.000000
0.000000 1.000000 1.000000
0.000000 0.127292 0.904670
0.000000 0.370782 1.000000
0.034829 0.661919 1.000000
0.067976 0.978854 1.000000
0.036276 1.000000 1.000000
0.000000 1.000000 1.000000
0.000000 1.000000 1.000000
0.000000 1.000000 1.000000
0.000000 1.000000 1.000000
0.239419 0.146043 1.000000
0.306618 0.605339 1.000000
0.371676 1.000000 1.000000
0.393290 1.000000 1.000000
0.321628 1.000000 1.000000
0.098322 1.000000 1.000000
0.000000 1.000000 1.000000
0.000000 1.000000 1.000000
0.000000 1.000000 1.000000
0.948042 0.126598 1.000000
1.000000 0.887953 1.000000
1.000000 1.000000 1.000000
1.000000 1.000000 1.000000
1.000000 1.000000 1.000000
0.722545 1.000000 1.000000
0.160705 1.000000 1.000000
0.000000 1.000000 1.000000
0.000000 1.000000 1.000000
1.000000 0.118063 1.000000
1.000000 1.000000 1.000000
1.000000 1.000000 1.000000
1.000000 1.000000 1.000000
1.000000 1.000000 1.000000
1.000000 1.000000 1.000000
1.000000 1.000000 1.000000
0.191152 1.000000 1.000000
0.000000 1.000000 1.000000
0.200445 0.328341 0.367846
0.106064 0.231329 0.453329
0.097670 0.229580 0.562769
0.153584 0.290264 0.695833
0.243593 0.380291 0.832002
0.328953 0.466319 0.930571
0.362388 0.514744 0.930647
0.288087 0.491711 0.751151
0.041707 0.363104 0.290817
0.264089 0.235074 0.109736
0.186038 0.124953 0.150825
0.188554 0.109657 0.220064
0.246006 0.157026 0.323916
0.324231 0.234640 0.448658
0.380533 0.309827 0.560380
0.363683 0.349656 0.604986
0.213919 0.320938 0.508190
0.000000 0.190230 0.175523
0.263176 0.327626 0.102084
0.200840 0.218766 0.117918
0.210344 0.200624 0.166482
0.262108 0.241709 0.261038
0.318015 0.310274 0.394657
0.331419 0.374314 0.540224
0.247138 0.401568 0.650438
0.001460 0.359521 0.657810
0.000000 0.215397 0.474666
0.233370 0.458464 0.208487
0.187301 0.380239 0.235109
0.201042 0.384956 0.299433
0.241057 0.441792 0.421513
0.265281 0.519672 0.601217
0.223114 0.587261 0.818226
0.055426 0.612968 1.000000
0.000000 0.564948 1.000000
0.000000 0.411097 1.000000
0.241768 0.512426 0.309101
0.213687 0.509213 0.399462
0.230077 0.577494 0.532883
0.253452 0.687120 0.736214
0.237795 0.807683 1.000000
0.128554 0.908520 1.000000
0.000000 0.958711 1.000000
0.000000 0.927080 1.000000
0.000000 0.782192 1.000000
0.386897 0.406718 0.300641
0.379691 0.537896 0.524596
0.398313 0.725453 0.797358
0.401324 0.939909 1.000000
0.338755 1.000000 1.000000
0.152105 1.000000 1.000000
0.000000 1.000000 1.000000
0.000000 1.000000 1.000000
0.000000 1.000000 1.000000
0.798716 0.090917 0.096380
0.816442 0.430868 0.540691
0.838045 0.808414 1.000000
0.818136 1.000000 1.000000
0.702793 1.000000 1.000000
0.429564 1.000000 1.000000
0.000000 1.000000 1.000000
0.000000 1.000000 1.000000
0.000000 1.000000 1.000000
1.000000 0.000000 0.000000
1.000000 0.185079 0.394485
1.000000 0.838330 1.000000
1.000000 1.000000 1.000000
1.000000 1.000000 1.000000
1.000000 1.000000 1.000000
0.490419 1.000000 1.000000
0.000000 1.000000 1.000000
0.000000 1.000000 1.000000
1.000000 0.000000 0.000000
1.000000 0.000000 0.049275
1.000000 0.859521 1.000000
1.000000 1.000000 1.000000
1.000000 1.000000 1.000000
1.000000 1.000000 1.000000
1.000000 1.000000 1.000000
0.477787 1.000000 1.000000
0.000000 1.000000 1.000000
0.282259 0.426284 0.440594
0.189270 0.290622 0.493678
0.200284 0.280449 0.570381
0.289535 0.355307 0.678929
0.422723 0.474479 0.807361
0.557018 0.596992 0.923532
0.641054 0.681617 0.975106
0.614936 0.686869 0.889563
0.410231 0.571005 0.574196
0.346743 0.409505 0.296685
0.261376 0.239913 0.294995
0.273168 0.191921 0.321423
0.352401 0.225739 0.390990
0.460826 0.301322 0.498532
0.551660 0.378367 0.618697
0.569585 0.416316 0.705947
0.450755 0.374352 0.694556
0.122786 0.211405 0.498613
0.366717 0.571456 0.325369
0.288363 0.385438 0.291406
0.297020 0.313460 0.290447
0.359017 0.316403 0.344311
0.432152 0.354893 0.454628
0.465692 0.389296 0.602841
0.400369 0.379725 0.750208
0.168381 0.286033 0.837799
0.000000 0.067820 0.786497
0.374922 0.729814 0.358269
0.304142 0.559876 0.331439
0.306916 0.492749 0.342889
0.345624 0.489985 0.421231
0.374112 0.512880 0.574894
0.337694 0.522470 0.792114
0.173151 0.479538 1.000000
0.000000 0.344609 1.000000
0.000000 0.077951 1.000000
0.435530 0.734624 0.243566
0.374051 0.628275 0.280181
0.369365 0.609839 0.360739
0.379900 0.641539 0.520649
0.355550 0.685339 0.775134
0.237678 0.702949 1.000000
0.000000 0.655819 1.000000
0.000000 0.505146 1.000000
0.000000 0.211868 1.000000
0.644146 0.468302 0.000000
0.594864 0.488053 0.019277
0.582307 0.577151 0.242550
0.560951 0.698488 0.558022
0.476741 0.814700 0.987710
0.267085 0.888163 1.000000
0.000000 0.881002 1.000000
0.000000 0.755080 1.000000
0.000000 0.472008 1.000000
1.000000 0.000000 0.000000
1.000000 0.068998 0.000000
1.000000 0.339477 0.000000
1.000000 0.620628 0.465365
0.869391 0.875757 1.000000
0.558792 1.000000 1.000000
0.012445 1.000000 1.000000
0.000000 1.000000 1.000000
0.000000 0.893182 1.000000
1.000000 0.000000 0.000000
1.000000 0.000000 0.000000
1.000000 0.000000 0.000000
1.000000 0.400120 0.191253
1.000000 0.875677 1.000000
1.000000 1.000000 1.000000
0.579334 1.000000 1.000000
0.000000 1.000000 1.000000
0.000000 1.000000 1.000000
1.000000 0.000000 0.000000
1.000000 0.000000 0.000000
1.000000 0.000000 0.000000
1.000000 0.061497 0.000000
1.000000 0.853995 1.000000
1.000000 1.000000 1.000000
1.000000 1.000000 1.000000
0.483576 1.000000 1.000000
0.000000 1.000000 1.000000
0.371319 0.394013 0.355902
0.282477 0.231408 0.390083
0.319110 0.228755 0.432854
0.451367 0.337967 0.501001
0.640860 0.510699 0.591120
0.840672 0.698352 0.679624
0.995350 0.852068 0.722737
1.000000 0.922734 0.656497
0.904835 0.860978 0.396754
0.419460 0.434106 0.337358
0.329400 0.218626 0.304058
0.356549 0.155757 0.284152
0.467102 0.198081 0.301221
0.618722 0.297925 0.358658
0.760539 0.407359 0.439670
0.833148 0.478195 0.507277
0.768616 0.461990 0.504313
0.490472 0.310044 0.353423
0.438680 0.654745 0.441644
0.346801 0.407026 0.366725
0.360559 0.300907 0.310392
0.442197 0.289642 0.303022
0.545425 0.326225 0.354804
0.615422 0.363398 0.455739
0.588833 0.353644 0.575644
0.393771 0.249189 0.664146
0.000000 0.002004 0.650688
0.458797 0.838814 0.468405
0.365667 0.594496 0.394636
0.363295 0.477097 0.345033
0.409972 0.440542 0.356769
0.455457 0.438496 0.446827
0.440978 0.424370 0.612007
0.299227 0.351318 0.828918
0.000000 0.172236 1.000000
0.000000 0.000000 1.000000
0.541060 0.801567 0.233850
0.448414 0.611292 0.220903
0.428341 0.529586 0.238092
0.435180 0.511044 0.329383
0.414739 0.510003 0.518557
0.304294 0.480543 0.809208
0.032586 0.376488 1.000000
0.000000 0.151406 1.000000
0.000000 0.000000 1.000000
0.778149 0.390628 0.000000
0.688890 0.320040 0.000000
0.650713 0.336003 0.000000
0.614005 0.393781 0.104349
0.520623 0.448382 0.470383
0.303891 0.454556 0.964635
0.000000 0.366796 1.000000
0.000000 0.139342 1.000000
0.000000 0.000000 1.000000
1.000000 0.000000 0.000000
1.000000 0.000000 0.000000
1.000000 0.000000 0.000000
1.000000 0.013754 0.000000
0.901892 0.193637 0.219249
0.569719 0.301415 1.000000
0.000000 0.292253 1.000000
0.000000 0.121059 1.000000
0.000000 0.000000 1.000000
1.000000 0.000000 0.000000
1.000000 0.000000 0.000000
1.000000 0.000000 0.000000
1.000000 0.000000 0.000000
1.000000 0.000000 0.000000
1.000000 0.008499 0.902141
0.524489 0.155239 1.000000
0.000000 0.113940 1.000000
0.000000 0.000000 1.000000
1.000000 0.000000 0.000000
1.000000 0.000000 0.000000
1.000000 0.000000 0.000000
1.000000 0.000000 0.000000
1.000000 0.000000 0.000000
1.000000 0.000000 0.601600
1.000000 0.000000 1.000000
0.318883 0.167739 1.000000
0.000000 0.083251 1.000000
0.468833 0.308798 0.244558
0.390138 0.151156 0.309884
0.461848 0.192166 0.354080
0.650025 0.376113 0.402490
0.912194 0.647025 0.460271
1.000000 0.948673 0.512391
1.000000 1.000000 0.523635
1.000000 1.000000 0.438597
1.000000 1.000000 0.181688
0.493527 0.383367 0.332572
0.404643 0.155781 0.315381
0.456475 0.116055 0.282170
0.611131 0.209143 0.265078
0.822186 0.379742 0.276055
1.000000 0.572295 0.306869
1.000000 0.730987 0.329097
1.000000 0.799746 0.294130
1.000000 0.722244 0.133174
0.500432 0.649201 0.521750
0.400767 0.375441 0.451267
0.428822 0.275077 0.370261
0.542752 0.293736 0.317666
0.692181 0.376784 0.312230
0.818201 0.469334 0.352513
0.853369 0.516241 0.416890
0.721712 0.462103 0.463548
0.338721 0.251264 0.430487
0.516443 0.854393 0.579764
0.406571 0.573230 0.502118
0.408117 0.447332 0.419835
0.475283 0.422994 0.378644
0.553744 0.446255 0.404089
0.580638 0.462896 0.501525
0.484571 0.418443 0.656122
0.185618 0.258165 0.832864
0.000000 0.000000 0.976544
0.599884 0.779405 0.290846
0.481549 0.544614 0.269073
0.455021 0.443287 0.248936
0.470555 0.422389 0.282961
0.469871 0.428628 0.403487
0.386157 0.408458 0.622664
0.144067 0.308074 0.932458
0.000000 0.073415 1.000000
0.000000 0.000000 1.000000
0.840514 0.237067 0.000000
0.716625 0.117427 0.000000
0.661629 0.105779 0.000000
0.621828 0.149760 0.000000
0.534991 0.196748 0.178837
0.330354 0.193867 0.601249
0.000000 0.087983 1.000000
0.000000 0.000000 1.000000
0.000000 0.000000 1.000000
1.000000 0.000000 0.000000
1.000000 0.000000 0.000000
1.000000 0.000000 0.000000
1.000000 0.000000 0.000000
0.874964 0.000000 0.000000
0.540259 0.000000 0.339158
0.000000 0.000000 1.000000
0.000000 0.000000 1.000000
0.000000 0.000000 1.000000
1.000000 0.000000 0.000000
1.000000 0.000000 0.000000
1.000000 0.000000 0.000000
1.000000 0.000000 0.000000
1.000000 0.000000 0.000000
1.000000 0.000000 0.000000
0.417123 0.000000 1.000000
0.000000 0.000000 1.000000
0.000000 0.000000 1.000000
1.000000 0.000000 0.000000
1.000000 0.000000 0.000000
1.000000 0.000000 0.000000
1.000000 0.000000 0.000000
1.000000 0.000000 0.000000
1.000000 0.000000 0.000000
1.000000 0.000000 0.701713
0.088273 0.000000 1.000000
0.000000 0.000000 1.000000
0.570208 0.232689 0.188277
0.510904 0.132119 0.371347
0.630393 0.273138 0.488876
0.890648 0.592402 0.574765
1.000000 1.000000 0.642731
1.000000 1.000000 0.686301
1.000000 1.000000 0.678817
1.000000 1.000000 0.573433
1.000000 1.000000 0.303118
0.574431 0.316559 0.334067
0.495838 0.130852 0.417256
0.584924 0.172490 0.440319
0.799710 0.378800 0.443953
1.000000 0.686850 0.448668
1.000000 1.000000 0.454788
1.000000 1.000000 0.442450
1.000000 1.000000 0.371604
1.000000 1.000000 0.182014
0.567541 0.611317 0.587455
0.469072 0.367376 0.603350
0.523863 0.332865 0.564921
0.685983 0.445782 0.519660
0.900967 0.643865 0.494875
1.000000 0.864600 0.497684
1.000000 1.000000 0.515019
1.000000 1.000000 0.513627
0.901641 1.000000 0.440065
0.573506 0.830264 0.684139
0.455745 0.569993 0.682230
0.473517 0.497569 0.632189
0.576939 0.551658 0.588303
0.707598 0.670672 0.584673
0.798545 0.792764 0.635216
0.774299 0.855832 0.733657
0.550848 0.797517 0.853539
0.035645 0.555202 0.948215
0.647730 0.719070 0.376374
0.512426 0.499377 0.423061
0.491623 0.442277 0.428192
0.531486 0.487109 0.452854
0.569651 0.572952 0.537943
0.535216 0.638632 0.704168
0.348751 0.622715 0.952054
0.000000 0.463514 1.000000
0.000000 0.099082 1.000000
0.877047 0.055775 0.000000
0.727117 0.000000 0.000000
0.667350 0.000000 0.000000
0.639960 0.075182 0.000000
0.578630 0.188757 0.191121
0.408508 0.255258 0.557886
0.046210 0.213921 1.000000
0.000000 0.003728 1.000000
0.000000 0.000000 1.000000
1.000000 0.000000 0.000000
1.000000 0.000000 0.000000
1.000000 0.000000 0.000000
1.000000 0.000000 0.000000
0.857473 0.000000 0.000000
0.542524 0.000000 0.066271
0.000000 0.000000 0.885683
0.000000 0.000000 1.000000
0.000000 0.000000 1.000000
1.000000 0.000000 0.000000
1.000000 0.000000 0.000000
1.000000 0.000000 0.000000
1.000000 0.000000 0.000000
1.000000 0.000000 0.000000
1.000000 0.000000 0.000000
0.342672 0.000000 0.391090
0.000000 0.000000 1.000000
0.000000 0.000000 1.000000
1.000000 0.000000 0.000000
1.000000 0.000000 0.000000
1.000000 0.000000 0.000000
1.000000 0.000000 0.000000
1.000000 0.000000 0.000000
1.000000 0.000000 0.000000
1.000000 0.000000 0.000000
0.000000 0.000000 1.000000
0.000000 0.000000 1.000000
0.665047 0.212525 0.219701
0.637625 0.241335 0.643663
0.820839 0.558909 0.942983
1.000000 1.000000 1.000000
1.000000 1.000000 1.000000
1.000000 1.000000 1.000000
1.000000 1.000000 1.000000
1.000000 1.000000 1.000000
1.000000 1.000000 1.000000
0.661856 0.277741 0.344511
0.605913 0.208099 0.648901
0.748068 0.409523 0.834367
1.000000 0.811712 0.950165
1.000000 1.000000 1.000000
1.000000 1.000000 1.000000
1.000000 1.000000 1.000000
1.000000 1.000000 0.995257
1.000000 1.000000 0.795014
0.649768 0.582372 0.611452
0.564725 0.444311 0.832217
0.661937 0.555951 0.940166
0.891388 0.847661 0.991351
1.000000 1.000000 1.000000
1.000000 1.000000 1.000000
1.000000 1.000000 1.000000
1.000000 1.000000 1.000000
1.000000 1.000000 0.944522
0.649831 0.804927 0.724248
0.536277 0.643485 0.914242
0.585829 0.706708 0.997915
0.744519 0.925636 1.000000
0.949844 1.000000 1.000000
1.000000 1.000000 1.000000
1.000000 1.000000 1.000000
1.000000 1.000000 1.000000
0.688802 1.000000 1.000000
0.714522 0.656283 0.403179
0.574215 0.531500 0.632161
0.574559 0.602679 0.761707
0.657632 0.801527 0.861459
0.756982 1.000000 0.980873
0.797622 1.000000 1.000000
0.696032 1.000000 1.000000
0.360160 1.000000 1.000000
0.000000 1.000000 1.000000
0.927752 0.000000 0.000000
0.763617 0.000000 0.000000
0.714371 0.017116 0.002193
0.718142 0.263590 0.248938
0.704524 0.538153 0.536208
0.594579 0.772672 0.900068
0.300836 0.898756 1.000000
0.000000 0.847761 1.000000
0.000000 0.550781 1.000000
1.000000 0.000000 0.000000
1.000000 0.000000 0.000000
1.000000 0.000000 0.000000
1.000000 0.000000 0.000000
0.912482 0.000000 0.000000
0.642821 0.000000 0.229029
0.144489 0.000000 1.000000
0.000000 0.000000 1.000000
0.000000 0.000000 1.000000
1.000000 0.000000 0.000000
1.000000 0.000000 0.000000
1.000000 0.000000 0.000000
1.000000 0.000000 0.000000
1.000000 0.000000 0.000000
1.000000 0.000000 0.000000
0.380770 0.000000 0.240292
0.000000 0.000000 1.000000
0.000000 0.000000 1.000000
1.000000 0.000000 0.000000
1.000000 0.000000 0.000000
1.000000 0.000000 0.000000
1.000000 0.000000 0.000000
1.000000 0.000000 0.000000
1.000000 0.000000 0.000000
1.000000 0.000000 0.000000
0.000000 0.000000 0.963876
0.000000 0.000000 1.000000
0.737152 0.279926 0.322395
0.757346 0.530627 1.000000
1.000000 1.000000 1.000000
1.000000 1.000000 1.000000
1.000000 1.000000 1.000000
1.000000 1.000000 1.000000
1.000000 1.000000 1.000000
1.000000 1.000000 1.000000
1.000000 1.000000 1.000000
0.749684 0.295755 0.317495
0.731993 0.436563 1.000000
0.946279 0.896396 1.000000
1.000000 1.000000 1.000000
1.000000 1.000000 1.000000
1.000000 1.000000 1.000000
1.000000 1.000000 1.000000
1.000000 1.000000 1.000000
1.000000 1.000000 1.000000
0.751077 0.588428 0.517359
0.694931 0.652510 1.000000
0.853496 1.000000 1.000000
1.000000 1.000000 1.000000
1.000000 1.000000 1.000000
1.000000 1.000000 1.000000
1.000000 1.000000 1.000000
1.000000 1.000000 1.000000
1.000000 1.000000 1.000000
0.759457 0.801664 0.593735
0.665453 0.837189 1.000000
0.765586 1.000000 1.000000
1.000000 1.000000 1.000000
1.000000 1.000000 1.000000
1.000000 1.000000 1.000000
1.000000 1.000000 1.000000
1.000000 1.000000 1.000000
1.000000 1.000000 1.000000
0.824379 0.611547 0.234931
0.694281 0.681689 0.796595
0.734441 0.985397 1.000000
0.882849 1.000000 1.000000
1.000000 1.000000 1.000000
1.000000 1.000000 1.000000
1.000000 1.000000 1.000000
1.000000 1.000000 1.000000
0.481058 1.000000 1.000000
1.000000 0.000000 0.000000
0.863571 0.000000 0.000000
0.843383 0.290145 0.338868
0.900309 0.793310 0.773746
0.959854 1.000000 1.000000
0.938994 1.000000 1.000000
0.746172 1.000000 1.000000
0.281295 1.000000 1.000000
0.000000 1.000000 1.000000
1.000000 0.000000 0.000000
1.000000 0.000000 0.000000
1.000000 0.000000 0.000000
1.000000 0.000000 0.000000
1.000000 0.093979 0.067013
0.901658 0.667369 0.813909
0.487801 1.000000 1.000000
0.000000 1.000000 1.000000
0.000000 1.000000 1.000000
1.000000 0.000000 0.000000
1.000000 0.000000 0.000000
1.000000 0.000000 0.000000
1.000000 0.000000 0.000000
1.000000 0.000000 0.000000
1.000000 0.000000 0.000000
0.605246 0.000000 0.629788
0.000000 0.000000 1.000000
0.000000 0.000000 1.000000
1.000000 0.000000 0.000000
1.000000 0.000000 0.000000
1.000000 0.000000 0.000000
1.000000 0.000000 0.000000
1.000000 0.000000 0.000000
1.000000 0.000000 0.000000
1.000000 0.000000 0.000000
0.000000 0.000000 1.000000
0.000000 0.000000 1.000000
0.764523 0.451300 0.430852
0.851313 1.000000 1.000000
1.000000 1.000000 1.000000
1.000000 1.000000 1.000000
1.000000 1.000000 1.000000
1.000000 1.000000 1.000000
1.000000 1.000000 1.000000
1.000000 1.000000 1.000000
1.000000 1.000000 1.000000
0.825992 0.384228 0.157537
0.865404 0.850073 1.000000
1.000000 1.000000 1.000000
1.000000 1.000000 1.000000
1.000000 1.000000 1.000000
1.000000 1.000000 1.000000
1.000000 1.000000 1.000000
1.000000 1.000000 1.000000
1.000000 1.000000 1.000000
0.869626 0.640334 0.179719
0.861096 1.000000 1.000000
1.000000 1.000000 1.000000
1.000000 1.000000 1.000000
1.000000 1.000000 1.000000
1.000000 1.000000 1.000000
1.000000 1.000000 1.000000
1.000000 1.000000 1.000000
1.000000 1.000000 1.000000
0.910626 0.828543 0.137170
0.854758 1.000000 1.000000
1.000000 1.000000 1.000000
1.000000 1.000000 1.000000
1.000000 1.000000 1.000000
1.000000 1.000000 1.000000
1.000000 1.000000 1.000000
1.000000 1.000000 1.000000
1.000000 1.000000 1.000000
0.995623 0.590151 0.000000
0.894189 0.975433 0.767509
0.996077 1.000000 1.000000
1.000000 1.000000 1.000000
1.000000 1.000000 1.000000
1.000000 1.000000 1.000000
1.000000 1.000000 1.000000
1.000000 1.000000 1.000000
1.000000 1.000000 1.000000
1.000000 0.000000 0.000000
1.000000 0.099863 0.000000
1.000000 0.837033 0.623307
1.000000 1.000000 1.000000
1.000000 1.000000 1.000000
1.000000 1.000000 1.000000
1.000000 1.000000 1.000000
1.000000 1.000000 1.000000
0.422241 1.000000 1.000000
1.000000 0.000000 0.000000
1.000000 0.000000 0.000000
1.000000 0.000000 0.000000
1.000000 0.197267 0.000000
1.000000 1.000000 0.805501
1.000000 1.000000 1.000000
1.000000 1.000000 1.000000
0.473413 1.000000 1.000000
0.000000 1.000000 1.000000
1.000000 0.000000 0.000000
1.000000 0.000000 0.000000
1.000000 0.000000 0.000000
1.000000 0.000000 0.000000
1.000000 0.000000 0.000000
1.000000 0.045369 0.058661
1.000000 0.996773 1.000000
0.173866 1.000000 1.000000
0.000000 1.000000 1.000000
1.000000 0.000000 0.000000
1.000000 0.000000 0.000000
1.000000 0.000000 0.000000
1.000000 0.000000 0.000000
1.000000 0.000000 0.000000
1.000000 0.000000 0.000000
1.000000 0.000000 0.000000
0.394838 0.000000 1.000000
0.000000 0.000000 1.000000
