lrplugin/MindfulLensFilmEngine.lrplugin/profiles/luts/harman_phoenix.cube
# Generated from ColorChecker fit
LUT_3D_SIZE 5
DOMAIN_MIN 0.0 0.0 0.0
DOMAIN_MAX 1.0 1.0 1.0
0.118866 0.007701 0.000000
0.000000 0.000000 0.157053
0.083479 0.054851 0.338975
0.132870 0.137762 0.190191
0.000000 0.000000 0.000000
0.100885 0.000000 0.000000
0.066873 0.000000 0.000000
0.162863 0.024640 0.000000
0.082501 0.211045 0.000000
0.000000 0.196202 0.000000
0.000000 0.053607 0.370487
0.000000 0.310785 0.621453
0.001162 0.714866 1.000000
0.000000 1.000000 1.000000
0.000000 1.000000 1.000000
0.239419 0.146043 1.000000
0.371676 1.000000 1.000000
0.321628 1.000000 1.000000
0.000000 1.000000 1.000000
0.000000 1.000000 1.000000
1.000000 0.118063 1.000000
1.000000 1.000000 1.000000
1.000000 1.000000 1.000000
1.000000 1.000000 1.000000
0.000000 1.000000 1.000000
0.282259 0.426284 0.440594
0.200284 0.280449 0.570381
0.422723 0.474479 0.807361
0.641054 0.681617 0.975106
0.410231 0.571005 0.574196
0.366717 0.571456 0.325369
0.297020 0.313460 0.290447
0.432152 0.354893 0.454628
0.400369 0.379725 0.750208
0.000000 0.067820 0.786497
0.435530 0.734624 0.243566
0.369365 0.609839 0.360739
0.355550 0.685339 0.775134
0.000000 0.655819 1.000000
0.000000 0.211868 1.000000
1.000000 0.000000 0.000000
1.000000 0.339477 0.000000
0.869391 0.875757 1.000000
0.012445 1.000000 1.000000
0.000000 0.893182 1.000000
1.000000 0.000000 0.000000
1.000000 0.000000 0.000000
1.000000 0.853995 1.000000
1.000000 1.000000 1.000000
0.000000 1.000000 1.000000
0.468833 0.308798 0.244558
0.461848 0.192166 0.354080
0.912194 0.647025 0.460271
1.000000 1.000000 0.523635
1.000000 1.000000 0.181688
0.500432 0.649201 0.521750
0.428822 0.275077 0.370261
0.692181 0.376784 0.312230
0.853369 0.516241 0.416890
0.338721 0.251264 0.430487
0.599884 0.779405 0.290846
0.455021 0.443287 0.248936
0.469871 0.428628 0.403487
0.144067 0.308074 0.932458
0.000000 0.000000 1.000000
1.000000 0.000000 0.000000
1.000000 0.000000 0.000000
0.874964 0.000000 0.000000
0.000000 0.000000 1.000000
0.000000 0.000000 1.000000
1.000000 0.000000 0.000000
1.000000 0.000000 0.000000
1.000000 0.000000 0.000000
1.000000 0.000000 0.701713
0.000000 0.000000 1.000000
0.665047 0.212525 0.219701
0.820839 0.558909 0.942983
1.000000 1.000000 1.000000
1.000000 1.000000 1.000000
1.000000 1.000000 1.000000
0.649768 0.582372 0.611452
0.661937 0.555951 0.940166
1.000000 1.000000 1.000000
1.000000 1.000000 1.000000
1.000000 1.000000 0.944522
0.714522 0.656283 0.403179
0.574559 0.602679 0.761707
0.756982 1.000000 0.980873
0.696032 1.000000 1.000000
0.000000 1.000000 1.000000
1.000000 0.000000 0.000000
1.000000 0.000000 0.000000
0.912482 0.000000 0.000000
0.144489 0.000000 1.000000
0.000000 0.000000 1.000000
1.000000 0.000000 0.000000
1.000000 0.000000 0.000000
1.000000 0.000000 0.000000
1.000000 0.000000 0.000000
0.000000 0.000000 1.000000
0.764523 0.451300 0.430852
1.000000 1.000000 1.000000
1.000000 1.000000 1.000000
1.000000 1.000000 1.000000
1.000000 1.000000 1.000000
0.869626 0.640334 0.179719
1.000000 1.000000 1.000000
1.000000 1.000000 1.000000
1.000000 1.000000 1.000000
1.000000 1.000000 1.000000
0.995623 0.590151 0.000000
0.996077 1.000000 1.000000
1.000000 1.000000 1.000000
1.000000 1.000000 1.000000
1.000000 1.000000 1.000000
1.000000 0.000000 0.000000
1.000000 0.000000 0.000000
1.000000 1.000000 0.805501
1.000000 1.000000 1.000000
0.000000 1.000000 1.000000
1.000000 0.000000 0.000000
1.000000 0.000000 0.000000
1.000000 0.000000 0.000000
1.000000 0.000000 0.000000
0.000000 0.000000 1.000000
