lrplugin/MindfulLensFilmEngine.lrplugin/profiles/luts/kodak_color_plus_200_cc.cube
# Generated from ColorChecker fit
LUT_3D_SIZE 9
DOMAIN_MIN 0.0 0.0 0.0
DOMAIN_MAX 1.0 1.0 1.0
0.054069 0.000000 0.179372
0.009933 0.000000 0.300118
0.078771 0.025970 0.444041
0.261022 0.099310 0.581590
0.542331 0.185293 0.658999
0.893551 0.230989 0.598283
1.000000 0.146692 0.297244
1.000000 0.000000 0.000000
1.000000 0.000000 0.000000
0.000000 0.000000 0.012346
0.000000 0.072263 0.182636
0.000000 0.186206 0.376936
0.127054 0.285398 0.557244
0.321272 0.339568 0.661339
0.521670 0.281667 0.602787
0.673209 0.007866 0.270936
0.706058 0.000000 0.000000
0.535590 0.000000 0.000000
0.000000 0.000000 0.000000
0.000000 0.084410 0.063932
0.000000 0.274987 0.295037
0.000000 0.400920 0.503603
0.057266 0.417818 0.618960
0.099211 0.244511 0.546220
0.015458 0.000000 0.166280
0.000000 0.000000 0.000000
0.000000 0.000000 0.000000
0.000000 0.000000 0.000000
0.000000 0.094487 0.053168
0.000000 0.370324 0.303367
0.000000 0.525277 0.521557
0.000000 0.500832 0.628614
0.000000 0.201700 0.521199
0.000000 0.000000 0.071756
0.000000 0.000000 0.000000
0.000000 0.000000 0.000000
0.000000 0.000000 0.095220
0.000000 0.200341 0.321715
0.000000 0.571457 0.569164
0.000000 0.759098 0.774206
0.000000 0.690632 0.849266
0.000000 0.256647 0.682552
0.000000 0.000000 0.138057
0.000000 0.000000 0.000000
0.000000 0.000000 0.000000
0.102295 0.000000 0.902525
0.290328 0.521054 1.000000
0.419013 0.998856 1.000000
0.433303 1.000000 1.000000
0.263359 1.000000 1.000000
0.000000 0.533991 1.000000
0.000000 0.000000 0.578089
0.000000 0.000000 0.000000
0.000000 0.000000 0.000000
1.000000 0.336041 1.000000
1.000000 1.000000 1.000000
1.000000 1.000000 1.000000
1.000000 1.000000 1.000000
1.000000 1.000000 1.000000
0.680942 1.000000 1.000000
0.000000 0.000000 1.000000
0.000000 0.000000 0.209982
0.000000 0.000000 0.000000
1.000000 1.000000 1.000000
1.000000 1.000000 1.000000
1.000000 1.000000 1.000000
1.000000 1.000000 1.000000
1.000000 1.000000 1.000000
1.000000 1.000000 1.000000
1.000000 0.617123 1.000000
0.000000 0.000000 1.000000
0.000000 0.000000 0.000000
1.000000 1.000000 1.000000
1.000000 1.000000 1.000000
1.000000 1.000000 1.000000
1.000000 1.000000 1.000000
1.000000 1.000000 1.000000
1.000000 1.000000 1.000000
1.000000 1.000000 1.000000
1.000000 0.000000 1.000000
0.000000 0.000000 1.000000
0.346665 0.159030 0.236554
0.242385 0.047535 0.206339
0.272408 0.000000 0.241859
0.444818 0.000000 0.322933
0.752909 0.039730 0.405165
1.000000 0.140880 0.419943
1.000000 0.199389 0.274440
1.000000 0.103381 0.000000
1.000000 0.000000 0.000000
0.227465 0.212118 0.152578
0.167472 0.202715 0.187524
0.212228 0.202714 0.288568
0.358722 0.233229 0.427078
0.589147 0.278597 0.550204
0.870905 0.286378 0.580884
1.000000 0.167352 0.417837
1.000000 0.000000 0.000000
1.000000 0.000000 0.000000
0.074126 0.172006 0.062912
0.056995 0.277147 0.144305
0.113047 0.357655 0.291235
0.228172 0.420526 0.466614
0.373470 0.435976 0.609144
0.505243 0.337445 0.633308
0.565002 0.021591 0.429375
0.479465 0.000000 0.000000
0.160554 0.000000 0.000000
0.000000 0.112707 0.072125
0.000000 0.346232 0.177118
0.066356 0.514742 0.346157
0.148703 0.611112 0.533705
0.205448 0.591439 0.670011
0.181799 0.375042 0.661106
0.008169 0.000000 0.388807
0.000000 0.000000 0.000000
0.000000 0.000000 0.000000
0.035685 0.129462 0.347002
0.116160 0.506601 0.448607
0.200646 0.771996 0.611845
0.252841 0.904399 0.782725
0.221650 0.845789 0.883043
0.041180 0.501364 0.810380
0.000000 0.000000 0.438098
0.000000 0.000000 0.000000
0.000000 0.000000 0.000000
0.428402 0.338743 1.000000
0.571699 0.876118 1.000000
0.681403 1.000000 1.000000
0.710114 1.000000 1.000000
0.595638 1.000000 1.000000
0.260990 0.839832 1.000000
0.000000 0.000000 0.781429
0.000000 0.000000 0.000000
0.000000 0.000000 0.000000
1.000000 0.878250 1.000000
1.000000 1.000000 1.000000
1.000000 1.000000 1.000000
1.000000 1.000000 1.000000
1.000000 1.000000 1.000000
1.000000 1.000000 1.000000
0.177721 0.266826 1.000000
0.000000 0.000000 0.458956
0.000000 0.000000 0.000000
1.000000 1.000000 1.000000
1.000000 1.000000 1.000000
1.000000 1.000000 1.000000
1.000000 1.000000 1.000000
1.000000 1.000000 1.000000
1.000000 1.000000 1.000000
1.000000 1.000000 1.000000
0.000000 0.000000 1.000000
0.000000 0.000000 0.000000
1.000000 1.000000 1.000000
1.000000 1.000000 1.000000
1.000000 1.000000 1.000000
1.000000 1.000000 1.000000
1.000000 1.000000 1.000000
1.000000 1.000000 1.000000
1.000000 1.000000 1.000000
1.000000 0.000000 1.000000
0.000000 0.000000 1.000000
0.567185 0.328888 0.378697
0.395475 0.088040 0.208996
0.379298 0.000000 0.144957
0.534388 0.000000 0.175770
0.861682 0.000000 0.266410
1.000000 0.116443 0.357637
1.000000 0.344879 0.365996
1.000000 0.522478 0.183813
1.000000 0.515194 0.000000
0.459453 0.417038 0.328376
0.335681 0.273484 0.236853
0.338776 0.171708 0.250885
0.473372 0.147435 0.351211
0.729310 0.199610 0.494354
1.000000 0.290402 0.612622
1.000000 0.345200 0.614107
1.000000 0.252614 0.382684
1.000000 0.000000 0.000000
0.311563 0.406419 0.252992
0.232461 0.371474 0.214867
0.249545 0.346013 0.281266
0.356352 0.351640 0.424474
0.531626 0.373181 0.592563
0.739317 0.358684 0.709388
0.928583 0.219417 0.674589
1.000000 0.000000 0.363589
0.974498 0.000000 0.000000
0.199422 0.369825 0.248389
0.165759 0.456194 0.234747
0.195589 0.513405 0.323671
0.271351 0.548942 0.478994
0.360692 0.533509 0.640335
0.416466 0.401035 0.723097
0.376733 0.048667 0.618469
0.164759 0.000000 0.193421
0.000000 0.000000 0.000000
0.235930 0.401279 0.472623
0.252516 0.623059 0.450413
0.297887 0.770689 0.527884
0.343387 0.837535 0.660418
0.345566 0.780179 0.779181
0.246180 0.518430 0.791126
0.000000 0.000000 0.578986
0.000000 0.000000 0.001283
0.000000 0.000000 0.000000
0.570986 0.616035 1.000000
0.646668 0.988712 1.000000
0.714415 1.000000 1.000000
0.734475 1.000000 1.000000
0.652300 1.000000 1.000000
0.398551 0.833075 1.000000
0.000000 0.002958 0.751594
0.000000 0.000000 0.000000
0.000000 0.000000 0.000000
1.000000 1.000000 1.000000
1.000000 1.000000 1.000000
1.000000 1.000000 1.000000
1.000000 1.000000 1.000000
1.000000 1.000000 1.000000
1.000000 1.000000 1.000000
0.338561 0.396420 1.000000
0.000000 0.000000 0.378575
0.000000 0.000000 0.000000
1.000000 1.000000 1.000000
1.000000 1.000000 1.000000
1.000000 1.000000 1.000000
1.000000 1.000000 1.000000
1.000000 1.000000 1.000000
1.000000 1.000000 1.000000
1.000000 1.000000 1.000000
0.055746 0.000000 1.000000
0.000000 0.000000 0.000000
1.000000 1.000000 1.000000
1.000000 1.000000 1.000000
1.000000 1.000000 1.000000
1.000000 1.000000 1.000000
1.000000 1.000000 1.000000
1.000000 1.000000 1.000000
1.000000 1.000000 1.000000
1.000000 0.190529 1.000000
0.000000 0.000000 1.000000
0.741609 0.448801 0.514140
0.508838 0.115014 0.233476
0.452736 0.000000 0.095772
0.596683 0.000000 0.099589
0.949263 0.000000 0.219274
1.000000 0.241328 0.404957
1.000000 0.684702 0.582555
1.000000 1.000000 0.653766
1.000000 1.000000 0.496074
0.647026 0.564529 0.471953
0.462729 0.315165 0.279885
0.427318 0.141678 0.230200
0.553076 0.094400 0.313009
0.837490 0.186885 0.494205
1.000000 0.395910 0.715469
1.000000 0.661474 0.894262
1.000000 0.886795 0.923832
1.000000 0.938317 0.673212
0.501842 0.571269 0.383074
0.360904 0.416511 0.248755
0.339058 0.307073 0.255319
0.437487 0.279170 0.384422
0.642583 0.332234 0.593507
0.925941 0.428924 0.815800
1.000000 0.495115 0.960313
1.000000 0.419909 0.911841
1.000000 0.055626 0.530963
0.374453 0.540600 0.334619
0.275799 0.492016 0.223069
0.264429 0.451851 0.249973
0.330429 0.442196 0.388537
0.449093 0.448366 0.587750
0.580920 0.418897 0.772388
0.671617 0.265545 0.843009
0.652097 0.000000 0.675957
0.438479 0.000000 0.123358
0.370248 0.565326 0.475918
0.316843 0.635879 0.348020
0.316900 0.671599 0.355221
0.349410 0.680457 0.462275
0.378568 0.633648 0.609722
0.353777 0.465587 0.713882
0.209647 0.073912 0.666863
0.000000 0.000000 0.336557
0.000000 0.000000 0.000000
0.631617 0.759485 1.000000
0.630464 0.963525 0.831014
0.646938 1.000000 0.774332
0.648934 1.000000 0.804772
0.589550 1.000000 0.854420
0.407093 0.689984 0.831145
0.025075 0.042594 0.618602
0.000000 0.000000 0.076231
0.000000 0.000000 0.000000
1.000000 1.000000 1.000000
1.000000 1.000000 1.000000
1.000000 1.000000 1.000000
1.000000 1.000000 1.000000
1.000000 1.000000 1.000000
0.940448 1.000000 1.000000
0.321520 0.315199 0.947165
0.000000 0.000000 0.139783
0.000000 0.000000 0.000000
1.000000 1.000000 1.000000
1.000000 1.000000 1.000000
1.000000 1.000000 1.000000
1.000000 1.000000 1.000000
1.000000 1.000000 1.000000
1.000000 1.000000 1.000000
1.000000 1.000000 1.000000
0.009254 0.000000 0.834229
0.000000 0.000000 0.000000
1.000000 1.000000 1.000000
1.000000 1.000000 1.000000
1.000000 1.000000 1.000000
1.000000 1.000000 1.000000
1.000000 1.000000 1.000000
1.000000 1.000000 1.000000
1.000000 1.000000 1.000000
1.000000 0.066132 1.000000
0.000000 0.000000 0.350871
0.865037 0.492668 0.573011
0.591233 0.120249 0.226960
0.515139 0.000000 0.058537
0.667779 0.000000 0.075674
1.000000 0.087423 0.262091
1.000000 0.578903 0.577288
1.000000 1.000000 0.956553
1.000000 1.000000 1.000000
1.000000 1.000000 1.000000
0.800406 0.647011 0.537314
0.572492 0.338076 0.287676
0.515391 0.140835 0.214621
0.649029 0.120228 0.317629
0.978540 0.304419 0.571966
1.000000 0.684794 0.928683
1.000000 1.000000 1.000000
1.000000 1.000000 1.000000
1.000000 1.000000 1.000000
0.670303 0.677503 0.431037
0.481320 0.441097 0.240901
0.434240 0.287570 0.225376
0.537891 0.267742 0.375491
0.786311 0.395656 0.658059
1.000000 0.648578 1.000000
1.000000 0.966994 1.000000
1.000000 1.000000 1.000000
1.000000 1.000000 1.000000
0.535613 0.654502 0.332571
0.382642 0.501062 0.160889
0.340649 0.395336 0.160921
0.407369 0.374026 0.315243
0.565741 0.437054 0.582217
0.783910 0.547565 0.895989
1.000000 0.631925 1.000000
1.000000 0.579723 1.000000
1.000000 0.243768 1.000000
0.494217 0.669597 0.382519
0.378377 0.610949 0.184108
0.340579 0.558503 0.153586
0.367461 0.534841 0.265080
0.430865 0.525764 0.468498
0.487840 0.480296 0.689534
0.480642 0.310686 0.829666
0.336733 0.000000 0.766157
0.000000 0.000000 0.352053
0.680993 0.835607 0.783698
0.607441 0.884968 0.509238
0.576984 0.892670 0.397918
0.565161 0.867175 0.415411
0.532717 0.780164 0.503174
0.425605 0.566542 0.578450
0.174983 0.124435 0.534264
0.000000 0.000000 0.239426
0.000000 0.000000 0.000000
1.000000 1.000000 1.000000
1.000000 1.000000 1.000000
1.000000 1.000000 1.000000
1.000000 1.000000 1.000000
1.000000 1.000000 0.934731
0.789273 0.947302 0.807087
0.294360 0.215563 0.520496
0.000000 0.000000 0.000000
0.000000 0.000000 0.000000
1.000000 1.000000 1.000000
1.000000 1.000000 1.000000
1.000000 1.000000 1.000000
1.000000 1.000000 1.000000
1.000000 1.000000 1.000000
1.000000 1.000000 1.000000
1.000000 0.747690 1.000000
0.000000 0.000000 0.152121
0.000000 0.000000 0.000000
1.000000 1.000000 1.000000
1.000000 1.000000 1.000000
1.000000 1.000000 1.000000
1.000000 1.000000 1.000000
1.000000 1.000000 1.000000
1.000000 1.000000 1.000000
1.000000 1.000000 1.000000
1.000000 0.000000 1.000000
0.000000 0.000000 0.000000
0.901693 0.414110 0.507236
0.620545 0.075260 0.158423
0.558049 0.000000 0.019277
0.752876 0.001105 0.107103
1.000000 0.416362 0.414989
1.000000 1.000000 0.911809
1.000000 1.000000 1.000000
1.000000 1.000000 1.000000
1.000000 1.000000 1.000000
0.898935 0.636629 0.500258
0.657975 0.332253 0.253077
0.609655 0.177107 0.214048
0.781548 0.250742 0.392023
1.000000 0.595930 0.771640
1.000000 1.000000 1.000000
1.000000 1.000000 1.000000
1.000000 1.000000 1.000000
1.000000 1.000000 1.000000
0.811407 0.715785 0.396556
0.601831 0.453793 0.208029
0.556870 0.313956 0.225213
0.693002 0.361703 0.448508
1.000000 0.625687 0.854099
1.000000 1.000000 1.000000
1.000000 1.000000 1.000000
1.000000 1.000000 1.000000
1.000000 1.000000 1.000000
0.692484 0.720719 0.265794
0.509528 0.510413 0.088807
0.461149 0.388837 0.114164
0.552728 0.407301 0.333813
0.774851 0.580337 0.715487
1.000000 0.885698 1.000000
1.000000 1.000000 1.000000
1.000000 1.000000 1.000000
1.000000 1.000000 1.000000
0.632536 0.741803 0.239849
0.475475 0.593874 0.023152
0.420941 0.494903 0.004507
0.463216 0.482078 0.167408
0.581792 0.555813 0.471137
0.741361 0.679738 0.850759
0.891828 0.780711 1.000000
0.968299 0.748806 1.000000
0.891090 0.437323 1.000000
0.758931 0.890638 0.512811
0.631078 0.817168 0.201019
0.571689 0.746534 0.082059
0.563950 0.701806 0.130975
0.576253 0.669276 0.298595
0.562196 0.598454 0.511532
0.460585 0.402078 0.672184
0.195430 0.000000 0.658731
0.000000 0.000000 0.325141
1.000000 1.000000 1.000000
1.000000 1.000000 0.874574
1.000000 1.000000 0.594852
1.000000 1.000000 0.468408
0.938754 1.000000 0.437618
0.750372 0.781629 0.420644
0.393972 0.269633 0.311432
0.000000 0.000000 0.000000
0.000000 0.000000 0.000000
1.000000 1.000000 1.000000
1.000000 1.000000 1.000000
1.000000 1.000000 1.000000
1.000000 1.000000 1.000000
1.000000 1.000000 1.000000
1.000000 1.000000 0.875932
0.917582 0.545779 0.428566
0.000000 0.000000 0.000000
0.000000 0.000000 0.000000
1.000000 1.000000 1.000000
1.000000 1.000000 1.000000
1.000000 1.000000 1.000000
1.000000 1.000000 1.000000
1.000000 1.000000 1.000000
1.000000 1.000000 1.000000
1.000000 1.000000 1.000000
0.991784 0.000000 0.199456
0.000000 0.000000 0.000000
0.784927 0.146465 0.290530
0.543779 0.000000 0.018633
0.542130 0.000000 0.000000
0.826297 0.231614 0.218745
1.000000 0.926914 0.719889
1.000000 1.000000 1.000000
1.000000 1.000000 1.000000
1.000000 1.000000 1.000000
1.000000 1.000000 1.000000
0.891083 0.485244 0.358377
0.681302 0.267452 0.190730
0.685894 0.238146 0.260176
0.940078 0.491487 0.584937
1.000000 1.000000 1.000000
1.000000 1.000000 1.000000
1.000000 1.000000 1.000000
1.000000 1.000000 1.000000
1.000000 1.000000 1.000000
0.888742 0.656501 0.301097
0.699681 0.442878 0.188657
0.697853 0.392405 0.310399
0.907380 0.585122 0.676093
1.000000 1.000000 1.000000
1.000000 1.000000 1.000000
1.000000 1.000000 1.000000
1.000000 1.000000 1.000000
1.000000 1.000000 1.000000
0.823771 0.728161 0.179629
0.648821 0.526873 0.069216
0.631951 0.457050 0.189148
0.786187 0.584612 0.540743
1.000000 0.938699 1.000000
1.000000 1.000000 1.000000
1.000000 1.000000 1.000000
1.000000 1.000000 1.000000
1.000000 1.000000 1.000000
0.779031 0.789377 0.117124
0.615621 0.609980 0.000000
0.579126 0.524017 0.011301
0.671476 0.583284 0.289631
0.879805 0.802802 0.755061
1.000000 1.000000 1.000000
1.000000 1.000000 1.000000
1.000000 1.000000 1.000000
1.000000 1.000000 1.000000
0.874378 0.950532 0.298945
0.723977 0.803975 0.016501
0.667314 0.706468 0.000000
0.695220 0.695691 0.095710
0.783735 0.772542 0.401977
0.894102 0.901144 0.808737
0.972773 1.000000 1.000000
0.951407 0.986196 1.000000
0.746867 0.686997 1.000000
1.000000 1.000000 0.972668
1.000000 1.000000 0.507896
1.000000 1.000000 0.256402
1.000000 1.000000 0.194150
0.994559 0.985094 0.272887
0.916100 0.871231 0.420146
0.726365 0.629250 0.539244
0.345918 0.135597 0.509280
0.000000 0.000000 0.185141
1.000000 1.000000 1.000000
1.000000 1.000000 1.000000
1.000000 1.000000 1.000000
1.000000 1.000000 0.882331
1.000000 1.000000 0.661036
1.000000 1.000000 0.475366
0.997837 0.621195 0.220184
0.255778 0.000000 0.000000
0.000000 0.000000 0.000000
1.000000 1.000000 1.000000
1.000000 1.000000 1.000000
1.000000 1.000000 1.000000
1.000000 1.000000 1.000000
1.000000 1.000000 1.000000
1.000000 1.000000 1.000000
1.000000 1.000000 0.617767
0.940106 0.000000 0.000000
0.000000 0.000000 0.000000
0.417212 0.000000 0.000000
0.277067 0.000000 0.000000
0.397173 0.000000 0.000000
0.831491 0.515220 0.457263
1.000000 1.000000 1.000000
1.000000 1.000000 1.000000
1.000000 1.000000 1.000000
1.000000 1.000000 1.000000
1.000000 1.000000 1.000000
0.694439 0.124439 0.131057
0.573724 0.093149 0.137073
0.689017 0.291322 0.406492
1.000000 0.827726 0.966908
1.000000 1.000000 1.000000
1.000000 1.000000 1.000000
1.000000 1.000000 1.000000
1.000000 1.000000 1.000000
1.000000 1.000000 1.000000
0.835019 0.449758 0.187922
0.721240 0.376351 0.243098
0.817215 0.508810 0.558296
1.000000 0.941783 1.000000
1.000000 1.000000 1.000000
1.000000 1.000000 1.000000
1.000000 1.000000 1.000000
1.000000 1.000000 1.000000
1.000000 1.000000 1.000000
0.877305 0.645456 0.141214
0.762009 0.536963 0.186303
0.828200 0.604392 0.487109
1.000000 0.928269 1.000000
1.000000 1.000000 1.000000
1.000000 1.000000 1.000000
1.000000 1.000000 1.000000
1.000000 1.000000 1.000000
1.000000 1.000000 1.000000
0.896650 0.799470 0.105356
0.775421 0.664313 0.076977
0.805400 0.668784 0.299082
0.996162 0.879290 0.773910
1.000000 1.000000 1.000000
1.000000 1.000000 1.000000
1.000000 1.000000 1.000000
1.000000 1.000000 1.000000
1.000000 1.000000 1.000000
1.000000 1.000000 0.256986
0.877863 0.868957 0.087621
0.869241 0.813934 0.162581
0.978013 0.908184 0.475654
1.000000 1.000000 0.996411
1.000000 1.000000 1.000000
1.000000 1.000000 1.000000
1.000000 1.000000 1.000000
1.000000 1.000000 1.000000
1.000000 1.000000 0.834954
1.000000 1.000000 0.452949
1.000000 1.000000 0.308184
1.000000 1.000000 0.385996
1.000000 1.000000 0.647502
1.000000 1.000000 1.000000
1.000000 1.000000 1.000000
1.000000 1.000000 1.000000
0.938322 1.000000 1.000000
1.000000 1.000000 1.000000
1.000000 1.000000 1.000000
1.000000 1.000000 1.000000
1.000000 1.000000 0.793589
1.000000 1.000000 0.717278
1.000000 1.000000 0.728198
1.000000 1.000000 0.730585
0.915918 0.554374 0.604460
0.113032 0.000000 0.205627
1.000000 1.000000 1.000000
1.000000 1.000000 1.000000
1.000000 1.000000 1.000000
1.000000 1.000000 1.000000
1.000000 1.000000 1.000000
1.000000 1.000000 1.000000
1.000000 1.000000 0.613398
1.000000 0.202450 0.000000
0.000000 0.000000 0.000000
0.000000 0.000000 0.000000
0.000000 0.000000 0.000000
0.022090 0.000000 0.076513
0.681027 0.798385 0.891116
1.000000 1.000000 1.000000
1.000000 1.000000 1.000000
1.000000 1.000000 1.000000
1.000000 1.000000 1.000000
1.000000 1.000000 1.000000
0.195721 0.000000 0.000000
0.235615 0.000000 0.150335
0.533055 0.283723 0.728277
1.000000 1.000000 1.000000
1.000000 1.000000 1.000000
1.000000 1.000000 1.000000
1.000000 1.000000 1.000000
1.000000 1.000000 1.000000
1.000000 1.000000 1.000000
0.552071 0.025381 0.122084
0.582000 0.201931 0.453456
0.844107 0.628783 1.000000
1.000000 1.000000 1.000000
1.000000 1.000000 1.000000
1.000000 1.000000 1.000000
1.000000 1.000000 1.000000
1.000000 1.000000 1.000000
1.000000 1.000000 1.000000
0.770039 0.420954 0.239476
0.779704 0.506927 0.546048
0.994166 0.814997 1.000000
1.000000 1.000000 1.000000
1.000000 1.000000 1.000000
1.000000 1.000000 1.000000
1.000000 1.000000 1.000000
1.000000 1.000000 1.000000
1.000000 1.000000 1.000000
0.917465 0.738954 0.317348
0.900607 0.741638 0.529674
1.000000 0.931865 1.000000
1.000000 1.000000 1.000000
1.000000 1.000000 1.000000
1.000000 1.000000 1.000000
1.000000 1.000000 1.000000
1.000000 1.000000 1.000000
1.000000 1.000000 1.000000
1.000000 1.000000 0.523613
1.000000 1.000000 0.568108
1.000000 1.000000 0.878730
1.000000 1.000000 1.000000
1.000000 1.000000 1.000000
1.000000 1.000000 1.000000
1.000000 1.000000 1.000000
1.000000 1.000000 1.000000
1.000000 1.000000 1.000000
1.000000 1.000000 1.000000
1.000000 1.000000 0.887337
1.000000 1.000000 0.944855
1.000000 1.000000 1.000000
1.000000 1.000000 1.000000
1.000000 1.000000 1.000000
1.000000 1.000000 1.000000
1.000000 1.000000 1.000000
1.000000 1.000000 1.000000
1.000000 1.000000 1.000000
1.000000 1.000000 1.000000
1.000000 1.000000 1.000000
1.000000 1.000000 1.000000
1.000000 1.000000 1.000000
1.000000 1.000000 1.000000
1.000000 1.000000 1.000000
1.000000 1.000000 1.000000
1.000000 1.000000 1.000000
1.000000 1.000000 1.000000
1.000000 1.000000 1.000000
1.000000 1.000000 1.000000
1.000000 1.000000 1.000000
1.000000 1.000000 1.000000
1.000000 1.000000 1.000000
1.000000 1.000000 1.000000
1.000000 1.000000 1.000000
1.000000 0.277292 0.791229
