lrplugin/MindfulLensFilmEngine.lrplugin/profiles/luts/kodachrome_25.cube
# Generated from ColorChecker fit
LUT_3D_SIZE 9
DOMAIN_MIN 0.0 0.0 0.0
DOMAIN_MAX 1.0 1.0 1.0
0.000000 0.000000 0.087749
0.000000 0.000000 0.184587
0.002729 0.000000 0.333279
0.112905 0.110317 0.500371
0.244337 0.246434 0.644438
0.351118 0.295550 0.716082
0.365700 0.129663 0.657931
0.198890 0.000000 0.404640
0.000000 0.000000 0.000000
0.000000 0.000000 0.000000
0.000000 0.059018 0.040420
0.000000 0.161266 0.203421
0.101798 0.280741 0.387046
0.204301 0.382925 0.547884
0.250574 0.384411 0.634551
0.167158 0.152894 0.587691
0.000000 0.000000 0.339972
0.000000 0.000000 0.000000
0.000000 0.120081 0.000000
0.000000 0.219737 0.000000
0.000000 0.314705 0.153742
0.024298 0.415058 0.361987
0.092116 0.481978 0.545262
0.070402 0.427755 0.650199
0.000000 0.115784 0.615453
0.000000 0.000000 0.371710
0.000000 0.000000 0.000000
0.000000 0.245997 0.000000
0.000000 0.365724 0.000000
0.000000 0.466477 0.172893
0.000000 0.554029 0.412711
0.000000 0.585259 0.622956
0.000000 0.468155 0.748273
0.000000 0.061810 0.725332
0.000000 0.000000 0.482832
0.000000 0.000000 0.000000
0.000000 0.369356 0.000000
0.000000 0.529873 0.000000
0.000000 0.650384 0.264365
0.000000 0.732360 0.541575
0.000000 0.728379 0.782186
0.000000 0.542126 0.928858
0.000000 0.028393 0.916277
0.000000 0.000000 0.671156
0.000000 0.000000 0.112235
0.000000 0.516096 0.000000
0.028167 0.739026 0.132508
0.181173 0.894173 0.446483
0.263690 0.978704 0.765768
0.221903 0.940897 1.000000
0.000000 0.680133 1.000000
0.000000 0.046904 1.000000
0.000000 0.000000 0.949335
0.000000 0.000000 0.365403
0.389557 0.706098 0.054243
0.637262 1.000000 0.382930
0.824193 1.000000 0.752411
0.912269 1.000000 1.000000
0.841768 1.000000 1.000000
0.531324 0.906585 1.000000
0.000000 0.142656 1.000000
0.000000 0.000000 1.000000
0.000000 0.000000 0.727361
1.000000 0.953192 0.400982
1.000000 1.000000 0.800327
1.000000 1.000000 1.000000
1.000000 1.000000 1.000000
1.000000 1.000000 1.000000
1.000000 1.000000 1.000000
0.885808 0.334911 1.000000
0.000000 0.000000 1.000000
0.000000 0.000000 1.000000
1.000000 1.000000 0.972546
1.000000 1.000000 1.000000
1.000000 1.000000 1.000000
1.000000 1.000000 1.000000
1.000000 1.000000 1.000000
1.000000 1.000000 1.000000
1.000000 0.636876 1.000000
1.000000 0.000000 1.000000
0.000000 0.000000 1.000000
0.154930 0.000000 0.213530
0.111313 0.000000 0.229636
0.135335 0.000000 0.314437
0.226274 0.099355 0.441050
0.361764 0.226730 0.574618
0.497795 0.302232 0.672313
0.568717 0.204905 0.683332
0.487236 0.000000 0.548899
0.144416 0.000000 0.202266
0.144415 0.121025 0.124774
0.133640 0.147989 0.151571
0.177460 0.193498 0.249558
0.269239 0.278974 0.389867
0.380704 0.376948 0.535654
0.461935 0.411057 0.642106
0.441372 0.256044 0.656434
0.225811 0.000000 0.517878
0.000000 0.000000 0.157703
0.072636 0.278566 0.074849
0.092842 0.307668 0.122800
0.152876 0.349483 0.242015
0.240193 0.421131 0.401639
0.320609 0.490840 0.562845
0.338295 0.477946 0.678833
0.215780 0.252891 0.694829
0.000000 0.000000 0.548086
0.000000 0.000000 0.167884
0.004008 0.394644 0.053887
0.056235 0.448165 0.132321
0.131801 0.501820 0.279671
0.212253 0.568428 0.463097
0.257495 0.611915 0.641788
0.205791 0.547313 0.766956
0.000000 0.240763 0.781842
0.000000 0.000000 0.621714
0.000000 0.000000 0.213867
0.027229 0.503091 0.066860
0.115415 0.604218 0.183969
0.208731 0.686154 0.365227
0.282815 0.757415 0.575808
0.291662 0.777626 0.772913
0.167623 0.657517 0.905770
0.000000 0.258927 0.915636
0.000000 0.000000 0.735791
0.000000 0.000000 0.291545
0.255276 0.631687 0.133574
0.386261 0.804512 0.296418
0.502447 0.932074 0.516222
0.573561 1.000000 0.756174
0.547688 1.000000 0.971490
0.351271 0.840864 1.000000
0.000000 0.340594 1.000000
0.000000 0.000000 0.902183
0.000000 0.000000 0.411651
0.825409 0.802157 0.288674
1.000000 1.000000 0.503178
1.000000 1.000000 0.765032
1.000000 1.000000 1.000000
1.000000 1.000000 1.000000
0.908496 1.000000 1.000000
0.331523 0.512921 1.000000
0.000000 0.000000 1.000000
0.000000 0.000000 0.599751
1.000000 1.000000 0.581642
1.000000 1.000000 0.852597
1.000000 1.000000 1.000000
1.000000 1.000000 1.000000
1.000000 1.000000 1.000000
1.000000 1.000000 1.000000
1.000000 0.797013 1.000000
0.153136 0.000000 1.000000
0.000000 0.000000 0.896252
1.000000 1.000000 1.000000
1.000000 1.000000 1.000000
1.000000 1.000000 1.000000
1.000000 1.000000 1.000000
1.000000 1.000000 1.000000
1.000000 1.000000 1.000000
1.000000 1.000000 1.000000
1.000000 0.000000 1.000000
0.000000 0.000000 1.000000
0.310594 0.000000 0.298653
0.204165 0.000000 0.250075
0.184445 0.000000 0.282372
0.252606 0.036251 0.375232
0.388181 0.143450 0.500367
0.549061 0.228363 0.621516
0.671490 0.177082 0.694448
0.670074 0.000000 0.666955
0.437774 0.000000 0.478858
0.328480 0.230721 0.252018
0.253439 0.186517 0.213396
0.252863 0.171012 0.256431
0.322018 0.212677 0.358822
0.434526 0.291088 0.490297
0.542367 0.336928 0.612612
0.575877 0.231986 0.679546
0.443751 0.000000 0.636908
0.033041 0.000000 0.422533
0.281212 0.384026 0.228775
0.234430 0.339922 0.208106
0.248151 0.320392 0.267452
0.311730 0.349603 0.382530
0.392881 0.402830 0.521079
0.437671 0.406454 0.642870
0.370530 0.237963 0.699698
0.094241 0.000000 0.635385
0.000000 0.000000 0.385781
0.231438 0.488269 0.218270
0.212688 0.469014 0.222415
0.238757 0.463461 0.302515
0.293092 0.491474 0.432297
0.337495 0.524027 0.577520
0.312125 0.483198 0.695965
0.135500 0.242174 0.737443
0.000000 0.000000 0.643791
0.000000 0.000000 0.348872
0.266088 0.579125 0.224685
0.278043 0.610374 0.259372
0.317414 0.637705 0.363530
0.361735 0.676682 0.508904
0.366900 0.693976 0.659263
0.267159 0.607363 0.770406
0.000000 0.285728 0.790156
0.000000 0.000000 0.658366
0.000000 0.000000 0.306912
0.496375 0.686217 0.267040
0.544609 0.794530 0.336861
0.601132 0.874559 0.467250
0.637572 0.937567 0.627965
0.603910 0.945921 0.780791
0.428488 0.813098 0.879539
0.018003 0.403680 0.870049
0.000000 0.000000 0.690187
0.000000 0.000000 0.269845
1.000000 0.833112 0.379191
1.000000 1.000000 0.487605
1.000000 1.000000 0.645261
1.000000 1.000000 0.819934
1.000000 1.000000 0.971421
0.946106 1.000000 1.000000
0.417044 0.625029 1.000000
0.000000 0.000000 0.765170
0.000000 0.000000 0.262450
1.000000 1.000000 0.609833
1.000000 1.000000 0.759163
1.000000 1.000000 0.943989
1.000000 1.000000 1.000000
1.000000 1.000000 1.000000
1.000000 1.000000 1.000000
1.000000 0.972723 1.000000
0.252035 0.000000 0.924068
0.000000 0.000000 0.324345
1.000000 1.000000 1.000000
1.000000 1.000000 1.000000
1.000000 1.000000 1.000000
1.000000 1.000000 1.000000
1.000000 1.000000 1.000000
1.000000 1.000000 1.000000
1.000000 1.000000 1.000000
1.000000 0.117891 1.000000
0.000000 0.000000 0.509986
0.441675 0.077271 0.331954
0.287125 0.009776 0.250754
0.237920 0.000000 0.257949
0.297132 0.001571 0.339796
0.446191 0.091603 0.474577
0.644885 0.183398 0.632600
0.831358 0.170093 0.776202
0.922112 0.000000 0.859745
0.812008 0.000000 0.829621
0.480139 0.329096 0.310475
0.351575 0.229432 0.237171
0.316917 0.163085 0.251328
0.373329 0.165569 0.337217
0.496332 0.223507 0.471134
0.639803 0.274629 0.621403
0.735976 0.207771 0.748374
0.695445 0.000000 0.804425
0.407158 0.000000 0.733960
0.447489 0.480004 0.299423
0.340515 0.374484 0.239544
0.314290 0.299861 0.263772
0.360068 0.287347 0.354390
0.447457 0.319263 0.485711
0.524427 0.329038 0.624071
0.517303 0.201205 0.727836
0.330766 0.000000 0.747398
0.000000 0.000000 0.625175
0.404605 0.573568 0.287355
0.317729 0.489410 0.245297
0.296723 0.426980 0.281569
0.326930 0.413193 0.376470
0.372051 0.426066 0.502326
0.374143 0.394724 0.623489
0.253623 0.199401 0.696338
0.000000 0.000000 0.669279
0.000000 0.000000 0.482746
0.436653 0.647309 0.277666
0.371282 0.612633 0.256689
0.355180 0.583774 0.305845
0.367782 0.583342 0.403448
0.366878 0.585054 0.519836
0.288616 0.513733 0.617378
0.047502 0.245310 0.650466
0.000000 0.000000 0.565522
0.000000 0.000000 0.300992
0.653077 0.732689 0.288588
0.613518 0.776525 0.290818
0.604907 0.803518 0.352563
0.600770 0.831977 0.450151
0.552985 0.831316 0.551935
0.391793 0.722056 0.618298
0.025788 0.375828 0.601647
0.000000 0.000000 0.446416
0.000000 0.000000 0.089069
1.000000 0.855122 0.353189
1.000000 1.000000 0.379617
1.000000 1.000000 0.452522
1.000000 1.000000 0.546244
1.000000 1.000000 0.627153
0.831902 1.000000 0.653644
0.339610 0.621800 0.576140
0.000000 0.000000 0.337089
0.000000 0.000000 0.000000
1.000000 1.000000 0.519376
1.000000 1.000000 0.569859
1.000000 1.000000 0.651360
1.000000 1.000000 0.736232
1.000000 1.000000 0.788859
1.000000 1.000000 0.765651
1.000000 1.000000 0.615045
0.128539 0.000000 0.277505
0.000000 0.000000 0.000000
1.000000 1.000000 0.849891
1.000000 1.000000 0.923153
1.000000 1.000000 1.000000
1.000000 1.000000 1.000000
1.000000 1.000000 1.000000
1.000000 1.000000 1.000000
1.000000 1.000000 0.774298
1.000000 0.367169 0.322465
0.000000 0.000000 0.000000
0.566638 0.160222 0.313345
0.396026 0.079765 0.247600
0.348965 0.025666 0.273110
0.430425 0.044791 0.382699
0.623734 0.135109 0.561220
0.890578 0.245699 0.785549
1.000000 0.276744 1.000000
1.000000 0.079537 1.000000
1.000000 0.000000 1.000000
0.625819 0.425447 0.306485
0.471844 0.300479 0.245249
0.430786 0.207902 0.272619
0.501707 0.190280 0.379435
0.662025 0.241280 0.548562
0.867515 0.305679 0.754892
1.000000 0.279359 0.965347
1.000000 0.009310 1.000000
0.988136 0.000000 1.000000
0.605856 0.578951 0.299559
0.462857 0.438251 0.245895
0.420422 0.329229 0.275768
0.471702 0.290147 0.378030
0.588205 0.310369 0.533564
0.719798 0.330371 0.715274
0.794703 0.241733 0.888096
0.719500 0.000000 1.000000
0.379129 0.000000 1.000000
0.565863 0.666149 0.280336
0.431081 0.539402 0.236173
0.382789 0.436874 0.268055
0.408227 0.392523 0.362852
0.472993 0.391413 0.499457
0.521045 0.369717 0.648792
0.474695 0.214713 0.773805
0.234615 0.000000 0.829473
0.000000 0.000000 0.762797
0.589239 0.726402 0.251423
0.462815 0.644200 0.217554
0.407084 0.572009 0.249820
0.403379 0.539487 0.333102
0.411387 0.527396 0.444309
0.369155 0.467606 0.552379
0.193087 0.243094 0.618273
0.000000 0.000000 0.594981
0.000000 0.000000 0.427521
0.783660 0.793019 0.230264
0.668636 0.786857 0.206349
0.606788 0.769753 0.236235
0.573539 0.767063 0.302821
0.522667 0.755247 0.381028
0.386309 0.661872 0.437807
0.074959 0.365615 0.432136
0.000000 0.000000 0.315018
0.000000 0.000000 0.029485
1.000000 0.893253 0.249139
1.000000 0.995533 0.233703
1.000000 1.000000 0.257315
1.000000 1.000000 0.300886
0.950394 1.000000 0.337354
0.718968 0.984297 0.331684
0.269673 0.614964 0.240867
0.000000 0.000000 0.013922
0.000000 0.000000 0.000000
1.000000 1.000000 0.355168
1.000000 1.000000 0.345600
1.000000 1.000000 0.357907
1.000000 1.000000 0.371012
1.000000 1.000000 0.355869
1.000000 1.000000 0.275455
0.950874 1.000000 0.084778
0.000000 0.096669 0.000000
0.000000 0.000000 0.000000
1.000000 1.000000 0.610304
1.000000 1.000000 0.602862
1.000000 1.000000 0.597698
1.000000 1.000000 0.571751
1.000000 1.000000 0.493989
1.000000 1.000000 0.325404
1.000000 1.000000 0.019018
1.000000 0.537790 0.000000
0.000000 0.000000 0.000000
0.669286 0.210532 0.253817
0.532039 0.165628 0.267619
0.536119 0.138913 0.370874
0.688393 0.184298 0.562975
0.974088 0.306800 0.835344
1.000000 0.462542 1.000000
1.000000 0.558755 1.000000
1.000000 0.453777 1.000000
1.000000 0.000000 1.000000
0.757286 0.497986 0.257466
0.623382 0.392310 0.271064
0.620974 0.312562 0.369751
0.751024 0.308350 0.550937
0.992846 0.380391 0.804056
1.000000 0.480506 1.000000
1.000000 0.511624 1.000000
1.000000 0.327781 1.000000
1.000000 0.000000 1.000000
0.756042 0.662232 0.253027
0.618553 0.527030 0.267017
0.601013 0.418750 0.359313
0.698469 0.382697 0.525337
0.884329 0.415286 0.752540
1.000000 0.464035 1.000000
1.000000 0.427572 1.000000
1.000000 0.155631 1.000000
1.000000 0.000000 1.000000
0.722902 0.750527 0.227483
0.577804 0.617953 0.241328
0.539383 0.506547 0.324273
0.596779 0.457313 0.469756
0.717489 0.462363 0.663240
0.847366 0.464913 0.882217
0.910622 0.359290 1.000000
0.809826 0.000000 1.000000
0.425904 0.000000 1.000000
0.739498 0.804076 0.182652
0.585665 0.707189 0.194679
0.523518 0.618969 0.264179
0.536287 0.576119 0.382606
0.585558 0.566448 0.533437
0.611276 0.528873 0.692177
0.531742 0.353415 0.826359
0.243616 0.000000 0.895542
0.000000 0.000000 0.851311
0.911742 0.858030 0.135191
0.750948 0.830794 0.142592
0.665129 0.792977 0.193420
0.631603 0.776982 0.277142
0.606049 0.766315 0.375249
0.522499 0.695590 0.461262
0.293346 0.450530 0.500727
0.000000 0.000000 0.451217
0.000000 0.000000 0.262333
1.000000 0.941487 0.116592
1.000000 1.000000 0.115426
1.000000 1.000000 0.141219
1.000000 1.000000 0.181451
0.920757 1.000000 0.215630
0.725731 0.998691 0.215290
0.343030 0.685163 0.143991
0.000000 0.000000 0.000000
0.000000 0.000000 0.000000
1.000000 1.000000 0.173185
1.000000 1.000000 0.158376
1.000000 1.000000 0.151637
1.000000 1.000000 0.138462
1.000000 1.000000 0.096374
1.000000 1.000000 0.000000
0.852671 1.000000 0.000000
0.000000 0.266577 0.000000
0.000000 0.000000 0.000000
1.000000 1.000000 0.366139
1.000000 1.000000 0.331475
1.000000 1.000000 0.283572
1.000000 1.000000 0.205937
1.000000 1.000000 0.074108
1.000000 1.000000 0.000000
1.000000 1.000000 0.000000
0.924480 0.731147 0.000000
0.000000 0.000000 0.000000
0.698761 0.172168 0.175440
0.661676 0.225777 0.348895
0.783263 0.283866 0.605339
1.000000 0.407391 0.950737
1.000000 0.608416 1.000000
1.000000 0.850111 1.000000
1.000000 1.000000 1.000000
1.000000 1.000000 1.000000
1.000000 0.717523 1.000000
0.831644 0.493834 0.191912
0.780661 0.466489 0.359123
0.879325 0.453071 0.603247
1.000000 0.510233 0.928261
1.000000 0.645737 1.000000
1.000000 0.818450 1.000000
1.000000 0.938348 1.000000
1.000000 0.866514 1.000000
1.000000 0.415135 1.000000
0.863114 0.680121 0.194748
0.790040 0.605540 0.353847
0.855868 0.547584 0.581359
1.000000 0.558605 0.879277
1.000000 0.642063 1.000000
1.000000 0.752523 1.000000
1.000000 0.795660 1.000000
1.000000 0.628254 1.000000
1.000000 0.058191 1.000000
0.848753 0.780132 0.170143
0.748296 0.692935 0.318124
0.774275 0.618315 0.523598
0.917726 0.604323 0.786573
1.000000 0.650117 1.000000
1.000000 0.705960 1.000000
1.000000 0.673224 1.000000
1.000000 0.404387 1.000000
1.000000 0.000000 1.000000
0.868426 0.836914 0.119128
0.738194 0.772627 0.251851
0.720212 0.710124 0.428728
0.799605 0.693152 0.647779
0.939859 0.716568 0.899052
1.000000 0.726334 1.000000
1.000000 0.619518 1.000000
1.000000 0.244299 1.000000
0.621686 0.000000 1.000000
1.000000 0.887461 0.057569
0.866780 0.882516 0.169762
0.803624 0.861814 0.310346
0.816026 0.864801 0.475358
0.861562 0.882032 0.652858
0.876163 0.855165 0.822936
0.774119 0.676970 0.957708
0.448079 0.191320 1.000000
0.000000 0.000000 0.969928
1.000000 0.962712 0.016173
1.000000 1.000000 0.101427
1.000000 1.000000 0.196890
1.000000 1.000000 0.296611
1.000000 1.000000 0.386668
0.935953 1.000000 0.445163
0.660812 0.881950 0.442226
0.114495 0.282727 0.340014
0.000000 0.000000 0.092712
1.000000 1.000000 0.040482
1.000000 1.000000 0.091254
1.000000 1.000000 0.131631
1.000000 1.000000 0.153678
1.000000 1.000000 0.141485
1.000000 1.000000 0.071170
0.978862 1.000000 0.000000
0.208254 0.549745 0.000000
0.000000 0.000000 0.000000
1.000000 1.000000 0.190875
1.000000 1.000000 0.198488
1.000000 1.000000 0.172682
1.000000 1.000000 0.103534
1.000000 1.000000 0.000000
1.000000 1.000000 0.000000
1.000000 1.000000 0.000000
0.926647 1.000000 0.000000
0.000000 0.000000 0.000000
0.569543 0.000000 0.111359
0.716787 0.187532 0.540587
1.000000 0.402288 1.000000
1.000000 0.670278 1.000000
1.000000 1.000000 1.000000
1.000000 1.000000 1.000000
1.000000 1.000000 1.000000
1.000000 1.000000 1.000000
1.000000 1.000000 1.000000
0.771337 0.329020 0.149396
0.883495 0.453494 0.565016
1.000000 0.574350 1.000000
1.000000 0.755291 1.000000
1.000000 1.000000 1.000000
1.000000 1.000000 1.000000
1.000000 1.000000 1.000000
1.000000 1.000000 1.000000
1.000000 1.000000 1.000000
0.857479 0.551804 0.170722
0.925093 0.607410 0.568397
1.000000 0.663804 1.000000
1.000000 0.780386 1.000000
1.000000 0.967661 1.000000
1.000000 1.000000 1.000000
1.000000 1.000000 1.000000
1.000000 1.000000 1.000000
1.000000 0.922544 1.000000
0.881785 0.677304 0.160743
0.898297 0.701131 0.535002
1.000000 0.723405 0.950487
1.000000 0.799224 1.000000
1.000000 0.934790 1.000000
1.000000 1.000000 1.000000
1.000000 1.000000 1.000000
1.000000 1.000000 1.000000
1.000000 0.487351 1.000000
0.922352 0.750409 0.119702
0.884104 0.780452 0.463938
0.978236 0.799854 0.834346
1.000000 0.859411 1.000000
1.000000 0.961024 1.000000
1.000000 1.000000 1.000000
1.000000 1.000000 1.000000
1.000000 0.803820 1.000000
1.000000 0.114814 1.000000
1.000000 0.809956 0.062678
0.987795 0.885115 0.369152
1.000000 0.933798 0.684322
1.000000 1.000000 1.000000
1.000000 1.000000 1.000000
1.000000 1.000000 1.000000
1.000000 1.000000 1.000000
1.000000 0.696087 1.000000
1.000000 0.000000 1.000000
1.000000 0.888729 0.019589
1.000000 1.000000 0.279426
1.000000 1.000000 0.528062
1.000000 1.000000 0.766114
1.000000 1.000000 0.986229
1.000000 1.000000 1.000000
1.000000 1.000000 1.000000
0.940298 0.744536 1.000000
0.218153 0.000000 1.000000
1.000000 1.000000 0.035190
1.000000 1.000000 0.238381
1.000000 1.000000 0.408052
1.000000 1.000000 0.542836
1.000000 1.000000 0.633393
1.000000 1.000000 0.662410
1.000000 1.000000 0.604601
0.806440 0.982234 0.426706
0.000000 0.000000 0.087493
1.000000 1.000000 0.169072
1.000000 1.000000 0.304472
1.000000 1.000000 0.381614
1.000000 1.000000 0.397143
1.000000 1.000000 0.339736
1.000000 1.000000 0.190092
1.000000 1.000000 0.000000
1.000000 1.000000 0.000000
0.000000 0.082023 0.000000
0.161452 0.000000 0.105798
0.594559 0.000000 0.902935
1.000000 0.404858 1.000000
1.000000 0.898081 1.000000
1.000000 1.000000 1.000000
1.000000 1.000000 1.000000
1.000000 1.000000 1.000000
1.000000 1.000000 1.000000
1.000000 1.000000 1.000000
0.464147 0.000000 0.180569
0.837035 0.252709 0.955406
1.000000 0.590230 1.000000
1.000000 0.971798 1.000000
1.000000 1.000000 1.000000
1.000000 1.000000 1.000000
1.000000 1.000000 1.000000
1.000000 1.000000 1.000000
1.000000 1.000000 1.000000
0.634881 0.165378 0.238025
0.936826 0.435181 0.983760
1.000000 0.684396 1.000000
1.000000 0.979469 1.000000
1.000000 1.000000 1.000000
1.000000 1.000000 1.000000
1.000000 1.000000 1.000000
1.000000 1.000000 1.000000
1.000000 1.000000 1.000000
0.725705 0.333292 0.262785
0.948882 0.548235 0.971479
1.000000 0.741955 1.000000
1.000000 0.976597 1.000000
1.000000 1.000000 1.000000
1.000000 1.000000 1.000000
1.000000 1.000000 1.000000
1.000000 1.000000 1.000000
1.000000 1.000000 1.000000
0.812949 0.438965 0.254304
0.952434 0.639510 0.916884
1.000000 0.811452 1.000000
1.000000 1.000000 1.000000
1.000000 1.000000 1.000000
1.000000 1.000000 1.000000
1.000000 1.000000 1.000000
1.000000 1.000000 1.000000
1.000000 1.000000 1.000000
0.997225 0.523076 0.226873
1.000000 0.750592 0.833134
1.000000 0.935375 1.000000
1.000000 1.000000 1.000000
1.000000 1.000000 1.000000
1.000000 1.000000 1.000000
1.000000 1.000000 1.000000
1.000000 1.000000 1.000000
1.000000 0.722383 1.000000
1.000000 0.620251 0.209622
1.000000 0.917010 0.748221
1.000000 1.000000 1.000000
1.000000 1.000000 1.000000
1.000000 1.000000 1.000000
1.000000 1.000000 1.000000
1.000000 1.000000 1.000000
1.000000 1.000000 1.000000
1.000000 0.548105 1.000000
1.000000 0.759062 0.246518
1.000000 1.000000 0.704980
1.000000 1.000000 1.000000
1.000000 1.000000 1.000000
1.000000 1.000000 1.000000
1.000000 1.000000 1.000000
1.000000 1.000000 1.000000
1.000000 1.000000 1.000000
1.000000 0.571986 1.000000
1.000000 0.962027 0.396364
1.000000 1.000000 0.761078
1.000000 1.000000 1.000000
1.000000 1.000000 1.000000
1.000000 1.000000 1.000000
1.000000 1.000000 1.000000
1.000000 1.000000 1.000000
1.000000 1.000000 0.939929
0.919069 0.823788 0.478815
