lrplugin/MindfulLensFilmEngine.lrplugin/profiles/luts/kodachrome_v2.cube
# Generated from ColorChecker fit
LUT_3D_SIZE 33
DOMAIN_MIN 0.0 0.0 0.0
DOMAIN_MAX 1.0 1.0 1.0
0.000000 0.000000 0.122154
0.000000 0.000000 0.115076
0.000000 0.000000 0.116281
0.000000 0.000000 0.125184
0.000000 0.000000 0.141167
0.000000 0.000000 0.163577
0.000000 0.000000 0.191727
0.000000 0.000000 0.224895
0.000000 0.000000 0.262324
0.000000 0.000000 0.303225
0.000000 0.000000 0.346771
0.000000 0.000000 0.392104
0.000000 0.000000 0.438328
0.000000 0.000000 0.484515
0.000000 0.000000 0.529703
0.000000 0.000000 0.572893
0.000000 0.000000 0.613054
0.000000 0.000000 0.649118
0.000000 0.000000 0.679986
0.000000 0.000000 0.704520
0.000000 0.000000 0.721552
0.000000 0.000000 0.729878
0.000000 0.000000 0.728257
0.000000 0.000000 0.715416
0.000000 0.000000 0.690049
0.000000 0.000000 0.650811
0.000000 0.000000 0.596328
0.000000 0.000000 0.525186
0.000000 0.000000 0.435941
0.000000 0.000000 0.327112
0.000000 0.000000 0.197184
0.000000 0.000000 0.044609
0.000000 0.000000 0.000000
0.000000 0.000000 0.071342
0.000000 0.000000 0.072098
0.000000 0.000000 0.080792
0.000000 0.000000 0.096815
0.000000 0.000000 0.119527
0.000000 0.000000 0.148251
0.000000 0.000000 0.182276
0.000000 0.000000 0.220858
0.000000 0.000000 0.263217
0.000000 0.000000 0.308537
0.000000 0.000000 0.355972
0.000000 0.000000 0.404637
0.000000 0.000000 0.453616
0.000000 0.000000 0.501956
0.000000 0.000000 0.548670
0.000000 0.000000 0.592738
0.000000 0.000000 0.633104
0.000000 0.000000 0.668678
0.000000 0.000000 0.698336
0.000000 0.000000 0.720919
0.000000 0.000000 0.735233
0.000000 0.000000 0.740051
0.000000 0.000000 0.734111
0.000000 0.000000 0.716114
0.000000 0.000000 0.684731
0.000000 0.000000 0.638596
0.000000 0.000000 0.576307
0.000000 0.000000 0.496431
0.000000 0.000000 0.397499
0.000000 0.000000 0.278006
0.000000 0.000000 0.136415
0.000000 0.000000 0.000000
0.000000 0.000000 0.000000
0.047257 0.000000 0.019565
0.004243 0.000000 0.027915
0.000000 0.000000 0.043852
0.000000 0.000000 0.066745
0.000000 0.000000 0.095929
0.000000 0.000000 0.130704
0.000000 0.000000 0.170337
0.000000 0.000000 0.214058
0.000000 0.000000 0.261064
0.000000 0.000000 0.310518
0.000000 0.000000 0.361549
0.000000 0.000000 0.413248
0.000000 0.000000 0.464676
0.000000 0.000000 0.514858
0.000000 0.000000 0.562782
0.000000 0.000000 0.607405
0.000000 0.000000 0.647648
0.000000 0.000000 0.682397
0.000000 0.000000 0.710505
0.000000 0.000000 0.730789
0.000000 0.000000 0.742033
0.000000 0.000000 0.742985
0.000000 0.000000 0.732359
0.000000 0.000000 0.708837
0.000000 0.000000 0.671061
0.000000 0.000000 0.617645
0.000000 0.000000 0.547163
0.000000 0.000000 0.458158
0.000000 0.000000 0.349137
0.000000 0.000000 0.218574
0.000000 0.000000 0.064906
0.000000 0.000000 0.000000
0.000000 0.000000 0.000000
0.081288 0.000000 0.000000
0.041518 0.000000 0.000000
0.005326 0.000000 0.005837
0.000000 0.000000 0.035345
0.000000 0.000000 0.070741
0.000000 0.000000 0.111300
0.000000 0.000000 0.156267
0.000000 0.000000 0.204848
0.000000 0.000000 0.256218
0.000000 0.000000 0.309515
0.000000 0.000000 0.363845
0.000000 0.000000 0.418276
0.000000 0.000000 0.471845
0.000000 0.000000 0.523553
0.000000 0.000000 0.572366
0.000000 0.000000 0.617218
0.000000 0.021022 0.657005
0.000000 0.043125 0.690590
0.000000 0.060870 0.716803
0.000000 0.072314 0.734438
0.000000 0.075312 0.742255
0.000000 0.067524 0.738978
0.000000 0.046408 0.723300
0.000000 0.009225 0.693876
0.000000 0.000000 0.649328
0.000000 0.000000 0.588243
0.000000 0.000000 0.509176
0.000000 0.000000 0.410643
0.000000 0.000000 0.291130
0.000000 0.000000 0.149085
0.000000 0.000000 0.000000
0.000000 0.000000 0.000000
0.000000 0.000000 0.000000
0.102371 0.000000 0.000000
0.065425 0.000000 0.000000
0.032094 0.000000 0.000000
0.002961 0.000000 0.003168
0.000000 0.000000 0.044510
0.000000 0.000000 0.090584
0.000000 0.000000 0.140608
0.000000 0.000000 0.193767
0.000000 0.000000 0.249212
0.000000 0.000000 0.306057
0.000000 0.000000 0.363385
0.000000 0.000000 0.420241
0.000000 0.001156 0.475639
0.000000 0.026453 0.528555
0.000000 0.053234 0.577933
0.002215 0.080336 0.622682
0.017128 0.106396 0.661677
0.029733 0.129854 0.693756
0.038518 0.148952 0.717726
0.041832 0.161731 0.732357
0.037883 0.166036 0.736386
0.024740 0.159512 0.728515
0.000334 0.139605 0.707410
0.000000 0.103564 0.671706
0.000000 0.048438 0.620001
0.000000 0.000000 0.550859
0.000000 0.000000 0.462808
0.000000 0.000000 0.354345
0.000000 0.000000 0.223931
0.000000 0.000000 0.069990
0.000000 0.000000 0.000000
0.000000 0.000000 0.000000
0.000000 0.000000 0.000000
0.112237 0.034118 0.000000
0.077689 0.022737 0.000000
0.046788 0.011494 0.000000
0.020101 0.001595 0.000000
0.000000 0.000000 0.017967
0.000000 0.000000 0.069280
0.000000 0.000000 0.124082
0.000000 0.000000 0.181533
0.000000 0.000608 0.240759
0.000000 0.013001 0.300855
0.000000 0.029625 0.360876
0.000000 0.050101 0.419847
0.000000 0.073846 0.476757
0.010449 0.100083 0.530559
0.027763 0.127834 0.580173
0.045232 0.155923 0.624486
0.061610 0.182975 0.662347
0.075512 0.207417 0.692574
0.085413 0.227477 0.713948
0.089648 0.241185 0.725217
0.086413 0.246371 0.725094
0.073763 0.240669 0.712257
0.049616 0.221511 0.685351
0.011747 0.186134 0.642984
0.000000 0.131573 0.583733
0.000000 0.054667 0.506138
0.000000 0.000000 0.408705
0.000000 0.000000 0.289906
0.000000 0.000000 0.148177
0.000000 0.000000 0.000000
0.000000 0.000000 0.000000
0.000000 0.000000 0.000000
0.000000 0.000000 0.000000
0.112871 0.098420 0.000000
0.080292 0.086511 0.000000
0.051381 0.074905 0.000000
0.026696 0.064798 0.000000
0.006651 0.057185 0.000000
0.000000 0.052862 0.048298
0.000000 0.052428 0.107592
0.000000 0.056283 0.169044
0.000000 0.064628 0.231757
0.000000 0.077465 0.294800
0.000000 0.094598 0.357207
0.001957 0.115633 0.417978
0.017279 0.139977 0.476079
0.034707 0.166838 0.530441
0.053262 0.195225 0.579959
0.071823 0.223950 0.623497
0.089132 0.251624 0.659881
0.103789 0.276663 0.687905
0.114257 0.297281 0.706327
0.118858 0.311495 0.713871
0.115774 0.317124 0.709227
0.103047 0.311786 0.691051
0.078582 0.292903 0.657962
0.040141 0.257698 0.608547
0.000000 0.203193 0.541358
0.000000 0.126215 0.454912
0.000000 0.023389 0.347692
0.000000 0.000000 0.218145
0.000000 0.000000 0.064687
0.000000 0.000000 0.000000
0.000000 0.000000 0.000000
0.000000 0.000000 0.000000
0.000000 0.000000 0.000000
0.106514 0.159714 0.000000
0.075465 0.147155 0.000000
0.048102 0.135050 0.000000
0.024967 0.124579 0.000000
0.006463 0.116725 0.000000
0.000000 0.112273 0.028726
0.000000 0.111807 0.092225
0.000000 0.115715 0.157384
0.000000 0.124184 0.223282
0.000000 0.137205 0.288966
0.000000 0.154569 0.353447
0.011162 0.175869 0.415700
0.027469 0.200497 0.474668
0.045753 0.227651 0.529259
0.065021 0.256326 0.578345
0.084140 0.285320 0.620765
0.101838 0.313234 0.655324
0.116703 0.338469 0.680791
0.127184 0.359227 0.695900
0.131588 0.373512 0.699354
0.128087 0.379129 0.689818
0.114708 0.373685 0.665923
0.089343 0.354588 0.626268
0.049740 0.319048 0.569414
0.000000 0.264076 0.493891
0.000000 0.186484 0.398191
0.000000 0.082886 0.280776
0.000000 0.000000 0.140068
0.000000 0.000000 0.000000
0.000000 0.000000 0.000000
0.000000 0.000000 0.000000
0.000000 0.000000 0.000000
0.000000 0.000000 0.000000
0.095659 0.219146 0.000000
0.065698 0.205804 0.000000
0.039431 0.193047 0.000000
0.017390 0.182042 0.000000
0.000000 0.173761 0.000000
0.000000 0.168974 0.011836
0.000000 0.168254 0.079247
0.000000 0.171975 0.147814
0.000000 0.180312 0.216595
0.000000 0.193242 0.284610
0.000000 0.210545 0.350847
0.010615 0.231798 0.414260
0.027388 0.256384 0.473768
0.046002 0.283485 0.528253
0.065451 0.312085 0.576567
0.084588 0.340970 0.617524
0.102129 0.368725 0.649905
0.116648 0.393741 0.672456
0.126581 0.414206 0.683890
0.130222 0.428111 0.682882
0.125729 0.433248 0.668077
0.111117 0.427213 0.638082
0.084263 0.407399 0.591472
0.042904 0.371005 0.526786
0.000000 0.315027 0.442528
0.000000 0.236266 0.337169
0.000000 0.131322 0.209146
0.000000 0.000000 0.056859
0.000000 0.000000 0.000000
0.000000 0.000000 0.000000
0.000000 0.000000 0.000000
0.000000 0.000000 0.000000
0.000000 0.000000 0.000000
0.083053 0.277894 0.000000
0.053730 0.263619 0.000000
0.028105 0.250044 0.000000
0.006695 0.238322 0.000000
0.000000 0.229412 0.000000
0.000000 0.224071 0.000000
0.000000 0.222860 0.070107
0.000000 0.226140 0.141781
0.000000 0.234073 0.213134
0.000000 0.246624 0.283167
0.000000 0.263557 0.350841
0.003001 0.284441 0.415088
0.019715 0.308642 0.474802
0.038126 0.335331 0.528845
0.057217 0.363480 0.576042
0.075827 0.391860 0.615186
0.092659 0.419046 0.645033
0.106272 0.443413 0.664307
0.115090 0.463137 0.671696
0.117395 0.476198 0.665854
0.111330 0.480374 0.645400
0.094897 0.473248 0.608919
0.065961 0.452201 0.554962
0.022245 0.414417 0.482044
0.000000 0.356881 0.388648
0.000000 0.276381 0.273221
0.000000 0.169505 0.134174
0.000000 0.032641 0.000000
0.000000 0.000000 0.000000
0.000000 0.000000 0.000000
0.000000 0.000000 0.000000
0.000000 0.000000 0.000000
0.000000 0.000000 0.000000
0.071696 0.337162 0.000000
0.042557 0.321792 0.000000
0.017112 0.307217 0.000000
0.000000 0.294580 0.000000
0.000000 0.284825 0.000000
0.000000 0.278697 0.000000
0.000000 0.276745 0.066434
0.000000 0.279315 0.140909
0.000000 0.286558 0.214524
0.000000 0.298426 0.286255
0.000000 0.314670 0.355043
0.000000 0.334844 0.419794
0.007378 0.358306 0.479379
0.025051 0.384210 0.532637
0.043239 0.411516 0.578370
0.060770 0.438983 0.615346
0.076333 0.465172 0.642300
0.088476 0.488447 0.657931
0.095608 0.506970 0.660903
0.095997 0.518708 0.649848
0.087774 0.521427 0.623361
0.068928 0.512695 0.580004
0.037309 0.489883 0.518304
0.000000 0.450161 0.436754
0.000000 0.390501 0.333812
0.000000 0.307679 0.207901
0.000000 0.198268 0.057410
0.000000 0.058646 0.000000
0.000000 0.000000 0.000000
0.000000 0.000000 0.000000
0.000000 0.000000 0.000000
0.000000 0.000000 0.000000
0.000000 0.000000 0.000000
0.064843 0.398183 0.000000
0.035428 0.381540 0.000000
0.009696 0.365770 0.000000
0.000000 0.352005 0.000000
0.000000 0.341176 0.000000
0.000000 0.334014 0.000000
0.000000 0.331055 0.070042
0.000000 0.332633 0.147007
0.000000 0.338886 0.222568
0.000000 0.349753 0.295676
0.000000 0.364972 0.365249
0.000000 0.384086 0.430170
0.000000 0.406436 0.489287
0.009953 0.431168 0.541414
0.026688 0.457226 0.585331
0.042584 0.483357 0.619782
0.056315 0.508110 0.643478
0.066416 0.529834 0.655095
0.071283 0.546681 0.653276
0.069172 0.556603 0.636626
0.058198 0.557354 0.603718
0.036340 0.546489 0.553091
0.001433 0.521366 0.483249
0.000000 0.479143 0.392660
0.000000 0.416779 0.279760
0.000000 0.331035 0.142948
0.000000 0.218474 0.000000
0.000000 0.075460 0.000000
0.000000 0.000000 0.000000
0.000000 0.000000 0.000000
0.000000 0.000000 0.000000
0.000000 0.000000 0.000000
0.000000 0.000000 0.000000
0.066003 0.462218 0.000000
0.035845 0.444110 0.000000
0.009352 0.426938 0.000000
0.000000 0.411818 0.000000
0.000000 0.399669 0.000000
0.000000 0.391212 0.002861
0.000000 0.386966 0.082922
0.000000 0.387256 0.162065
0.000000 0.392205 0.239251
0.000000 0.401739 0.313411
0.000000 0.415584 0.383438
0.000000 0.433269 0.448191
0.000000 0.454125 0.506495
0.000000 0.477281 0.557142
0.010992 0.501672 0.598886
0.024689 0.526030 0.630450
0.036017 0.548892 0.650521
0.043499 0.568594 0.657752
0.045518 0.583274 0.650760
0.040315 0.590873 0.628130
0.025994 0.589132 0.588410
0.000519 0.575592 0.530116
0.000000 0.547599 0.451727
0.000000 0.502297 0.351690
0.000000 0.436633 0.228415
0.000000 0.347356 0.080280
0.000000 0.231015 0.000000
0.000000 0.083962 0.000000
0.000000 0.000000 0.000000
0.000000 0.000000 0.000000
0.000000 0.000000 0.000000
0.000000 0.000000 0.000000
0.000000 0.000000 0.000000
0.078937 0.530556 0.000000
0.047564 0.510778 0.000000
0.019831 0.491979 0.000000
0.000000 0.475264 0.000000
0.000000 0.461538 0.000000
0.000000 0.451508 0.024797
0.000000 0.445684 0.107250
0.000000 0.444374 0.188252
0.000000 0.447690 0.266741
0.000000 0.455544 0.341623
0.000000 0.467652 0.411767
0.000000 0.483528 0.476011
0.000000 0.502490 0.533155
0.000000 0.523655 0.581967
0.000000 0.545945 0.621180
0.010759 0.568079 0.649492
0.019109 0.588580 0.665566
0.023390 0.605773 0.668032
0.021970 0.617784 0.655485
0.013079 0.622538 0.626484
0.000000 0.617765 0.579557
0.000000 0.600994 0.513193
0.000000 0.569556 0.425850
0.000000 0.520584 0.315951
0.000000 0.451012 0.181883
0.000000 0.357575 0.022000
0.000000 0.236810 0.000000
0.000000 0.085055 0.000000
0.000000 0.000000 0.000000
0.000000 0.000000 0.000000
0.000000 0.000000 0.000000
0.000000 0.000000 0.000000
0.000000 0.000000 0.000000
0.107661 0.604516 0.000000
0.074596 0.582848 0.000000
0.045138 0.562185 0.000000
0.019738 0.543619 0.000000
0.000000 0.528043 0.000000
0.000000 0.516151 0.060852
0.000000 0.508439 0.145383
0.000000 0.505204 0.227923
0.000000 0.506545 0.307387
0.000000 0.512360 0.382656
0.000000 0.522352 0.452579
0.000000 0.536024 0.515968
0.000000 0.552679 0.571600
0.000000 0.571423 0.618221
0.000000 0.591162 0.654539
0.004723 0.610607 0.679228
0.009513 0.628265 0.690930
0.010004 0.642449 0.688250
0.004550 0.651271 0.669759
0.000000 0.652646 0.633995
0.000000 0.644288 0.579460
0.000000 0.623714 0.504622
0.000000 0.588243 0.407914
0.000000 0.534996 0.287735
0.000000 0.460891 0.142450
0.000000 0.362654 0.000000
0.000000 0.236806 0.000000
0.000000 0.079675 0.000000
0.000000 0.000000 0.000000
0.000000 0.000000 0.000000
0.000000 0.000000 0.000000
0.000000 0.000000 0.000000
0.000000 0.000000 0.000000
0.156446 0.685445 0.000000
0.121204 0.661651 0.000000
0.089530 0.638872 0.000000
0.061863 0.618186 0.000000
0.038498 0.600473 0.025815
0.019594 0.586415 0.113569
0.005168 0.576494 0.199858
0.000000 0.570995 0.283610
0.000000 0.570002 0.363717
0.000000 0.573404 0.439038
0.000000 0.580888 0.508395
0.000000 0.591946 0.570580
0.000000 0.605867 0.624345
0.001799 0.621744 0.668413
0.007102 0.638473 0.701468
0.010763 0.654747 0.722162
0.011405 0.669066 0.729112
0.007511 0.679725 0.720900
0.000000 0.684827 0.696075
0.000000 0.682271 0.653150
0.000000 0.669761 0.590604
0.000000 0.644800 0.506881
0.000000 0.604694 0.400393
0.000000 0.546550 0.269513
0.000000 0.467277 0.112584
0.000000 0.363583 0.000000
0.000000 0.231981 0.000000
0.000000 0.068782 0.000000
0.000000 0.000000 0.000000
0.000000 0.000000 0.000000
0.000000 0.000000 0.000000
0.000000 0.000000 0.000000
0.000000 0.000000 0.000000
0.229814 0.774716 0.000000
0.191905 0.748549 0.000000
0.157519 0.723388 0.000000
0.127081 0.700298 0.005306
0.100872 0.680147 0.095954
0.079039 0.663604 0.185672
0.061587 0.651137 0.273396
0.048379 0.643020 0.358031
0.039143 0.639323 0.438446
0.033464 0.639922 0.513475
0.030789 0.644493 0.581921
0.030423 0.652512 0.642547
0.031536 0.663258 0.694086
0.033153 0.675810 0.735235
0.034163 0.689051 0.764656
0.033314 0.701662 0.780977
0.029215 0.712128 0.782792
0.020335 0.718735 0.768660
0.005004 0.719569 0.737105
0.000000 0.712519 0.686618
0.000000 0.695275 0.615653
0.000000 0.665327 0.522633
0.000000 0.619970 0.405944
0.000000 0.556296 0.263938
0.000000 0.471201 0.094933
0.000000 0.361382 0.000000
0.000000 0.223337 0.000000
0.000000 0.053367 0.000000
0.000000 0.000000 0.000000
0.000000 0.000000 0.000000
0.000000 0.000000 0.000000
0.000000 0.000000 0.000000
0.000000 0.000000 0.000000
0.332542 0.873733 0.000000
0.291471 0.844930 0.000000
0.253871 0.817106 0.002712
0.220151 0.791315 0.095905
0.190584 0.768411 0.188706
0.165299 0.749049 0.280065
0.144288 0.733687 0.368896
0.127405 0.722583 0.454081
0.114360 0.715797 0.534465
0.104727 0.713191 0.608859
0.097940 0.714427 0.676040
0.093291 0.718969 0.734752
0.089935 0.726084 0.783701
0.086885 0.734838 0.821562
0.083017 0.744100 0.846974
0.077066 0.752539 0.858541
0.067626 0.758628 0.854834
0.053155 0.760638 0.834387
0.031967 0.756644 0.795703
0.002241 0.744522 0.737248
0.000000 0.721947 0.657454
0.000000 0.686400 0.554720
0.000000 0.635160 0.427407
0.000000 0.565307 0.273846
0.000000 0.473725 0.092330
0.000000 0.357097 0.000000
0.000000 0.211910 0.000000
0.000000 0.034449 0.000000
0.000000 0.000000 0.000000
0.000000 0.000000 0.000000
0.000000 0.000000 0.000000
0.000000 0.000000 0.000000
0.000000 0.000000 0.000000
0.469662 0.983928 0.000000
0.424928 0.952211 0.021640
0.383604 0.921431 0.117006
0.346089 0.892626 0.212526
0.312639 0.866639 0.307160
0.283373 0.844111 0.399836
0.258269 0.825489 0.489443
0.237166 0.811016 0.574841
0.219763 0.800741 0.654850
0.205620 0.794512 0.728259
0.194157 0.791978 0.793821
0.184654 0.792592 0.850257
0.176251 0.795606 0.896249
0.167951 0.800075 0.930450
0.158613 0.804853 0.951473
0.146961 0.808598 0.957901
0.131576 0.809769 0.948280
0.110901 0.806625 0.921122
0.083239 0.797228 0.874906
0.046753 0.779440 0.808074
0.000000 0.750926 0.719036
0.000000 0.709151 0.606165
0.000000 0.651382 0.467802
0.000000 0.574688 0.302252
0.000000 0.475938 0.107786
0.000000 0.351804 0.000000
0.000000 0.198758 0.000000
0.000000 0.013075 0.000000
0.000000 0.000000 0.000000
0.000000 0.000000 0.000000
0.000000 0.000000 0.000000
0.000000 0.000000 0.000000
0.000000 0.000000 0.000000
0.646458 1.000000 0.065919
0.597553 1.000000 0.163063
0.551992 1.000000 0.260915
0.510160 1.000000 0.358444
0.472300 0.976233 0.454589
0.438518 0.950179 0.548252
0.408778 0.927917 0.638301
0.382908 0.909680 0.723570
0.360591 0.895501 0.802857
0.341375 0.885218 0.874928
0.324667 0.878466 0.938513
0.309733 0.874685 0.992307
0.295701 0.873114 1.000000
0.281559 0.872794 1.000000
0.266155 0.872570 1.000000
0.248197 0.871084 1.000000
0.226256 0.866783 1.000000
0.198759 0.857913 1.000000
0.163997 0.842524 0.977931
0.120120 0.818464 0.902310
0.065139 0.783385 0.803608
0.000000 0.734741 0.680176
0.000000 0.669785 0.530332
0.000000 0.585572 0.352356
0.000000 0.478960 0.144497
0.000000 0.346607 0.000000
0.000000 0.184974 0.000000
0.000000 0.000000 0.000000
0.000000 0.000000 0.000000
0.000000 0.000000 0.000000
0.000000 0.000000 0.000000
0.000000 0.000000 0.000000
0.000000 0.000000 0.000000
0.868468 1.000000 0.238103
0.814879 1.000000 0.337877
0.764561 1.000000 0.437900
0.717885 1.000000 0.537118
0.675081 1.000000 0.634446
0.636242 1.000000 0.728764
0.601320 1.000000 0.818915
0.570126 1.000000 0.903710
0.542334 1.000000 0.981925
0.517477 0.986669 1.000000
0.494948 0.975235 1.000000
0.474001 0.966578 1.000000
0.453750 0.959923 1.000000
0.433171 0.954301 1.000000
0.411097 0.948540 1.000000
0.386225 0.941272 1.000000
0.357110 0.930931 1.000000
0.322168 0.915749 1.000000
0.279676 0.893763 1.000000
0.227770 0.862811 1.000000
0.164449 0.820529 0.914561
0.087569 0.764359 0.780139
0.000000 0.691542 0.618378
0.000000 0.599119 0.427536
0.000000 0.483937 0.205837
0.000000 0.342639 0.000000
0.000000 0.171673 0.000000
0.000000 0.000000 0.000000
0.000000 0.000000 0.000000
0.000000 0.000000 0.000000
0.000000 0.000000 0.000000
0.000000 0.000000 0.000000
0.000000 0.000000 0.000000
1.000000 1.000000 0.447639
1.000000 1.000000 0.549730
1.000000 1.000000 0.651604
0.975039 1.000000 0.752187
0.926752 1.000000 0.850368
0.882310 1.000000 0.945003
0.841651 1.000000 1.000000
0.804574 1.000000 1.000000
0.770739 1.000000 1.000000
0.739666 1.000000 1.000000
0.710735 1.000000 1.000000
0.683187 1.000000 1.000000
0.656123 1.000000 1.000000
0.628504 1.000000 1.000000
0.599151 1.000000 1.000000
0.566748 1.000000 1.000000
0.529837 1.000000 1.000000
0.486820 0.981407 1.000000
0.435961 0.952208 1.000000
0.375384 0.913726 1.000000
0.303072 0.863589 1.000000
0.216870 0.799223 0.909624
0.114483 0.717856 0.735508
0.000000 0.616519 0.531355
0.000000 0.492042 0.295365
0.000000 0.341059 0.025705
0.000000 0.160004 0.000000
0.000000 0.000000 0.000000
0.000000 0.000000 0.000000
0.000000 0.000000 0.000000
0.000000 0.000000 0.000000
0.000000 0.000000 0.000000
0.000000 0.000000 0.000000
1.000000 1.000000 0.698359
1.000000 1.000000 0.802450
1.000000 1.000000 0.905853
1.000000 1.000000 1.000000
1.000000 1.000000 1.000000
1.000000 1.000000 1.000000
1.000000 1.000000 1.000000
1.000000 1.000000 1.000000
1.000000 1.000000 1.000000
1.000000 1.000000 1.000000
0.978016 1.000000 1.000000
0.943272 1.000000 1.000000
0.908793 1.000000 1.000000
0.873527 1.000000 1.000000
0.836282 1.000000 1.000000
0.795726 1.000000 1.000000
0.750390 1.000000 1.000000
0.698663 1.000000 1.000000
0.638795 1.000000 1.000000
0.568896 0.972486 1.000000
0.486937 0.913826 1.000000
0.390750 0.840579 1.000000
0.278027 0.749961 0.885467
0.146318 0.638988 0.667554
0.000000 0.504481 0.416818
0.000000 0.343058 0.131404
0.000000 0.151140 0.000000
0.000000 0.000000 0.000000
0.000000 0.000000 0.000000
0.000000 0.000000 0.000000
0.000000 0.000000 0.000000
0.000000 0.000000 0.000000
0.000000 0.000000 0.000000
1.000000 1.000000 0.994277
1.000000 1.000000 1.000000
1.000000 1.000000 1.000000
1.000000 1.000000 1.000000
1.000000 1.000000 1.000000
1.000000 1.000000 1.000000
1.000000 1.000000 1.000000
1.000000 1.000000 1.000000
1.000000 1.000000 1.000000
1.000000 1.000000 1.000000
1.000000 1.000000 1.000000
1.000000 1.000000 1.000000
1.000000 1.000000 1.000000
1.000000 1.000000 1.000000
1.000000 1.000000 1.000000
1.000000 1.000000 1.000000
1.000000 1.000000 1.000000
0.963896 1.000000 1.000000
0.894370 1.000000 1.000000
0.814495 1.000000 1.000000
0.722228 0.972527 1.000000
0.615387 0.889700 1.000000
0.491650 0.789115 1.000000
0.348556 0.667774 0.840058
0.183505 0.522484 0.574119
0.000000 0.349851 0.272485
0.000000 0.146285 0.000000
0.000000 0.000000 0.000000
0.000000 0.000000 0.000000
0.000000 0.000000 0.000000
0.000000 0.000000 0.000000
0.000000 0.000000 0.000000
0.000000 0.000000 0.000000
1.000000 1.000000 1.000000
1.000000 1.000000 1.000000
1.000000 1.000000 1.000000
1.000000 1.000000 1.000000
1.000000 1.000000 1.000000
1.000000 1.000000 1.000000
1.000000 1.000000 1.000000
1.000000 1.000000 1.000000
1.000000 1.000000 1.000000
1.000000 1.000000 1.000000
1.000000 1.000000 1.000000
1.000000 1.000000 1.000000
1.000000 1.000000 1.000000
1.000000 1.000000 1.000000
1.000000 1.000000 1.000000
1.000000 1.000000 1.000000
1.000000 1.000000 1.000000
1.000000 1.000000 1.000000
1.000000 1.000000 1.000000
1.000000 1.000000 1.000000
1.000000 1.000000 1.000000
0.897210 0.947891 1.000000
0.761778 0.836607 1.000000
0.606612 0.704149 1.000000
0.429095 0.547311 0.771368
0.226475 0.362686 0.453047
0.000000 0.146670 0.096073
0.000000 0.000000 0.000000
0.000000 0.000000 0.000000
0.000000 0.000000 0.000000
0.000000 0.000000 0.000000
0.000000 0.000000 0.000000
0.000000 0.000000 0.000000
1.000000 1.000000 1.000000
1.000000 1.000000 1.000000
1.000000 1.000000 1.000000
1.000000 1.000000 1.000000
1.000000 1.000000 1.000000
1.000000 1.000000 1.000000
1.000000 1.000000 1.000000
1.000000 1.000000 1.000000
1.000000 1.000000 1.000000
1.000000 1.000000 1.000000
1.000000 1.000000 1.000000
1.000000 1.000000 1.000000
1.000000 1.000000 1.000000
1.000000 1.000000 1.000000
1.000000 1.000000 1.000000
1.000000 1.000000 1.000000
1.000000 1.000000 1.000000
1.000000 1.000000 1.000000
1.000000 1.000000 1.000000
1.000000 1.000000 1.000000
1.000000 1.000000 1.000000
1.000000 1.000000 1.000000
1.000000 0.893754 1.000000
0.927156 0.749417 1.000000
0.736472 0.580251 1.000000
0.520273 0.382836 0.677369
0.275651 0.153556 0.302185
0.000000 0.000000 0.000000
0.000000 0.000000 0.000000
0.000000 0.000000 0.000000
0.000000 0.000000 0.000000
0.000000 0.000000 0.000000
0.000000 0.000000 0.000000
1.000000 1.000000 1.000000
1.000000 1.000000 1.000000
1.000000 1.000000 1.000000
1.000000 1.000000 1.000000
1.000000 1.000000 1.000000
1.000000 1.000000 1.000000
1.000000 1.000000 1.000000
1.000000 1.000000 1.000000
1.000000 1.000000 1.000000
1.000000 1.000000 1.000000
1.000000 1.000000 1.000000
1.000000 1.000000 1.000000
1.000000 1.000000 1.000000
1.000000 1.000000 1.000000
1.000000 1.000000 1.000000
1.000000 1.000000 1.000000
1.000000 1.000000 1.000000
1.000000 1.000000 1.000000
1.000000 1.000000 1.000000
1.000000 1.000000 1.000000
1.000000 1.000000 1.000000
1.000000 1.000000 1.000000
1.000000 0.961902 1.000000
1.000000 0.804909 1.000000
1.000000 0.622620 1.000000
0.882065 0.411604 0.949912
0.622718 0.168230 0.556036
