lrplugin/MindfulLensFilmEngine.lrplugin/profiles/luts/kodak_color_plus_200_cc.cube
# Generated from ColorChecker fit
LUT_3D_SIZE 33
DOMAIN_MIN 0.0 0.0 0.0
DOMAIN_MAX 1.0 1.0 1.0
0.054069 0.000000 0.179372
0.033024 0.000000 0.206680
0.018485 0.000000 0.235947
0.010718 0.000000 0.267136
0.009933 0.000000 0.300118
0.016281 0.000000 0.334666
0.029856 0.000526 0.370461
0.050693 0.012312 0.407089
0.078771 0.025970 0.444041
0.114009 0.041608 0.480712
0.156270 0.059188 0.516405
0.205359 0.078530 0.550327
0.261022 0.099310 0.581590
0.322948 0.121059 0.609213
0.390769 0.143167 0.632119
0.464058 0.164878 0.649136
0.542331 0.185293 0.658999
0.625046 0.203369 0.660347
0.711602 0.217922 0.651726
0.801342 0.227619 0.631586
0.893551 0.230989 0.598283
0.987454 0.226414 0.550078
1.000000 0.212133 0.485137
1.000000 0.186242 0.401534
1.000000 0.146692 0.297244
1.000000 0.091291 0.170152
1.000000 0.017705 0.018045
1.000000 0.000000 0.000000
1.000000 0.000000 0.000000
1.000000 0.000000 0.000000
1.000000 0.000000 0.000000
1.000000 0.000000 0.000000
1.000000 0.000000 0.000000
0.024677 0.000000 0.140402
0.006566 0.000000 0.170903
0.000000 0.000000 0.203480
0.000000 0.001277 0.238064
0.000000 0.014904 0.274492
0.000000 0.028799 0.312506
0.012195 0.043443 0.351752
0.033314 0.059177 0.391782
0.061079 0.076196 0.432056
0.095367 0.094550 0.471936
0.135998 0.114149 0.510691
0.182732 0.134756 0.547495
0.235274 0.155991 0.581428
0.293268 0.177333 0.611475
0.356303 0.198114 0.636526
0.423909 0.217524 0.655377
0.495558 0.234609 0.666728
0.570664 0.248271 0.669188
0.648585 0.257269 0.661267
0.728619 0.260218 0.641384
0.810008 0.255589 0.607860
0.891935 0.241710 0.558925
0.973525 0.216765 0.492711
1.000000 0.178794 0.407259
1.000000 0.125694 0.300512
1.000000 0.055218 0.170320
1.000000 0.000000 0.014439
1.000000 0.000000 0.000000
1.000000 0.000000 0.000000
1.000000 0.000000 0.000000
1.000000 0.000000 0.000000
1.000000 0.000000 0.000000
1.000000 0.000000 0.000000
0.000000 0.000000 0.099082
0.000000 0.000000 0.132632
0.000000 0.001555 0.168373
0.000000 0.021473 0.206202
0.000000 0.040640 0.245922
0.000000 0.059627 0.287242
0.000000 0.078862 0.329776
0.010606 0.098628 0.373045
0.037975 0.119066 0.416472
0.071221 0.140172 0.459388
0.110122 0.161799 0.501028
0.154395 0.183655 0.540535
0.203699 0.205308 0.576954
0.257638 0.226178 0.609238
0.315756 0.245543 0.636243
0.377540 0.262538 0.656733
0.442418 0.276154 0.669376
0.509761 0.285238 0.672745
0.578884 0.288494 0.665319
0.649042 0.284480 0.645483
0.719433 0.271615 0.611527
0.789196 0.248169 0.561645
0.857413 0.212272 0.493939
0.923111 0.161909 0.406415
0.985254 0.094922 0.296983
1.000000 0.009008 0.163461
1.000000 0.000000 0.003572
1.000000 0.000000 0.000000
1.000000 0.000000 0.000000
1.000000 0.000000 0.000000
1.000000 0.000000 0.000000
1.000000 0.000000 0.000000
1.000000 0.000000 0.000000
0.000000 0.000000 0.056090
0.000000 0.000000 0.092530
0.000000 0.008547 0.131271
0.000000 0.034586 0.172176
0.000000 0.059457 0.215018
0.000000 0.083676 0.259471
0.000000 0.107616 0.305116
0.000000 0.131504 0.351440
0.010355 0.155426 0.397835
0.042484 0.179324 0.443598
0.079571 0.202994 0.487932
0.121290 0.226092 0.529945
0.167258 0.248127 0.568651
0.217034 0.268465 0.602968
0.270119 0.286331 0.631721
0.325957 0.300803 0.653639
0.383933 0.310816 0.667359
0.443375 0.315164 0.671419
0.503554 0.312494 0.664268
0.563680 0.301311 0.644254
0.622910 0.279976 0.609637
0.680339 0.246706 0.558577
0.735006 0.199576 0.489142
0.785893 0.136514 0.399306
0.831923 0.055308 0.286947
0.871961 0.000000 0.149849
0.904816 0.000000 0.000000
0.929236 0.000000 0.000000
0.943915 0.000000 0.000000
0.947487 0.000000 0.000000
0.938527 0.000000 0.000000
0.915556 0.000000 0.000000
0.877034 0.000000 0.000000
0.000000 0.000000 0.012346
0.000000 0.000000 0.051500
0.000000 0.009164 0.093060
0.000000 0.041518 0.136860
0.000000 0.072263 0.182636
0.000000 0.101859 0.230030
0.000000 0.130623 0.278592
0.000000 0.158728 0.327774
0.000000 0.186206 0.376936
0.010213 0.212940 0.425341
0.045418 0.238675 0.472160
0.084507 0.263010 0.516467
0.127054 0.285398 0.557244
0.172576 0.305152 0.593375
0.220529 0.321440 0.623652
0.270313 0.333285 0.646773
0.321272 0.339568 0.661339
0.372689 0.339027 0.665857
0.423792 0.330254 0.658742
0.473748 0.311699 0.638310
0.521670 0.281667 0.602787
0.566610 0.238322 0.550300
0.607565 0.179680 0.478885
0.643471 0.103618 0.386482
0.673209 0.007866 0.270936
0.695602 0.000000 0.129998
0.709412 0.000000 0.000000
0.713348 0.000000 0.000000
0.706058 0.000000 0.000000
0.686133 0.000000 0.000000
0.652105 0.000000 0.000000
0.602452 0.000000 0.000000
0.535590 0.000000 0.000000
0.000000 0.000000 0.000000
0.000000 0.000000 0.010688
0.000000 0.004384 0.054872
0.000000 0.043253 0.101366
0.000000 0.080047 0.149874
0.000000 0.115170 0.200004
0.000000 0.148884 0.251272
0.000000 0.181307 0.303098
0.000000 0.212415 0.354809
0.000000 0.242038 0.405635
0.008879 0.269864 0.454714
0.045278 0.295437 0.501087
0.084337 0.318155 0.543702
0.125528 0.337277 0.581412
0.168265 0.351913 0.612975
0.211904 0.361034 0.637055
0.255746 0.363465 0.652220
0.299031 0.357888 0.656947
0.340942 0.342839 0.649614
0.380606 0.316715 0.628506
0.417089 0.277765 0.591816
0.449401 0.224097 0.537638
0.476496 0.153674 0.463974
0.497267 0.064315 0.368732
0.510551 0.000000 0.249724
0.515127 0.000000 0.104667
0.509716 0.000000 0.000000
0.492981 0.000000 0.000000
0.463528 0.000000 0.000000
0.419904 0.000000 0.000000
0.360599 0.000000 0.000000
0.284045 0.000000 0.000000
0.188618 0.000000 0.000000
0.000000 0.000000 0.000000
0.000000 0.000000 0.000000
0.000000 0.000000 0.018080
0.000000 0.040859 0.067053
0.000000 0.083882 0.118072
0.000000 0.124687 0.170715
0.000000 0.163482 0.224463
0.000000 0.200330 0.278704
0.000000 0.235150 0.332730
0.000000 0.267718 0.385740
0.000000 0.297667 0.436838
0.004982 0.324484 0.485032
0.040499 0.347515 0.529238
0.077299 0.365961 0.568274
0.114752 0.378879 0.600867
0.152171 0.385184 0.625647
0.188812 0.383645 0.641150
0.223873 0.372889 0.645818
0.256493 0.351399 0.637998
0.285756 0.317514 0.615941
0.310685 0.269430 0.577807
0.330247 0.205198 0.521657
0.343351 0.122727 0.445460
0.348848 0.019781 0.347091
0.345531 0.000000 0.224329
0.332136 0.000000 0.074859
0.307341 0.000000 0.000000
0.269764 0.000000 0.000000
0.217970 0.000000 0.000000
0.150461 0.000000 0.000000
0.065685 0.000000 0.000000
0.000000 0.000000 0.000000
0.000000 0.000000 0.000000
0.000000 0.000000 0.000000
0.000000 0.000000 0.000000
0.000000 0.000000 0.000000
0.000000 0.035485 0.035520
0.000000 0.084923 0.088816
0.000000 0.131573 0.143732
0.000000 0.175585 0.199718
0.000000 0.216968 0.256126
0.000000 0.255587 0.312218
0.000000 0.291162 0.367159
0.000000 0.323270 0.420019
0.000000 0.351345 0.469774
0.000000 0.374676 0.515305
0.029443 0.392409 0.555401
0.061559 0.403547 0.588752
0.092697 0.406948 0.613957
0.122070 0.401328 0.629519
0.148831 0.385257 0.633846
0.172077 0.357164 0.625252
0.190847 0.315333 0.601957
0.204123 0.257903 0.562085
0.210827 0.182872 0.503666
0.209825 0.088093 0.424637
0.199924 0.000000 0.322837
0.179876 0.000000 0.196013
0.148371 0.000000 0.041818
0.104045 0.000000 0.000000
0.045473 0.000000 0.000000
0.000000 0.000000 0.000000
0.000000 0.000000 0.000000
0.000000 0.000000 0.000000
0.000000 0.000000 0.000000
0.000000 0.000000 0.000000
0.000000 0.000000 0.000000
0.000000 0.000000 0.000000
0.000000 0.000000 0.000000
0.000000 0.028366 0.008611
0.000000 0.084410 0.063932
0.000000 0.137070 0.120867
0.000000 0.186441 0.178831
0.000000 0.232477 0.237145
0.000000 0.274987 0.295037
0.000000 0.313636 0.351638
0.000000 0.347946 0.405987
0.000000 0.377296 0.457026
0.000000 0.400920 0.503603
0.000000 0.417909 0.544473
0.010401 0.427210 0.578296
0.035214 0.427626 0.603635
0.057266 0.417818 0.618960
0.075666 0.396302 0.622648
0.089470 0.361450 0.612978
0.097672 0.311491 0.588139
0.099211 0.244511 0.546220
0.092965 0.158450 0.485219
0.077758 0.051108 0.403040
0.052353 0.000000 0.297489
0.015458 0.000000 0.166280
0.000000 0.000000 0.007032
0.000000 0.000000 0.000000
0.000000 0.000000 0.000000
0.000000 0.000000 0.000000
0.000000 0.000000 0.000000
0.000000 0.000000 0.000000
0.000000 0.000000 0.000000
0.000000 0.000000 0.000000
0.000000 0.000000 0.000000
0.000000 0.000000 0.000000
0.000000 0.000000 0.000000
0.000000 0.020816 0.000000
0.000000 0.083664 0.045491
0.000000 0.142506 0.104173
0.000000 0.197384 0.163840
0.000000 0.248195 0.223782
0.000000 0.294693 0.283191
0.000000 0.336489 0.341167
0.000000 0.373050 0.396715
0.000000 0.403698 0.448745
0.000000 0.427613 0.496072
0.000000 0.443831 0.537417
0.000000 0.451243 0.571406
0.000000 0.448599 0.596571
0.000000 0.434503 0.611349
0.006286 0.407415 0.614083
0.010595 0.365654 0.603020
0.008169 0.307393 0.576313
0.000000 0.230661 0.532022
0.000000 0.133347 0.468111
0.000000 0.013191 0.382449
0.000000 0.000000 0.272810
0.000000 0.000000 0.136876
0.000000 0.000000 0.000000
0.000000 0.000000 0.000000
0.000000 0.000000 0.000000
0.000000 0.000000 0.000000
0.000000 0.000000 0.000000
0.000000 0.000000 0.000000
0.000000 0.000000 0.000000
0.000000 0.000000 0.000000
0.000000 0.000000 0.000000
0.000000 0.000000 0.000000
0.000000 0.000000 0.000000
0.000000 0.014236 0.000000
0.000000 0.084089 0.035805
0.000000 0.149291 0.095946
0.000000 0.209827 0.157027
0.000000 0.265541 0.218300
0.000000 0.316131 0.278929
0.000000 0.361153 0.337978
0.000000 0.400017 0.394420
0.000000 0.431992 0.447132
0.000000 0.456202 0.494895
0.000000 0.471628 0.536398
0.000000 0.477107 0.570234
0.000000 0.471331 0.594902
0.000000 0.452851 0.608806
0.000000 0.420072 0.610254
0.000000 0.371256 0.597463
0.000000 0.304523 0.568552
0.000000 0.217847 0.521548
0.000000 0.109058 0.454380
0.000000 0.000000 0.364886
0.000000 0.000000 0.250807
0.000000 0.000000 0.109791
0.000000 0.000000 0.000000
0.000000 0.000000 0.000000
0.000000 0.000000 0.000000
0.000000 0.000000 0.000000
0.000000 0.000000 0.000000
0.000000 0.000000 0.000000
0.000000 0.000000 0.000000
0.000000 0.000000 0.000000
0.000000 0.000000 0.000000
0.000000 0.000000 0.000000
0.000000 0.000000 0.000000
0.000000 0.010107 0.000000
0.000000 0.087173 0.037431
0.000000 0.158918 0.098729
0.000000 0.225271 0.160914
0.000000 0.286021 0.223209
0.000000 0.340811 0.284743
0.000000 0.389141 0.344547
0.000000 0.430368 0.401561
0.000000 0.463704 0.454629
0.000000 0.488219 0.502500
0.000000 0.502838 0.543829
0.000000 0.506342 0.577176
0.000000 0.497370 0.601007
0.000000 0.474416 0.613692
0.000000 0.435831 0.613509
0.000000 0.379821 0.598639
0.000000 0.304451 0.567169
0.000000 0.207640 0.517093
0.000000 0.087165 0.446307
0.000000 0.000000 0.352616
0.000000 0.000000 0.233729
0.000000 0.000000 0.087259
0.000000 0.000000 0.000000
0.000000 0.000000 0.000000
0.000000 0.000000 0.000000
0.000000 0.000000 0.000000
0.000000 0.000000 0.000000
0.000000 0.000000 0.000000
0.000000 0.000000 0.000000
0.000000 0.000000 0.000000
0.000000 0.000000 0.000000
0.000000 0.000000 0.000000
0.000000 0.000000 0.000000
0.000000 0.009994 0.000000
0.000000 0.094487 0.053168
0.000000 0.172962 0.115302
0.000000 0.245296 0.178269
0.000000 0.311220 0.241259
0.000000 0.370324 0.303367
0.000000 0.422053 0.363592
0.000000 0.465706 0.420841
0.000000 0.500443 0.473924
0.000000 0.525277 0.521557
0.000000 0.539078 0.562363
0.000000 0.540573 0.594868
0.000000 0.528345 0.617506
0.000000 0.500832 0.628614
0.000000 0.456332 0.626436
0.000000 0.392995 0.609120
0.000000 0.308829 0.574721
0.000000 0.201700 0.521199
0.000000 0.069329 0.446418
0.000000 0.000000 0.348149
0.000000 0.000000 0.224068
0.000000 0.000000 0.071756
0.000000 0.000000 0.000000
0.000000 0.000000 0.000000
0.000000 0.000000 0.000000
0.000000 0.000000 0.000000
0.000000 0.000000 0.000000
0.000000 0.000000 0.000000
0.000000 0.000000 0.000000
0.000000 0.000000 0.000000
0.000000 0.000000 0.000000
0.000000 0.000000 0.000000
0.000000 0.000000 0.000000
0.000000 0.015545 0.024948
0.000000 0.107682 0.086058
0.000000 0.193082 0.148692
0.000000 0.271565 0.212102
0.000000 0.342809 0.275444
0.000000 0.406346 0.337779
0.000000 0.461567 0.398075
0.000000 0.507717 0.455204
0.000000 0.543900 0.507944
0.000000 0.569073 0.554979
0.000000 0.582052 0.594897
0.000000 0.581508 0.626192
0.000000 0.565969 0.647265
0.000000 0.533820 0.656420
0.000000 0.483300 0.651867
0.000000 0.412506 0.631723
0.000000 0.319392 0.594008
0.000000 0.201766 0.536650
0.000000 0.057296 0.457480
0.000000 0.000000 0.354235
0.000000 0.000000 0.224560
0.000000 0.000000 0.066001
0.000000 0.000000 0.000000
0.000000 0.000000 0.000000
0.000000 0.000000 0.000000
0.000000 0.000000 0.000000
0.000000 0.000000 0.000000
0.000000 0.000000 0.000000
0.000000 0.000000 0.000000
0.000000 0.000000 0.000000
0.000000 0.000000 0.000000
0.000000 0.000000 0.000000
0.000000 0.000000 0.018996
0.000000 0.028491 0.078099
0.000000 0.128497 0.139386
0.000000 0.221021 0.202169
0.000000 0.305827 0.265666
0.000000 0.382539 0.329000
0.000000 0.450635 0.391200
0.000000 0.509448 0.451199
0.000000 0.558170 0.507838
0.000000 0.595848 0.559862
0.000000 0.621386 0.605921
0.000000 0.633544 0.644570
0.000000 0.630937 0.674271
0.000000 0.612039 0.693390
0.000000 0.575178 0.700200
0.000000 0.518541 0.692877
0.000000 0.440167 0.669506
0.000000 0.337956 0.628073
0.000000 0.209662 0.566472
0.000000 0.052894 0.482503
0.000000 0.000000 0.373869
0.000000 0.000000 0.238182
0.000000 0.000000 0.072955
0.000000 0.000000 0.000000
0.000000 0.000000 0.000000
0.000000 0.000000 0.000000
0.000000 0.000000 0.000000
0.000000 0.000000 0.000000
0.000000 0.000000 0.000000
0.000000 0.000000 0.000000
0.000000 0.000000 0.000000
0.000000 0.000000 0.000000
0.000000 0.000000 0.040562
0.000000 0.000000 0.096667
0.000000 0.050645 0.155582
0.000000 0.158749 0.216682
0.000000 0.258601 0.279245
0.000000 0.349912 0.342456
0.000000 0.432247 0.405407
0.000000 0.505030 0.467092
0.000000 0.567541 0.526413
0.000000 0.618916 0.582176
0.000000 0.658146 0.633094
0.000000 0.684079 0.677783
0.000000 0.695422 0.714766
0.000000 0.690734 0.742471
0.000000 0.668433 0.759233
0.000000 0.626793 0.763290
0.000000 0.563945 0.752786
0.000000 0.477874 0.725771
0.000000 0.366423 0.680201
0.000000 0.227292 0.613935
0.000000 0.058036 0.524741
0.000000 0.000000 0.410289
0.000000 0.000000 0.268156
0.000000 0.000000 0.095825
0.000000 0.000000 0.000000
0.000000 0.000000 0.000000
0.000000 0.000000 0.000000
0.000000 0.000000 0.000000
0.000000 0.000000 0.000000
0.000000 0.000000 0.000000
0.000000 0.000000 0.000000
0.000000 0.000000 0.000000
0.000000 0.000000 0.095220
0.000000 0.000000 0.147325
0.000000 0.000000 0.202834
0.000000 0.083904 0.261184
0.000000 0.200341 0.321715
0.000000 0.307732 0.383674
0.000000 0.405731 0.446213
0.000000 0.493850 0.508388
0.000000 0.571457 0.569164
0.000000 0.637777 0.627407
0.000000 0.691890 0.681892
0.000000 0.732732 0.731297
0.000000 0.759098 0.774206
0.000000 0.769637 0.809110
0.000000 0.762855 0.834403
0.000000 0.737113 0.848387
0.000000 0.690632 0.849266
0.000000 0.621485 0.835153
0.000000 0.527604 0.804064
0.000000 0.406777 0.753921
0.000000 0.256647 0.682552
0.000000 0.074715 0.587690
0.000000 0.000000 0.466974
0.000000 0.000000 0.317946
0.000000 0.000000 0.138057
0.000000 0.000000 0.000000
0.000000 0.000000 0.000000
0.000000 0.000000 0.000000
0.000000 0.000000 0.000000
0.000000 0.000000 0.000000
0.000000 0.000000 0.000000
0.000000 0.000000 0.000000
0.000000 0.000000 0.000000
0.000000 0.000000 0.235960
0.000000 0.000000 0.287020
0.000000 0.000000 0.341544
0.000000 0.130248 0.398935
0.000000 0.255259 0.458500
0.000000 0.370403 0.519455
0.000000 0.475281 0.580916
0.000000 0.569350 0.641909
0.000000 0.651922 0.701364
0.012975 0.722167 0.758114
0.024685 0.779109 0.810902
0.029847 0.821632 0.858372
0.027470 0.848471 0.899076
0.016507 0.858224 0.931472
0.000000 0.849339 0.953920
0.000000 0.820125 0.964688
0.000000 0.768744 0.961950
0.000000 0.693216 0.943783
0.000000 0.591419 0.908172
0.000000 0.461083 0.853006
0.000000 0.299798 0.776079
0.000000 0.105009 0.675091
0.000000 0.000000 0.547648
0.000000 0.000000 0.391261
0.000000 0.000000 0.203344
0.000000 0.000000 0.000000
0.000000 0.000000 0.000000
0.000000 0.000000 0.000000
0.000000 0.000000 0.000000
0.000000 0.000000 0.000000
0.000000 0.000000 0.000000
0.000000 0.000000 0.000000
0.000000 0.000000 0.000000
0.000000 0.000000 0.414341
0.000000 0.000000 0.463953
0.000000 0.047512 0.517086
0.000000 0.191740 0.573108
0.000000 0.325569 0.631296
0.025600 0.448688 0.690829
0.056573 0.560641 0.750793
0.083697 0.660831 0.810179
0.106168 0.748515 0.867885
0.123128 0.822806 0.922712
0.133657 0.882675 0.973367
0.136781 0.926949 1.000000
0.131466 0.954310 1.000000
0.116620 0.963298 1.000000
0.091096 0.952309 1.000000
0.053685 0.919594 1.000000
0.003123 0.863262 1.000000
0.000000 0.781278 1.000000
0.000000 0.671461 1.000000
0.000000 0.531491 0.981471
0.000000 0.358900 0.898515
0.000000 0.151078 0.790926
0.000000 0.000000 0.656278
0.000000 0.000000 0.492049
0.000000 0.000000 0.295620
0.000000 0.000000 0.064281
0.000000 0.000000 0.000000
0.000000 0.000000 0.000000
0.000000 0.000000 0.000000
0.000000 0.000000 0.000000
0.000000 0.000000 0.000000
0.000000 0.000000 0.000000
0.000000 0.000000 0.000000
0.000000 0.000000 0.634926
0.000000 0.000000 0.682673
0.043043 0.116412 0.733992
0.085162 0.270523 0.788221
0.124929 0.413422 0.844601
0.161673 0.544742 0.902280
0.194663 0.663973 0.960310
0.223111 0.770461 1.000000
0.246171 0.863407 1.000000
0.262941 0.941872 1.000000
0.272459 1.000000 1.000000
0.273706 1.000000 1.000000
0.265605 1.000000 1.000000
0.247021 1.000000 1.000000
0.216763 1.000000 1.000000
0.173580 1.000000 1.000000
0.116164 0.976403 1.000000
0.043149 0.887890 1.000000
0.000000 0.769960 1.000000
0.000000 0.620234 1.000000
0.000000 0.436191 1.000000
0.000000 0.215166 0.939421
0.000000 0.000000 0.797074
0.000000 0.000000 0.624504
0.000000 0.000000 0.419061
0.000000 0.000000 0.178002
0.000000 0.000000 0.000000
0.000000 0.000000 0.000000
0.000000 0.000000 0.000000
0.000000 0.000000 0.000000
0.000000 0.000000 0.000000
0.000000 0.000000 0.000000
0.000000 0.000000 0.000000
0.102295 0.000000 0.902525
0.152413 0.028502 0.947972
0.200868 0.204551 0.997040
0.247059 0.368828 1.000000
0.290328 0.521054 1.000000
0.329961 0.660806 1.000000
0.365183 0.787521 1.000000
0.395163 0.900488 1.000000
0.419013 0.998856 1.000000
0.435785 1.000000 1.000000
0.444475 1.000000 1.000000
0.444021 1.000000 1.000000
0.433303 1.000000 1.000000
0.411142 1.000000 1.000000
0.376303 1.000000 1.000000
0.327492 1.000000 1.000000
0.263359 1.000000 1.000000
0.182494 1.000000 1.000000
0.083429 0.889223 1.000000
0.000000 0.729626 1.000000
0.000000 0.533991 1.000000
0.000000 0.299598 1.000000
0.000000 0.023582 0.974487
0.000000 0.000000 0.793063
0.000000 0.000000 0.578089
0.000000 0.000000 0.326786
0.000000 0.000000 0.036285
0.000000 0.000000 0.000000
0.000000 0.000000 0.000000
0.000000 0.000000 0.000000
0.000000 0.000000 0.000000
0.000000 0.000000 0.000000
0.000000 0.000000 0.000000
0.284831 0.000000 1.000000
0.340301 0.126927 1.000000
0.393617 0.314237 1.000000
0.444134 0.488965 1.000000
0.491153 0.650779 1.000000
0.533914 0.799202 1.000000
0.571599 0.933612 1.000000
0.603336 1.000000 1.000000
0.628190 1.000000 1.000000
0.645173 1.000000 1.000000
0.653236 1.000000 1.000000
0.651273 1.000000 1.000000
0.638122 1.000000 1.000000
0.612560 1.000000 1.000000
0.573309 1.000000 1.000000
0.519032 1.000000 1.000000
0.448334 1.000000 1.000000
0.359762 1.000000 1.000000
0.251808 1.000000 1.000000
0.122902 0.862066 1.000000
0.000000 0.654704 1.000000
0.000000 0.406783 1.000000
0.000000 0.115383 1.000000
0.000000 0.000000 1.000000
0.000000 0.000000 0.777365
0.000000 0.000000 0.515283
0.000000 0.000000 0.213254
0.000000 0.000000 0.000000
0.000000 0.000000 0.000000
0.000000 0.000000 0.000000
0.000000 0.000000 0.000000
0.000000 0.000000 0.000000
0.000000 0.000000 0.000000
0.505272 0.036913 1.000000
0.566381 0.248969 1.000000
0.624837 0.447856 1.000000
0.679952 0.633329 1.000000
0.730983 0.804999 1.000000
0.777127 0.962334 1.000000
0.817524 1.000000 1.000000
0.851255 1.000000 1.000000
0.877346 1.000000 1.000000
0.894763 1.000000 1.000000
0.902414 1.000000 1.000000
0.899151 1.000000 1.000000
0.883766 1.000000 1.000000
0.854996 1.000000 1.000000
0.811517 1.000000 1.000000
0.751950 1.000000 1.000000
0.674856 1.000000 1.000000
0.578740 1.000000 1.000000
0.462048 1.000000 1.000000
0.323169 1.000000 1.000000
0.160433 0.800817 1.000000
0.000000 0.539214 1.000000
0.000000 0.232251 1.000000
0.000000 0.000000 1.000000
0.000000 0.000000 1.000000
0.000000 0.000000 0.748382
0.000000 0.000000 0.434268
0.000000 0.000000 0.076424
0.000000 0.000000 0.000000
0.000000 0.000000 0.000000
0.000000 0.000000 0.000000
0.000000 0.000000 0.000000
0.000000 0.000000 0.000000
0.767280 0.172337 1.000000
0.834331 0.397095 1.000000
0.898221 0.607882 1.000000
0.958221 0.804396 1.000000
1.000000 0.986194 1.000000
1.000000 1.000000 1.000000
1.000000 1.000000 1.000000
1.000000 1.000000 1.000000
1.000000 1.000000 1.000000
1.000000 1.000000 1.000000
1.000000 1.000000 1.000000
1.000000 1.000000 1.000000
1.000000 1.000000 1.000000
1.000000 1.000000 1.000000
1.000000 1.000000 1.000000
1.000000 1.000000 1.000000
0.946839 1.000000 1.000000
0.843354 1.000000 1.000000
0.718094 1.000000 1.000000
0.569402 1.000000 1.000000
0.395567 0.974899 1.000000
0.194819 0.699465 1.000000
0.000000 0.376765 1.000000
0.000000 0.003627 1.000000
0.000000 0.000000 1.000000
0.000000 0.000000 1.000000
0.000000 0.000000 0.704444
0.000000 0.000000 0.333154
0.000000 0.000000 0.000000
0.000000 0.000000 0.000000
0.000000 0.000000 0.000000
0.000000 0.000000 0.000000
0.000000 0.000000 0.000000
1.000000 0.336041 1.000000
1.000000 0.573854 1.000000
1.000000 0.796868 1.000000
1.000000 1.000000 1.000000
1.000000 1.000000 1.000000
1.000000 1.000000 1.000000
1.000000 1.000000 1.000000
1.000000 1.000000 1.000000
1.000000 1.000000 1.000000
1.000000 1.000000 1.000000
1.000000 1.000000 1.000000
1.000000 1.000000 1.000000
1.000000 1.000000 1.000000
1.000000 1.000000 1.000000
1.000000 1.000000 1.000000
1.000000 1.000000 1.000000
1.000000 1.000000 1.000000
1.000000 1.000000 1.000000
1.000000 1.000000 1.000000
0.865708 1.000000 1.000000
0.680942 1.000000 1.000000
0.467925 0.890194 1.000000
0.224784 0.551589 1.000000
0.000000 0.160561 1.000000
0.000000 0.000000 1.000000
0.000000 0.000000 1.000000
0.000000 0.000000 1.000000
0.000000 0.000000 0.643813
0.000000 0.000000 0.209982
0.000000 0.000000 0.000000
0.000000 0.000000 0.000000
0.000000 0.000000 0.000000
0.000000 0.000000 0.000000
1.000000 0.530652 1.000000
1.000000 0.781878 1.000000
1.000000 1.000000 1.000000
1.000000 1.000000 1.000000
1.000000 1.000000 1.000000
1.000000 1.000000 1.000000
1.000000 1.000000 1.000000
1.000000 1.000000 1.000000
1.000000 1.000000 1.000000
1.000000 1.000000 1.000000
1.000000 1.000000 1.000000
1.000000 1.000000 1.000000
1.000000 1.000000 1.000000
1.000000 1.000000 1.000000
1.000000 1.000000 1.000000
1.000000 1.000000 1.000000
1.000000 1.000000 1.000000
1.000000 1.000000 1.000000
1.000000 1.000000 1.000000
1.000000 1.000000 1.000000
1.000000 1.000000 1.000000
0.795713 1.000000 1.000000
0.539091 0.759470 1.000000
0.248984 0.350363 1.000000
0.000000 0.000000 1.000000
0.000000 0.000000 1.000000
0.000000 0.000000 1.000000
0.000000 0.000000 1.000000
0.000000 0.000000 0.564680
0.000000 0.000000 0.062723
0.000000 0.000000 0.000000
0.000000 0.000000 0.000000
0.000000 0.000000 0.000000
1.000000 0.758879 1.000000
1.000000 1.000000 1.000000
1.000000 1.000000 1.000000
1.000000 1.000000 1.000000
1.000000 1.000000 1.000000
1.000000 1.000000 1.000000
1.000000 1.000000 1.000000
1.000000 1.000000 1.000000
1.000000 1.000000 1.000000
1.000000 1.000000 1.000000
1.000000 1.000000 1.000000
1.000000 1.000000 1.000000
1.000000 1.000000 1.000000
1.000000 1.000000 1.000000
1.000000 1.000000 1.000000
1.000000 1.000000 1.000000
1.000000 1.000000 1.000000
1.000000 1.000000 1.000000
1.000000 1.000000 1.000000
1.000000 1.000000 1.000000
1.000000 1.000000 1.000000
1.000000 1.000000 1.000000
0.912690 1.000000 1.000000
0.607845 0.575869 1.000000
0.266001 0.088549 1.000000
0.000000 0.000000 1.000000
0.000000 0.000000 1.000000
