lrplugin/MindfulLensFilmEngine.lrplugin/profiles/luts/kodak_oktar.cube
# Generated from ColorChecker fit
LUT_3D_SIZE 5
DOMAIN_MIN 0.0 0.0 0.0
DOMAIN_MAX 1.0 1.0 1.0
0.000000 0.000000 0.209503
0.000000 0.000000 0.371117
0.160227 0.201851 0.611631
0.122725 0.144864 0.617887
0.000000 0.000000 0.000000
0.000000 0.000000 0.000000
0.000000 0.063298 0.212505
0.111809 0.440415 0.597724
0.000000 0.474480 0.738755
0.000000 0.000000 0.114237
0.000000 0.000000 0.000000
0.000000 0.246142 0.256316
0.000000 0.557976 0.697990
0.000000 0.429006 0.859614
0.000000 0.000000 0.185593
0.000000 0.211521 0.384978
0.191240 0.375709 0.774651
0.245527 0.508493 1.000000
0.000000 0.075461 1.000000
0.000000 0.000000 0.550341
1.000000 0.064752 1.000000
1.000000 0.120318 1.000000
1.000000 0.073347 1.000000
0.266999 0.000000 1.000000
0.000000 0.000000 1.000000
0.317185 0.242120 0.306265
0.246208 0.240120 0.272624
0.332818 0.226186 0.430714
0.288584 0.000000 0.517196
0.000000 0.000000 0.094760
0.157400 0.212061 0.175428
0.234426 0.311032 0.254014
0.389158 0.441348 0.525634
0.225155 0.189776 0.692715
0.000000 0.000000 0.283716
0.167478 0.512608 0.220531
0.275462 0.573470 0.342347
0.356580 0.681698 0.632568
0.000000 0.342923 0.759388
0.000000 0.000000 0.217031
0.515475 0.648128 0.571225
0.615697 0.644866 0.721081
0.559792 0.677731 0.988779
0.000000 0.171221 1.000000
0.000000 0.000000 0.239576
1.000000 0.000000 1.000000
1.000000 0.000000 1.000000
1.000000 0.000000 1.000000
0.277606 0.000000 1.000000
0.000000 0.000000 1.000000
0.636145 0.507552 0.457841
0.357451 0.323206 0.283278
0.421260 0.208163 0.425138
0.567154 0.000000 0.669899
0.238285 0.000000 0.630068
0.459081 0.435004 0.308044
0.307137 0.275657 0.247031
0.433655 0.261530 0.480743
0.470207 0.000000 0.761426
0.000000 0.000000 0.667354
0.456698 0.709513 0.275074
0.312393 0.496581 0.251935
0.357819 0.477528 0.475892
0.116537 0.116902 0.664957
0.000000 0.000000 0.363171
0.643134 0.611985 0.399937
0.465684 0.379946 0.392802
0.364544 0.363188 0.559200
0.000000 0.000000 0.582910
0.000000 0.000000 0.000000
1.000000 0.000000 1.000000
1.000000 0.000000 1.000000
0.787297 0.000000 1.000000
0.000000 0.000000 1.000000
0.000000 0.000000 0.100200
0.886555 0.597661 0.486744
0.528538 0.416431 0.308060
0.792771 0.497367 0.582348
1.000000 0.426199 1.000000
1.000000 0.000000 1.000000
0.697418 0.538737 0.302483
0.432540 0.280504 0.248168
0.741712 0.392993 0.602130
1.000000 0.380798 1.000000
1.000000 0.000000 1.000000
0.694691 0.834572 0.205623
0.401777 0.481246 0.193324
0.610022 0.579941 0.518671
0.871002 0.554116 0.949493
0.439861 0.000000 1.000000
0.738599 0.542613 0.148526
0.374799 0.189167 0.149692
0.414578 0.341782 0.391942
0.301498 0.342783 0.608872
0.000000 0.000000 0.360108
0.852042 0.000000 0.428459
0.452834 0.000000 0.468345
0.334932 0.000000 0.626820
0.000000 0.000000 0.603246
0.000000 0.000000 0.000000
0.852855 0.097531 0.250466
0.665105 0.273580 0.286923
1.000000 1.000000 0.924763
1.000000 1.000000 1.000000
1.000000 1.000000 1.000000
0.786040 0.250787 0.167867
0.645461 0.221799 0.349013
1.000000 0.900661 1.000000
1.000000 1.000000 1.000000
1.000000 1.000000 1.000000
0.924280 0.757758 0.172933
0.707632 0.566139 0.409733
1.000000 1.000000 1.000000
1.000000 1.000000 1.000000
1.000000 1.000000 1.000000
0.973883 0.452426 0.129375
0.636253 0.253642 0.386600
1.000000 0.963326 0.964319
1.000000 1.000000 1.000000
1.000000 1.000000 1.000000
0.803835 0.000000 0.245818
0.378636 0.000000 0.542043
0.672684 0.000000 1.000000
1.000000 0.307715 1.000000
0.576355 0.535127 1.000000
