lrplugin/MindfulLensFilmEngine.lrplugin/profiles/luts/kodak_oktar.cube
# Generated from ColorChecker fit
LUT_3D_SIZE 9
DOMAIN_MIN 0.0 0.0 0.0
DOMAIN_MAX 1.0 1.0 1.0
0.000000 0.000000 0.209503
0.000000 0.000000 0.267671
0.000000 0.000000 0.371117
0.058899 0.100595 0.497006
0.160227 0.201851 0.611631
0.203950 0.241206 0.670409
0.122725 0.144864 0.617887
0.000000 0.000000 0.387736
0.000000 0.000000 0.000000
0.000000 0.000000 0.037074
0.000000 0.000000 0.127925
0.000000 0.008360 0.270042
0.051086 0.182212 0.438450
0.169913 0.340122 0.597302
0.206442 0.428169 0.699877
0.086576 0.367488 0.688581
0.000000 0.054264 0.494947
0.000000 0.000000 0.039635
0.000000 0.000000 0.000000
0.000000 0.000000 0.043681
0.000000 0.063298 0.212505
0.000000 0.262124 0.409849
0.111809 0.440415 0.597724
0.116474 0.539179 0.727271
0.000000 0.474480 0.738755
0.000000 0.137432 0.561570
0.000000 0.000000 0.114237
0.000000 0.000000 0.000000
0.000000 0.000000 0.013253
0.000000 0.147391 0.200185
0.000000 0.343688 0.416243
0.030490 0.513154 0.621300
0.000000 0.591726 0.764356
0.000000 0.490396 0.783537
0.000000 0.095208 0.606098
0.000000 0.000000 0.148420
0.000000 0.000000 0.000000
0.000000 0.082164 0.056513
0.000000 0.246142 0.256316
0.000000 0.419475 0.484231
0.000000 0.557976 0.697990
0.000000 0.592513 0.844456
0.000000 0.429006 0.859614
0.000000 0.000000 0.668579
0.000000 0.000000 0.185593
0.000000 0.098749 0.063100
0.000000 0.201993 0.214889
0.000000 0.334270 0.425689
0.020833 0.471270 0.661965
0.027354 0.563734 0.879311
0.000000 0.537459 1.000000
0.000000 0.293295 1.000000
0.000000 0.000000 0.810618
0.000000 0.000000 0.290725
0.000000 0.211521 0.384978
0.025497 0.279731 0.551368
0.191240 0.375709 0.774651
0.288182 0.470072 1.000000
0.245527 0.508493 1.000000
0.000000 0.411697 1.000000
0.000000 0.075461 1.000000
0.000000 0.000000 1.000000
0.000000 0.000000 0.550341
0.373244 0.224113 0.963027
0.569052 0.261459 1.000000
0.734626 0.323604 1.000000
0.810946 0.376095 1.000000
0.720466 0.359533 1.000000
0.367111 0.189571 1.000000
0.000000 0.000000 1.000000
0.000000 0.000000 1.000000
0.000000 0.000000 1.000000
1.000000 0.064752 1.000000
1.000000 0.082472 1.000000
1.000000 0.120318 1.000000
1.000000 0.138766 1.000000
1.000000 0.073347 1.000000
1.000000 0.000000 1.000000
0.266999 0.000000 1.000000
0.000000 0.000000 1.000000
0.000000 0.000000 1.000000
0.106289 0.056532 0.238573
0.107956 0.106990 0.241799
0.149443 0.162535 0.300922
0.220734 0.221645 0.396222
0.293289 0.257847 0.497104
0.320038 0.219724 0.562101
0.235388 0.030913 0.538870
0.000000 0.000000 0.364200
0.000000 0.000000 0.000000
0.000000 0.000000 0.121617
0.050799 0.075476 0.157134
0.138757 0.182083 0.253099
0.246315 0.296475 0.387652
0.338183 0.387111 0.528058
0.360541 0.397501 0.630710
0.241044 0.246212 0.641127
0.000000 0.000000 0.493957
0.000000 0.000000 0.112973
0.000000 0.024247 0.064017
0.000000 0.130862 0.121066
0.113871 0.259446 0.241493
0.235986 0.398333 0.401297
0.323912 0.510911 0.565605
0.317081 0.535619 0.688670
0.136395 0.385953 0.713872
0.000000 0.000000 0.573717
0.000000 0.000000 0.189841
0.000000 0.147716 0.055185
0.000000 0.248405 0.126369
0.099953 0.376948 0.262241
0.219807 0.516609 0.436658
0.285432 0.625704 0.612609
0.229508 0.637602 0.742207
0.000000 0.460728 0.766692
0.000000 0.000000 0.616432
0.000000 0.000000 0.210921
0.000000 0.311061 0.106089
0.006394 0.392576 0.187375
0.132335 0.506128 0.333036
0.238007 0.629908 0.514792
0.267867 0.717162 0.693489
0.147844 0.696188 0.819103
0.000000 0.470339 0.830734
0.000000 0.000000 0.656610
0.000000 0.000000 0.214085
0.021422 0.460901 0.249255
0.135409 0.517063 0.339972
0.256519 0.607738 0.493130
0.340984 0.706049 0.678311
0.326510 0.760169 0.854222
0.132275 0.693328 0.968697
0.000000 0.403805 0.958699
0.000000 0.000000 0.750315
0.000000 0.000000 0.258760
0.292744 0.533072 0.538765
0.412482 0.564764 0.641604
0.528173 0.631745 0.803331
0.589301 0.702064 0.991387
0.526819 0.718826 1.000000
0.253156 0.600187 1.000000
0.000000 0.239358 1.000000
0.000000 0.000000 0.975169
0.000000 0.000000 0.425930
0.767212 0.452619 1.000000
0.898552 0.467794 1.000000
1.000000 0.517328 1.000000
1.000000 0.564201 1.000000
0.944421 0.546445 1.000000
0.591008 0.377146 1.000000
0.000000 0.000000 1.000000
0.000000 0.000000 1.000000
0.000000 0.000000 0.818137
1.000000 0.133805 1.000000
1.000000 0.147480 1.000000
1.000000 0.192882 1.000000
1.000000 0.227919 1.000000
1.000000 0.185553 1.000000
1.000000 0.000000 1.000000
0.409678 0.000000 1.000000
0.000000 0.000000 1.000000
0.000000 0.000000 1.000000
0.317185 0.242120 0.306265
0.255551 0.237447 0.255815
0.246208 0.240120 0.272624
0.280894 0.246046 0.340084
0.332818 0.226186 0.430714
0.356663 0.126556 0.506161
0.288584 0.000000 0.517196
0.046210 0.000000 0.403720
0.000000 0.000000 0.094760
0.220208 0.161529 0.213484
0.206569 0.188659 0.195528
0.242759 0.234466 0.247944
0.313764 0.289788 0.351984
0.386042 0.320516 0.478028
0.407527 0.267592 0.585582
0.307622 0.047014 0.623280
0.000000 0.000000 0.528882
0.000000 0.000000 0.229274
0.157400 0.212061 0.175428
0.173001 0.247393 0.178789
0.234426 0.311032 0.254014
0.319909 0.388744 0.380215
0.389158 0.441348 0.525634
0.383355 0.404716 0.647636
0.225155 0.189776 0.692715
0.000000 0.000000 0.596493
0.000000 0.000000 0.283716
0.134515 0.347941 0.175968
0.165498 0.374943 0.192831
0.236755 0.438176 0.281430
0.319771 0.518337 0.418738
0.367502 0.571173 0.570854
0.314381 0.527487 0.693007
0.076309 0.293133 0.729550
0.000000 0.000000 0.613964
0.000000 0.000000 0.268858
0.167478 0.512608 0.220531
0.204879 0.521812 0.246446
0.275462 0.573470 0.342347
0.343960 0.643207 0.483068
0.356580 0.681698 0.632568
0.241003 0.614675 0.743937
0.000000 0.342923 0.759388
0.000000 0.000000 0.610263
0.000000 0.000000 0.217031
0.282379 0.638714 0.336103
0.322129 0.627721 0.369981
0.386426 0.663700 0.470475
0.433252 0.717204 0.610278
0.402063 0.733839 0.751212
0.213790 0.634266 0.844225
0.000000 0.314197 0.829392
0.000000 0.000000 0.635915
0.000000 0.000000 0.182122
0.515475 0.648128 0.571225
0.558402 0.621604 0.615341
0.615697 0.644866 0.721081
0.638592 0.683397 0.858999
0.559792 0.677731 0.988779
0.293475 0.543458 1.000000
0.000000 0.171221 1.000000
0.000000 0.000000 0.763000
0.000000 0.000000 0.239576
0.913193 0.451929 0.995996
0.965019 0.421607 1.000000
1.000000 0.442182 1.000000
1.000000 0.474065 1.000000
0.895772 0.452720 1.000000
0.550962 0.288666 1.000000
0.000000 0.000000 1.000000
0.000000 0.000000 1.000000
0.000000 0.000000 0.486392
1.000000 0.000000 1.000000
1.000000 0.000000 1.000000
1.000000 0.000000 1.000000
1.000000 0.010702 1.000000
1.000000 0.000000 1.000000
1.000000 0.000000 1.000000
0.277606 0.000000 1.000000
0.000000 0.000000 1.000000
0.000000 0.000000 1.000000
0.485057 0.387503 0.387114
0.358057 0.326307 0.289409
0.301748 0.281690 0.271066
0.309618 0.246994 0.318590
0.356629 0.190610 0.407613
0.399212 0.055986 0.502896
0.375276 0.000000 0.558323
0.204199 0.000000 0.516911
0.000000 0.000000 0.310797
0.382470 0.289086 0.296689
0.300764 0.248099 0.232274
0.288276 0.237063 0.248896
0.331745 0.244249 0.330921
0.399379 0.232979 0.451842
0.440861 0.141628 0.574278
0.387348 0.000000 0.649977
0.151469 0.000000 0.619812
0.000000 0.000000 0.413785
0.324057 0.338088 0.258212
0.268761 0.297491 0.215493
0.279668 0.298515 0.253865
0.336765 0.324357 0.355555
0.401509 0.333271 0.491916
0.416835 0.258559 0.623429
0.307146 0.008581 0.699700
0.000000 0.000000 0.659465
0.000000 0.000000 0.430584
0.305954 0.474768 0.250014
0.263080 0.421809 0.220759
0.281851 0.420436 0.271029
0.335501 0.448776 0.380911
0.378739 0.460010 0.519618
0.347746 0.382371 0.645493
0.160177 0.119148 0.706001
0.000000 0.000000 0.637739
0.000000 0.000000 0.366428
0.334464 0.628598 0.271982
0.294920 0.557591 0.251323
0.310918 0.546432 0.307001
0.348943 0.568176 0.416964
0.356952 0.570934 0.548287
0.264375 0.477869 0.657171
0.000000 0.187196 0.688944
0.000000 0.000000 0.578062
0.000000 0.000000 0.248105
0.426059 0.718265 0.345562
0.385647 0.630591 0.331992
0.393132 0.609323 0.389951
0.408248 0.622445 0.495249
0.372200 0.612997 0.612819
0.207670 0.499071 0.696723
0.000000 0.173811 0.690151
0.000000 0.000000 0.525417
0.000000 0.000000 0.123964
0.607376 0.651670 0.513755
0.566795 0.555776 0.509130
0.564922 0.531142 0.569607
0.554739 0.540682 0.668854
0.470704 0.522365 0.769666
0.228746 0.389210 0.823964
0.000000 0.029293 0.772799
0.000000 0.000000 0.546346
0.000000 0.000000 0.063907
0.915222 0.325927 0.841118
0.880064 0.237327 0.850659
0.872883 0.223137 0.917252
0.839910 0.241202 1.000000
0.708851 0.224417 1.000000
0.388884 0.080734 1.000000
0.000000 0.000000 1.000000
0.000000 0.000000 0.728946
0.000000 0.000000 0.159396
1.000000 0.000000 1.000000
1.000000 0.000000 1.000000
1.000000 0.000000 1.000000
1.000000 0.000000 1.000000
1.000000 0.000000 1.000000
0.759535 0.000000 1.000000
0.028343 0.000000 1.000000
0.000000 0.000000 1.000000
0.000000 0.000000 0.523447
0.636145 0.507552 0.457841
0.449289 0.398984 0.324457
0.357451 0.323206 0.283278
0.355871 0.270990 0.323923
0.421260 0.208163 0.425138
0.511801 0.075602 0.554797
0.567154 0.000000 0.669899
0.508447 0.000000 0.716571
0.238285 0.000000 0.630068
0.520307 0.389694 0.357428
0.375272 0.288114 0.258725
0.324773 0.234736 0.252463
0.357297 0.215263 0.326124
0.442806 0.190448 0.456313
0.532734 0.096100 0.608765
0.559986 0.000000 0.738340
0.438943 0.000000 0.789026
0.065459 0.000000 0.693936
0.459081 0.435004 0.308044
0.336854 0.324375 0.232007
0.307137 0.275657 0.247031
0.351668 0.269481 0.338454
0.433655 0.261530 0.480743
0.497783 0.182542 0.637494
0.470207 0.000000 0.761426
0.258557 0.000000 0.794388
0.000000 0.000000 0.667354
0.438984 0.569775 0.282476
0.325448 0.441125 0.220459
0.300853 0.386392 0.246497
0.340185 0.381135 0.343792
0.399904 0.375966 0.484670
0.417943 0.296552 0.630587
0.313706 0.043612 0.732123
0.000000 0.000000 0.728988
0.000000 0.000000 0.550016
0.456698 0.709513 0.275074
0.342631 0.560937 0.221789
0.312393 0.496581 0.251935
0.334220 0.486930 0.346574
0.357819 0.477528 0.475892
0.314373 0.388969 0.599206
0.116537 0.116902 0.664957
0.000000 0.000000 0.610713
0.000000 0.000000 0.363171
0.519075 0.758938 0.301741
0.400151 0.595599 0.255265
0.358401 0.525076 0.285975
0.355308 0.512787 0.372792
0.333832 0.499202 0.483765
0.218403 0.399845 0.576069
0.000000 0.105294 0.596006
0.000000 0.000000 0.479006
0.000000 0.000000 0.149624
0.643134 0.611985 0.399937
0.519922 0.446110 0.361710
0.465684 0.379946 0.392802
0.435156 0.373839 0.469996
0.364544 0.363188 0.559200
0.171527 0.258448 0.615451
0.000000 0.000000 0.582910
0.000000 0.000000 0.394868
0.000000 0.000000 0.000000
0.856060 0.151802 0.628682
0.734024 0.002686 0.603505
0.671221 0.000000 0.638161
0.615634 0.000000 0.707292
0.496720 0.000000 0.774667
0.225409 0.000000 0.793183
0.000000 0.000000 0.704863
0.000000 0.000000 0.440856
0.000000 0.000000 0.000000
1.000000 0.000000 1.000000
1.000000 0.000000 1.000000
1.000000 0.000000 1.000000
0.948783 0.000000 1.000000
0.787297 0.000000 1.000000
0.441877 0.000000 1.000000
0.000000 0.000000 1.000000
0.000000 0.000000 0.721085
0.000000 0.000000 0.100200
0.775413 0.590444 0.497353
0.541787 0.454198 0.345020
0.433434 0.373929 0.298476
0.447343 0.337843 0.350454
0.561977 0.309196 0.482813
0.737270 0.226299 0.666542
0.914632 0.002517 0.861753
1.000000 0.000000 1.000000
0.948559 0.000000 1.000000
0.646760 0.460432 0.384088
0.450709 0.316327 0.268418
0.380438 0.245652 0.257337
0.426186 0.231540 0.341438
0.559665 0.232178 0.500443
0.734059 0.180807 0.703199
0.884025 0.000000 0.907679
0.925695 0.000000 1.000000
0.756672 0.000000 1.000000
0.583588 0.508791 0.322785
0.405971 0.344570 0.231348
0.353098 0.269528 0.241680
0.408457 0.261727 0.342235
0.537009 0.274283 0.510593
0.685189 0.235365 0.713463
0.780902 0.048195 0.906678
0.733530 0.000000 1.000000
0.433924 0.000000 1.000000
0.562795 0.647847 0.280693
0.389364 0.458320 0.204423
0.338100 0.372017 0.225481
0.385737 0.361930 0.330181
0.490488 0.376102 0.493964
0.592034 0.337633 0.681398
0.611533 0.144673 0.846179
0.451612 0.000000 0.931128
0.000000 0.000000 0.868194
0.571444 0.779140 0.246620
0.392850 0.566183 0.179814
0.332299 0.468792 0.204273
0.359778 0.454887 0.304173
0.426746 0.467441 0.452814
0.466136 0.424482 0.612626
0.392352 0.219090 0.735164
0.101275 0.000000 0.761111
0.000000 0.000000 0.620275
0.606767 0.793424 0.230930
0.418554 0.565979 0.171246
0.342719 0.464739 0.195145
0.342497 0.452551 0.284662
0.362598 0.467319 0.410959
0.329202 0.421998 0.534324
0.149965 0.204599 0.604175
0.000000 0.000000 0.559053
0.000000 0.000000 0.326629
0.676162 0.570666 0.265543
0.478770 0.344744 0.214003
0.386547 0.253959 0.236743
0.355978 0.256090 0.313657
0.325022 0.283970 0.413769
0.213108 0.245482 0.495227
0.000000 0.023566 0.505308
0.000000 0.000000 0.380415
0.000000 0.000000 0.046079
0.797196 0.000000 0.403936
0.595960 0.000000 0.364925
0.491142 0.000000 0.389269
0.432475 0.000000 0.454724
0.351167 0.000000 0.528173
0.159898 0.000000 0.565625
0.000000 0.000000 0.512218
0.000000 0.000000 0.302214
0.000000 0.000000 0.000000
0.997602 0.000000 0.721143
0.802753 0.000000 0.702409
0.694027 0.000000 0.734485
0.614406 0.000000 0.792987
0.488347 0.000000 0.842658
0.221781 0.000000 0.837368
0.000000 0.000000 0.720115
0.000000 0.000000 0.423023
0.000000 0.000000 0.000000
0.886555 0.597661 0.486744
0.626819 0.463975 0.337344
0.528538 0.416431 0.308060
0.590451 0.440665 0.394736
0.792771 0.497367 0.582348
1.000000 0.522280 0.844995
1.000000 0.426199 1.000000
1.000000 0.094974 1.000000
1.000000 0.000000 1.000000
0.753595 0.471686 0.367238
0.526416 0.313666 0.257078
0.462189 0.261282 0.264395
0.552903 0.295096 0.382898
0.772021 0.370729 0.595419
1.000000 0.418852 0.873919
1.000000 0.345190 1.000000
1.000000 0.030522 1.000000
1.000000 0.000000 1.000000
0.697418 0.538737 0.302483
0.483526 0.347909 0.218716
0.432540 0.280504 0.248168
0.529698 0.312016 0.382408
0.741712 0.392993 0.602130
1.000000 0.449035 0.877154
1.000000 0.380798 1.000000
1.000000 0.063989 1.000000
1.000000 0.000000 1.000000
0.685302 0.697174 0.254189
0.470321 0.472128 0.187331
0.416657 0.386590 0.227814
0.502798 0.410983 0.365066
0.688704 0.490784 0.577641
0.915810 0.546523 0.833222
1.000000 0.473783 1.000000
1.000000 0.143202 1.000000
0.980763 0.000000 1.000000
0.694691 0.834572 0.205623
0.469142 0.580965 0.149553
0.401777 0.481246 0.193324
0.464333 0.500770 0.324225
0.610022 0.579941 0.518671
0.773526 0.634219 0.742204
0.871002 0.554116 0.949493
0.800080 0.205197 1.000000
0.439861 0.000000 1.000000
0.713197 0.827718 0.161609
0.472494 0.558272 0.113568
0.385301 0.455394 0.156248
0.416603 0.479364 0.274799
0.512860 0.565518 0.443494
0.602005 0.624244 0.625738
0.593444 0.540982 0.774059
0.378055 0.176229 0.830115
0.000000 0.000000 0.724687
0.738599 0.542613 0.148526
0.483053 0.277119 0.109119
0.374799 0.189167 0.149692
0.372071 0.233967 0.253254
0.414578 0.341782 0.391942
0.423502 0.417931 0.527018
0.301498 0.342783 0.608872
0.000000 0.000000 0.577020
0.000000 0.000000 0.360108
0.778842 0.000000 0.214311
0.513661 0.000000 0.187505
0.388009 0.000000 0.228318
0.353370 0.000000 0.317618
0.342703 0.000000 0.425402
0.270440 0.000000 0.510794
0.032483 0.000000 0.522044
0.000000 0.000000 0.396529
0.000000 0.000000 0.060753
0.852042 0.000000 0.428459
0.587326 0.000000 0.421584
0.452834 0.000000 0.468345
0.393300 0.000000 0.547471
0.334932 0.000000 0.626820
0.185409 0.000000 0.663375
0.000000 0.000000 0.603246
0.000000 0.000000 0.381673
0.000000 0.000000 0.000000
0.931988 0.463992 0.409293
0.674378 0.373648 0.289865
0.620330 0.406587 0.305618
0.770337 0.545877 0.455513
1.000000 0.749639 0.727637
1.000000 0.951049 1.000000
1.000000 1.000000 1.000000
1.000000 0.954777 1.000000
1.000000 0.498712 1.000000
0.811304 0.367146 0.299634
0.580461 0.234368 0.222615
0.555668 0.246405 0.276703
0.730665 0.381254 0.458720
1.000000 0.591966 0.754612
1.000000 0.806645 1.000000
1.000000 0.928447 1.000000
1.000000 0.835585 1.000000
1.000000 0.381322 1.000000
0.779138 0.477436 0.249371
0.555662 0.297529 0.201498
0.539180 0.282265 0.279037
0.716682 0.404571 0.476669
1.000000 0.612427 0.778201
1.000000 0.828865 1.000000
1.000000 0.951972 1.000000
1.000000 0.854888 1.000000
1.000000 0.385806 1.000000
0.793147 0.679255 0.214674
0.562534 0.454590 0.186046
0.538316 0.412694 0.275513
0.700732 0.521421 0.475617
1.000000 0.723682 0.768027
1.000000 0.937437 1.000000
1.000000 1.000000 1.000000
1.000000 0.946546 1.000000
1.000000 0.453092 1.000000
0.821156 0.846210 0.173270
0.573797 0.586226 0.157347
0.530690 0.525431 0.250584
0.665325 0.626611 0.443380
0.932662 0.827603 0.715266
1.000000 1.000000 1.000000
1.000000 1.000000 1.000000
1.000000 1.000000 1.000000
1.000000 0.513315 1.000000
0.841157 0.841123 0.124441
0.572338 0.562323 0.118049
0.504086 0.497431 0.210257
0.603140 0.604160 0.389329
0.817709 0.815277 0.632652
1.000000 1.000000 0.906745
1.000000 1.000000 1.000000
1.000000 1.000000 1.000000
1.000000 0.485830 1.000000
0.841309 0.516029 0.089027
0.551212 0.241984 0.092352
0.456454 0.194862 0.182099
0.517022 0.327304 0.344391
0.674375 0.567006 0.554477
0.851446 0.816717 0.776735
0.952642 0.954241 0.964666
0.863839 0.832433 1.000000
0.452392 0.279203 0.997203
0.819938 0.000000 0.109426
0.513641 0.000000 0.126018
0.395911 0.000000 0.215232
0.419983 0.000000 0.361053
0.520568 0.000000 0.536589
0.613847 0.252224 0.704078
0.597476 0.430984 0.814884
0.350581 0.336368 0.809497
0.000000 0.000000 0.617537
0.785540 0.000000 0.249590
0.473014 0.000000 0.286361
0.340741 0.000000 0.380335
0.335205 0.000000 0.513355
0.384364 0.000000 0.656391
0.397651 0.000000 0.769541
0.265969 0.000000 0.802030
0.000000 0.000000 0.692208
0.000000 0.000000 0.367554
0.852855 0.097531 0.250466
0.633181 0.101856 0.193199
0.665105 0.273580 0.286923
0.950869 0.593204 0.533710
1.000000 1.000000 0.924763
1.000000 1.000000 1.000000
1.000000 1.000000 1.000000
1.000000 1.000000 1.000000
1.000000 1.000000 1.000000
0.769106 0.063810 0.176218
0.569636 0.005972 0.165125
0.625241 0.139106 0.299511
0.931413 0.438642 0.579309
1.000000 0.855061 0.993580
1.000000 1.000000 1.000000
1.000000 1.000000 1.000000
1.000000 1.000000 1.000000
1.000000 1.000000 1.000000
0.786040 0.250787 0.167867
0.587246 0.129873 0.189268
0.645461 0.221799 0.349013
0.949426 0.496925 0.644898
1.000000 0.900661 1.000000
1.000000 1.000000 1.000000
1.000000 1.000000 1.000000
1.000000 1.000000 1.000000
1.000000 1.000000 1.000000
0.851697 0.528890 0.176044
0.638945 0.351052 0.219618
0.683593 0.406219 0.392783
0.967632 0.659679 0.691194
1.000000 1.000000 1.000000
1.000000 1.000000 1.000000
1.000000 1.000000 1.000000
1.000000 1.000000 1.000000
1.000000 1.000000 1.000000
0.924280 0.757758 0.172933
0.687832 0.536215 0.231724
0.707632 0.566139 0.409733
0.958920 0.807746 0.700473
1.000000 1.000000 1.000000
1.000000 1.000000 1.000000
1.000000 1.000000 1.000000
1.000000 1.000000 1.000000
1.000000 1.000000 1.000000
0.972162 0.786247 0.152277
0.707176 0.541284 0.222693
0.695742 0.564546 0.400330
0.906350 0.811178 0.676565
1.000000 1.000000 1.000000
1.000000 1.000000 1.000000
1.000000 1.000000 1.000000
1.000000 1.000000 1.000000
1.000000 1.000000 1.000000
0.973883 0.452426 0.129375
0.680411 0.211394 0.211185
0.636253 0.253642 0.386600
0.803148 0.529243 0.644857
1.000000 0.963326 0.964319
1.000000 1.000000 1.000000
1.000000 1.000000 1.000000
1.000000 1.000000 1.000000
1.000000 1.000000 1.000000
0.918149 0.000000 0.141084
0.601140 0.000000 0.237421
0.527663 0.000000 0.412125
0.652705 0.000000 0.652295
0.912727 0.307696 0.934153
1.000000 0.861767 1.000000
1.000000 1.000000 1.000000
1.000000 1.000000 1.000000
1.000000 1.000000 1.000000
0.803835 0.000000 0.245818
0.473132 0.000000 0.363175
0.378636 0.000000 0.542043
0.468583 0.000000 0.767379
0.672684 0.000000 1.000000
0.902120 0.000000 1.000000
1.000000 0.307715 1.000000
0.989091 0.634584 1.000000
0.576355 0.535127 1.000000
