lrplugin/MindfulLensFilmEngine.lrplugin/profiles/luts/kodak_solara_100.cube
# Generated from ColorChecker fit
LUT_3D_SIZE 5
DOMAIN_MIN 0.0 0.0 0.0
DOMAIN_MAX 1.0 1.0 1.0
0.029546 0.000000 0.028086
0.000000 0.000000 0.159098
0.000000 0.000000 0.293770
0.000000 0.000000 0.321759
0.000000 0.000000 0.118322
0.000000 0.000000 0.000000
0.000000 0.000000 0.335800
0.000000 0.000000 0.700520
0.000000 0.000000 0.892437
0.284810 0.000000 0.703465
0.000000 0.000000 0.000000
0.000000 0.000000 0.259103
0.065629 0.150939 0.832397
0.302299 0.448378 1.000000
0.598152 0.490797 0.838818
0.000000 0.000000 0.000000
0.000000 0.000000 0.171799
0.000000 0.000000 1.000000
0.069437 0.000000 1.000000
0.000000 0.000000 1.000000
0.000000 0.000000 0.000000
0.000000 0.000000 0.539858
0.000000 0.000000 1.000000
0.000000 0.000000 1.000000
0.000000 0.000000 1.000000
0.561208 0.553082 0.114635
0.380771 0.618169 0.053832
0.085680 0.382399 0.098727
0.000000 0.194750 0.224091
0.005882 0.481065 0.390295
0.192235 0.148450 0.190355
0.207721 0.254207 0.293374
0.229938 0.277789 0.489482
0.283377 0.306294 0.670107
0.494648 0.503690 0.712281
0.063073 0.222418 0.020131
0.219009 0.475612 0.307342
0.392010 0.727980 0.631043
0.443000 0.804744 0.799320
0.335023 0.607995 0.605861
0.000000 0.000000 0.000000
0.052975 0.000000 0.284487
0.342668 0.221155 0.795399
0.246064 0.515789 0.966955
0.000000 0.000000 0.509502
0.000000 0.000000 0.000000
0.000000 0.000000 0.636736
0.000000 0.000000 1.000000
0.000000 0.000000 1.000000
0.000000 0.000000 1.000000
0.976659 0.940839 0.227107
0.758937 1.000000 0.003167
0.639673 1.000000 0.000000
0.661827 1.000000 0.238541
0.970479 1.000000 0.803229
0.557383 0.477596 0.339343
0.377042 0.278620 0.248750
0.384100 0.207185 0.323508
0.457948 0.277112 0.540159
0.580101 0.579086 0.860848
0.499026 0.931351 0.270866
0.378544 0.682100 0.331845
0.423349 0.596741 0.471743
0.349265 0.427219 0.583762
0.000000 0.002341 0.546704
0.266631 0.000000 0.073146
0.360917 0.242882 0.387158
0.487325 0.572892 0.649668
0.198114 0.455883 0.670535
0.000000 0.000000 0.245221
0.000000 0.000000 0.020830
0.000000 0.000000 0.772575
0.049845 0.000000 1.000000
0.000000 0.000000 1.000000
0.000000 0.000000 0.564002
1.000000 1.000000 0.350379
1.000000 1.000000 0.081037
1.000000 1.000000 0.121631
1.000000 1.000000 0.617163
1.000000 1.000000 1.000000
0.802574 0.443706 0.404592
0.493102 0.180872 0.256653
0.627872 0.291951 0.346380
0.941176 0.717482 0.735431
1.000000 1.000000 1.000000
0.792121 1.000000 0.378581
0.477678 0.585629 0.368123
0.552919 0.437968 0.479067
0.588569 0.334235 0.689732
0.257480 0.029957 0.964034
0.686762 0.714313 0.269775
0.600207 0.640266 0.496111
0.737725 0.785508 0.683597
0.506476 0.566824 0.727209
0.000000 0.000000 0.507523
0.000000 0.000000 0.298777
0.161206 0.000000 0.944461
0.615240 0.000000 1.000000
0.260278 0.000000 1.000000
0.000000 0.000000 0.655092
1.000000 1.000000 0.354583
1.000000 1.000000 0.246634
1.000000 1.000000 0.550823
1.000000 1.000000 1.000000
1.000000 1.000000 1.000000
0.837957 0.000000 0.237023
0.640252 0.206868 0.257062
1.000000 1.000000 0.587137
1.000000 1.000000 1.000000
1.000000 1.000000 1.000000
0.865919 0.568963 0.174987
0.614174 0.368817 0.336944
1.000000 0.771964 0.662843
1.000000 1.000000 1.000000
1.000000 1.000000 1.000000
0.876998 0.585377 0.111859
0.882022 0.744539 0.512901
1.000000 1.000000 0.887802
1.000000 1.000000 1.000000
1.000000 1.000000 1.000000
0.000000 0.000000 0.214203
0.703445 0.000000 1.000000
1.000000 0.000000 1.000000
1.000000 0.551049 1.000000
0.413196 0.000000 1.000000
