lrplugin/MindfulLensFilmEngine.lrplugin/profiles/luts/kodachrome_v1.cube
# Generated from ColorChecker fit
LUT_3D_SIZE 33
DOMAIN_MIN 0.0 0.0 0.0
DOMAIN_MAX 1.0 1.0 1.0
0.000000 0.000000 0.087892
0.000000 0.000000 0.105679
0.000000 0.000000 0.127996
0.000000 0.000000 0.154458
0.000000 0.000000 0.184651
0.000000 0.000000 0.218127
0.000000 0.000000 0.254410
0.000000 0.000000 0.292992
0.002790 0.000000 0.333332
0.026621 0.000495 0.374863
0.053155 0.036194 0.416981
0.082056 0.072967 0.459055
0.112902 0.110245 0.500423
0.145186 0.147271 0.540389
0.178317 0.183094 0.578230
0.211621 0.216575 0.613189
0.244336 0.246381 0.644478
0.275620 0.270990 0.671282
0.304543 0.288689 0.692749
0.330091 0.297575 0.708001
0.351168 0.295553 0.716126
0.366590 0.280336 0.716184
0.375092 0.249447 0.707200
0.375321 0.200221 0.688171
0.365843 0.129797 0.658063
0.345137 0.035127 0.615810
0.311597 0.000000 0.560315
0.263536 0.000000 0.490450
0.199180 0.000000 0.405057
0.116669 0.000000 0.302946
0.014063 0.000000 0.182896
0.000000 0.000000 0.043656
0.000000 0.000000 0.000000
0.000000 0.000000 0.042948
0.000000 0.000000 0.060902
0.000000 0.000000 0.083488
0.000000 0.000000 0.110315
0.000000 0.000000 0.140960
0.000000 0.000000 0.174969
0.000000 0.000000 0.211856
0.000000 0.000000 0.251105
0.009709 0.021304 0.292171
0.033976 0.054005 0.334475
0.060624 0.088101 0.377408
0.089295 0.123196 0.420330
0.119541 0.158706 0.462571
0.150835 0.193856 0.503429
0.182562 0.227679 0.542171
0.214023 0.259018 0.578034
0.244437 0.286526 0.610222
0.272934 0.308662 0.637910
0.298565 0.323697 0.660241
0.320291 0.329710 0.676328
0.336993 0.324590 0.685253
0.347465 0.306033 0.686065
0.350417 0.271547 0.677784
0.344476 0.218447 0.659398
0.328181 0.143858 0.629866
0.299990 0.044714 0.588113
0.258276 0.000000 0.533035
0.201325 0.000000 0.463497
0.127342 0.000000 0.378332
0.034444 0.000000 0.276343
0.000000 0.000000 0.156301
0.000000 0.000000 0.016948
0.000000 0.000000 0.000000
0.000000 0.000000 0.002509
0.000000 0.000000 0.020859
0.000000 0.000000 0.043936
0.000000 0.000000 0.071338
0.000000 0.000000 0.102636
0.000000 0.000000 0.137369
0.000000 0.013759 0.175042
0.000000 0.041939 0.215133
0.010231 0.071677 0.257087
0.034847 0.102945 0.300318
0.061516 0.135523 0.344211
0.089855 0.169001 0.388116
0.119395 0.202778 0.431356
0.149585 0.236060 0.473221
0.179786 0.267865 0.512971
0.209278 0.297019 0.549835
0.237255 0.322156 0.583008
0.262826 0.341722 0.611660
0.285016 0.353969 0.634924
0.302766 0.356959 0.651906
0.314933 0.348565 0.661679
0.320286 0.326466 0.663286
0.317515 0.288153 0.655738
0.305221 0.230925 0.638017
0.281922 0.151889 0.609073
0.246053 0.047962 0.567822
0.195962 0.000000 0.513155
0.129914 0.000000 0.443927
0.046089 0.000000 0.358965
0.000000 0.000000 0.257063
0.000000 0.000000 0.136984
0.000000 0.000000 0.000000
0.000000 0.000000 0.000000
0.000000 0.000000 0.000000
0.000000 0.000000 0.000000
0.000000 0.000000 0.008927
0.000000 0.000000 0.037111
0.000000 0.012161 0.069259
0.000000 0.036854 0.104903
0.000000 0.062549 0.143540
0.000000 0.089581 0.184641
0.005056 0.118095 0.227642
0.029945 0.148047 0.271951
0.056552 0.179199 0.316942
0.084469 0.211124 0.361961
0.113207 0.243204 0.406321
0.142189 0.274630 0.449306
0.170756 0.304403 0.490166
0.198163 0.331330 0.528122
0.223580 0.354030 0.562365
0.246095 0.370932 0.592054
0.264709 0.380270 0.616315
0.278340 0.380092 0.634246
0.285821 0.368251 0.644914
0.285900 0.342411 0.647352
0.277242 0.300046 0.640564
0.258426 0.238437 0.623525
0.227947 0.154675 0.595175
0.184215 0.045662 0.554426
0.125558 0.000000 0.500158
0.050216 0.000000 0.431219
0.000000 0.000000 0.346429
0.000000 0.000000 0.244574
0.000000 0.000000 0.124410
0.000000 0.000000 0.000000
0.000000 0.000000 0.000000
0.000000 0.000000 0.000000
0.000000 0.000000 0.000000
0.000000 0.011908 0.000000
0.000000 0.035639 0.007276
0.000000 0.059091 0.040467
0.000000 0.082965 0.077204
0.000000 0.107770 0.116980
0.000000 0.133828 0.159254
0.000000 0.161265 0.203457
0.020073 0.190020 0.248988
0.046546 0.219840 0.295214
0.073965 0.250281 0.341472
0.101816 0.280706 0.387070
0.129499 0.310292 0.431280
0.156333 0.338020 0.473348
0.181549 0.362683 0.512487
0.204296 0.382883 0.547878
0.223636 0.397029 0.578672
0.238549 0.403343 0.603991
0.247929 0.399853 0.622922
0.250587 0.384396 0.634524
0.245247 0.354619 0.637825
0.230550 0.307980 0.631820
0.205053 0.241742 0.615474
0.167229 0.152981 0.587723
0.115464 0.038580 0.547468
0.048062 0.000000 0.493583
0.000000 0.000000 0.424909
0.000000 0.000000 0.340256
0.000000 0.000000 0.238404
0.000000 0.000000 0.118100
0.000000 0.000000 0.000000
0.000000 0.000000 0.000000
0.000000 0.005201 0.000000
0.000000 0.031980 0.000000
0.000000 0.056476 0.000000
0.000000 0.079756 0.000000
0.000000 0.102695 0.015955
0.000000 0.125978 0.053965
0.000000 0.150098 0.095047
0.000000 0.175358 0.138654
0.000000 0.201869 0.184209
0.006131 0.229552 0.231103
0.032411 0.258137 0.278695
0.059264 0.287164 0.326315
0.086154 0.315980 0.373261
0.112460 0.343743 0.418801
0.137474 0.369420 0.462170
0.160406 0.391785 0.502574
0.180382 0.409423 0.539188
0.196441 0.420729 0.571154
0.207539 0.423905 0.597585
0.212548 0.416963 0.617562
0.210255 0.397725 0.630136
0.199362 0.363820 0.634326
0.178487 0.312688 0.629121
0.146163 0.241577 0.613477
0.100839 0.147546 0.586323
0.040881 0.027460 0.546553
0.000000 0.000000 0.493031
0.000000 0.000000 0.424591
0.000000 0.000000 0.340037
0.000000 0.000000 0.238139
0.000000 0.000000 0.117638
0.000000 0.000000 0.000000
0.000000 0.000000 0.000000
0.000000 0.046676 0.000000
0.000000 0.073415 0.000000
0.000000 0.097817 0.000000
0.000000 0.120932 0.000000
0.000000 0.143619 0.000000
0.000000 0.166544 0.034934
0.000000 0.190184 0.077487
0.000000 0.214826 0.122583
0.000000 0.240565 0.169636
0.000000 0.267303 0.218028
0.015151 0.294756 0.267113
0.041384 0.322444 0.316212
0.067251 0.349699 0.364615
0.092110 0.375662 0.411582
0.115229 0.399283 0.456342
0.135796 0.419319 0.498091
0.152912 0.434340 0.535997
0.165594 0.442722 0.569195
0.172776 0.442651 0.596789
0.173305 0.432122 0.617854
0.165946 0.408940 0.631432
0.149377 0.370718 0.636534
0.122194 0.314878 0.632142
0.082907 0.238653 0.617205
0.029942 0.139083 0.590642
0.000000 0.013019 0.551340
0.000000 0.000000 0.498157
0.000000 0.000000 0.429918
0.000000 0.000000 0.345418
0.000000 0.000000 0.243421
0.000000 0.000000 0.122660
0.000000 0.000000 0.000000
0.000000 0.000000 0.000000
0.000000 0.084881 0.000000
0.000000 0.111922 0.000000
0.000000 0.136546 0.000000
0.000000 0.159785 0.000000
0.000000 0.182481 0.000000
0.000000 0.205285 0.019919
0.000000 0.228657 0.064104
0.000000 0.252865 0.110839
0.000000 0.277988 0.159530
0.000000 0.303914 0.209554
0.000000 0.330338 0.260254
0.021436 0.356765 0.310944
0.046231 0.382512 0.360908
0.069584 0.406701 0.409396
0.090745 0.428265 0.455630
0.108875 0.445947 0.498800
0.123054 0.458296 0.538064
0.132275 0.463674 0.572549
0.135449 0.460250 0.601354
0.131401 0.446002 0.623544
0.118872 0.418718 0.638153
0.096517 0.375994 0.644186
0.062909 0.315236 0.640616
0.016535 0.233659 0.626384
0.000000 0.128287 0.600402
0.000000 0.000000 0.561550
0.000000 0.000000 0.508676
0.000000 0.000000 0.440599
0.000000 0.000000 0.356106
0.000000 0.000000 0.253953
0.000000 0.000000 0.132865
0.000000 0.000000 0.000000
0.000000 0.000000 0.000000
0.000000 0.120400 0.000000
0.000000 0.148089 0.000000
0.000000 0.173253 0.000000
0.000000 0.196909 0.000000
0.000000 0.219881 0.000000
0.000000 0.242804 0.008786
0.000000 0.266120 0.054758
0.000000 0.290082 0.103279
0.000000 0.314751 0.153746
0.000000 0.339998 0.205527
0.000000 0.365502 0.257960
0.000628 0.390752 0.310351
0.024310 0.415045 0.361974
0.046113 0.437489 0.412073
0.065262 0.457000 0.459862
0.080896 0.472303 0.504522
0.092072 0.481932 0.545205
0.097760 0.484230 0.581031
0.096847 0.477350 0.611088
0.088136 0.459254 0.634435
0.070343 0.427713 0.650099
0.042103 0.380306 0.657077
0.001963 0.314422 0.654333
0.000000 0.227259 0.640802
0.000000 0.115825 0.615386
0.000000 0.000000 0.576959
0.000000 0.000000 0.524361
0.000000 0.000000 0.456404
0.000000 0.000000 0.371865
0.000000 0.000000 0.269494
0.000000 0.000000 0.148008
0.000000 0.000000 0.006094
0.000000 0.000000 0.000000
0.000000 0.153792 0.000000
0.000000 0.182477 0.000000
0.000000 0.208504 0.000000
0.000000 0.232873 0.000000
0.000000 0.256392 0.000000
0.000000 0.279677 0.001458
0.000000 0.303155 0.049369
0.000000 0.327061 0.099816
0.000000 0.351441 0.152192
0.000000 0.376147 0.205854
0.000000 0.400843 0.260134
0.000000 0.425000 0.314329
0.002803 0.447900 0.367706
0.023021 0.468632 0.419501
0.040117 0.486097 0.468920
0.053208 0.499001 0.515138
0.061326 0.505863 0.557297
0.063419 0.505009 0.594509
0.058351 0.494575 0.625857
0.044901 0.472506 0.650390
0.021764 0.436556 0.667128
0.000000 0.384288 0.675059
0.000000 0.313073 0.673141
0.000000 0.220094 0.660301
0.000000 0.102341 0.635433
0.000000 0.000000 0.597403
0.000000 0.000000 0.545043
0.000000 0.000000 0.477158
0.000000 0.000000 0.392517
0.000000 0.000000 0.289862
0.000000 0.000000 0.167902
0.000000 0.000000 0.025316
0.000000 0.000000 0.000000
0.000000 0.185593 0.000000
0.000000 0.215627 0.000000
0.000000 0.242843 0.000000
0.000000 0.268225 0.000000
0.000000 0.292563 0.000000
0.000000 0.316457 0.000000
0.000000 0.340318 0.047913
0.000000 0.364364 0.100425
0.000000 0.388622 0.154837
0.000000 0.412930 0.210499
0.000000 0.436933 0.266735
0.000000 0.460087 0.322833
0.000000 0.481656 0.378054
0.001728 0.500713 0.431626
0.016741 0.516140 0.482747
0.027251 0.526630 0.530584
0.032268 0.530682 0.574271
0.030716 0.526608 0.612913
0.021436 0.512524 0.645584
0.003185 0.486361 0.671327
0.000000 0.445854 0.689154
0.000000 0.388550 0.698044
0.000000 0.311805 0.696948
0.000000 0.212783 0.684784
0.000000 0.088457 0.660441
0.000000 0.000000 0.622775
0.000000 0.000000 0.570611
0.000000 0.000000 0.502745
0.000000 0.000000 0.417941
0.000000 0.000000 0.314931
0.000000 0.000000 0.192417
0.000000 0.000000 0.049071
0.000000 0.000000 0.000000
0.000000 0.216314 0.000000
0.000000 0.248053 0.000000
0.000000 0.276789 0.000000
0.000000 0.303487 0.000000
0.000000 0.328921 0.000000
0.000000 0.353676 0.000000
0.000000 0.378144 0.050426
0.000000 0.402527 0.105137
0.000000 0.426835 0.161708
0.000000 0.450890 0.219484
0.000000 0.474320 0.277780
0.000000 0.496563 0.335877
0.000000 0.516867 0.393028
0.000000 0.534288 0.448454
0.000000 0.547693 0.501343
0.004563 0.555755 0.550855
0.006447 0.556959 0.596118
0.001211 0.549598 0.636229
0.000000 0.531774 0.670253
0.000000 0.501398 0.697226
0.000000 0.456190 0.716150
0.000000 0.393680 0.726000
0.000000 0.311207 0.725717
0.000000 0.205918 0.714212
0.000000 0.074770 0.690365
0.000000 0.000000 0.653026
0.000000 0.000000 0.601011
0.000000 0.000000 0.533109
0.000000 0.000000 0.448076
0.000000 0.000000 0.344636
0.000000 0.000000 0.221484
0.000000 0.000000 0.077282
0.000000 0.000000 0.000000
0.000000 0.246446 0.000000
0.000000 0.280249 0.000000
0.000000 0.310837 0.000000
0.000000 0.339158 0.000000
0.000000 0.365970 0.000000
0.000000 0.391839 0.002410
0.000000 0.417142 0.057002
0.000000 0.442063 0.114038
0.000000 0.466598 0.172888
0.000000 0.490548 0.232888
0.000000 0.513526 0.293345
0.000000 0.534955 0.353532
0.000000 0.554064 0.412694
0.000000 0.569894 0.470045
0.000000 0.581293 0.524765
0.000000 0.586919 0.576006
0.000000 0.585239 0.622889
0.000000 0.574530 0.664502
0.000000 0.552876 0.699904
0.000000 0.518173 0.728120
0.000000 0.468124 0.748149
0.000000 0.400241 0.758955
0.000000 0.311846 0.759471
0.000000 0.200071 0.748602
0.000000 0.061855 0.725220
0.000000 0.000000 0.688165
0.000000 0.000000 0.636249
0.000000 0.000000 0.568250
0.000000 0.000000 0.482917
0.000000 0.000000 0.378968
0.000000 0.000000 0.255088
0.000000 0.000000 0.109934
0.000000 0.000000 0.000000
0.000000 0.276452 0.000000
0.000000 0.312683 0.000000
0.000000 0.345460 0.000000
0.000000 0.375714 0.000000
0.000000 0.404187 0.000000
0.000000 0.431429 0.010699
0.000000 0.457798 0.067790
0.000000 0.483464 0.127278
0.000000 0.508402 0.188521
0.000000 0.532401 0.250850
0.000000 0.555054 0.313563
0.000000 0.575768 0.375927
0.000000 0.593756 0.437177
0.000000 0.608041 0.496520
0.000000 0.617455 0.553129
0.000000 0.620639 0.606148
0.000000 0.616043 0.654690
0.000000 0.601928 0.697835
0.000000 0.576360 0.734633
0.000000 0.537219 0.764106
0.000000 0.482191 0.785239
0.000000 0.408771 0.796992
0.000000 0.314265 0.798291
0.000000 0.195787 0.788031
0.000000 0.050260 0.765076
0.000000 0.000000 0.728260
0.000000 0.000000 0.676387
0.000000 0.000000 0.608226
0.000000 0.000000 0.522520
0.000000 0.000000 0.417977
0.000000 0.000000 0.293276
0.000000 0.000000 0.147066
0.000000 0.000000 0.000000
0.000000 0.306774 0.000000
0.000000 0.345799 0.000000
0.000000 0.381106 0.000000
0.000000 0.413608 0.000000
0.000000 0.444030 0.000000
0.000000 0.472905 0.023281
0.000000 0.500576 0.083002
0.000000 0.527194 0.145060
0.000000 0.552719 0.208807
0.000000 0.576921 0.273566
0.000000 0.599380 0.338627
0.000000 0.619483 0.403248
0.000000 0.636426 0.466660
0.000000 0.649217 0.528058
0.000000 0.656670 0.586610
0.000000 0.657410 0.641451
0.000000 0.649870 0.691685
0.000000 0.632293 0.736387
0.000000 0.602731 0.774599
0.000000 0.559045 0.805333
0.000000 0.498904 0.827569
0.000000 0.419787 0.840256
0.000000 0.318984 0.842315
0.000000 0.193590 0.832632
0.000000 0.040513 0.810064
0.000000 0.000000 0.773437
0.000000 0.000000 0.721546
0.000000 0.000000 0.653154
0.000000 0.000000 0.566995
0.000000 0.000000 0.461770
0.000000 0.000000 0.336151
0.000000 0.000000 0.188777
0.000000 0.000000 0.018257
0.000000 0.337830 0.000000
0.000000 0.380020 0.000000
0.000000 0.418199 0.000000
0.000000 0.453267 0.000000
0.000000 0.485929 0.000000
0.000000 0.516703 0.040429
0.000000 0.545914 0.102903
0.000000 0.573696 0.167647
0.000000 0.599994 0.234005
0.000000 0.624560 0.301290
0.000000 0.646957 0.368785
0.000000 0.666555 0.435742
0.000000 0.682534 0.501382
0.000000 0.693885 0.564895
0.000000 0.699406 0.625438
0.000000 0.697703 0.682141
0.000000 0.687194 0.734099
0.000000 0.666105 0.780379
0.000000 0.632471 0.820015
0.000000 0.584135 0.852012
0.000000 0.518751 0.875342
0.000000 0.433782 0.888948
0.000000 0.326497 0.891740
0.000000 0.193979 0.882598
0.000000 0.033117 0.860371
0.000000 0.000000 0.823878
0.000000 0.000000 0.771905
0.000000 0.000000 0.703208
0.000000 0.000000 0.616513
0.000000 0.000000 0.510514
0.000000 0.000000 0.383874
0.000000 0.000000 0.235224
0.000000 0.000000 0.063167
0.000000 0.370013 0.000000
0.000000 0.415742 0.000000
0.000000 0.457143 0.000000
0.000000 0.495096 0.000000
0.000000 0.530294 0.000000
0.000000 0.563234 0.062471
0.000000 0.594227 0.127820
0.000000 0.623390 0.195361
0.000000 0.650650 0.264430
0.000000 0.675743 0.334333
0.000000 0.698214 0.404346
0.000000 0.717418 0.473712
0.000000 0.732518 0.541644
0.003190 0.742487 0.607325
0.005714 0.746106 0.669905
0.000608 0.741966 0.728504
0.000000 0.728467 0.782212
0.000000 0.703818 0.830086
0.000000 0.666037 0.871154
0.000000 0.612952 0.904411
0.000000 0.542199 0.928824
0.000000 0.451223 0.943326
0.000000 0.337279 0.946820
0.000000 0.197430 0.938179
0.000000 0.028550 0.916243
0.000000 0.000000 0.879824
0.000000 0.000000 0.827701
0.000000 0.000000 0.758621
0.000000 0.000000 0.671302
0.000000 0.000000 0.564431
0.000000 0.000000 0.436663
0.000000 0.000000 0.286623
0.000000 0.000000 0.112904
0.000000 0.403696 0.000000
0.000000 0.453340 0.000000
0.000000 0.498312 0.000000
0.000000 0.539477 0.000000
0.000000 0.577508 0.024201
0.000000 0.612887 0.089796
0.000000 0.645908 0.158135
0.000000 0.676671 0.228580
0.000000 0.705086 0.300457
0.000000 0.730872 0.373067
0.001768 0.753558 0.445675
0.020772 0.772482 0.517519
0.034552 0.786790 0.587803
0.042207 0.795438 0.655701
0.042757 0.797190 0.720358
0.035132 0.790621 0.780885
0.018182 0.774114 0.836363
0.000000 0.745862 0.885843
0.000000 0.703864 0.928345
0.000000 0.645933 0.962856
0.000000 0.569687 0.988335
0.000000 0.472556 1.000000
0.000000 0.351776 1.000000
0.000000 0.204395 0.999683
0.000000 0.027270 0.977985
0.000000 0.000000 0.941576
0.000000 0.000000 0.889228
0.000000 0.000000 0.819683
0.000000 0.000000 0.731649
0.000000 0.000000 0.623804
0.000000 0.000000 0.494798
0.000000 0.000000 0.343246
0.000000 0.000000 0.167734
0.000000 0.439223 0.000000
0.000000 0.493164 0.000000
0.000000 0.542063 0.000000
0.000000 0.586767 0.000000
0.000000 0.627933 0.054063
0.000000 0.666027 0.122849
0.000000 0.701324 0.194291
0.000000 0.733910 0.267741
0.008952 0.763676 0.342519
0.036545 0.790326 0.417918
0.060021 0.813371 0.493196
0.078627 0.832132 0.567581
0.091527 0.845739 0.640272
0.097797 0.853131 0.710434
0.096433 0.853056 0.777203
0.086344 0.844070 0.839684
0.066355 0.824541 0.896950
0.035206 0.792644 0.948044
0.000000 0.746363 0.991978
0.000000 0.683493 1.000000
0.000000 0.601635 1.000000
0.000000 0.498202 1.000000
0.000000 0.370414 1.000000
0.000000 0.215303 1.000000
0.000000 0.029706 1.000000
0.000000 0.000000 1.000000
0.000000 0.000000 0.956841
0.000000 0.000000 0.886743
0.000000 0.000000 0.797896
0.000000 0.000000 0.688973
0.000000 0.000000 0.558612
0.000000 0.000000 0.405423
0.000000 0.000000 0.227984
0.000000 0.476919 0.000000
0.000000 0.535542 0.000000
0.000000 0.588725 0.000000
0.000000 0.637299 0.021129
0.000000 0.681906 0.090041
0.000000 0.722994 0.162135
0.017641 0.760821 0.236786
0.052968 0.795455 0.313339
0.085032 0.826773 0.391107
0.113228 0.854461 0.469374
0.136864 0.878012 0.547390
0.155165 0.896732 0.624377
0.167269 0.909732 0.699524
0.172234 0.915936 0.771991
0.169029 0.914075 0.840904
0.156541 0.902689 0.905361
0.133571 0.880127 0.964428
0.098838 0.844549 1.000000
0.050975 0.793921 1.000000
0.000000 0.726021 1.000000
0.000000 0.638436 1.000000
0.000000 0.528559 1.000000
0.000000 0.393595 1.000000
0.000000 0.230558 1.000000
0.000000 0.036269 1.000000
0.000000 0.000000 1.000000
0.000000 0.000000 1.000000
0.000000 0.000000 0.960207
0.000000 0.000000 0.870447
0.000000 0.000000 0.760334
0.000000 0.000000 0.628499
0.000000 0.000000 0.473545
0.000000 0.000000 0.294040
0.000000 0.517084 0.000000
0.000000 0.580775 0.000000
0.000000 0.638604 0.000000
0.000000 0.691385 0.060269
0.029073 0.739741 0.132701
0.071728 0.784105 0.208215
0.111723 0.824719 0.286178
0.148599 0.861632 0.365927
0.181809 0.894705 0.446769
0.210725 0.923607 0.527978
0.234631 0.947816 0.608798
0.252730 0.966618 0.688442
0.264137 0.979111 0.766092
0.267885 0.984199 0.840899
0.262923 0.980598 0.911984
0.248113 0.966830 0.978435
0.222234 0.941228 1.000000
0.183981 0.901935 1.000000
0.131963 0.846901 1.000000
0.064705 0.773886 1.000000
0.000000 0.680460 1.000000
0.000000 0.564001 1.000000
0.000000 0.421696 1.000000
0.000000 0.250541 1.000000
0.000000 0.047343 1.000000
0.000000 0.000000 1.000000
0.000000 0.000000 1.000000
0.000000 0.000000 1.000000
0.000000 0.000000 0.949762
0.000000 0.000000 0.838344
0.000000 0.000000 0.704911
0.000000 0.000000 0.548057
0.000000 0.000000 0.366343
0.000000 0.559992 0.000000
0.000000 0.629144 0.000000
0.043716 0.691984 0.034111
0.093744 0.749310 0.106598
0.141463 0.801729 0.182667
0.186559 0.849655 0.261708
0.228632 0.893314 0.343082
0.267199 0.932740 0.426117
0.301690 0.967776 0.510111
0.331454 0.998073 0.594332
0.355752 1.000000 0.678016
0.373764 1.000000 0.760369
0.384582 1.000000 0.840563
0.387216 1.000000 0.917744
0.380591 1.000000 0.991022
0.363548 1.000000 1.000000
0.334841 1.000000 1.000000
0.293142 0.965140 1.000000
0.237038 0.905643 1.000000
0.165031 0.827431 1.000000
0.075539 0.728056 1.000000
0.000000 0.604878 1.000000
0.000000 0.455070 1.000000
0.000000 0.275611 1.000000
0.000000 0.063289 1.000000
0.000000 0.000000 1.000000
0.000000 0.000000 1.000000
0.000000 0.000000 1.000000
0.000000 0.000000 1.000000
0.000000 0.000000 0.923518
0.000000 0.000000 0.788357
0.000000 0.000000 0.629465
0.000000 0.000000 0.445394
0.061266 0.605897 0.000000
0.119163 0.680904 0.012161
0.174850 0.749125 0.084454
0.228158 0.811338 0.160803
0.278833 0.868135 0.240622
0.326537 0.919914 0.323294
0.370847 0.966882 0.408172
0.411258 1.000000 0.494576
0.447177 1.000000 0.581799
0.477928 1.000000 0.669098
0.502752 1.000000 0.755702
0.520803 1.000000 0.840809
0.531152 1.000000 0.923585
0.532785 1.000000 1.000000
0.524604 1.000000 1.000000
0.505426 1.000000 1.000000
0.473984 1.000000 1.000000
0.428926 1.000000 1.000000
0.368815 0.970464 1.000000
0.292132 0.886975 1.000000
0.197270 0.781545 1.000000
0.082540 0.651519 1.000000
0.000000 0.494049 1.000000
0.000000 0.306100 1.000000
0.000000 0.084444 1.000000
0.000000 0.000000 1.000000
0.000000 0.000000 1.000000
0.000000 0.000000 1.000000
0.000000 0.000000 1.000000
0.000000 0.000000 1.000000
0.000000 0.000000 0.879405
0.000000 0.000000 0.718332
0.000000 0.000000 0.531752
0.211713 0.655027 0.000000
0.273674 0.736289 0.066916
0.333140 0.810261 0.143301
0.389918 0.877708 0.223628
0.443733 0.939203 0.307305
0.494223 0.995127 0.393707
0.540942 1.000000 0.482179
0.583361 1.000000 0.572033
0.620866 1.000000 0.662554
0.652756 1.000000 0.752992
0.678250 1.000000 0.842568
0.696478 1.000000 0.930472
0.706489 1.000000 1.000000
0.707246 1.000000 1.000000
0.697626 1.000000 1.000000
0.676425 1.000000 1.000000
0.642352 1.000000 1.000000
0.594032 1.000000 1.000000
0.530006 1.000000 1.000000
0.448730 0.952815 1.000000
0.348576 0.841228 1.000000
0.227831 0.704224 1.000000
0.084697 0.538940 1.000000
0.000000 0.342320 1.000000
0.000000 0.111122 1.000000
0.000000 0.000000 1.000000
0.000000 0.000000 1.000000
0.000000 0.000000 1.000000
0.000000 0.000000 1.000000
0.000000 0.000000 1.000000
0.000000 0.000000 0.978679
0.000000 0.000000 0.815278
0.000000 0.000000 0.626034
0.391513 0.707587 0.054648
0.457754 0.795506 0.130857
0.521208 0.875606 0.211457
0.581660 0.948637 0.295877
0.638810 1.000000 0.383516
0.692276 1.000000 0.473742
0.741587 1.000000 0.565893
0.786190 1.000000 0.659273
0.825449 1.000000 0.753158
0.858642 1.000000 0.846792
0.884961 1.000000 0.939387
0.903516 1.000000 1.000000
0.913331 1.000000 1.000000
0.913346 1.000000 1.000000
0.902418 1.000000 1.000000
0.879316 1.000000 1.000000
0.842728 1.000000 1.000000
0.791255 1.000000 1.000000
0.723416 1.000000 1.000000
0.637643 1.000000 1.000000
0.532285 0.907382 1.000000
0.405607 0.763276 1.000000
0.255787 0.590024 1.000000
0.080921 0.384558 1.000000
0.000000 0.143614 1.000000
0.000000 0.000000 1.000000
0.000000 0.000000 1.000000
0.000000 0.000000 1.000000
0.000000 0.000000 1.000000
0.000000 0.000000 1.000000
0.000000 0.000000 1.000000
0.000000 0.000000 0.920984
0.000000 0.000000 0.728913
0.603361 0.763760 0.124188
0.674110 0.858740 0.204855
0.741773 0.945348 0.289787
0.806113 1.000000 0.378409
0.866807 1.000000 0.470110
0.923448 1.000000 0.564251
0.975544 1.000000 0.660161
1.000000 1.000000 0.757138
1.000000 1.000000 0.854449
1.000000 1.000000 0.951331
1.000000 1.000000 1.000000
1.000000 1.000000 1.000000
1.000000 1.000000 1.000000
1.000000 1.000000 1.000000
1.000000 1.000000 1.000000
1.000000 1.000000 1.000000
1.000000 1.000000 1.000000
1.000000 1.000000 1.000000
0.951945 1.000000 1.000000
0.861782 1.000000 1.000000
0.751321 0.980257 1.000000
0.618802 0.828928 1.000000
0.462383 0.647563 1.000000
0.280135 0.433075 1.000000
0.070046 0.182186 1.000000
0.000000 0.000000 1.000000
0.000000 0.000000 1.000000
0.000000 0.000000 1.000000
0.000000 0.000000 1.000000
0.000000 0.000000 1.000000
0.000000 0.000000 1.000000
0.000000 0.000000 1.000000
0.000000 0.000000 0.841123
0.850050 0.823701 0.204589
0.925544 0.926154 0.289836
0.997648 1.000000 0.379217
1.000000 1.000000 0.472144
1.000000 1.000000 0.568002
1.000000 1.000000 0.666144
1.000000 1.000000 0.765890
1.000000 1.000000 0.866530
1.000000 1.000000 0.967325
1.000000 1.000000 1.000000
1.000000 1.000000 1.000000
1.000000 1.000000 1.000000
1.000000 1.000000 1.000000
1.000000 1.000000 1.000000
1.000000 1.000000 1.000000
1.000000 1.000000 1.000000
1.000000 1.000000 1.000000
1.000000 1.000000 1.000000
1.000000 1.000000 1.000000
1.000000 1.000000 1.000000
1.000000 1.000000 1.000000
0.870447 0.901414 1.000000
0.707526 0.711792 1.000000
0.517988 0.488113 1.000000
0.299796 0.227082 1.000000
0.050830 0.000000 1.000000
0.000000 0.000000 1.000000
