lrplugin/MindfulLensFilmEngine.lrplugin/profiles/luts/kodachrome_64.cube
# Generated from ColorChecker fit
LUT_3D_SIZE 5
DOMAIN_MIN 0.0 0.0 0.0
DOMAIN_MAX 1.0 1.0 1.0
0.000000 0.000000 0.122306
0.000000 0.000000 0.262180
0.000000 0.000000 0.612819
0.000000 0.000000 0.689605
0.000000 0.000000 0.000000
0.096187 0.219124 0.000000
0.000000 0.180293 0.216751
0.101955 0.368573 0.649859
0.000000 0.314916 0.442404
0.000000 0.000000 0.000000
0.230722 0.774764 0.000000
0.039372 0.639427 0.438635
0.029308 0.712192 0.782851
0.000000 0.471422 0.095266
0.000000 0.000000 0.000000
1.000000 1.000000 1.000000
1.000000 1.000000 1.000000
1.000000 1.000000 1.000000
0.428915 0.546685 0.772593
0.000000 0.000000 0.000000
1.000000 1.000000 1.000000
1.000000 1.000000 1.000000
1.000000 1.000000 1.000000
1.000000 1.000000 1.000000
1.000000 0.000000 0.000000
0.215515 0.026609 0.387071
0.000000 0.000000 0.122937
0.011691 0.000000 0.300474
0.000000 0.000000 0.640505
0.000000 0.000000 0.722362
0.290580 0.414506 0.174079
0.233217 0.321361 0.301473
0.406112 0.390758 0.586684
0.291535 0.000000 0.654778
0.000000 0.000000 0.000000
0.467399 0.802767 0.278787
0.333381 0.697140 0.557591
0.349913 0.741202 0.685834
0.000000 0.240458 0.192820
0.000000 0.000000 0.000000
1.000000 1.000000 1.000000
1.000000 1.000000 1.000000
1.000000 1.000000 1.000000
0.875914 0.776869 0.278819
0.000000 0.000000 0.000000
1.000000 1.000000 1.000000
1.000000 1.000000 1.000000
1.000000 1.000000 1.000000
1.000000 1.000000 1.000000
1.000000 0.000000 0.000000
0.494716 0.210771 0.519555
0.265165 0.040505 0.063476
0.343847 0.000000 0.313533
0.228844 0.000000 1.000000
0.000000 0.000000 1.000000
0.461293 0.503077 0.313242
0.428343 0.334379 0.283710
0.630734 0.313795 0.663559
0.512452 0.000000 1.000000
0.000000 0.000000 1.000000
0.573325 0.730999 0.290131
0.455061 0.586117 0.353745
0.470908 0.582649 0.505460
0.010754 0.000000 0.480019
0.000000 0.000000 0.000000
1.000000 1.000000 1.000000
1.000000 1.000000 1.000000
1.000000 1.000000 0.779138
0.898957 0.615489 0.000000
0.000000 0.000000 0.000000
1.000000 1.000000 1.000000
1.000000 1.000000 1.000000
1.000000 1.000000 1.000000
1.000000 1.000000 0.641328
1.000000 0.000000 0.000000
0.786680 0.283525 0.430066
0.553298 0.183056 0.130240
0.669048 0.195124 0.834571
0.593731 0.000000 1.000000
0.000000 0.000000 1.000000
0.778975 0.684859 0.269458
0.746929 0.509577 0.428110
0.969604 0.518117 1.000000
0.852700 0.000000 1.000000
0.000000 0.000000 1.000000
0.875641 0.857894 0.119500
0.743120 0.694995 0.309948
0.742566 0.715376 0.860714
0.225586 0.000000 1.000000
0.000000 0.000000 1.000000
1.000000 1.000000 0.851735
1.000000 1.000000 0.631367
1.000000 1.000000 0.412610
1.000000 0.730004 0.039886
0.000000 0.000000 0.000000
1.000000 1.000000 1.000000
1.000000 1.000000 1.000000
1.000000 1.000000 1.000000
1.000000 1.000000 0.000000
1.000000 0.000000 0.000000
0.526473 0.000000 0.023614
0.283818 0.000000 0.364372
0.445492 0.302220 1.000000
0.433012 0.000000 1.000000
0.000000 0.000000 1.000000
0.835185 0.570930 0.165941
0.792099 0.548235 0.994020
1.000000 0.795210 1.000000
0.938534 0.151378 1.000000
0.000000 0.000000 1.000000
1.000000 0.892938 0.108315
0.957172 0.823467 0.903750
0.936069 1.000000 1.000000
0.372411 0.297309 1.000000
0.000000 0.000000 1.000000
1.000000 1.000000 0.622063
1.000000 1.000000 0.848962
1.000000 1.000000 1.000000
1.000000 1.000000 1.000000
0.000000 0.000000 1.000000
1.000000 1.000000 1.000000
1.000000 1.000000 1.000000
1.000000 1.000000 1.000000
1.000000 1.000000 0.190979
1.000000 0.000000 0.000000
