lrplugin/MindfulLensFilmEngine.lrplugin/profiles/luts/kodachrome_25.cube
# Generated from ColorChecker fit
LUT_3D_SIZE 5
DOMAIN_MIN 0.0 0.0 0.0
DOMAIN_MAX 1.0 1.0 1.0
0.000000 0.000000 0.087749
0.002729 0.000000 0.333279
0.244337 0.246434 0.644438
0.365700 0.129663 0.657931
0.000000 0.000000 0.000000
0.000000 0.120081 0.000000
0.000000 0.314705 0.153742
0.092116 0.481978 0.545262
0.000000 0.115784 0.615453
0.000000 0.000000 0.000000
0.000000 0.369356 0.000000
0.000000 0.650384 0.264365
0.000000 0.728379 0.782186
0.000000 0.028393 0.916277
0.000000 0.000000 0.112235
0.389557 0.706098 0.054243
0.824193 1.000000 0.752411
0.841768 1.000000 1.000000
0.000000 0.142656 1.000000
0.000000 0.000000 0.727361
1.000000 1.000000 0.972546
1.000000 1.000000 1.000000
1.000000 1.000000 1.000000
1.000000 0.636876 1.000000
0.000000 0.000000 1.000000
0.310594 0.000000 0.298653
0.184445 0.000000 0.282372
0.388181 0.143450 0.500367
0.671490 0.177082 0.694448
0.437774 0.000000 0.478858
0.281212 0.384026 0.228775
0.248151 0.320392 0.267452
0.392881 0.402830 0.521079
0.370530 0.237963 0.699698
0.000000 0.000000 0.385781
0.266088 0.579125 0.224685
0.317414 0.637705 0.363530
0.366900 0.693976 0.659263
0.000000 0.285728 0.790156
0.000000 0.000000 0.306912
1.000000 0.833112 0.379191
1.000000 1.000000 0.645261
1.000000 1.000000 0.971421
0.417044 0.625029 1.000000
0.000000 0.000000 0.262450
1.000000 1.000000 1.000000
1.000000 1.000000 1.000000
1.000000 1.000000 1.000000
1.000000 1.000000 1.000000
0.000000 0.000000 0.509986
0.566638 0.160222 0.313345
0.348965 0.025666 0.273110
0.623734 0.135109 0.561220
1.000000 0.276744 1.000000
1.000000 0.000000 1.000000
0.605856 0.578951 0.299559
0.420422 0.329229 0.275768
0.588205 0.310369 0.533564
0.794703 0.241733 0.888096
0.379129 0.000000 1.000000
0.589239 0.726402 0.251423
0.407084 0.572009 0.249820
0.411387 0.527396 0.444309
0.193087 0.243094 0.618273
0.000000 0.000000 0.427521
1.000000 0.893253 0.249139
1.000000 1.000000 0.257315
0.950394 1.000000 0.337354
0.269673 0.614964 0.240867
0.000000 0.000000 0.000000
1.000000 1.000000 0.610304
1.000000 1.000000 0.597698
1.000000 1.000000 0.493989
1.000000 1.000000 0.019018
0.000000 0.000000 0.000000
0.698761 0.172168 0.175440
0.783263 0.283866 0.605339
1.000000 0.608416 1.000000
1.000000 1.000000 1.000000
1.000000 0.717523 1.000000
0.863114 0.680121 0.194748
0.855868 0.547584 0.581359
1.000000 0.642063 1.000000
1.000000 0.795660 1.000000
1.000000 0.058191 1.000000
0.868426 0.836914 0.119128
0.720212 0.710124 0.428728
0.939859 0.716568 0.899052
1.000000 0.619518 1.000000
0.621686 0.000000 1.000000
1.000000 0.962712 0.016173
1.000000 1.000000 0.196890
1.000000 1.000000 0.386668
0.660812 0.881950 0.442226
0.000000 0.000000 0.092712
1.000000 1.000000 0.190875
1.000000 1.000000 0.172682
1.000000 1.000000 0.000000
1.000000 1.000000 0.000000
0.000000 0.000000 0.000000
0.161452 0.000000 0.105798
1.000000 0.404858 1.000000
1.000000 1.000000 1.000000
1.000000 1.000000 1.000000
1.000000 1.000000 1.000000
0.634881 0.165378 0.238025
1.000000 0.684396 1.000000
1.000000 1.000000 1.000000
1.000000 1.000000 1.000000
1.000000 1.000000 1.000000
0.812949 0.438965 0.254304
1.000000 0.811452 1.000000
1.000000 1.000000 1.000000
1.000000 1.000000 1.000000
1.000000 1.000000 1.000000
1.000000 0.620251 0.209622
1.000000 1.000000 1.000000
1.000000 1.000000 1.000000
1.000000 1.000000 1.000000
1.000000 0.548105 1.000000
1.000000 0.962027 0.396364
1.000000 1.000000 1.000000
1.000000 1.000000 1.000000
1.000000 1.000000 1.000000
0.919069 0.823788 0.478815
