lrplugin/MindfulLensFilmEngine.lrplugin/profiles/luts/kodachrome_v2.cube
# Generated from ColorChecker fit
LUT_3D_SIZE 5
DOMAIN_MIN 0.0 0.0 0.0
DOMAIN_MAX 1.0 1.0 1.0
0.000000 0.000000 0.122154
0.000000 0.000000 0.262324
0.000000 0.000000 0.613054
0.000000 0.000000 0.690049
0.000000 0.000000 0.000000
0.095659 0.219146 0.000000
0.000000 0.180312 0.216595
0.102129 0.368725 0.649905
0.000000 0.315027 0.442528
0.000000 0.000000 0.000000
0.229814 0.774716 0.000000
0.039143 0.639323 0.438446
0.029215 0.712128 0.782792
0.000000 0.471201 0.094933
0.000000 0.000000 0.000000
1.000000 1.000000 1.000000
1.000000 1.000000 1.000000
1.000000 1.000000 1.000000
0.429095 0.547311 0.771368
0.000000 0.000000 0.000000
1.000000 1.000000 1.000000
1.000000 1.000000 1.000000
1.000000 1.000000 1.000000
1.000000 1.000000 1.000000
1.000000 0.000000 0.000000
0.215507 0.026395 0.387313
0.000000 0.000000 0.123088
0.011461 0.000000 0.300500
0.000000 0.000000 0.640732
0.000000 0.000000 0.723755
0.290483 0.414500 0.173943
0.233265 0.321343 0.301501
0.406137 0.390808 0.586696
0.291526 0.000000 0.654868
0.000000 0.000000 0.000000
0.467245 0.802798 0.278660
0.333491 0.697162 0.557691
0.349889 0.741257 0.685795
0.000000 0.240410 0.192467
0.000000 0.000000 0.000000
1.000000 1.000000 1.000000
1.000000 1.000000 1.000000
1.000000 1.000000 1.000000
0.875999 0.777867 0.277321
0.000000 0.000000 0.000000
1.000000 1.000000 1.000000
1.000000 1.000000 1.000000
1.000000 1.000000 1.000000
1.000000 1.000000 1.000000
1.000000 0.000000 0.000000
0.494815 0.210637 0.519870
0.264974 0.040298 0.063527
0.343657 0.000000 0.313590
0.229362 0.000000 1.000000
0.000000 0.000000 1.000000
0.461287 0.503062 0.313266
0.428372 0.334396 0.283700
0.630850 0.313838 0.663650
0.513044 0.000000 1.000000
0.000000 0.000000 1.000000
0.573336 0.731007 0.290153
0.455135 0.586173 0.353726
0.470871 0.582714 0.505361
0.010694 0.000000 0.480032
0.000000 0.000000 0.000000
1.000000 1.000000 1.000000
1.000000 1.000000 1.000000
1.000000 1.000000 0.778169
0.898857 0.616482 0.000000
0.000000 0.000000 0.000000
1.000000 1.000000 1.000000
1.000000 1.000000 1.000000
1.000000 1.000000 1.000000
1.000000 1.000000 0.636533
1.000000 0.000000 0.000000
0.786790 0.283521 0.430199
0.553165 0.182964 0.130199
0.669261 0.194873 0.835066
0.595473 0.000000 1.000000
0.000000 0.000000 1.000000
0.778916 0.684869 0.269399
0.746948 0.509622 0.428073
0.970053 0.518080 1.000000
0.854451 0.000000 1.000000
0.000000 0.000000 1.000000
0.875600 0.857916 0.119374
0.743058 0.695042 0.309755
0.742616 0.715300 0.860879
0.226319 0.000000 1.000000
0.000000 0.000000 1.000000
1.000000 1.000000 0.851200
1.000000 1.000000 0.630350
1.000000 1.000000 0.411333
1.000000 0.730607 0.038759
0.000000 0.000000 0.000000
1.000000 1.000000 1.000000
1.000000 1.000000 1.000000
1.000000 1.000000 1.000000
1.000000 1.000000 0.000000
1.000000 0.000000 0.000000
0.526564 0.000000 0.023596
0.283809 0.000000 0.364582
0.446348 0.301583 1.000000
0.436474 0.000000 1.000000
0.000000 0.000000 1.000000
0.835170 0.570910 0.165960
0.792264 0.548121 0.994420
1.000000 0.794747 1.000000
0.941959 0.150453 1.000000
0.000000 0.000000 1.000000
1.000000 0.893053 0.108263
0.957200 0.823410 0.903901
0.936533 1.000000 1.000000
0.374449 0.296215 1.000000
0.000000 0.000000 1.000000
1.000000 1.000000 0.621266
1.000000 1.000000 0.847816
1.000000 1.000000 1.000000
1.000000 1.000000 1.000000
0.000000 0.000000 1.000000
1.000000 1.000000 1.000000
1.000000 1.000000 1.000000
1.000000 1.000000 1.000000
1.000000 1.000000 0.186255
1.000000 0.000000 0.000000
