lrplugin/MindfulLensFilmEngine.lrplugin/profiles/luts/kodak_solara_100.cube
# Generated from ColorChecker fit
LUT_3D_SIZE 33
DOMAIN_MIN 0.0 0.0 0.0
DOMAIN_MAX 1.0 1.0 1.0
0.029546 0.000000 0.028086
0.018881 0.000000 0.040844
0.000908 0.000000 0.055002
0.000000 0.000000 0.070382
0.000000 0.000000 0.086800
0.000000 0.000000 0.104072
0.000000 0.000000 0.122007
0.000000 0.000000 0.140415
0.000000 0.000000 0.159098
0.000000 0.000000 0.177856
0.000000 0.000000 0.196487
0.000000 0.000000 0.214783
0.000000 0.000000 0.232535
0.000000 0.000000 0.249529
0.000000 0.000000 0.265547
0.000000 0.000000 0.280369
0.000000 0.000000 0.293770
0.000000 0.000000 0.305523
0.000000 0.000000 0.315396
0.000000 0.000000 0.323154
0.000000 0.000000 0.328559
0.000000 0.000000 0.331369
0.000000 0.000000 0.331339
0.000000 0.000000 0.328220
0.000000 0.000000 0.321759
0.000000 0.000000 0.311701
0.000000 0.000000 0.297785
0.000000 0.000000 0.279750
0.000000 0.000000 0.257328
0.000000 0.000000 0.230249
0.000000 0.000000 0.198241
0.000000 0.000000 0.161025
0.000000 0.000000 0.118322
0.000000 0.000000 0.038630
0.000000 0.000000 0.054310
0.000000 0.000000 0.071604
0.000000 0.000000 0.090312
0.000000 0.000000 0.110232
0.000000 0.000000 0.131158
0.000000 0.000000 0.152880
0.000000 0.000000 0.175186
0.000000 0.000000 0.197859
0.000000 0.000000 0.220679
0.000000 0.000000 0.243422
0.000000 0.000000 0.265861
0.000000 0.000000 0.287766
0.000000 0.000000 0.308902
0.000000 0.000000 0.329032
0.000000 0.000000 0.347916
0.000000 0.000000 0.365307
0.000000 0.000000 0.380958
0.000000 0.000000 0.394618
0.000000 0.000000 0.406030
0.000000 0.000000 0.414937
0.000000 0.000000 0.421077
0.000000 0.000000 0.424182
0.000000 0.000000 0.423985
0.000000 0.000000 0.420212
0.000000 0.000000 0.412587
0.000000 0.000000 0.400831
0.000000 0.000000 0.384659
0.000000 0.000000 0.363786
0.000000 0.000000 0.337920
0.000000 0.000000 0.306768
0.000000 0.000000 0.270033
0.000000 0.000000 0.227414
0.000000 0.000000 0.045257
0.000000 0.000000 0.063798
0.000000 0.000000 0.084156
0.000000 0.000000 0.106110
0.000000 0.000000 0.129439
0.000000 0.000000 0.153915
0.000000 0.000000 0.179310
0.000000 0.000000 0.205389
0.000000 0.000000 0.231916
0.000000 0.000000 0.258650
0.000000 0.000000 0.285348
0.000000 0.000000 0.311762
0.000000 0.000000 0.337641
0.000000 0.000000 0.362730
0.000000 0.000000 0.386773
0.000000 0.000000 0.409506
0.000000 0.000000 0.430666
0.000000 0.000000 0.449983
0.000000 0.000000 0.467186
0.000000 0.000000 0.481999
0.000000 0.000000 0.494143
0.000000 0.000000 0.503336
0.000000 0.000000 0.509291
0.000000 0.000000 0.511719
0.000000 0.000000 0.510326
0.000000 0.000000 0.504817
0.000000 0.000000 0.494890
0.000000 0.000000 0.480242
0.000000 0.000000 0.460567
0.000000 0.000000 0.435553
0.000000 0.000000 0.404886
0.000000 0.000000 0.368248
0.000000 0.000000 0.325319
0.000000 0.000000 0.047705
0.000000 0.000000 0.069067
0.000000 0.000000 0.092437
0.000000 0.000000 0.117576
0.000000 0.000000 0.144241
0.000000 0.000000 0.172185
0.000000 0.000000 0.201158
0.000000 0.000000 0.230905
0.000000 0.000000 0.261171
0.000000 0.000000 0.291694
0.000000 0.000000 0.322209
0.000000 0.000000 0.352450
0.000000 0.000000 0.382144
0.000000 0.000000 0.411018
0.000000 0.000000 0.438792
0.000000 0.000000 0.465185
0.000000 0.000000 0.489911
0.000000 0.000000 0.512683
0.000000 0.000000 0.533206
0.000000 0.000000 0.551186
0.000000 0.000000 0.566323
0.000000 0.000000 0.578314
0.000000 0.000000 0.586852
0.000000 0.000000 0.591628
0.000000 0.000000 0.592329
0.000000 0.000000 0.588636
0.000000 0.000000 0.580231
0.000000 0.000000 0.566788
0.000000 0.000000 0.547980
0.000000 0.000000 0.523476
0.000000 0.000000 0.492942
0.000000 0.000000 0.456039
0.000000 0.000000 0.412426
0.000000 0.000000 0.045768
0.000000 0.000000 0.069931
0.000000 0.000000 0.096283
0.000000 0.000000 0.124566
0.000000 0.000000 0.154514
0.000000 0.000000 0.185863
0.000000 0.000000 0.218340
0.000000 0.000000 0.251671
0.000000 0.000000 0.285580
0.000000 0.000000 0.319785
0.000000 0.000000 0.354002
0.000000 0.000000 0.387942
0.000000 0.000000 0.421314
0.000000 0.000000 0.453822
0.000000 0.000000 0.485169
0.000000 0.000000 0.515051
0.000000 0.000000 0.543163
0.000000 0.000000 0.569196
0.000000 0.000000 0.592838
0.000000 0.000000 0.613771
0.000000 0.000000 0.631676
0.000000 0.000000 0.646231
0.000000 0.000000 0.657107
0.000000 0.000000 0.663975
0.000000 0.000000 0.666502
0.000000 0.000000 0.664348
0.000000 0.000000 0.657175
0.000000 0.000000 0.644637
0.000000 0.000000 0.626387
0.000000 0.000000 0.602073
0.000000 0.000000 0.571340
0.000000 0.000000 0.533830
0.000000 0.000000 0.489181
0.000000 0.000000 0.039295
0.000000 0.000000 0.066259
0.000000 0.000000 0.095583
0.000000 0.000000 0.126987
0.000000 0.000000 0.160188
0.000000 0.000000 0.194898
0.000000 0.000000 0.230826
0.000000 0.000000 0.267678
0.000000 0.000000 0.305155
0.000000 0.000000 0.342957
0.000000 0.000000 0.380778
0.000000 0.000000 0.418311
0.000000 0.000000 0.455242
0.000000 0.000000 0.491257
0.000000 0.000000 0.526036
0.000000 0.000000 0.559257
0.000000 0.000000 0.590595
0.000000 0.000000 0.619718
0.000000 0.000000 0.646295
0.000000 0.000000 0.669989
0.000000 0.000000 0.690459
0.000000 0.000000 0.707362
0.000000 0.000000 0.720351
0.000000 0.000000 0.729076
0.000000 0.000000 0.733181
0.000000 0.000000 0.732310
0.000000 0.000000 0.726101
0.000000 0.000000 0.714189
0.000000 0.000000 0.696207
0.000000 0.000000 0.671782
0.000000 0.000000 0.640539
0.000000 0.000000 0.602100
0.000000 0.000000 0.556082
0.000000 0.000000 0.028190
0.000000 0.000000 0.057975
0.000000 0.000000 0.090280
0.000000 0.000000 0.124806
0.000000 0.000000 0.161247
0.000000 0.000000 0.199296
0.000000 0.000000 0.238642
0.000000 0.000000 0.278969
0.000000 0.000000 0.319961
0.000000 0.000000 0.361294
0.000000 0.000000 0.402644
0.000000 0.000000 0.443682
0.000000 0.000000 0.484075
0.000000 0.000000 0.523488
0.000000 0.000000 0.561581
0.000000 0.000000 0.598012
0.000000 0.000000 0.632434
0.000000 0.000000 0.664496
0.000000 0.000000 0.693847
0.000000 0.000000 0.720128
0.000000 0.000000 0.742980
0.000000 0.000000 0.762038
0.000000 0.000000 0.776935
0.000000 0.000000 0.787299
0.000000 0.000000 0.792757
0.000000 0.000000 0.792931
0.000000 0.000000 0.787438
0.000000 0.000000 0.775894
0.000000 0.000000 0.757910
0.000000 0.000000 0.733094
0.000000 0.000000 0.701051
0.000000 0.000000 0.661381
0.045963 0.000000 0.613682
0.000000 0.000000 0.012408
0.000000 0.000000 0.045056
0.000000 0.000000 0.080373
0.000000 0.000000 0.118039
0.000000 0.000000 0.157729
0.000000 0.000000 0.199115
0.000000 0.000000 0.241866
0.000000 0.000000 0.285647
0.000000 0.000000 0.330118
0.000000 0.000000 0.374937
0.000000 0.000000 0.419760
0.000000 0.000000 0.464237
0.000000 0.000000 0.508015
0.000000 0.000000 0.550738
0.000000 0.000000 0.592047
0.000000 0.000000 0.631577
0.000000 0.000000 0.668963
0.000000 0.000000 0.703834
0.000000 0.000000 0.735817
0.000000 0.000000 0.764533
0.000000 0.000000 0.789603
0.000000 0.000000 0.810642
0.000000 0.000000 0.827262
0.000000 0.000000 0.839071
0.000000 0.000000 0.845676
0.000000 0.000000 0.846677
0.000000 0.000000 0.841673
0.000000 0.000000 0.830259
0.000000 0.000000 0.812024
0.000000 0.000000 0.786558
0.017517 0.000000 0.753443
0.090219 0.000000 0.712262
0.173894 0.000000 0.662589
0.000000 0.000000 0.000000
0.000000 0.000000 0.027534
0.000000 0.000000 0.065914
0.000000 0.000000 0.106760
0.000000 0.000000 0.149728
0.000000 0.000000 0.194470
0.000000 0.000000 0.240634
0.000000 0.000000 0.287863
0.000000 0.000000 0.335800
0.000000 0.000000 0.384082
0.000000 0.000000 0.432342
0.000000 0.000000 0.480212
0.000000 0.000000 0.527318
0.000000 0.000000 0.573283
0.000000 0.000000 0.617728
0.000000 0.000000 0.660270
0.000000 0.000000 0.700520
0.000000 0.000000 0.738089
0.000000 0.000000 0.772582
0.000000 0.000000 0.803601
0.000000 0.000000 0.830747
0.000000 0.000000 0.853613
0.000000 0.000000 0.871792
0.000000 0.000000 0.884871
0.000000 0.000000 0.892437
0.000000 0.000000 0.894070
0.000000 0.000000 0.889347
0.000000 0.000000 0.877844
0.010191 0.000000 0.859130
0.065021 0.000000 0.832773
0.128552 0.000000 0.798338
0.201550 0.000000 0.755383
0.284810 0.000000 0.703465
0.000000 0.000000 0.000000
0.000000 0.000000 0.005497
0.000000 0.000000 0.047010
0.000000 0.000000 0.091096
0.000000 0.000000 0.137392
0.000000 0.000000 0.185528
0.000000 0.000000 0.235132
0.000000 0.000000 0.285828
0.000000 0.000000 0.337237
0.000000 0.000000 0.388976
0.000000 0.000000 0.440659
0.000000 0.000000 0.491896
0.000000 0.000000 0.542293
0.000000 0.000000 0.591453
0.000000 0.000000 0.638977
0.000000 0.000000 0.684461
0.000000 0.000000 0.727496
0.000000 0.000000 0.767672
0.000000 0.000000 0.804575
0.000000 0.000000 0.837786
0.000000 0.000000 0.866884
0.000000 0.000000 0.891444
0.000000 0.000000 0.911038
0.000000 0.000000 0.925233
0.000000 0.000000 0.933594
0.000000 0.000000 0.935682
0.016251 0.000000 0.931054
0.057762 0.000000 0.919264
0.105932 0.000000 0.899863
0.161440 0.000000 0.872397
0.224988 0.000000 0.836410
0.297304 0.000000 0.791441
0.379141 0.000000 0.737028
0.000000 0.000000 0.000000
0.000000 0.000000 0.000000
0.000000 0.000000 0.023822
0.000000 0.000000 0.071230
0.000000 0.000000 0.120923
0.000000 0.000000 0.172512
0.000000 0.000000 0.225604
0.000000 0.000000 0.279804
0.000000 0.000000 0.334712
0.000000 0.000000 0.389925
0.000000 0.000000 0.445035
0.000000 0.000000 0.499633
0.000000 0.000000 0.553305
0.000000 0.000000 0.605634
0.000000 0.000000 0.656199
0.000000 0.000000 0.704576
0.000000 0.000000 0.750337
0.000000 0.000000 0.793051
0.000000 0.000000 0.832282
0.000000 0.000000 0.867593
0.000000 0.000000 0.898542
0.000000 0.000000 0.924684
0.000000 0.000000 0.945568
0.000696 0.000000 0.960744
0.028666 0.000000 0.969756
0.060925 0.000000 0.972143
0.098036 0.000000 0.967443
0.140586 0.000000 0.955189
0.189189 0.000000 0.934912
0.244482 0.009780 0.906138
0.307128 0.027534 0.868390
0.377815 0.048865 0.821188
0.457256 0.074305 0.764047
0.000000 0.000000 0.000000
0.000000 0.000000 0.000000
0.000000 0.000000 0.000000
0.000000 0.000000 0.047397
0.000000 0.000000 0.100577
0.000000 0.000000 0.155698
0.000000 0.000000 0.212348
0.000000 0.000000 0.270110
0.000000 0.000000 0.328563
0.000000 0.000000 0.387285
0.000000 0.000000 0.445849
0.000000 0.000000 0.503824
0.000000 0.000000 0.560775
0.000000 0.000000 0.616265
0.000000 0.000000 0.669854
0.000000 0.000000 0.721096
0.000000 0.000000 0.769544
0.000000 0.000000 0.814745
0.000000 0.000000 0.856246
0.000000 0.009640 0.893586
0.000000 0.022637 0.926303
0.017321 0.034448 0.953933
0.041110 0.045351 0.976006
0.067702 0.055649 0.992049
0.097570 0.065658 1.000000
0.131212 0.075716 1.000000
0.169152 0.086180 0.999218
0.211936 0.097423 0.986344
0.260138 0.109840 0.965023
0.314357 0.123843 0.934763
0.375214 0.139863 0.895065
0.443358 0.158349 0.845428
0.519461 0.179771 0.785349
0.000000 0.000000 0.000000
0.000000 0.000000 0.000000
0.000000 0.000000 0.000000
0.000000 0.000000 0.019888
0.000000 0.000000 0.076665
0.000000 0.000000 0.135419
0.000000 0.000000 0.195714
0.000000 0.000000 0.257116
0.000000 0.000000 0.319183
0.000000 0.000000 0.381471
0.000000 0.000000 0.443534
0.000000 0.000000 0.504920
0.000000 0.000000 0.565175
0.000000 0.000000 0.623841
0.000000 0.000000 0.680456
0.000000 0.000000 0.734556
0.000000 0.020490 0.785672
0.000000 0.045216 0.833332
0.004197 0.067712 0.877060
0.025485 0.088139 0.916378
0.047962 0.106677 0.950803
0.071989 0.123525 0.979850
0.097948 0.138898 1.000000
0.126247 0.153033 1.000000
0.157321 0.166185 1.000000
0.191627 0.178627 1.000000
0.229649 0.190650 1.000000
0.271894 0.202566 1.000000
0.318895 0.214704 0.990994
0.371211 0.227413 0.959089
0.429424 0.241060 0.917272
0.494142 0.256031 0.865022
0.565998 0.272730 0.801815
0.000000 0.000000 0.000000
0.000000 0.000000 0.000000
0.000000 0.000000 0.000000
0.000000 0.000000 0.000000
0.000000 0.000000 0.049555
0.000000 0.000000 0.112059
0.000000 0.000000 0.176110
0.000000 0.000000 0.241250
0.000000 0.000000 0.307018
0.000000 0.000000 0.372950
0.000000 0.000000 0.438578
0.000000 0.000000 0.503431
0.000000 0.000000 0.567034
0.000000 0.000000 0.628909
0.000000 0.001636 0.688574
0.000000 0.038274 0.745544
0.000000 0.072201 0.799329
0.020755 0.103475 0.849439
0.044306 0.132174 0.895376
0.068385 0.158395 0.936642
0.093285 0.182253 0.972733
0.119324 0.203884 1.000000
0.146847 0.223439 1.000000
0.176222 0.241091 1.000000
0.207841 0.257031 1.000000
0.242124 0.271467 1.000000
0.279514 0.284629 1.000000
0.320478 0.296762 1.000000
0.365510 0.308133 1.000000
0.415128 0.319026 0.979991
0.469874 0.329744 0.935907
0.530317 0.340609 0.880884
0.597049 0.351963 0.814378
0.000000 0.000000 0.000000
0.000000 0.000000 0.000000
0.000000 0.000000 0.000000
0.000000 0.000000 0.000000
0.000000 0.000000 0.019664
0.000000 0.000000 0.086061
0.000000 0.000000 0.153997
0.000000 0.000000 0.222993
0.000000 0.000000 0.292570
0.000000 0.000000 0.362242
0.000000 0.000000 0.431522
0.000000 0.000000 0.499918
0.000000 0.000000 0.566934
0.000000 0.000000 0.632072
0.000000 0.028835 0.694831
0.000000 0.072550 0.754704
0.025931 0.113303 0.811182
0.052195 0.151088 0.863752
0.078402 0.185918 0.911899
0.104780 0.217829 0.955102
0.131583 0.246869 0.992839
0.159090 0.273111 1.000000
0.187603 0.296644 1.000000
0.217452 0.317574 1.000000
0.248990 0.336029 1.000000
0.282595 0.352155 1.000000
0.318671 0.366115 1.000000
0.357645 0.378093 1.000000
0.399972 0.388290 1.000000
0.446128 0.396927 0.998397
0.496618 0.404243 0.951917
0.551968 0.410496 0.893982
0.612732 0.415963 0.824028
0.000000 0.000000 0.000000
0.000000 0.000000 0.000000
0.000000 0.000000 0.000000
0.000000 0.000000 0.000000
0.000000 0.000000 0.000000
0.000000 0.000000 0.057918
0.000000 0.000000 0.129888
0.000000 0.000000 0.202881
0.000000 0.000000 0.276395
0.000000 0.000000 0.349926
0.000000 0.000000 0.422964
0.000000 0.000000 0.494998
0.000000 0.000000 0.565513
0.000000 0.000000 0.633990
0.000000 0.042122 0.699905
0.019431 0.093027 0.762734
0.048828 0.140683 0.821947
0.077659 0.185024 0.877010
0.106089 0.225998 0.927387
0.134307 0.263575 0.972538
0.162526 0.297742 1.000000
0.190985 0.328506 1.000000
0.219948 0.355893 1.000000
0.249704 0.379945 1.000000
0.280564 0.400726 1.000000
0.312869 0.418318 1.000000
0.346982 0.432820 1.000000
0.383290 0.444352 1.000000
0.422207 0.453051 1.000000
0.464171 0.459074 1.000000
0.509646 0.462597 0.966306
0.559118 0.463813 0.905341
0.613102 0.462936 0.831809
0.000000 0.000000 0.000000
0.000000 0.000000 0.000000
0.000000 0.000000 0.000000
0.000000 0.000000 0.000000
0.000000 0.000000 0.000000
0.000000 0.000000 0.028181
0.000000 0.000000 0.104355
0.000000 0.000000 0.181504
0.000000 0.000000 0.259103
0.000000 0.000000 0.336630
0.000000 0.000000 0.413554
0.000000 0.000000 0.489344
0.000000 0.000000 0.563463
0.000000 0.000000 0.635372
0.000792 0.037930 0.704530
0.033708 0.096217 0.770388
0.065629 0.150939 0.832397
0.096654 0.201962 0.890005
0.126907 0.249173 0.942653
0.156537 0.292477 0.989783
0.185718 0.331798 1.000000
0.214649 0.367077 1.000000
0.243552 0.398277 1.000000
0.272678 0.425378 1.000000
0.302299 0.448378 1.000000
0.332713 0.467294 1.000000
0.364245 0.482164 1.000000
0.397243 0.493041 1.000000
0.432079 0.500001 1.000000
0.469153 0.503136 1.000000
0.508886 0.502557 0.980131
0.551728 0.498394 0.916037
0.598152 0.490797 0.838818
0.000000 0.000000 0.000000
0.000000 0.000000 0.000000
0.000000 0.000000 0.000000
0.000000 0.000000 0.000000
0.000000 0.000000 0.000000
0.000000 0.000000 0.000000
0.000000 0.000000 0.078022
0.000000 0.000000 0.159505
0.000000 0.000000 0.241360
0.000000 0.000000 0.323041
0.000000 0.000000 0.403998
0.000000 0.000000 0.483680
0.000000 0.000000 0.561529
0.000000 0.000000 0.636987
0.006171 0.012402 0.709490
0.041616 0.078349 0.778472
0.075748 0.140379 0.843361
0.108626 0.198295 0.903586
0.140334 0.251919 0.958567
0.170982 0.301092 1.000000
0.200702 0.345675 1.000000
0.229654 0.385546 1.000000
0.258022 0.420601 1.000000
0.286015 0.450758 1.000000
0.313865 0.475951 1.000000
0.341832 0.496134 1.000000
0.370198 0.511279 1.000000
0.399273 0.521377 1.000000
0.429390 0.526439 1.000000
0.460906 0.526492 1.000000
0.494206 0.521585 0.994505
0.529697 0.511784 0.927204
0.567813 0.497173 0.846209
0.000000 0.000000 0.000000
0.000000 0.000000 0.000000
0.000000 0.000000 0.000000
0.000000 0.000000 0.000000
0.000000 0.000000 0.000000
0.000000 0.000000 0.000000
0.000000 0.000000 0.051567
0.000000 0.000000 0.137585
0.000000 0.000000 0.223884
0.000000 0.000000 0.309897
0.000000 0.000000 0.395056
0.000000 0.000000 0.478787
0.000000 0.000000 0.560513
0.000000 0.000000 0.639655
0.004755 0.000000 0.715628
0.042474 0.035358 0.787847
0.078535 0.105022 0.855721
0.112958 0.170122 0.918655
0.145786 0.230418 0.976051
0.177088 0.285686 1.000000
0.206958 0.335723 1.000000
0.235515 0.380342 1.000000
0.262903 0.419378 1.000000
0.289291 0.452682 1.000000
0.314873 0.480126 1.000000
0.339866 0.501599 1.000000
0.364515 0.517009 1.000000
0.389087 0.526285 1.000000
0.413878 0.529371 1.000000
0.439203 0.526233 1.000000
0.465408 0.516854 1.000000
0.492860 0.501236 0.940027
0.521953 0.479402 0.855189
0.000000 0.000000 0.000000
0.000000 0.000000 0.000000
0.000000 0.000000 0.000000
0.000000 0.000000 0.000000
0.000000 0.000000 0.000000
0.000000 0.000000 0.000000
0.000000 0.000000 0.025723
0.000000 0.000000 0.116497
0.000000 0.000000 0.207450
0.000000 0.000000 0.297995
0.000000 0.000000 0.387542
0.000000 0.000000 0.475499
0.000000 0.000000 0.561269
0.000000 0.000000 0.644250
0.000000 0.000000 0.723840
0.035538 0.000000 0.799431
0.073280 0.040599 0.870412
0.108970 0.113258 0.936168
0.142614 0.180567 0.996082
0.174240 0.242237 1.000000
0.203903 0.298001 1.000000
0.231681 0.347610 1.000000
0.257677 0.390832 1.000000
0.282022 0.427457 1.000000
0.304869 0.457291 1.000000
0.326395 0.480161 1.000000
0.346806 0.495909 1.000000
0.366329 0.504401 1.000000
0.385219 0.505518 1.000000
0.403752 0.499160 1.000000
0.422234 0.485248 1.000000
0.440991 0.463720 0.955749
0.460378 0.434532 0.867018
0.000000 0.000000 0.000000
0.000000 0.000000 0.000000
0.000000 0.000000 0.000000
0.000000 0.000000 0.000000
0.000000 0.000000 0.000000
0.000000 0.000000 0.000000
0.000000 0.000000 0.001279
0.000000 0.000000 0.097049
0.000000 0.000000 0.192885
0.000000 0.000000 0.288181
0.000000 0.000000 0.382326
0.000000 0.000000 0.474707
0.000000 0.000000 0.564707
0.000000 0.000000 0.651705
0.000000 0.000000 0.735076
0.020001 0.000000 0.814194
0.059207 0.000000 0.888426
0.095922 0.023227 0.957138
0.130111 0.097971 1.000000
0.161763 0.166433 1.000000
0.190893 0.228281 1.000000
0.217538 0.283202 1.000000
0.241764 0.330900 1.000000
0.263659 0.371102 1.000000
0.283337 0.403549 1.000000
0.300937 0.428003 1.000000
0.316622 0.444245 1.000000
0.330580 0.452074 1.000000
0.343027 0.451310 1.000000
0.354199 0.441787 1.000000
0.364360 0.423363 1.000000
0.373800 0.395911 0.975665
0.382830 0.359325 0.883014
0.000000 0.000000 0.000000
0.000000 0.000000 0.000000
0.000000 0.000000 0.000000
0.000000 0.000000 0.000000
0.000000 0.000000 0.000000
0.000000 0.000000 0.000000
0.000000 0.000000 0.000000
0.000000 0.000000 0.080103
0.000000 0.000000 0.181073
0.000000 0.000000 0.281359
0.000000 0.000000 0.380331
0.000000 0.000000 0.477354
0.000000 0.000000 0.571792
0.000000 0.000000 0.663002
0.000000 0.000000 0.750341
0.000000 0.000000 0.833160
0.035479 0.000000 0.910807
0.073007 0.000000 0.982629
0.107503 0.000000 1.000000
0.138916 0.053675 1.000000
0.167219 0.122045 1.000000
0.192413 0.182683 1.000000
0.214521 0.235229 1.000000
0.233592 0.279345 1.000000
0.249700 0.314709 1.000000
0.262944 0.341019 1.000000
0.273448 0.357992 1.000000
0.281359 0.365364 1.000000
0.286853 0.362888 1.000000
0.290127 0.350337 1.000000
0.291405 0.327504 1.000000
0.290935 0.294199 1.000000
0.288990 0.250250 0.904547
0.000000 0.000000 0.000000
0.000000 0.000000 0.000000
0.000000 0.000000 0.000000
0.000000 0.000000 0.000000
0.000000 0.000000 0.000000
0.000000 0.000000 0.000000
0.000000 0.000000 0.000000
0.000000 0.000000 0.066577
0.000000 0.000000 0.172951
0.000000 0.000000 0.278488
0.000000 0.000000 0.382535
0.000000 0.000000 0.484439
0.000000 0.000000 0.583541
0.000000 0.000000 0.679181
0.000000 0.000000 0.770693
0.000000 0.000000 0.857409
0.001198 0.000000 0.938657
0.039360 0.000000 1.000000
0.073956 0.000000 1.000000
0.104895 0.000000 1.000000
0.132113 0.000000 1.000000
0.155567 0.041329 1.000000
0.175242 0.099178 1.000000
0.191148 0.147628 1.000000
0.203317 0.186296 1.000000
0.211809 0.214816 1.000000
0.216708 0.232840 1.000000
0.218123 0.240039 1.000000
0.216186 0.236105 1.000000
0.211057 0.220746 1.000000
0.202919 0.193689 1.000000
0.191981 0.154683 1.000000
0.178477 0.103490 0.933041
0.000000 0.000000 0.000000
0.000000 0.000000 0.000000
0.000000 0.000000 0.000000
0.000000 0.000000 0.000000
0.000000 0.000000 0.000000
0.000000 0.000000 0.000000
0.000000 0.000000 0.000000
0.000000 0.000000 0.057441
0.000000 0.000000 0.169511
0.000000 0.000000 0.280578
0.000000 0.000000 0.389970
0.000000 0.000000 0.497013
0.000000 0.000000 0.601029
0.000000 0.000000 0.701335
0.000000 0.000000 0.797247
0.000000 0.000000 0.888076
0.000000 0.000000 0.973129
0.000000 0.000000 1.000000
0.028573 0.000000 1.000000
0.058838 0.000000 1.000000
0.084741 0.000000 1.000000
0.106200 0.000000 1.000000
0.123161 0.000000 1.000000
0.135591 0.000000 1.000000
0.143485 0.013544 1.000000
0.146862 0.044709 1.000000
0.145765 0.064186 1.000000
0.140264 0.071582 1.000000
0.130452 0.066525 1.000000
0.116448 0.048659 1.000000
0.098396 0.017647 1.000000
0.076463 0.000000 1.000000
0.050845 0.000000 0.969977
0.000000 0.000000 0.000000
0.000000 0.000000 0.000000
0.000000 0.000000 0.000000
0.000000 0.000000 0.000000
0.000000 0.000000 0.000000
0.000000 0.000000 0.000000
0.000000 0.000000 0.000000
0.000000 0.000000 0.053723
0.000000 0.000000 0.171799
0.000000 0.000000 0.288697
0.000000 0.000000 0.403724
0.000000 0.000000 0.516185
0.000000 0.000000 0.625382
0.000000 0.000000 0.730613
0.000000 0.000000 0.831172
0.000000 0.000000 0.926349
0.000000 0.000000 1.000000
0.000000 0.000000 1.000000
0.000000 0.000000 1.000000
0.000000 0.000000 1.000000
0.024209 0.000000 1.000000
0.043450 0.000000 1.000000
0.057445 0.000000 1.000000
0.066123 0.000000 1.000000
0.069437 0.000000 1.000000
0.067367 0.000000 1.000000
0.059917 0.000000 1.000000
0.047115 0.000000 1.000000
0.029015 0.000000 1.000000
0.005696 0.000000 1.000000
0.000000 0.000000 1.000000
0.000000 0.000000 1.000000
0.000000 0.000000 1.000000
0.000000 0.000000 0.000000
0.000000 0.000000 0.000000
0.000000 0.000000 0.000000
0.000000 0.000000 0.000000
0.000000 0.000000 0.000000
0.000000 0.000000 0.000000
0.000000 0.000000 0.000000
0.000000 0.000000 0.056502
0.000000 0.000000 0.180917
0.000000 0.000000 0.303966
0.000000 0.000000 0.424938
0.000000 0.000000 0.543116
0.000000 0.000000 0.657783
0.000000 0.000000 0.768216
0.000000 0.000000 0.873688
0.000000 0.000000 0.973471
0.000000 0.000000 1.000000
0.000000 0.000000 1.000000
0.000000 0.000000 1.000000
0.000000 0.000000 1.000000
0.000000 0.000000 1.000000
0.000000 0.000000 1.000000
0.000000 0.000000 1.000000
0.000000 0.000000 1.000000
0.000000 0.000000 1.000000
0.000000 0.000000 1.000000
0.000000 0.000000 1.000000
0.000000 0.000000 1.000000
0.000000 0.000000 1.000000
0.000000 0.000000 1.000000
0.000000 0.000000 1.000000
0.000000 0.000000 1.000000
0.000000 0.000000 1.000000
0.000000 0.000000 0.000000
0.000000 0.000000 0.000000
0.000000 0.000000 0.000000
0.000000 0.000000 0.000000
0.000000 0.000000 0.000000
0.000000 0.000000 0.000000
0.000000 0.000000 0.000000
0.000000 0.000000 0.066913
0.000000 0.000000 0.198018
0.000000 0.000000 0.327560
0.000000 0.000000 0.454807
0.000000 0.000000 0.579023
0.000000 0.000000 0.699469
0.000000 0.000000 0.815401
0.000000 0.000000 0.926075
0.000000 0.000000 1.000000
0.000000 0.000000 1.000000
0.000000 0.000000 1.000000
0.000000 0.000000 1.000000
0.000000 0.000000 1.000000
0.000000 0.000000 1.000000
0.000000 0.000000 1.000000
0.000000 0.000000 1.000000
0.000000 0.000000 1.000000
0.000000 0.000000 1.000000
0.000000 0.000000 1.000000
0.000000 0.000000 1.000000
