lrplugin/MindfulLensFilmEngine.lrplugin/profiles/luts/kodak_color_plus_200_cc.cube
# Generated from ColorChecker fit
LUT_3D_SIZE 5
DOMAIN_MIN 0.0 0.0 0.0
DOMAIN_MAX 1.0 1.0 1.0
0.054069 0.000000 0.179372
0.078771 0.025970 0.444041
0.542331 0.185293 0.658999
1.000000 0.146692 0.297244
1.000000 0.000000 0.000000
0.000000 0.000000 0.000000
0.000000 0.274987 0.295037
0.057266 0.417818 0.618960
0.015458 0.000000 0.166280
0.000000 0.000000 0.000000
0.000000 0.000000 0.095220
0.000000 0.571457 0.569164
0.000000 0.690632 0.849266
0.000000 0.000000 0.138057
0.000000 0.000000 0.000000
1.000000 0.336041 1.000000
1.000000 1.000000 1.000000
1.000000 1.000000 1.000000
0.000000 0.000000 1.000000
0.000000 0.000000 0.000000
1.000000 1.000000 1.000000
1.000000 1.000000 1.000000
1.000000 1.000000 1.000000
1.000000 1.000000 1.000000
0.000000 0.000000 1.000000
0.567185 0.328888 0.378697
0.379298 0.000000 0.144957
0.861682 0.000000 0.266410
1.000000 0.344879 0.365996
1.000000 0.515194 0.000000
0.311563 0.406419 0.252992
0.249545 0.346013 0.281266
0.531626 0.373181 0.592563
0.928583 0.219417 0.674589
0.974498 0.000000 0.000000
0.235930 0.401279 0.472623
0.297887 0.770689 0.527884
0.345566 0.780179 0.779181
0.000000 0.000000 0.578986
0.000000 0.000000 0.000000
1.000000 1.000000 1.000000
1.000000 1.000000 1.000000
1.000000 1.000000 1.000000
0.338561 0.396420 1.000000
0.000000 0.000000 0.000000
1.000000 1.000000 1.000000
1.000000 1.000000 1.000000
1.000000 1.000000 1.000000
1.000000 1.000000 1.000000
0.000000 0.000000 1.000000
0.865037 0.492668 0.573011
0.515139 0.000000 0.058537
1.000000 0.087423 0.262091
1.000000 1.000000 0.956553
1.000000 1.000000 1.000000
0.670303 0.677503 0.431037
0.434240 0.287570 0.225376
0.786311 0.395656 0.658059
1.000000 0.966994 1.000000
1.000000 1.000000 1.000000
0.494217 0.669597 0.382519
0.340579 0.558503 0.153586
0.430865 0.525764 0.468498
0.480642 0.310686 0.829666
0.000000 0.000000 0.352053
1.000000 1.000000 1.000000
1.000000 1.000000 1.000000
1.000000 1.000000 0.934731
0.294360 0.215563 0.520496
0.000000 0.000000 0.000000
1.000000 1.000000 1.000000
1.000000 1.000000 1.000000
1.000000 1.000000 1.000000
1.000000 1.000000 1.000000
0.000000 0.000000 0.000000
0.784927 0.146465 0.290530
0.542130 0.000000 0.000000
1.000000 0.926914 0.719889
1.000000 1.000000 1.000000
1.000000 1.000000 1.000000
0.888742 0.656501 0.301097
0.697853 0.392405 0.310399
1.000000 1.000000 1.000000
1.000000 1.000000 1.000000
1.000000 1.000000 1.000000
0.779031 0.789377 0.117124
0.579126 0.524017 0.011301
0.879805 0.802802 0.755061
1.000000 1.000000 1.000000
1.000000 1.000000 1.000000
1.000000 1.000000 0.972668
1.000000 1.000000 0.256402
0.994559 0.985094 0.272887
0.726365 0.629250 0.539244
0.000000 0.000000 0.185141
1.000000 1.000000 1.000000
1.000000 1.000000 1.000000
1.000000 1.000000 1.000000
1.000000 1.000000 0.617767
0.000000 0.000000 0.000000
0.000000 0.000000 0.000000
0.022090 0.000000 0.076513
1.000000 1.000000 1.000000
1.000000 1.000000 1.000000
1.000000 1.000000 1.000000
0.552071 0.025381 0.122084
0.844107 0.628783 1.000000
1.000000 1.000000 1.000000
1.000000 1.000000 1.000000
1.000000 1.000000 1.000000
0.917465 0.738954 0.317348
1.000000 0.931865 1.000000
1.000000 1.000000 1.000000
1.000000 1.000000 1.000000
1.000000 1.000000 1.000000
1.000000 1.000000 1.000000
1.000000 1.000000 0.944855
1.000000 1.000000 1.000000
1.000000 1.000000 1.000000
1.000000 1.000000 1.000000
1.000000 1.000000 1.000000
1.000000 1.000000 1.000000
1.000000 1.000000 1.000000
1.000000 1.000000 1.000000
1.000000 0.277292 0.791229
