lrplugin/MindfulLensFilmEngine.lrplugin/profiles/luts/kodachrome_v1.cube
# Generated from ColorChecker fit
LUT_3D_SIZE 9
DOMAIN_MIN 0.0 0.0 0.0
DOMAIN_MAX 1.0 1.0 1.0
0.000000 0.000000 0.087892
0.000000 0.000000 0.184651
0.002790 0.000000 0.333332
0.112902 0.110245 0.500423
0.244336 0.246381 0.644478
0.351168 0.295553 0.716126
0.365843 0.129797 0.658063
0.199180 0.000000 0.405057
0.000000 0.000000 0.000000
0.000000 0.000000 0.000000
0.000000 0.059091 0.040467
0.000000 0.161265 0.203457
0.101816 0.280706 0.387070
0.204296 0.382883 0.547878
0.250587 0.384396 0.634524
0.167229 0.152981 0.587723
0.000000 0.000000 0.340256
0.000000 0.000000 0.000000
0.000000 0.120400 0.000000
0.000000 0.219881 0.000000
0.000000 0.314751 0.153746
0.024310 0.415045 0.361974
0.092072 0.481932 0.545205
0.070343 0.427713 0.650099
0.000000 0.115825 0.615386
0.000000 0.000000 0.371865
0.000000 0.000000 0.000000
0.000000 0.246446 0.000000
0.000000 0.365970 0.000000
0.000000 0.466598 0.172888
0.000000 0.554064 0.412694
0.000000 0.585239 0.622889
0.000000 0.468124 0.748149
0.000000 0.061855 0.725220
0.000000 0.000000 0.482917
0.000000 0.000000 0.000000
0.000000 0.370013 0.000000
0.000000 0.530294 0.000000
0.000000 0.650650 0.264430
0.000000 0.732518 0.541644
0.000000 0.728467 0.782212
0.000000 0.542199 0.928824
0.000000 0.028550 0.916243
0.000000 0.000000 0.671302
0.000000 0.000000 0.112904
0.000000 0.517084 0.000000
0.029073 0.739741 0.132701
0.181809 0.894705 0.446769
0.264137 0.979111 0.766092
0.222234 0.941228 1.000000
0.000000 0.680460 1.000000
0.000000 0.047343 1.000000
0.000000 0.000000 0.949762
0.000000 0.000000 0.366343
0.391513 0.707587 0.054648
0.638810 1.000000 0.383516
0.825449 1.000000 0.753158
0.913331 1.000000 1.000000
0.842728 1.000000 1.000000
0.532285 0.907382 1.000000
0.000000 0.143614 1.000000
0.000000 0.000000 1.000000
0.000000 0.000000 0.728913
1.000000 0.955407 0.401991
1.000000 1.000000 0.801629
1.000000 1.000000 1.000000
1.000000 1.000000 1.000000
1.000000 1.000000 1.000000
1.000000 1.000000 1.000000
0.888196 0.336697 1.000000
0.000000 0.000000 1.000000
0.000000 0.000000 1.000000
1.000000 1.000000 0.974574
1.000000 1.000000 1.000000
1.000000 1.000000 1.000000
1.000000 1.000000 1.000000
1.000000 1.000000 1.000000
1.000000 1.000000 1.000000
1.000000 0.639877 1.000000
1.000000 0.000000 1.000000
0.000000 0.000000 1.000000
0.155212 0.000000 0.213648
0.111385 0.000000 0.229666
0.135323 0.000000 0.314463
0.226260 0.099370 0.441101
0.361806 0.226792 0.574716
0.497937 0.302370 0.672513
0.569006 0.205188 0.683765
0.487733 0.000000 0.549819
0.145212 0.000000 0.204089
0.144673 0.121145 0.124868
0.133716 0.148010 0.151593
0.177456 0.193493 0.249575
0.269225 0.278976 0.389894
0.380724 0.376973 0.535700
0.462028 0.411134 0.642215
0.441582 0.256242 0.656730
0.226203 0.000000 0.518606
0.000000 0.000000 0.159274
0.072897 0.278719 0.074889
0.092922 0.307705 0.122791
0.152863 0.349473 0.242004
0.240147 0.421105 0.401627
0.320570 0.490815 0.562827
0.338302 0.477954 0.678840
0.215882 0.253003 0.694975
0.000000 0.000000 0.548608
0.000000 0.000000 0.169188
0.004324 0.394868 0.053872
0.056350 0.448248 0.132286
0.131798 0.501831 0.279646
0.212188 0.568398 0.463067
0.257412 0.611867 0.641730
0.205734 0.547285 0.766890
0.000000 0.240837 0.781871
0.000000 0.000000 0.622066
0.000000 0.000000 0.214941
0.027695 0.503457 0.066828
0.115651 0.604412 0.183961
0.208819 0.686247 0.365253
0.282814 0.757448 0.575832
0.291623 0.777628 0.772899
0.167605 0.657538 0.905723
0.000000 0.259062 0.915646
0.000000 0.000000 0.736076
0.000000 0.000000 0.292495
0.256057 0.632306 0.133626
0.386778 0.804923 0.296553
0.502787 0.932359 0.516428
0.573793 1.000000 0.756397
0.547879 1.000000 0.971676
0.351498 0.841072 1.000000
0.000000 0.340946 1.000000
0.000000 0.000000 0.902587
0.000000 0.000000 0.412671
0.826759 0.803182 0.288988
1.000000 1.000000 0.503652
1.000000 1.000000 0.765632
1.000000 1.000000 1.000000
1.000000 1.000000 1.000000
0.909302 1.000000 1.000000
0.332544 0.513709 1.000000
0.000000 0.000000 1.000000
0.000000 0.000000 0.601140
1.000000 1.000000 0.582488
1.000000 1.000000 0.853703
1.000000 1.000000 1.000000
1.000000 1.000000 1.000000
1.000000 1.000000 1.000000
1.000000 1.000000 1.000000
1.000000 0.798522 1.000000
0.155889 0.000000 1.000000
0.000000 0.000000 0.898429
1.000000 1.000000 1.000000
1.000000 1.000000 1.000000
1.000000 1.000000 1.000000
1.000000 1.000000 1.000000
1.000000 1.000000 1.000000
1.000000 1.000000 1.000000
1.000000 1.000000 1.000000
1.000000 0.000000 1.000000
0.000000 0.000000 1.000000
0.310737 0.000000 0.298743
0.204182 0.000000 0.250068
0.184431 0.000000 0.282357
0.252623 0.036335 0.375254
0.388269 0.143588 0.500471
0.549253 0.228575 0.621790
0.671830 0.177425 0.695064
0.670624 0.000000 0.668216
0.438633 0.000000 0.481238
0.328579 0.230775 0.252092
0.253443 0.186521 0.213397
0.252850 0.171029 0.256426
0.322033 0.212725 0.358839
0.434599 0.291172 0.490364
0.542526 0.337067 0.612799
0.576163 0.232238 0.680013
0.444231 0.000000 0.637946
0.033823 0.000000 0.424607
0.281289 0.384074 0.228806
0.234419 0.339909 0.208091
0.248115 0.320374 0.267438
0.311706 0.349599 0.382521
0.392895 0.402846 0.521086
0.437753 0.406510 0.642947
0.370725 0.238123 0.699990
0.094628 0.000000 0.636171
0.000000 0.000000 0.387514
0.231533 0.488344 0.218253
0.212682 0.469006 0.222386
0.238707 0.463428 0.302495
0.293032 0.491436 0.432273
0.337453 0.523995 0.577479
0.312139 0.483201 0.695946
0.135629 0.242283 0.737575
0.000000 0.000000 0.644338
0.000000 0.000000 0.350276
0.266282 0.579289 0.224651
0.278111 0.610427 0.259369
0.317412 0.637710 0.363556
0.361703 0.676666 0.508920
0.366875 0.693959 0.659238
0.267192 0.607385 0.770359
0.000000 0.285874 0.790200
0.000000 0.000000 0.658749
0.000000 0.000000 0.308065
0.496808 0.686564 0.267075
0.544887 0.794735 0.336983
0.601317 0.874694 0.467431
0.637714 0.937670 0.628143
0.604063 0.946026 0.780912
0.428723 0.813260 0.879604
0.018422 0.404002 0.870151
0.000000 0.000000 0.690560
0.000000 0.000000 0.270904
1.000000 0.833776 0.379453
1.000000 1.000000 0.488025
1.000000 1.000000 0.645787
1.000000 1.000000 0.820477
1.000000 1.000000 0.971905
0.946846 1.000000 1.000000
0.418053 0.625725 1.000000
0.000000 0.000000 0.765781
0.000000 0.000000 0.263672
1.000000 1.000000 0.610567
1.000000 1.000000 0.760148
1.000000 1.000000 0.945143
1.000000 1.000000 1.000000
1.000000 1.000000 1.000000
1.000000 1.000000 1.000000
1.000000 0.974052 1.000000
0.254741 0.000000 0.925277
0.000000 0.000000 0.326104
1.000000 1.000000 1.000000
1.000000 1.000000 1.000000
1.000000 1.000000 1.000000
1.000000 1.000000 1.000000
1.000000 1.000000 1.000000
1.000000 1.000000 1.000000
1.000000 1.000000 1.000000
1.000000 0.120854 1.000000
0.000000 0.000000 0.512787
0.441751 0.077325 0.332013
0.287136 0.009811 0.250706
0.237926 0.000000 0.257884
0.297165 0.001681 0.339766
0.446268 0.091749 0.474643
0.645022 0.183584 0.632874
0.831585 0.170363 0.776891
0.922489 0.000000 0.861194
0.812633 0.000000 0.832354
0.480162 0.329114 0.310528
0.351574 0.229440 0.237153
0.316934 0.163126 0.251302
0.373381 0.165647 0.337213
0.496425 0.223612 0.471191
0.639949 0.274764 0.621613
0.736206 0.207980 0.748926
0.695820 0.000000 0.805647
0.407789 0.000000 0.736362
0.447476 0.479995 0.299447
0.340493 0.374459 0.239534
0.314288 0.299860 0.263763
0.360094 0.287373 0.354387
0.447516 0.319308 0.485730
0.524532 0.329108 0.624184
0.517490 0.201349 0.728212
0.331109 0.000000 0.748347
0.000000 0.000000 0.627193
0.404584 0.573557 0.287343
0.317695 0.489367 0.245290
0.296698 0.426949 0.281575
0.326921 0.413177 0.376468
0.372066 0.426063 0.502307
0.374203 0.394748 0.623503
0.253777 0.199510 0.696534
0.000000 0.000000 0.669949
0.000000 0.000000 0.484370
0.436685 0.647343 0.277642
0.371284 0.612615 0.256716
0.355175 0.583751 0.305903
0.367782 0.583326 0.403487
0.366901 0.585051 0.519825
0.288698 0.513769 0.617341
0.047711 0.245457 0.650531
0.000000 0.000000 0.565962
0.000000 0.000000 0.302270
0.653279 0.732846 0.288623
0.613668 0.776605 0.290962
0.605036 0.803578 0.352765
0.600900 0.832040 0.450333
0.553152 0.831402 0.552038
0.392053 0.722208 0.618322
0.026237 0.376135 0.601698
0.000000 0.000000 0.446748
0.000000 0.000000 0.090123
1.000000 0.855513 0.353423
1.000000 1.000000 0.380031
1.000000 1.000000 0.453032
1.000000 1.000000 0.546745
1.000000 1.000000 0.627557
0.832612 1.000000 0.653927
0.340603 0.622439 0.576382
0.000000 0.000000 0.337523
0.000000 0.000000 0.000000
1.000000 1.000000 0.520030
1.000000 1.000000 0.570781
1.000000 1.000000 0.652433
1.000000 1.000000 0.737320
1.000000 1.000000 0.789847
1.000000 1.000000 0.766487
1.000000 1.000000 0.615786
0.131176 0.000000 0.278358
0.000000 0.000000 0.000000
1.000000 1.000000 0.851287
1.000000 1.000000 0.924925
1.000000 1.000000 1.000000
1.000000 1.000000 1.000000
1.000000 1.000000 1.000000
1.000000 1.000000 1.000000
1.000000 1.000000 0.775965
1.000000 0.369910 0.324180
0.000000 0.000000 0.000000
0.566679 0.160259 0.313374
0.396038 0.079795 0.247514
0.348965 0.025720 0.272990
0.430409 0.044857 0.382599
0.623688 0.135163 0.561209
0.890494 0.245726 0.785759
1.000000 0.276770 1.000000
1.000000 0.079651 1.000000
1.000000 0.000000 1.000000
0.625815 0.425451 0.306517
0.471864 0.300492 0.245217
0.430829 0.207950 0.272574
0.501755 0.190345 0.379402
0.662054 0.241335 0.548585
0.867514 0.305708 0.755077
1.000000 0.279390 0.965903
1.000000 0.009435 1.000000
0.988286 0.000000 1.000000
0.605815 0.578921 0.299576
0.462866 0.438236 0.245897
0.420469 0.329250 0.275774
0.471761 0.290186 0.378036
0.588251 0.310399 0.533585
0.719820 0.330381 0.715392
0.794720 0.241755 0.888497
0.719577 0.000000 1.000000
0.379385 0.000000 1.000000
0.565799 0.666100 0.280330
0.431074 0.539363 0.236201
0.382821 0.436867 0.268104
0.408271 0.392533 0.362887
0.473029 0.391420 0.499466
0.521071 0.369716 0.648827
0.474744 0.214747 0.774030
0.234768 0.000000 0.830200
0.000000 0.000000 0.764535
0.589192 0.726367 0.251411
0.462820 0.644163 0.217630
0.407124 0.571997 0.249937
0.403433 0.539494 0.333193
0.411444 0.527410 0.444333
0.369230 0.467635 0.552360
0.193233 0.243195 0.618347
0.000000 0.000000 0.595438
0.000000 0.000000 0.428847
0.783722 0.793055 0.230307
0.668738 0.786875 0.206541
0.606922 0.769790 0.236496
0.573696 0.767124 0.303049
0.522855 0.755335 0.381151
0.386563 0.662013 0.437821
0.075359 0.365882 0.432149
0.000000 0.000000 0.315296
0.000000 0.000000 0.030491
1.000000 0.893446 0.249358
1.000000 0.995690 0.234144
1.000000 1.000000 0.257860
1.000000 1.000000 0.301402
0.950922 1.000000 0.337735
0.719639 0.984674 0.331896
0.270600 0.615543 0.240991
0.000000 0.000000 0.014196
0.000000 0.000000 0.000000
1.000000 1.000000 0.355760
1.000000 1.000000 0.346503
1.000000 1.000000 0.358964
1.000000 1.000000 0.372054
1.000000 1.000000 0.356757
1.000000 1.000000 0.276125
0.952735 1.000000 0.085280
0.000000 0.098267 0.000000
0.000000 0.000000 0.000000
1.000000 1.000000 0.611564
1.000000 1.000000 0.604536
1.000000 1.000000 0.599593
1.000000 1.000000 0.573662
1.000000 1.000000 0.495742
1.000000 1.000000 0.326902
1.000000 1.000000 0.020281
1.000000 0.540316 0.000000
0.000000 0.000000 0.000000
0.669296 0.210541 0.253822
0.532026 0.165617 0.267503
0.536051 0.138889 0.370703
0.688221 0.184227 0.562797
0.973761 0.306632 0.835230
1.000000 0.462242 1.000000
1.000000 0.558326 1.000000
1.000000 0.453289 1.000000
1.000000 0.000000 1.000000
0.757275 0.497982 0.257478
0.623416 0.392315 0.271025
0.621004 0.312577 0.369693
0.750987 0.308336 0.550873
0.992682 0.380296 0.804028
1.000000 0.480294 1.000000
1.000000 0.511300 1.000000
1.000000 0.327417 1.000000
1.000000 0.000000 1.000000
0.756008 0.662205 0.253036
0.618605 0.527031 0.267040
0.601090 0.418774 0.359345
0.698503 0.382706 0.525359
0.884259 0.415229 0.752559
1.000000 0.463880 1.000000
1.000000 0.427330 1.000000
1.000000 0.155383 1.000000
1.000000 0.000000 1.000000
0.722843 0.750479 0.227480
0.577852 0.617940 0.241402
0.539473 0.506566 0.324382
0.596843 0.457328 0.469844
0.717469 0.462329 0.663284
0.847232 0.464807 0.882266
0.910384 0.359134 1.000000
0.809547 0.000000 1.000000
0.425717 0.000000 1.000000
0.739432 0.804022 0.182650
0.585715 0.707168 0.194818
0.523620 0.618986 0.264380
0.536379 0.576145 0.382776
0.585596 0.566450 0.533518
0.611245 0.528838 0.692186
0.531672 0.353381 0.826432
0.243597 0.000000 0.895978
0.000000 0.000000 0.852616
0.911731 0.858003 0.135240
0.751058 0.830795 0.142852
0.665302 0.793022 0.193771
0.631792 0.777054 0.277455
0.606225 0.766395 0.375429
0.522671 0.695684 0.461293
0.293573 0.450691 0.500714
0.000000 0.000000 0.451430
0.000000 0.000000 0.263248
1.000000 0.941543 0.116796
1.000000 1.000000 0.115919
1.000000 1.000000 0.141841
1.000000 1.000000 0.182034
0.921246 1.000000 0.216042
0.726309 0.999007 0.215480
0.343789 0.685636 0.144031
0.000000 0.000000 0.000000
0.000000 0.000000 0.000000
1.000000 1.000000 0.173722
1.000000 1.000000 0.159291
1.000000 1.000000 0.152728
1.000000 1.000000 0.139522
1.000000 1.000000 0.097233
1.000000 1.000000 0.000000
0.854331 1.000000 0.000000
0.000000 0.267984 0.000000
0.000000 0.000000 0.000000
1.000000 1.000000 0.367272
1.000000 1.000000 0.333093
1.000000 1.000000 0.285427
1.000000 1.000000 0.207782
1.000000 1.000000 0.075734
1.000000 1.000000 0.000000
1.000000 1.000000 0.000000
0.928386 0.733420 0.000000
0.000000 0.000000 0.000000
0.698718 0.172128 0.175431
0.661583 0.225675 0.348764
0.783030 0.283682 0.605129
1.000000 0.407063 0.950482
1.000000 0.607869 1.000000
1.000000 0.849284 1.000000
1.000000 1.000000 1.000000
1.000000 1.000000 1.000000
1.000000 0.716015 1.000000
0.831624 0.493818 0.191910
0.780676 0.466458 0.359092
0.879269 0.452996 0.603190
1.000000 0.510048 0.928173
1.000000 0.645364 1.000000
1.000000 0.817827 1.000000
1.000000 0.937456 1.000000
1.000000 0.865401 1.000000
1.000000 0.413947 1.000000
0.863102 0.680112 0.194750
0.790122 0.605546 0.353903
0.855927 0.547575 0.581432
1.000000 0.558515 0.879325
1.000000 0.641816 1.000000
1.000000 0.752062 1.000000
1.000000 0.794971 1.000000
1.000000 0.627394 1.000000
1.000000 0.057317 1.000000
0.848728 0.780113 0.170141
0.748404 0.692953 0.318256
0.774395 0.618341 0.523786
0.917741 0.604295 0.786734
1.000000 0.649965 1.000000
1.000000 0.705635 1.000000
1.000000 0.672724 1.000000
1.000000 0.403782 1.000000
1.000000 0.000000 1.000000
0.868383 0.836878 0.119130
0.738311 0.772642 0.252067
0.720369 0.710167 0.429035
0.799693 0.693169 0.648054
0.939791 0.716500 0.899212
1.000000 0.726145 1.000000
1.000000 0.619221 1.000000
1.000000 0.243980 1.000000
0.621071 0.000000 1.000000
1.000000 0.887415 0.057617
0.866931 0.882530 0.170104
0.803846 0.861877 0.310817
0.816222 0.864871 0.475791
0.861663 0.882064 0.653131
0.876143 0.855141 0.823013
0.774007 0.676921 0.957682
0.447973 0.191355 1.000000
0.000000 0.000000 0.970715
1.000000 0.962682 0.016356
1.000000 1.000000 0.101991
1.000000 1.000000 0.197623
1.000000 1.000000 0.297305
1.000000 1.000000 0.387159
0.936353 1.000000 0.445375
0.661267 0.882233 0.442216
0.115144 0.283225 0.340014
0.000000 0.000000 0.093171
1.000000 1.000000 0.040956
1.000000 1.000000 0.092204
1.000000 1.000000 0.132800
1.000000 1.000000 0.154813
1.000000 1.000000 0.142379
1.000000 1.000000 0.071707
0.980209 1.000000 0.000000
0.210029 0.550860 0.000000
0.000000 0.000000 0.000000
1.000000 1.000000 0.191878
1.000000 1.000000 0.200075
1.000000 1.000000 0.174549
1.000000 1.000000 0.105382
1.000000 1.000000 0.000000
1.000000 1.000000 0.000000
1.000000 1.000000 0.000000
0.930075 1.000000 0.000000
0.000000 0.000000 0.000000
0.569411 0.000000 0.111357
0.716537 0.187277 0.540467
1.000000 0.401844 1.000000
1.000000 0.669553 1.000000
1.000000 1.000000 1.000000
1.000000 1.000000 1.000000
1.000000 1.000000 1.000000
1.000000 1.000000 1.000000
1.000000 1.000000 1.000000
0.771290 0.328983 0.149392
0.883438 0.453384 0.565012
1.000000 0.574108 1.000000
1.000000 0.754820 1.000000
1.000000 1.000000 1.000000
1.000000 1.000000 1.000000
1.000000 1.000000 1.000000
1.000000 1.000000 1.000000
1.000000 1.000000 1.000000
0.857490 0.551816 0.170720
0.925173 0.607398 0.568502
1.000000 0.663707 1.000000
1.000000 0.780107 1.000000
1.000000 0.967094 1.000000
1.000000 1.000000 1.000000
1.000000 1.000000 1.000000
1.000000 1.000000 1.000000
1.000000 0.920546 1.000000
0.881813 0.677330 0.160740
0.898453 0.701171 0.535206
1.000000 0.723401 0.950776
1.000000 0.799082 1.000000
1.000000 0.934413 1.000000
1.000000 1.000000 1.000000
1.000000 1.000000 1.000000
1.000000 1.000000 1.000000
1.000000 0.485858 1.000000
0.922366 0.750418 0.119702
0.884293 0.780506 0.464242
0.978421 0.799901 0.834784
1.000000 0.859366 1.000000
1.000000 0.960800 1.000000
1.000000 1.000000 1.000000
1.000000 1.000000 1.000000
1.000000 0.802896 1.000000
1.000000 0.113856 1.000000
1.000000 0.809927 0.062714
0.988011 0.885157 0.369588
1.000000 0.933869 0.684939
1.000000 1.000000 1.000000
1.000000 1.000000 1.000000
1.000000 1.000000 1.000000
1.000000 1.000000 1.000000
1.000000 0.695611 1.000000
1.000000 0.000000 1.000000
1.000000 0.888654 0.019737
1.000000 1.000000 0.280072
1.000000 1.000000 0.528938
1.000000 1.000000 0.766963
1.000000 1.000000 0.986847
1.000000 1.000000 1.000000
1.000000 1.000000 1.000000
0.940261 0.744581 1.000000
0.218303 0.000000 1.000000
1.000000 1.000000 0.035584
1.000000 1.000000 0.239379
1.000000 1.000000 0.409334
1.000000 1.000000 0.544096
1.000000 1.000000 0.634381
1.000000 1.000000 0.662973
1.000000 1.000000 0.604730
0.807574 0.982915 0.426577
0.000000 0.000000 0.087511
1.000000 1.000000 0.169927
1.000000 1.000000 0.306046
1.000000 1.000000 0.383535
1.000000 1.000000 0.399056
1.000000 1.000000 0.341340
1.000000 1.000000 0.191191
1.000000 1.000000 0.000000
1.000000 1.000000 0.000000
0.000000 0.084243 0.000000
0.161181 0.000000 0.105834
0.594061 0.000000 0.902863
1.000000 0.404036 1.000000
1.000000 0.896795 1.000000
1.000000 1.000000 1.000000
1.000000 1.000000 1.000000
1.000000 1.000000 1.000000
1.000000 1.000000 1.000000
1.000000 1.000000 1.000000
0.464047 0.000000 0.180583
0.836839 0.252464 0.955459
1.000000 0.589725 1.000000
1.000000 0.970904 1.000000
1.000000 1.000000 1.000000
1.000000 1.000000 1.000000
1.000000 1.000000 1.000000
1.000000 1.000000 1.000000
1.000000 1.000000 1.000000
0.634909 0.165406 0.238030
0.936861 0.435113 0.983938
1.000000 0.684136 1.000000
1.000000 0.978886 1.000000
1.000000 1.000000 1.000000
1.000000 1.000000 1.000000
1.000000 1.000000 1.000000
1.000000 1.000000 1.000000
1.000000 1.000000 1.000000
0.725798 0.333371 0.262782
0.949065 0.548276 0.971772
1.000000 0.741865 1.000000
1.000000 0.976248 1.000000
1.000000 1.000000 1.000000
1.000000 1.000000 1.000000
1.000000 1.000000 1.000000
1.000000 1.000000 1.000000
1.000000 1.000000 1.000000
0.813048 0.439038 0.254295
0.952693 0.639595 0.917290
1.000000 0.811462 1.000000
1.000000 1.000000 1.000000
1.000000 1.000000 1.000000
1.000000 1.000000 1.000000
1.000000 1.000000 1.000000
1.000000 1.000000 1.000000
1.000000 1.000000 1.000000
0.997297 0.523089 0.226884
1.000000 0.750662 0.833673
1.000000 0.935426 1.000000
1.000000 1.000000 1.000000
1.000000 1.000000 1.000000
1.000000 1.000000 1.000000
1.000000 1.000000 1.000000
1.000000 1.000000 1.000000
1.000000 0.721049 1.000000
1.000000 0.620160 0.209715
1.000000 0.917019 0.748958
1.000000 1.000000 1.000000
1.000000 1.000000 1.000000
1.000000 1.000000 1.000000
1.000000 1.000000 1.000000
1.000000 1.000000 1.000000
1.000000 1.000000 1.000000
1.000000 0.547572 1.000000
1.000000 0.758835 0.246810
1.000000 1.000000 0.706034
1.000000 1.000000 1.000000
1.000000 1.000000 1.000000
1.000000 1.000000 1.000000
1.000000 1.000000 1.000000
1.000000 1.000000 1.000000
1.000000 1.000000 1.000000
1.000000 0.572356 1.000000
1.000000 0.961654 0.397045
1.000000 1.000000 0.762647
1.000000 1.000000 1.000000
1.000000 1.000000 1.000000
1.000000 1.000000 1.000000
1.000000 1.000000 1.000000
1.000000 1.000000 1.000000
1.000000 1.000000 0.939803
0.921611 0.825207 0.478462
