lrplugin/MindfulLensFilmEngine.lrplugin/profiles/luts/kodak_oktar.cube
# Generated from ColorChecker fit
LUT_3D_SIZE 33
DOMAIN_MIN 0.0 0.0 0.0
DOMAIN_MAX 1.0 1.0 1.0
0.000000 0.000000 0.209503
0.000000 0.000000 0.218960
0.000000 0.000000 0.231925
0.000000 0.000000 0.248231
0.000000 0.000000 0.267671
0.000000 0.000000 0.289994
0.000000 0.000000 0.314906
0.000000 0.000000 0.342073
0.000000 0.000000 0.371117
0.000000 0.014353 0.401616
0.002614 0.042993 0.433108
0.030695 0.071881 0.465088
0.058899 0.100595 0.497006
0.086645 0.128614 0.528274
0.113278 0.155323 0.558258
0.138071 0.180006 0.586283
0.160227 0.201851 0.611631
0.178872 0.219950 0.633541
0.193064 0.233294 0.651212
0.201786 0.240780 0.663797
0.203950 0.241206 0.670409
0.198396 0.233273 0.670118
0.183889 0.215584 0.661951
0.159125 0.186645 0.644893
0.122725 0.144864 0.617887
0.073239 0.088552 0.579832
0.009145 0.015923 0.529585
0.000000 0.000000 0.465963
0.000000 0.000000 0.387736
0.000000 0.000000 0.293636
0.000000 0.000000 0.182350
0.000000 0.000000 0.052523
0.000000 0.000000 0.000000
0.000000 0.000000 0.159136
0.000000 0.000000 0.170741
0.000000 0.000000 0.185981
0.000000 0.000000 0.204682
0.000000 0.000000 0.226628
0.000000 0.000000 0.251561
0.000000 0.000000 0.279178
0.000000 0.000000 0.309136
0.000000 0.000000 0.341048
0.000000 0.021605 0.374485
0.001497 0.054881 0.408977
0.032270 0.088409 0.444008
0.062921 0.121748 0.479024
0.092843 0.154357 0.513425
0.121353 0.185601 0.546570
0.147701 0.214744 0.577776
0.171059 0.240955 0.606315
0.190531 0.263304 0.631420
0.205146 0.280766 0.652279
0.213863 0.292215 0.668039
0.215565 0.296430 0.677804
0.209066 0.292092 0.680634
0.193106 0.277785 0.675550
0.166354 0.251994 0.661528
0.127404 0.213109 0.637501
0.074781 0.159420 0.602361
0.006936 0.089121 0.554958
0.000000 0.000309 0.494098
0.000000 0.000000 0.418545
0.000000 0.000000 0.327020
0.000000 0.000000 0.218204
0.000000 0.000000 0.090732
0.000000 0.000000 0.000000
0.000000 0.000000 0.113901
0.000000 0.000000 0.127461
0.000000 0.000000 0.144778
0.000000 0.000000 0.165670
0.000000 0.000000 0.189913
0.000000 0.000000 0.217238
0.000000 0.000000 0.247336
0.000000 0.000000 0.279855
0.000000 0.000000 0.314400
0.000000 0.030082 0.350533
0.000000 0.067374 0.387776
0.029965 0.104917 0.425605
0.062659 0.142247 0.463457
0.094346 0.178807 0.500724
0.124319 0.213939 0.536756
0.151799 0.246890 0.570861
0.175933 0.276806 0.602306
0.195797 0.302741 0.630312
0.210396 0.323646 0.654061
0.218660 0.338379 0.672690
0.219449 0.345697 0.685296
0.211547 0.344261 0.690930
0.193671 0.332637 0.688605
0.164460 0.309289 0.677287
0.122486 0.272586 0.655902
0.066243 0.220800 0.623335
0.000000 0.152106 0.578425
0.000000 0.064578 0.519971
0.000000 0.000000 0.446729
0.000000 0.000000 0.357411
0.000000 0.000000 0.250689
0.000000 0.000000 0.125192
0.000000 0.000000 0.000000
0.000000 0.000000 0.073338
0.000000 0.000000 0.088675
0.000000 0.000000 0.107885
0.000000 0.000000 0.130778
0.000000 0.000000 0.157119
0.000000 0.000000 0.186633
0.000000 0.000000 0.219002
0.000000 0.000000 0.253866
0.000000 0.000000 0.290821
0.000000 0.039944 0.329421
0.000000 0.080660 0.369179
0.024200 0.121618 0.409565
0.058554 0.162335 0.450004
0.091616 0.202233 0.489882
0.122655 0.240636 0.528541
0.150864 0.276768 0.565280
0.175365 0.309759 0.599356
0.195208 0.338639 0.629984
0.209369 0.362343 0.656337
0.216755 0.379707 0.677543
0.216196 0.389470 0.692691
0.206454 0.390272 0.700824
0.186216 0.380658 0.700945
0.154097 0.359074 0.692014
0.108639 0.323869 0.672949
0.048315 0.273295 0.642623
0.000000 0.205506 0.599870
0.000000 0.118558 0.543479
0.000000 0.010411 0.472198
0.000000 0.000000 0.384732
0.000000 0.000000 0.279743
0.000000 0.000000 0.155851
0.000000 0.000000 0.011634
0.000000 0.000000 0.037074
0.000000 0.000000 0.054024
0.000000 0.000000 0.074955
0.000000 0.000000 0.099669
0.000000 0.000000 0.127925
0.000000 0.000000 0.159438
0.000000 0.000000 0.193881
0.000000 0.000000 0.230886
0.000000 0.008360 0.270042
0.000000 0.051307 0.310893
0.000000 0.094883 0.352945
0.015440 0.138685 0.395658
0.051086 0.182212 0.438450
0.085153 0.224864 0.480698
0.116880 0.265945 0.521736
0.145435 0.304661 0.560854
0.169913 0.340122 0.597302
0.189339 0.371338 0.630286
0.202662 0.397223 0.658969
0.208761 0.416594 0.682473
0.206442 0.428169 0.699877
0.194439 0.430571 0.710217
0.171413 0.422324 0.712487
0.135953 0.401853 0.705639
0.086576 0.367488 0.688581
0.021726 0.317461 0.660180
0.000000 0.249907 0.619260
0.000000 0.162861 0.564603
0.000000 0.054264 0.494947
0.000000 0.000000 0.408989
0.000000 0.000000 0.305384
0.000000 0.000000 0.182743
0.000000 0.000000 0.039635
0.000000 0.000000 0.004821
0.000000 0.000000 0.023230
0.000000 0.000000 0.045725
0.000000 0.000000 0.072096
0.000000 0.000000 0.102095
0.000000 0.000000 0.135429
0.000000 0.000000 0.171763
0.000000 0.000000 0.210719
0.000000 0.018974 0.251879
0.000000 0.064246 0.294779
0.000000 0.110146 0.338915
0.004184 0.156249 0.383740
0.040778 0.202034 0.428663
0.075496 0.246883 0.473053
0.107553 0.290080 0.516235
0.136089 0.330810 0.557493
0.160175 0.368164 0.596065
0.178807 0.401132 0.631151
0.190909 0.428608 0.661905
0.195333 0.449389 0.687441
0.190859 0.462175 0.706829
0.176195 0.465567 0.719097
0.149975 0.458069 0.723231
0.110762 0.438088 0.718174
0.057047 0.403933 0.702826
0.000000 0.353817 0.676045
0.000000 0.285854 0.636648
0.000000 0.198061 0.583408
0.000000 0.088357 0.515054
0.000000 0.000000 0.430276
0.000000 0.000000 0.327719
0.000000 0.000000 0.205986
0.000000 0.000000 0.063638
0.000000 0.000000 0.000000
0.000000 0.000000 0.000000
0.000000 0.000000 0.020014
0.000000 0.000000 0.047891
0.000000 0.000000 0.079476
0.000000 0.000000 0.114466
0.000000 0.000000 0.152520
0.000000 0.000000 0.193251
0.000000 0.031700 0.236232
0.000000 0.078795 0.280991
0.000000 0.126508 0.327015
0.000000 0.174397 0.373749
0.028189 0.221918 0.420595
0.063225 0.268435 0.466913
0.095273 0.313212 0.512018
0.123446 0.355414 0.555186
0.146787 0.394111 0.595649
0.164268 0.428275 0.632597
0.174785 0.456780 0.665175
0.177166 0.478403 0.692490
0.170162 0.491823 0.713603
0.152455 0.495622 0.727534
0.122654 0.488284 0.733260
0.079294 0.468197 0.729715
0.020840 0.433651 0.715793
0.000000 0.382836 0.690342
0.000000 0.313849 0.652171
0.000000 0.224685 0.600043
0.000000 0.113246 0.532682
0.000000 0.000000 0.448766
0.000000 0.000000 0.346935
0.000000 0.000000 0.225782
0.000000 0.000000 0.083860
0.000000 0.000000 0.000000
0.000000 0.000000 0.000000
0.000000 0.000000 0.000000
0.000000 0.000000 0.026974
0.000000 0.000000 0.059999
0.000000 0.000000 0.096495
0.000000 0.000000 0.136111
0.000000 0.000000 0.178453
0.000000 0.046501 0.223084
0.000000 0.094944 0.269526
0.000000 0.143990 0.317256
0.000000 0.193174 0.365711
0.013919 0.241938 0.414284
0.048960 0.289621 0.462326
0.080678 0.335469 0.509147
0.108161 0.378628 0.554012
0.130426 0.418147 0.596145
0.146418 0.452979 0.634727
0.155007 0.481978 0.668896
0.154992 0.503901 0.697750
0.145102 0.517407 0.720342
0.123990 0.521058 0.735683
0.090239 0.513320 0.742742
0.042359 0.492559 0.740445
0.000000 0.457045 0.727676
0.000000 0.404951 0.703278
0.000000 0.334351 0.666047
0.000000 0.243223 0.614743
0.000000 0.129447 0.548077
0.000000 0.000000 0.464722
0.000000 0.000000 0.363306
0.000000 0.000000 0.242417
0.000000 0.000000 0.100598
0.000000 0.000000 0.000000
0.000000 0.000000 0.000000
0.000000 0.000000 0.000000
0.000000 0.000000 0.009347
0.000000 0.000000 0.043681
0.000000 0.000000 0.081545
0.000000 0.000000 0.122579
0.000000 0.014921 0.166381
0.000000 0.063298 0.212505
0.000000 0.112642 0.260466
0.000000 0.162565 0.309732
0.000000 0.212586 0.359731
0.000000 0.262124 0.409849
0.033359 0.310500 0.459428
0.064446 0.356938 0.507769
0.090933 0.400567 0.554129
0.111809 0.440415 0.597724
0.125992 0.475414 0.637727
0.132327 0.504399 0.673267
0.129587 0.526108 0.703433
0.116474 0.539179 0.727271
0.091614 0.542156 0.743782
0.053564 0.533483 0.751929
0.000807 0.511508 0.750628
0.000000 0.474480 0.738755
0.000000 0.420552 0.715144
0.000000 0.347780 0.678584
0.000000 0.254120 0.627824
0.000000 0.137432 0.561570
0.000000 0.000000 0.478485
0.000000 0.000000 0.377190
0.000000 0.000000 0.256262
0.000000 0.000000 0.114237
0.000000 0.000000 0.000000
0.000000 0.000000 0.000000
0.000000 0.000000 0.000000
0.000000 0.000000 0.000000
0.000000 0.000000 0.030621
0.000000 0.000000 0.069727
0.000000 0.000000 0.112048
0.000000 0.033103 0.157172
0.000000 0.081970 0.204647
0.000000 0.131794 0.253976
0.000000 0.182170 0.304622
0.000000 0.232594 0.356003
0.000000 0.282466 0.407496
0.017121 0.331088 0.458437
0.047296 0.377664 0.508116
0.072498 0.421302 0.555783
0.091691 0.461012 0.600646
0.103766 0.495706 0.641868
0.107541 0.524198 0.678572
0.101764 0.545206 0.709837
0.085109 0.557351 0.734700
0.056177 0.559153 0.752156
0.013498 0.549039 0.761158
0.000000 0.525337 0.760614
0.000000 0.486275 0.749391
0.000000 0.429988 0.726316
0.000000 0.354509 0.690169
0.000000 0.257778 0.639690
0.000000 0.137634 0.573578
0.000000 0.000000 0.490486
0.000000 0.000000 0.389027
0.000000 0.000000 0.267771
0.000000 0.000000 0.125245
0.000000 0.000000 0.000000
0.000000 0.000000 0.000000
0.000000 0.000000 0.000000
0.000000 0.000000 0.000000
0.000000 0.000000 0.021003
0.000000 0.000000 0.061241
0.000000 0.005679 0.104730
0.000000 0.053382 0.151053
0.000000 0.102353 0.199746
0.000000 0.152266 0.250307
0.000000 0.202695 0.302189
0.000000 0.253116 0.354802
0.000000 0.302911 0.407515
0.000984 0.351360 0.459654
0.029985 0.397649 0.510503
0.053633 0.440865 0.559302
0.070868 0.479998 0.605251
0.080554 0.513941 0.647505
0.081483 0.541488 0.685178
0.072376 0.561337 0.717342
0.051880 0.572089 0.743024
0.018571 0.572245 0.761212
0.000000 0.560212 0.770849
0.000000 0.534296 0.770836
0.000000 0.492709 0.760032
0.000000 0.433563 0.737254
0.000000 0.354874 0.701275
0.000000 0.254559 0.650827
0.000000 0.130439 0.584598
0.000000 0.000000 0.501236
0.000000 0.000000 0.399344
0.000000 0.000000 0.277483
0.000000 0.000000 0.134173
0.000000 0.000000 0.000000
0.000000 0.000000 0.000000
0.000000 0.000000 0.000000
0.000000 0.000000 0.000000
0.000000 0.000000 0.015096
0.000000 0.000000 0.056366
0.000000 0.028073 0.100920
0.000000 0.075524 0.148329
0.000000 0.124243 0.198124
0.000000 0.173880 0.249793
0.000000 0.223990 0.302780
0.000000 0.274032 0.356488
0.000000 0.323364 0.410278
0.000000 0.371249 0.463466
0.013309 0.416853 0.515329
0.035155 0.459242 0.565099
0.050176 0.497387 0.611966
0.057211 0.530161 0.655077
0.055026 0.556339 0.693539
0.042315 0.574598 0.726414
0.017699 0.583519 0.752722
0.000000 0.581585 0.771442
0.000000 0.567181 0.781508
0.000000 0.538595 0.781814
0.000000 0.494018 0.771209
0.000000 0.431542 0.748503
0.000000 0.349164 0.712461
0.000000 0.244782 0.661805
0.000000 0.116196 0.595216
0.000000 0.000000 0.511333
0.000000 0.000000 0.408750
0.000000 0.000000 0.286022
0.000000 0.000000 0.141658
0.000000 0.000000 0.000000
0.000000 0.000000 0.000000
0.000000 0.000000 0.000000
0.000000 0.000000 0.000000
0.000000 0.000000 0.013253
0.000000 0.007028 0.055470
0.000000 0.052378 0.100995
0.000000 0.099256 0.149393
0.000000 0.147391 0.200185
0.000000 0.196415 0.252851
0.000000 0.245864 0.306827
0.000000 0.295175 0.361507
0.000000 0.343688 0.416243
0.000000 0.390646 0.470345
0.000000 0.435194 0.523080
0.017919 0.476380 0.573671
0.030490 0.513154 0.621300
0.034632 0.544368 0.665108
0.029084 0.568780 0.704190
0.012514 0.585045 0.737603
0.000000 0.591726 0.764356
0.000000 0.587284 0.783420
0.000000 0.570086 0.793723
0.000000 0.538400 0.794148
0.000000 0.490396 0.783537
0.000000 0.424148 0.760691
0.000000 0.337631 0.724367
0.000000 0.228724 0.673278
0.000000 0.095208 0.606098
0.000000 0.000000 0.521456
0.000000 0.000000 0.417940
0.000000 0.000000 0.294093
0.000000 0.000000 0.148420
0.000000 0.000000 0.000000
0.000000 0.000000 0.000000
0.000000 0.000000 0.000000
0.000000 0.000000 0.000000
0.000000 0.000000 0.015910
0.000000 0.033776 0.059001
0.000000 0.078252 0.105420
0.000000 0.124259 0.154722
0.000000 0.171507 0.206419
0.000000 0.219609 0.259984
0.000000 0.268081 0.314845
0.000000 0.316338 0.370387
0.000000 0.363703 0.425953
0.000000 0.409398 0.480846
0.000000 0.452548 0.534322
0.002822 0.492181 0.585599
0.012725 0.527227 0.633849
0.013750 0.556521 0.678205
0.004610 0.578797 0.717753
0.000000 0.592693 0.751542
0.000000 0.596750 0.778573
0.000000 0.589412 0.797809
0.000000 0.569024 0.808167
0.000000 0.533835 0.808525
0.000000 0.481995 0.797716
0.000000 0.411558 0.774531
0.000000 0.320480 0.737719
0.000000 0.206620 0.685987
0.000000 0.067738 0.617997
0.000000 0.000000 0.532373
0.000000 0.000000 0.427692
0.000000 0.000000 0.302490
0.000000 0.000000 0.155263
0.000000 0.000000 0.000000
0.000000 0.000000 0.000000
0.000000 0.000000 0.000000
0.000000 0.000000 0.000000
0.000000 0.020366 0.023588
0.000000 0.061966 0.067495
0.000000 0.105306 0.114741
0.000000 0.150174 0.164875
0.000000 0.196261 0.217400
0.000000 0.243159 0.271780
0.000000 0.290364 0.327434
0.000000 0.337274 0.383740
0.000000 0.383189 0.440033
0.000000 0.427312 0.495606
0.000000 0.468749 0.549709
0.000000 0.506507 0.601549
0.000000 0.539498 0.650291
0.000000 0.566535 0.695059
0.000000 0.586334 0.734933
0.000000 0.597512 0.768949
0.000000 0.598592 0.796104
0.000000 0.587995 0.815351
0.000000 0.564049 0.825599
0.000000 0.524982 0.825716
0.000000 0.468925 0.814529
0.000000 0.393911 0.790819
0.000000 0.297877 0.753328
0.000000 0.178662 0.700753
0.000000 0.034006 0.631749
0.000000 0.000000 0.544931
0.000000 0.000000 0.438868
0.000000 0.000000 0.312088
0.000000 0.000000 0.163077
0.000000 0.000000 0.000000
0.000000 0.000000 0.000000
0.000000 0.000000 0.000000
0.000000 0.012588 0.000000
0.000000 0.050922 0.036892
0.000000 0.091141 0.081569
0.000000 0.133111 0.129591
0.000000 0.176600 0.180497
0.000000 0.221278 0.233785
0.000000 0.266718 0.288908
0.000000 0.312396 0.345278
0.000000 0.357690 0.402265
0.000000 0.401881 0.459194
0.000000 0.444152 0.515351
0.000000 0.483588 0.569977
0.000000 0.519178 0.622271
0.000000 0.549813 0.671389
0.000000 0.574286 0.716448
0.000000 0.591294 0.756517
0.000000 0.599434 0.790627
0.000000 0.597208 0.817765
0.000000 0.583019 0.836875
0.000000 0.555174 0.846859
0.000000 0.511882 0.846576
0.000000 0.451253 0.834844
0.000000 0.371302 0.810437
0.000000 0.269945 0.772087
0.000000 0.145001 0.718484
0.000000 0.000000 0.648275
0.000000 0.000000 0.560065
0.000000 0.000000 0.452415
0.000000 0.000000 0.323846
0.000000 0.000000 0.172835
0.000000 0.000000 0.000000
0.000000 0.000000 0.000000
0.000000 0.010670 0.000000
0.000000 0.045434 0.014872
0.000000 0.082164 0.056513
0.000000 0.120803 0.101926
0.000000 0.161196 0.150684
0.000000 0.203092 0.202318
0.000000 0.246142 0.256316
0.000000 0.289897 0.312124
0.000000 0.333816 0.369146
0.000000 0.377254 0.426742
0.000000 0.419475 0.484231
0.000000 0.459640 0.540887
0.000000 0.496815 0.595946
0.000000 0.529971 0.648598
0.000000 0.557976 0.697990
0.000000 0.579606 0.743230
0.000000 0.593536 0.783381
0.000000 0.598344 0.817463
0.000000 0.592513 0.844456
0.000000 0.574426 0.863295
0.000000 0.542370 0.872874
0.000000 0.494532 0.872044
0.000000 0.429006 0.859614
0.000000 0.343784 0.834350
0.000000 0.236764 0.794976
0.000000 0.105745 0.740172
0.000000 0.000000 0.668579
0.000000 0.000000 0.578792
0.000000 0.000000 0.469365
0.000000 0.000000 0.338809
0.000000 0.000000 0.185593
0.000000 0.000000 0.000000
0.000000 0.014630 0.000000
0.000000 0.045606 0.002679
0.000000 0.078563 0.040868
0.000000 0.113524 0.083223
0.000000 0.150410 0.129352
0.000000 0.189048 0.178820
0.000000 0.229166 0.231149
0.000000 0.270394 0.285819
0.000000 0.312267 0.342268
0.000000 0.354219 0.399890
0.000000 0.395590 0.458037
0.000000 0.435621 0.516021
0.000000 0.473455 0.573107
0.000000 0.508138 0.628522
0.000000 0.538620 0.681448
0.000000 0.563751 0.731025
0.000000 0.582284 0.776351
0.000000 0.592878 0.816480
0.000000 0.594090 0.850426
0.000000 0.584381 0.877159
0.000000 0.562117 0.895606
0.000000 0.525563 0.904653
0.000000 0.472889 0.903142
0.000000 0.402166 0.889874
0.000000 0.311369 0.863607
0.000000 0.198374 0.823056
0.000000 0.060960 0.766893
0.000000 0.000000 0.693750
0.000000 0.000000 0.602214
0.000000 0.000000 0.490831
0.000000 0.000000 0.358104
0.000000 0.000000 0.202493
0.000000 0.024274 0.000000
0.000000 0.051329 0.001541
0.000000 0.080318 0.035911
0.000000 0.111338 0.074810
0.000000 0.144391 0.117880
0.000000 0.179380 0.164720
0.000000 0.216111 0.214885
0.000000 0.254292 0.267889
0.000000 0.293535 0.323206
0.000000 0.333353 0.380262
0.000000 0.373162 0.438446
0.000000 0.412281 0.497100
0.000000 0.449931 0.555528
0.000000 0.485236 0.612987
0.000000 0.517222 0.668694
0.000000 0.544818 0.721825
0.000000 0.566856 0.771510
0.000000 0.582070 0.816839
0.000000 0.589096 0.856858
0.000000 0.586473 0.890573
0.000000 0.572643 0.916944
0.000000 0.545950 0.934891
0.000000 0.504641 0.943291
0.000000 0.446866 0.940979
0.000000 0.370675 0.926746
0.000000 0.274024 0.899342
0.000000 0.154770 0.857474
0.000000 0.010671 0.799806
0.000000 0.000000 0.724961
0.000000 0.000000 0.631519
0.000000 0.000000 0.518015
0.000000 0.000000 0.382945
0.000000 0.000000 0.224762
0.000000 0.062286 0.012671
0.000000 0.087194 0.042906
0.000000 0.114098 0.078001
0.000000 0.143077 0.117630
0.000000 0.174112 0.161427
0.000000 0.207087 0.208983
0.000000 0.241787 0.259845
0.000000 0.277902 0.313519
0.000000 0.315022 0.369469
0.000000 0.352641 0.427115
0.000000 0.390156 0.485835
0.000000 0.426866 0.544965
0.000000 0.461972 0.603798
0.001824 0.494577 0.661586
0.011583 0.523690 0.717536
0.012314 0.548217 0.770814
0.002717 0.566972 0.820544
0.000000 0.578669 0.865807
0.000000 0.581923 0.905640
0.000000 0.575255 0.939041
0.000000 0.557087 0.964962
0.000000 0.525742 0.982314
0.000000 0.479448 0.989967
0.000000 0.416334 0.986745
0.000000 0.334432 0.971434
0.000000 0.231678 0.942773
0.000000 0.105907 0.899462
0.000000 0.000000 0.840156
0.000000 0.000000 0.763470
0.000000 0.000000 0.667975
0.000000 0.000000 0.552199
0.000000 0.000000 0.414628
0.000000 0.000000 0.253707
0.000000 0.098749 0.063100
0.000000 0.121446 0.094090
0.000000 0.146197 0.129947
0.000000 0.173058 0.170339
0.000000 0.201993 0.214889
0.000000 0.232863 0.263181
0.000000 0.265437 0.314754
0.000000 0.299382 0.369105
0.000000 0.334270 0.425689
0.000000 0.369575 0.483918
0.000000 0.404673 0.543163
0.000000 0.438844 0.602750
0.020833 0.471270 0.661965
0.036054 0.501033 0.720049
0.043062 0.527122 0.776204
0.040604 0.548425 0.829586
0.027354 0.563734 0.879311
0.001912 0.571744 0.924451
0.000000 0.571052 0.964036
0.000000 0.560156 0.997054
0.000000 0.537459 1.000000
0.000000 0.501267 1.000000
0.000000 0.449785 1.000000
0.000000 0.381123 1.000000
0.000000 0.293295 1.000000
0.000000 0.184214 0.995202
0.000000 0.051697 0.950334
0.000000 0.000000 0.889271
0.000000 0.000000 0.810618
0.000000 0.000000 0.712938
0.000000 0.000000 0.594750
0.000000 0.000000 0.454534
0.000000 0.000000 0.290725
0.000000 0.132814 0.124361
0.000000 0.153266 0.156164
0.000000 0.175821 0.192836
0.000000 0.200517 0.234035
0.000000 0.227295 0.279378
0.000000 0.256000 0.328438
0.000000 0.286378 0.380748
0.000000 0.318079 0.435796
0.000000 0.350653 0.493027
0.000000 0.383555 0.551848
0.021489 0.416141 0.611618
0.048034 0.447672 0.671657
0.068293 0.477308 0.731242
0.081129 0.504115 0.789606
0.085335 0.527058 0.845941
0.079630 0.545008 0.899397
0.062661 0.556736 0.949080
0.033003 0.560918 0.994054
0.000000 0.556130 1.000000
0.000000 0.540852 1.000000
0.000000 0.513466 1.000000
0.000000 0.472256 1.000000
0.000000 0.415412 1.000000
0.000000 0.341021 1.000000
0.000000 0.247077 1.000000
0.000000 0.131474 1.000000
0.000000 0.000000 1.000000
0.000000 0.000000 0.948564
0.000000 0.000000 0.867831
0.000000 0.000000 0.767846
0.000000 0.000000 0.647122
0.000000 0.000000 0.504129
0.000000 0.000000 0.337293
0.000000 0.163593 0.197596
0.000000 0.181792 0.230284
0.000000 0.202137 0.267835
0.000000 0.224646 0.309900
0.000000 0.249240 0.356087
0.000000 0.275745 0.405962
0.000000 0.303887 0.459048
0.000000 0.333295 0.514826
0.019197 0.363501 0.572732
0.054220 0.393939 0.632164
0.084692 0.423946 0.692474
0.109596 0.452762 0.752973
0.127841 0.479529 0.812929
0.138265 0.503291 0.871568
0.139635 0.522995 0.928073
0.130643 0.537491 0.981585
0.109911 0.545531 1.000000
0.075986 0.545770 1.000000
0.027345 0.536765 1.000000
0.000000 0.516977 1.000000
0.000000 0.484767 1.000000
0.000000 0.438401 1.000000
0.000000 0.376046 1.000000
0.000000 0.295772 1.000000
0.000000 0.195552 1.000000
0.000000 0.073261 1.000000
0.000000 0.000000 1.000000
0.000000 0.000000 1.000000
0.000000 0.000000 0.936618
0.000000 0.000000 0.834223
0.000000 0.000000 0.710850
0.000000 0.000000 0.564961
0.000000 0.000000 0.394973
0.000000 0.190154 0.284032
0.000000 0.206119 0.317687
0.000000 0.224267 0.356196
0.000000 0.244596 0.399199
0.000000 0.267007 0.446296
0.000000 0.291305 0.497045
0.019032 0.317197 0.550960
0.060004 0.344293 0.607514
0.097971 0.372104 0.666135
0.132033 0.400045 0.726212
0.161218 0.427433 0.787090
0.184483 0.453488 0.848069
0.200712 0.477331 0.908411
0.208717 0.497988 0.967333
0.207236 0.514386 1.000000
0.194938 0.525355 1.000000
0.170415 0.529627 1.000000
0.132191 0.525837 1.000000
0.078716 0.512523 1.000000
0.008365 0.488125 1.000000
0.000000 0.450985 1.000000
0.000000 0.399348 1.000000
0.000000 0.331363 1.000000
0.000000 0.245080 1.000000
0.000000 0.138450 1.000000
0.000000 0.009331 1.000000
0.000000 0.000000 1.000000
0.000000 0.000000 1.000000
0.000000 0.000000 1.000000
0.000000 0.000000 0.913676
0.000000 0.000000 0.787555
0.000000 0.000000 0.638663
0.000000 0.000000 0.465412
0.000000 0.211521 0.384978
0.000000 0.225302 0.419699
0.000000 0.241293 0.459256
0.000000 0.259476 0.503282
0.025497 0.279731 0.551368
0.070208 0.301844 0.603063
0.113267 0.325501 0.657873
0.153896 0.350292 0.715262
0.191240 0.375709 0.774651
0.224374 0.401147 0.835421
0.252301 0.425903 0.896906
0.273951 0.449177 0.958400
0.288182 0.470072 1.000000
0.293778 0.487592 1.000000
0.289452 0.500646 1.000000
0.273846 0.508042 1.000000
0.245527 0.508493 1.000000
0.202990 0.500616 1.000000
0.144660 0.482926 1.000000
0.068888 0.453846 1.000000
0.000000 0.411697 1.000000
0.000000 0.354704 1.000000
0.000000 0.280997 1.000000
0.000000 0.188605 1.000000
0.000000 0.075461 1.000000
0.000000 0.000000 1.000000
0.000000 0.000000 1.000000
0.000000 0.000000 1.000000
0.000000 0.000000 1.000000
0.000000 0.000000 1.000000
0.000000 0.000000 0.878941
0.000000 0.000000 0.726955
0.000000 0.000000 0.550341
0.000000 0.226680 0.501829
0.000000 0.238350 0.537727
0.042523 0.252255 0.578437
0.089078 0.268353 0.623583
0.135148 0.286507 0.672749
0.180070 0.306483 0.725475
0.223109 0.327946 0.781259
0.263460 0.350468 0.839557
0.300241 0.373519 0.899781
0.332503 0.396477 0.961302
0.359221 0.418616 1.000000
0.379298 0.439119 1.000000
0.391566 0.457067 1.000000
0.394783 0.471446 1.000000
0.387637 0.481143 1.000000
0.368740 0.484948 1.000000
0.336636 0.481554 1.000000
0.289794 0.469558 1.000000
0.226609 0.447455 1.000000
0.145408 0.413648 1.000000
0.044443 0.366438 1.000000
0.000000 0.304032 1.000000
0.000000 0.224538 1.000000
0.000000 0.125966 1.000000
0.000000 0.006229 1.000000
0.000000 0.000000 1.000000
0.000000 0.000000 1.000000
0.000000 0.000000 1.000000
0.000000 0.000000 1.000000
0.000000 0.000000 1.000000
0.000000 0.000000 0.986797
0.000000 0.000000 0.831637
0.000000 0.000000 0.651575
0.073469 0.234573 0.636065
0.120294 0.244235 0.673264
0.167608 0.256148 0.715244
0.214867 0.270251 0.761622
0.261457 0.286388 0.811972
0.306687 0.304302 0.865828
0.349798 0.323642 0.922678
0.389955 0.343956 0.981970
0.426254 0.364699 1.000000
0.457717 0.385225 1.000000
0.483292 0.404791 1.000000
0.501857 0.422558 1.000000
0.512218 0.437589 1.000000
0.513106 0.448849 1.000000
0.503182 0.455206 1.000000
0.481033 0.455430 1.000000
0.445175 0.448194 1.000000
0.394051 0.432075 1.000000
0.326032 0.405549 1.000000
0.239416 0.366997 1.000000
0.132428 0.314704 1.000000
0.003223 0.246854 1.000000
0.000000 0.161535 1.000000
0.000000 0.056740 1.000000
0.000000 0.000000 1.000000
0.000000 0.000000 1.000000
0.000000 0.000000 1.000000
