lrplugin/MindfulLensFilmEngine.lrplugin/profiles/luts/kodachrome_64.cube
# Generated from ColorChecker fit
LUT_3D_SIZE 9
DOMAIN_MIN 0.0 0.0 0.0
DOMAIN_MAX 1.0 1.0 1.0
0.000000 0.000000 0.122306
0.000000 0.000000 0.141136
0.000000 0.000000 0.262180
0.000000 0.000000 0.438126
0.000000 0.000000 0.612819
0.000000 0.000000 0.721259
0.000000 0.000000 0.689605
0.000000 0.000000 0.435173
0.000000 0.000000 0.000000
0.102684 0.000000 0.000000
0.000000 0.000000 0.044747
0.000000 0.000000 0.249267
0.000000 0.001013 0.475587
0.016824 0.106150 0.661565
0.037548 0.165724 0.736219
0.000000 0.048160 0.619721
0.000000 0.000000 0.223402
0.000000 0.000000 0.000000
0.096187 0.219124 0.000000
0.000212 0.173766 0.000000
0.000000 0.180293 0.216751
0.027266 0.256303 0.473786
0.101955 0.368573 0.649859
0.125592 0.433065 0.668002
0.000000 0.314916 0.442404
0.000000 0.000000 0.000000
0.000000 0.000000 0.000000
0.066780 0.462266 0.000000
0.000000 0.399756 0.000000
0.000000 0.392286 0.239443
0.000000 0.454167 0.506539
0.036031 0.548891 0.650521
0.026117 0.589131 0.588434
0.000000 0.436739 0.228482
0.000000 0.000000 0.000000
0.000000 0.000000 0.000000
0.230722 0.774764 0.000000
0.101391 0.680242 0.096420
0.039372 0.639427 0.438635
0.031615 0.663342 0.694143
0.029308 0.712192 0.782851
0.000000 0.695364 0.615819
0.000000 0.471422 0.095266
0.000000 0.000000 0.000000
0.000000 0.000000 0.000000
0.869180 1.000000 0.238962
0.675349 1.000000 0.634882
0.542281 1.000000 0.982098
0.453546 0.959788 1.000000
0.356949 0.930791 1.000000
0.164534 0.820431 0.914943
0.000000 0.483989 0.206546
0.000000 0.000000 0.000000
0.000000 0.000000 0.000000
1.000000 1.000000 1.000000
1.000000 1.000000 1.000000
1.000000 1.000000 1.000000
1.000000 1.000000 1.000000
1.000000 1.000000 1.000000
1.000000 1.000000 1.000000
0.428915 0.546685 0.772593
0.000000 0.000000 0.000000
0.000000 0.000000 0.000000
1.000000 1.000000 1.000000
1.000000 1.000000 1.000000
1.000000 1.000000 1.000000
1.000000 1.000000 1.000000
1.000000 1.000000 1.000000
1.000000 1.000000 1.000000
1.000000 0.738983 1.000000
0.862932 0.000000 0.226097
0.000000 0.000000 0.000000
1.000000 1.000000 1.000000
1.000000 1.000000 1.000000
1.000000 1.000000 1.000000
1.000000 1.000000 1.000000
1.000000 1.000000 1.000000
1.000000 1.000000 1.000000
1.000000 1.000000 1.000000
1.000000 0.000000 1.000000
1.000000 0.000000 0.000000
0.098896 0.000000 0.265825
0.000000 0.000000 0.167165
0.000000 0.000000 0.185695
0.000000 0.000000 0.286941
0.000000 0.000000 0.427589
0.000000 0.000000 0.555479
0.000000 0.000000 0.609609
0.000000 0.000000 0.520135
0.000000 0.000000 0.208368
0.246064 0.166545 0.125626
0.136505 0.111399 0.145738
0.105418 0.101274 0.255116
0.147503 0.146251 0.413301
0.221698 0.205592 0.570993
0.251180 0.187740 0.670049
0.123363 0.000000 0.643482
0.000000 0.000000 0.415462
0.000000 0.000000 0.000000
0.229630 0.365673 0.000000
0.150684 0.310301 0.112400
0.147629 0.307978 0.288670
0.211785 0.365500 0.478305
0.298708 0.438842 0.626021
0.328193 0.433159 0.667689
0.184276 0.202787 0.530338
0.000000 0.000000 0.132151
0.000000 0.000000 0.000000
0.208997 0.561883 0.000000
0.130041 0.499131 0.136694
0.122624 0.492968 0.354905
0.174685 0.546904 0.549507
0.238399 0.613625 0.659230
0.230180 0.595002 0.613960
0.030682 0.342083 0.334741
0.000000 0.000000 0.000000
0.000000 0.000000 0.000000
0.408472 0.842895 0.096733
0.297381 0.761963 0.334643
0.251708 0.736672 0.568849
0.256007 0.767242 0.740938
0.259075 0.803076 0.783655
0.173944 0.742755 0.620903
0.000000 0.434043 0.167739
0.000000 0.000000 0.000000
0.000000 0.000000 0.000000
1.000000 1.000000 0.607733
0.940420 1.000000 0.868752
0.821093 1.000000 1.000000
0.740465 1.000000 1.000000
0.643947 1.000000 1.000000
0.441194 0.953132 0.847041
0.006095 0.551733 0.186859
0.000000 0.000000 0.000000
0.000000 0.000000 0.000000
1.000000 1.000000 1.000000
1.000000 1.000000 1.000000
1.000000 1.000000 1.000000
1.000000 1.000000 1.000000
1.000000 1.000000 1.000000
1.000000 1.000000 1.000000
0.760426 0.775445 0.596108
0.000000 0.000000 0.000000
0.000000 0.000000 0.000000
1.000000 1.000000 1.000000
1.000000 1.000000 1.000000
1.000000 1.000000 1.000000
1.000000 1.000000 1.000000
1.000000 1.000000 1.000000
1.000000 1.000000 1.000000
1.000000 1.000000 1.000000
1.000000 0.000000 0.000000
0.000000 0.000000 0.000000
1.000000 1.000000 1.000000
1.000000 1.000000 1.000000
1.000000 1.000000 1.000000
1.000000 1.000000 1.000000
1.000000 1.000000 1.000000
1.000000 1.000000 1.000000
1.000000 1.000000 1.000000
1.000000 0.395069 1.000000
1.000000 0.000000 0.000000
0.215515 0.026609 0.387071
0.052322 0.000000 0.187873
0.000000 0.000000 0.122937
0.000000 0.000000 0.170629
0.011691 0.000000 0.300474
0.014218 0.000000 0.473154
0.000000 0.000000 0.640505
0.000000 0.000000 0.745524
0.000000 0.000000 0.722362
0.332167 0.265685 0.278810
0.232018 0.187934 0.206369
0.213373 0.159119 0.239459
0.268541 0.178518 0.350462
0.354066 0.194588 0.502918
0.390732 0.104968 0.651524
0.263562 0.000000 0.742132
0.000000 0.000000 0.711752
0.000000 0.000000 0.488551
0.290580 0.414506 0.174079
0.223109 0.339258 0.200142
0.233217 0.321361 0.301473
0.309830 0.356803 0.444468
0.406112 0.390758 0.586684
0.439467 0.317576 0.676831
0.291535 0.000000 0.654778
0.000000 0.000000 0.451549
0.000000 0.000000 0.000000
0.258206 0.561612 0.137153
0.191546 0.485774 0.232472
0.196768 0.471210 0.371262
0.259417 0.510625 0.513936
0.329277 0.545903 0.612065
0.320369 0.468109 0.608374
0.110953 0.117490 0.436746
0.000000 0.000000 0.022223
0.000000 0.000000 0.000000
0.467399 0.802767 0.278787
0.368183 0.719599 0.413118
0.333381 0.697140 0.557591
0.345157 0.724809 0.666635
0.349913 0.741202 0.685834
0.258290 0.634099 0.551930
0.000000 0.240458 0.192820
0.000000 0.000000 0.000000
0.000000 0.000000 0.000000
1.000000 1.000000 0.756219
1.000000 1.000000 0.898323
0.937317 1.000000 1.000000
0.859809 1.000000 1.000000
0.759279 1.000000 0.961247
0.542988 0.900301 0.659758
0.082432 0.430806 0.074262
0.000000 0.000000 0.000000
0.000000 0.000000 0.000000
1.000000 1.000000 1.000000
1.000000 1.000000 1.000000
1.000000 1.000000 1.000000
1.000000 1.000000 1.000000
1.000000 1.000000 1.000000
1.000000 1.000000 1.000000
0.875914 0.776869 0.278819
0.000000 0.000000 0.000000
0.000000 0.000000 0.000000
1.000000 1.000000 1.000000
1.000000 1.000000 1.000000
1.000000 1.000000 1.000000
1.000000 1.000000 1.000000
1.000000 1.000000 1.000000
1.000000 1.000000 1.000000
1.000000 1.000000 1.000000
1.000000 0.061589 0.000000
0.000000 0.000000 0.000000
1.000000 1.000000 1.000000
1.000000 1.000000 1.000000
1.000000 1.000000 1.000000
1.000000 1.000000 1.000000
1.000000 1.000000 1.000000
1.000000 1.000000 1.000000
1.000000 1.000000 1.000000
1.000000 0.781802 0.598133
1.000000 0.000000 0.000000
0.340832 0.125164 0.475329
0.179722 0.025933 0.201053
0.107543 0.000000 0.080207
0.117590 0.000000 0.103999
0.167396 0.000000 0.254793
0.178735 0.000000 0.506111
0.037618 0.000000 0.822630
0.000000 0.000000 1.000000
0.000000 0.000000 1.000000
0.426833 0.337148 0.377798
0.331668 0.235554 0.238070
0.321935 0.189944 0.222236
0.387548 0.188792 0.315519
0.482658 0.169753 0.494297
0.525658 0.019662 0.726108
0.399178 0.000000 0.969643
0.000000 0.000000 1.000000
0.000000 0.000000 1.000000
0.354658 0.445838 0.274437
0.293831 0.346494 0.235175
0.313163 0.311933 0.288737
0.399190 0.327342 0.414361
0.502681 0.327089 0.582442
0.538648 0.194722 0.754531
0.386339 0.000000 0.883336
0.000000 0.000000 0.912722
0.000000 0.000000 0.777710
0.299808 0.547818 0.223257
0.240207 0.451691 0.249383
0.253724 0.424656 0.335730
0.323512 0.448613 0.455552
0.396960 0.454644 0.573259
0.385699 0.323010 0.644416
0.165596 0.000000 0.615747
0.000000 0.000000 0.425132
0.000000 0.000000 0.001607
0.502687 0.746899 0.328751
0.409701 0.651307 0.384190
0.381020 0.624627 0.465716
0.396416 0.645473 0.540597
0.399897 0.641640 0.567256
0.299712 0.490101 0.495276
0.000000 0.017013 0.265395
0.000000 0.000000 0.000000
0.000000 0.000000 0.000000
1.000000 1.000000 0.741893
1.000000 1.000000 0.789577
0.997362 1.000000 0.827679
0.918711 1.000000 0.817482
0.810799 0.984525 0.711426
0.578493 0.788797 0.453108
0.090898 0.253703 0.000000
0.000000 0.000000 0.000000
0.000000 0.000000 0.000000
1.000000 1.000000 1.000000
1.000000 1.000000 1.000000
1.000000 1.000000 1.000000
1.000000 1.000000 1.000000
1.000000 1.000000 1.000000
1.000000 1.000000 0.710389
0.894462 0.689605 0.000000
0.000000 0.000000 0.000000
0.000000 0.000000 0.000000
1.000000 1.000000 1.000000
1.000000 1.000000 1.000000
1.000000 1.000000 1.000000
1.000000 1.000000 1.000000
1.000000 1.000000 1.000000
1.000000 1.000000 1.000000
1.000000 1.000000 0.400173
1.000000 0.045320 0.000000
0.000000 0.000000 0.000000
1.000000 1.000000 1.000000
1.000000 1.000000 1.000000
1.000000 1.000000 1.000000
1.000000 1.000000 1.000000
1.000000 1.000000 1.000000
1.000000 1.000000 1.000000
1.000000 1.000000 1.000000
1.000000 0.992908 0.000000
1.000000 0.000000 0.000000
0.494716 0.210771 0.519555
0.332393 0.099392 0.204167
0.265165 0.040505 0.063476
0.283936 0.015070 0.101530
0.343847 0.000000 0.313533
0.364277 0.000000 0.685846
0.228844 0.000000 1.000000
0.000000 0.000000 1.000000
0.000000 0.000000 1.000000
0.559709 0.418189 0.425183
0.465828 0.297152 0.251942
0.462198 0.242280 0.223056
0.536340 0.231245 0.336587
0.640015 0.190897 0.581755
0.689221 0.000000 0.938934
0.564196 0.000000 1.000000
0.109413 0.000000 1.000000
0.000000 0.000000 1.000000
0.461293 0.503077 0.313242
0.403000 0.381053 0.242237
0.428343 0.334379 0.283710
0.521461 0.337438 0.429739
0.630734 0.313795 0.663559
0.668779 0.136193 0.959560
0.512452 0.000000 1.000000
0.002847 0.000000 1.000000
0.000000 0.000000 1.000000
0.383013 0.570062 0.235482
0.325956 0.452078 0.225803
0.344147 0.414138 0.295193
0.418345 0.427338 0.429747
0.493549 0.411956 0.606712
0.478994 0.237450 0.794495
0.248156 0.000000 0.952659
0.000000 0.000000 1.000000
0.000000 0.000000 0.974169
0.573325 0.730999 0.290131
0.481648 0.618434 0.299874
0.455061 0.586117 0.353745
0.470942 0.601858 0.431853
0.470908 0.582649 0.505460
0.360814 0.394660 0.536990
0.010754 0.000000 0.480019
0.000000 0.000000 0.279283
0.000000 0.000000 0.000000
1.000000 1.000000 0.621899
1.000000 0.995553 0.608165
1.000000 0.962102 0.602085
0.988109 0.969138 0.577781
0.870168 0.930365 0.500533
0.620094 0.708668 0.326777
0.104601 0.116112 0.004107
0.000000 0.000000 0.000000
0.000000 0.000000 0.000000
1.000000 1.000000 1.000000
1.000000 1.000000 1.000000
1.000000 1.000000 1.000000
1.000000 1.000000 1.000000
1.000000 1.000000 0.779138
1.000000 1.000000 0.350071
0.898957 0.615489 0.000000
0.000000 0.000000 0.000000
0.000000 0.000000 0.000000
1.000000 1.000000 1.000000
1.000000 1.000000 1.000000
1.000000 1.000000 1.000000
1.000000 1.000000 1.000000
1.000000 1.000000 1.000000
1.000000 1.000000 0.839565
1.000000 1.000000 0.000000
1.000000 0.014942 0.000000
0.000000 0.000000 0.000000
1.000000 1.000000 1.000000
1.000000 1.000000 1.000000
1.000000 1.000000 1.000000
1.000000 1.000000 1.000000
1.000000 1.000000 1.000000
1.000000 1.000000 1.000000
1.000000 1.000000 0.641328
1.000000 1.000000 0.000000
1.000000 0.000000 0.000000
0.660838 0.277729 0.508370
0.494730 0.167221 0.194346
0.430775 0.122137 0.078384
0.457485 0.112631 0.177371
0.527607 0.058037 0.499351
0.558129 0.000000 1.000000
0.430276 0.000000 1.000000
0.000000 0.000000 1.000000
0.000000 0.000000 1.000000
0.724250 0.509258 0.423224
0.628673 0.378813 0.258754
0.629060 0.327850 0.261197
0.710540 0.323236 0.441454
0.822481 0.281018 0.801585
0.878489 0.066424 1.000000
0.756407 0.000000 1.000000
0.298318 0.000000 1.000000
0.000000 0.000000 1.000000
0.613718 0.592821 0.306393
0.554575 0.455172 0.245735
0.583436 0.406572 0.319306
0.682048 0.410603 0.532025
0.796398 0.380024 0.879965
0.836709 0.176777 1.000000
0.677447 0.000000 1.000000
0.157310 0.000000 1.000000
0.000000 0.000000 1.000000
0.520837 0.641091 0.203363
0.462532 0.505322 0.199777
0.482497 0.463682 0.296205
0.559101 0.476463 0.491581
0.634949 0.453141 0.775994
0.616883 0.252369 1.000000
0.375986 0.000000 1.000000
0.000000 0.000000 1.000000
0.000000 0.000000 1.000000
0.702109 0.773967 0.206099
0.607543 0.645516 0.211851
0.579745 0.611784 0.281869
0.593700 0.629776 0.409102
0.588633 0.605681 0.577654
0.468006 0.394864 0.762786
0.099520 0.000000 0.930917
0.000000 0.000000 1.000000
0.000000 0.000000 1.000000
1.000000 1.000000 0.453048
1.000000 0.999233 0.419408
1.000000 0.970710 0.412754
1.000000 0.986726 0.420048
0.972855 0.950180 0.419411
0.703983 0.713154 0.380118
0.160453 0.076908 0.262603
0.000000 0.000000 0.018456
0.000000 0.000000 0.000000
1.000000 1.000000 1.000000
1.000000 1.000000 1.000000
1.000000 1.000000 0.871795
1.000000 1.000000 0.706360
1.000000 1.000000 0.482210
1.000000 1.000000 0.162636
0.936094 0.619549 0.000000
0.000000 0.000000 0.000000
0.000000 0.000000 0.000000
1.000000 1.000000 1.000000
1.000000 1.000000 1.000000
1.000000 1.000000 1.000000
1.000000 1.000000 1.000000
1.000000 1.000000 0.993478
1.000000 1.000000 0.336769
1.000000 1.000000 0.000000
1.000000 0.047271 0.000000
0.000000 0.000000 0.000000
1.000000 1.000000 1.000000
1.000000 1.000000 1.000000
1.000000 1.000000 1.000000
1.000000 1.000000 1.000000
1.000000 1.000000 1.000000
1.000000 1.000000 1.000000
1.000000 1.000000 0.000000
1.000000 1.000000 0.000000
1.000000 0.000000 0.000000
0.786680 0.283525 0.430066
0.614936 0.192546 0.168392
0.553298 0.183056 0.130240
0.587883 0.214405 0.345339
0.669048 0.195124 0.834571
0.711387 0.000000 1.000000
0.593731 0.000000 1.000000
0.159152 0.000000 1.000000
0.000000 0.000000 1.000000
0.877716 0.573992 0.373851
0.778187 0.449815 0.268944
0.781228 0.421570 0.355604
0.869577 0.445319 0.657574
0.990208 0.426306 1.000000
1.000000 0.218955 1.000000
0.937409 0.000000 1.000000
0.479119 0.000000 1.000000
0.000000 0.000000 1.000000
0.778975 0.684859 0.269458
0.716320 0.544276 0.269745
0.746929 0.509577 0.428110
0.850159 0.533538 0.762311
0.969604 0.518117 1.000000
1.000000 0.314451 1.000000
0.852700 0.000000 1.000000
0.324732 0.000000 1.000000
0.000000 0.000000 1.000000
0.690100 0.736846 0.156107
0.627478 0.593000 0.209018
0.647044 0.560502 0.384987
0.724772 0.588842 0.695786
0.800874 0.576689 1.000000
0.779802 0.371894 1.000000
0.530245 0.000000 1.000000
0.000000 0.000000 1.000000
0.000000 0.000000 1.000000
0.875641 0.857894 0.119500
0.774711 0.720284 0.171472
0.743120 0.694995 0.309948
0.753461 0.728232 0.540713
0.742566 0.715376 0.860714
0.611506 0.500993 1.000000
0.225586 0.000000 1.000000
0.000000 0.000000 1.000000
0.000000 0.000000 1.000000
1.000000 1.000000 0.291821
1.000000 1.000000 0.288294
1.000000 1.000000 0.333183
1.000000 1.000000 0.426290
1.000000 1.000000 0.558575
0.830157 0.818684 0.712154
0.259177 0.158161 0.860300
0.000000 0.000000 0.967444
0.000000 0.000000 0.989171
1.000000 1.000000 0.851735
1.000000 1.000000 0.737153
1.000000 1.000000 0.631367
1.000000 1.000000 0.528195
1.000000 1.000000 0.412610
1.000000 1.000000 0.260744
1.000000 0.730004 0.039886
0.000000 0.000000 0.000000
0.000000 0.000000 0.000000
1.000000 1.000000 1.000000
1.000000 1.000000 1.000000
1.000000 1.000000 1.000000
1.000000 1.000000 1.000000
1.000000 1.000000 0.643981
1.000000 1.000000 0.123988
1.000000 1.000000 0.000000
1.000000 0.182314 0.000000
0.000000 0.000000 0.000000
1.000000 1.000000 1.000000
1.000000 1.000000 1.000000
1.000000 1.000000 1.000000
1.000000 1.000000 1.000000
1.000000 1.000000 1.000000
1.000000 1.000000 0.568535
1.000000 1.000000 0.000000
1.000000 1.000000 0.000000
1.000000 0.000000 0.000000
0.783527 0.148837 0.272604
0.605021 0.101682 0.122772
0.545466 0.155216 0.224021
0.588587 0.257983 0.618918
0.682348 0.307711 1.000000
0.738950 0.151307 1.000000
0.634833 0.000000 1.000000
0.210675 0.000000 1.000000
0.000000 0.000000 1.000000
0.941175 0.539220 0.278664
0.836160 0.442624 0.292619
0.841216 0.461542 0.524893
0.936687 0.541234 1.000000
1.000000 0.576141 1.000000
1.000000 0.409882 1.000000
1.000000 0.000000 1.000000
0.577943 0.000000 1.000000
0.000000 0.000000 1.000000
0.887913 0.712172 0.217672
0.819805 0.586985 0.338011
0.851117 0.587649 0.642374
0.958812 0.656138 1.000000
1.000000 0.683606 1.000000
1.000000 0.510385 1.000000
0.973399 0.000000 1.000000
0.441020 0.000000 1.000000
0.000000 0.000000 1.000000
0.831432 0.796456 0.122586
0.762147 0.659881 0.290910
0.779860 0.655006 0.607430
0.858153 0.720517 1.000000
0.934845 0.744281 1.000000
0.911995 0.563345 1.000000
0.655899 0.000000 1.000000
0.000000 0.000000 1.000000
0.000000 0.000000 1.000000
1.000000 0.928060 0.072845
0.934285 0.793654 0.229759
0.897042 0.792307 0.497509
0.902804 0.859419 0.894723
0.886009 0.879568 1.000000
0.745336 0.686517 1.000000
0.343699 0.063205 1.000000
0.000000 0.000000 1.000000
0.000000 0.000000 1.000000
1.000000 1.000000 0.194369
1.000000 1.000000 0.279483
1.000000 1.000000 0.436540
1.000000 1.000000 0.678182
1.000000 1.000000 1.000000
0.962420 1.000000 1.000000
0.365299 0.345128 1.000000
0.000000 0.000000 1.000000
0.000000 0.000000 1.000000
1.000000 1.000000 0.659558
1.000000 1.000000 0.611487
1.000000 1.000000 0.594932
1.000000 1.000000 0.616551
1.000000 1.000000 0.674158
1.000000 1.000000 0.756725
1.000000 0.938263 0.844380
0.000000 0.000000 0.908408
0.000000 0.000000 0.911250
1.000000 1.000000 1.000000
1.000000 1.000000 1.000000
1.000000 1.000000 1.000000
1.000000 1.000000 0.925726
1.000000 1.000000 0.643934
1.000000 1.000000 0.327188
1.000000 1.000000 0.000000
1.000000 0.423269 0.000000
0.000000 0.000000 0.000000
1.000000 1.000000 1.000000
1.000000 1.000000 1.000000
1.000000 1.000000 1.000000
1.000000 1.000000 1.000000
1.000000 1.000000 1.000000
1.000000 1.000000 0.393350
1.000000 1.000000 0.000000
1.000000 1.000000 0.000000
1.000000 0.000000 0.000000
0.526473 0.000000 0.023614
0.340800 0.000000 0.053624
0.283818 0.000000 0.364372
0.336858 0.144148 1.000000
0.445492 0.302220 1.000000
0.519527 0.244081 1.000000
0.433012 0.000000 1.000000
0.024232 0.000000 1.000000
0.000000 0.000000 1.000000
0.799501 0.294962 0.138929
0.688189 0.252897 0.339554
0.695342 0.349063 0.787348
0.798913 0.517916 1.000000
0.941089 0.643093 1.000000
1.000000 0.557411 1.000000
0.931210 0.042867 1.000000
0.484724 0.000000 1.000000
0.000000 0.000000 1.000000
0.835185 0.570930 0.165941
0.760408 0.485106 0.473947
0.792099 0.548235 0.994020
0.904830 0.691486 1.000000
1.000000 0.795210 1.000000
1.000000 0.688937 1.000000
0.938534 0.151378 1.000000
0.405889 0.000000 1.000000
0.000000 0.000000 1.000000
0.849269 0.722244 0.131344
0.771697 0.613924 0.482502
0.786827 0.660790 1.000000
0.865849 0.790724 1.000000
0.944188 0.880791 1.000000
0.921510 0.757233 1.000000
0.661720 0.195474 1.000000
0.000000 0.000000 1.000000
0.000000 0.000000 1.000000
1.000000 0.892938 0.108315
1.000000 0.779737 0.437399
0.957172 0.823467 0.903750
0.958112 0.948722 1.000000
0.936069 1.000000 1.000000
0.787328 0.888096 1.000000
0.372411 0.297309 1.000000
0.000000 0.000000 1.000000
0.000000 0.000000 1.000000
1.000000 1.000000 0.216508
1.000000 1.000000 0.457300
1.000000 1.000000 0.795658
1.000000 1.000000 1.000000
1.000000 1.000000 1.000000
1.000000 1.000000 1.000000
0.407153 0.586259 1.000000
0.000000 0.000000 1.000000
0.000000 0.000000 1.000000
1.000000 1.000000 0.622063
1.000000 1.000000 0.707345
1.000000 1.000000 0.848962
1.000000 1.000000 1.000000
1.000000 1.000000 1.000000
1.000000 1.000000 1.000000
1.000000 1.000000 1.000000
0.000000 0.000000 1.000000
0.000000 0.000000 1.000000
1.000000 1.000000 1.000000
1.000000 1.000000 1.000000
1.000000 1.000000 1.000000
1.000000 1.000000 1.000000
1.000000 1.000000 1.000000
1.000000 1.000000 1.000000
1.000000 1.000000 1.000000
1.000000 0.736525 1.000000
0.000000 0.000000 0.947702
1.000000 1.000000 1.000000
1.000000 1.000000 1.000000
1.000000 1.000000 1.000000
1.000000 1.000000 1.000000
1.000000 1.000000 1.000000
1.000000 1.000000 0.789148
1.000000 1.000000 0.190979
1.000000 1.000000 0.000000
1.000000 0.000000 0.000000
