lrplugin/MindfulLensFilmEngine.lrplugin/profiles/luts/kodachrome_25.cube
# Generated from ColorChecker fit
LUT_3D_SIZE 33
DOMAIN_MIN 0.0 0.0 0.0
DOMAIN_MAX 1.0 1.0 1.0
0.000000 0.000000 0.087749
0.000000 0.000000 0.105567
0.000000 0.000000 0.127907
0.000000 0.000000 0.154385
0.000000 0.000000 0.184587
0.000000 0.000000 0.218069
0.000000 0.000000 0.254355
0.000000 0.000000 0.292938
0.002729 0.000000 0.333279
0.026584 0.000561 0.374808
0.053137 0.036264 0.416927
0.082051 0.073039 0.459002
0.112905 0.110317 0.500371
0.145194 0.147341 0.540339
0.178326 0.183161 0.578183
0.211627 0.216636 0.613145
0.244337 0.246434 0.644438
0.275612 0.271034 0.671243
0.304524 0.288722 0.692711
0.330058 0.297592 0.707962
0.351118 0.295550 0.716082
0.366522 0.280309 0.716128
0.375001 0.249392 0.707128
0.375206 0.200130 0.688074
0.365700 0.129663 0.657931
0.344963 0.034942 0.615630
0.311389 0.000000 0.560073
0.263289 0.000000 0.490130
0.198890 0.000000 0.404640
0.116332 0.000000 0.302410
0.013673 0.000000 0.182217
0.000000 0.000000 0.042806
0.000000 0.000000 0.000000
0.000000 0.000000 0.042808
0.000000 0.000000 0.060793
0.000000 0.000000 0.083401
0.000000 0.000000 0.110243
0.000000 0.000000 0.140897
0.000000 0.000000 0.174912
0.000000 0.000000 0.211802
0.000000 0.000000 0.251053
0.009636 0.021346 0.292119
0.033927 0.054055 0.334423
0.060595 0.088155 0.377357
0.089279 0.123253 0.420281
0.119535 0.158765 0.462524
0.150834 0.193915 0.503385
0.182563 0.227736 0.542131
0.214024 0.259072 0.577998
0.244433 0.286573 0.610191
0.272924 0.308701 0.637883
0.298545 0.323726 0.660216
0.320260 0.329726 0.676303
0.336947 0.324588 0.685224
0.347402 0.306010 0.686027
0.350335 0.271496 0.677731
0.344370 0.218363 0.659322
0.328050 0.143733 0.629756
0.299831 0.044540 0.587958
0.258084 0.000000 0.532821
0.201098 0.000000 0.463206
0.127074 0.000000 0.377946
0.034131 0.000000 0.275840
0.000000 0.000000 0.155657
0.000000 0.000000 0.016135
0.000000 0.000000 0.000000
0.000000 0.000000 0.002376
0.000000 0.000000 0.020755
0.000000 0.000000 0.043853
0.000000 0.000000 0.071270
0.000000 0.000000 0.102577
0.000000 0.000000 0.137315
0.000000 0.013761 0.174991
0.000000 0.041954 0.215084
0.010150 0.071704 0.257038
0.034790 0.102980 0.300271
0.061478 0.135565 0.344164
0.089831 0.169047 0.388072
0.119382 0.202826 0.431315
0.149578 0.236110 0.473185
0.179784 0.267915 0.512940
0.209276 0.297066 0.549809
0.237251 0.322200 0.582989
0.262817 0.341760 0.611645
0.285000 0.353998 0.634913
0.302740 0.356977 0.651897
0.314894 0.348567 0.661668
0.320233 0.326448 0.663268
0.317444 0.288110 0.655707
0.305130 0.230850 0.637964
0.281808 0.151775 0.608988
0.245912 0.047801 0.567695
0.195791 0.000000 0.512970
0.129709 0.000000 0.443668
0.045846 0.000000 0.358612
0.000000 0.000000 0.256595
0.000000 0.000000 0.136377
0.000000 0.000000 0.000000
0.000000 0.000000 0.000000
0.000000 0.000000 0.000000
0.000000 0.000000 0.000000
0.000000 0.000000 0.008850
0.000000 0.000000 0.037048
0.000000 0.012104 0.069205
0.000000 0.036821 0.104854
0.000000 0.062535 0.143495
0.000000 0.089582 0.184597
0.004966 0.118109 0.227599
0.029880 0.148070 0.271909
0.056507 0.179229 0.316902
0.084441 0.211160 0.361924
0.113190 0.243245 0.406288
0.142181 0.274674 0.449278
0.170753 0.304447 0.490144
0.198162 0.331374 0.528108
0.223579 0.354073 0.562358
0.246091 0.370970 0.592053
0.264700 0.380302 0.616320
0.278323 0.380113 0.634254
0.285794 0.368258 0.644921
0.285860 0.342401 0.647354
0.277187 0.300012 0.640555
0.258353 0.238373 0.623496
0.227853 0.154575 0.595117
0.184097 0.045516 0.554326
0.125412 0.000000 0.500002
0.050038 0.000000 0.430992
0.000000 0.000000 0.346110
0.000000 0.000000 0.244142
0.000000 0.000000 0.123841
0.000000 0.000000 0.000000
0.000000 0.000000 0.000000
0.000000 0.000000 0.000000
0.000000 0.000000 0.000000
0.000000 0.011771 0.000000
0.000000 0.035537 0.007221
0.000000 0.059018 0.040420
0.000000 0.082915 0.077163
0.000000 0.107741 0.116941
0.000000 0.133815 0.159217
0.000000 0.161266 0.203421
0.020003 0.190032 0.248953
0.046498 0.219861 0.295181
0.073934 0.250309 0.341444
0.101798 0.280741 0.387046
0.129492 0.310330 0.431262
0.156332 0.338061 0.473338
0.181553 0.362726 0.512484
0.204301 0.382925 0.547884
0.223641 0.397070 0.578687
0.238550 0.403378 0.604012
0.247925 0.399880 0.622948
0.250574 0.384411 0.634551
0.245224 0.354618 0.637848
0.230514 0.307956 0.631833
0.205002 0.241691 0.615470
0.167158 0.152894 0.587691
0.115371 0.038449 0.547397
0.047943 0.000000 0.493458
0.000000 0.000000 0.424714
0.000000 0.000000 0.339972
0.000000 0.000000 0.238009
0.000000 0.000000 0.117570
0.000000 0.000000 0.000000
0.000000 0.000000 0.000000
0.000000 0.004950 0.000000
0.000000 0.031780 0.000000
0.000000 0.056319 0.000000
0.000000 0.079636 0.000000
0.000000 0.102605 0.015917
0.000000 0.125914 0.053931
0.000000 0.150055 0.095016
0.000000 0.175332 0.138625
0.000000 0.201858 0.184181
0.006058 0.229554 0.231076
0.032360 0.258150 0.278671
0.059232 0.287185 0.326295
0.086137 0.316009 0.373247
0.112454 0.343778 0.418794
0.137477 0.369459 0.462171
0.160416 0.391827 0.502585
0.180395 0.409467 0.539208
0.196456 0.420772 0.571183
0.207553 0.423945 0.597622
0.212559 0.416996 0.617606
0.210260 0.397747 0.630183
0.199358 0.363828 0.634371
0.178472 0.312675 0.629157
0.146134 0.241538 0.613498
0.100793 0.147472 0.586318
0.040814 0.027343 0.546510
0.000000 0.000000 0.492936
0.000000 0.000000 0.424429
0.000000 0.000000 0.339787
0.000000 0.000000 0.237780
0.000000 0.000000 0.117146
0.000000 0.000000 0.000000
0.000000 0.000000 0.000000
0.000000 0.046404 0.000000
0.000000 0.073195 0.000000
0.000000 0.097641 0.000000
0.000000 0.120794 0.000000
0.000000 0.143512 0.000000
0.000000 0.166463 0.034910
0.000000 0.190127 0.077465
0.000000 0.214788 0.122562
0.000000 0.240543 0.169616
0.000000 0.267295 0.218010
0.015098 0.294760 0.267098
0.041351 0.322459 0.316201
0.067236 0.349723 0.364611
0.092108 0.375694 0.411586
0.115238 0.399321 0.456354
0.135813 0.419362 0.498114
0.152935 0.434385 0.536030
0.165620 0.442768 0.569239
0.172803 0.442695 0.596843
0.173331 0.432161 0.617915
0.165968 0.408970 0.631498
0.149393 0.370734 0.636600
0.122201 0.314876 0.632201
0.082902 0.238625 0.617250
0.029922 0.139023 0.590662
0.000000 0.012916 0.551325
0.000000 0.000000 0.498092
0.000000 0.000000 0.429787
0.000000 0.000000 0.345202
0.000000 0.000000 0.243098
0.000000 0.000000 0.122206
0.000000 0.000000 0.000000
0.000000 0.000000 0.000000
0.000000 0.084587 0.000000
0.000000 0.111681 0.000000
0.000000 0.136350 0.000000
0.000000 0.159628 0.000000
0.000000 0.182357 0.000000
0.000000 0.205189 0.019904
0.000000 0.228584 0.064091
0.000000 0.252813 0.110827
0.000000 0.277955 0.159519
0.000000 0.303896 0.209544
0.000000 0.330333 0.260247
0.021404 0.356774 0.310942
0.046217 0.382531 0.360913
0.069587 0.406729 0.409410
0.090760 0.428301 0.455654
0.108900 0.445989 0.498834
0.123087 0.458343 0.538110
0.132314 0.463723 0.572607
0.135491 0.460298 0.601423
0.131444 0.446047 0.623622
0.118913 0.418755 0.638237
0.096553 0.376018 0.644271
0.062938 0.315243 0.640696
0.016554 0.233641 0.626452
0.000000 0.128237 0.600447
0.000000 0.000000 0.561561
0.000000 0.000000 0.508639
0.000000 0.000000 0.440498
0.000000 0.000000 0.355922
0.000000 0.000000 0.253664
0.000000 0.000000 0.132447
0.000000 0.000000 0.000000
0.000000 0.000000 0.000000
0.000000 0.120081 0.000000
0.000000 0.147824 0.000000
0.000000 0.173035 0.000000
0.000000 0.196731 0.000000
0.000000 0.219737 0.000000
0.000000 0.242690 0.008780
0.000000 0.266032 0.054753
0.000000 0.290016 0.103274
0.000000 0.314705 0.153742
0.000000 0.339969 0.205525
0.000000 0.365488 0.257961
0.000595 0.390752 0.310357
0.024298 0.415058 0.361987
0.046119 0.437513 0.412095
0.065283 0.457033 0.459894
0.080930 0.472344 0.504567
0.092116 0.481978 0.545262
0.097811 0.484280 0.581101
0.096903 0.477401 0.611170
0.088194 0.459303 0.634527
0.070402 0.427755 0.650199
0.042159 0.380337 0.657179
0.002013 0.314436 0.654432
0.000000 0.227250 0.640889
0.000000 0.115784 0.615453
0.000000 0.000000 0.576994
0.000000 0.000000 0.524350
0.000000 0.000000 0.456330
0.000000 0.000000 0.371710
0.000000 0.000000 0.269236
0.000000 0.000000 0.147623
0.000000 0.000000 0.005553
0.000000 0.000000 0.000000
0.000000 0.153446 0.000000
0.000000 0.182186 0.000000
0.000000 0.208262 0.000000
0.000000 0.232672 0.000000
0.000000 0.256227 0.000000
0.000000 0.279543 0.001461
0.000000 0.303049 0.049372
0.000000 0.326979 0.099819
0.000000 0.351380 0.152194
0.000000 0.376105 0.205858
0.000000 0.400818 0.260141
0.000000 0.424991 0.314341
0.002792 0.447905 0.367725
0.023030 0.468650 0.419530
0.040143 0.486125 0.468960
0.053248 0.499038 0.515190
0.061378 0.505908 0.557362
0.063480 0.505059 0.594588
0.058419 0.494627 0.625949
0.044974 0.472557 0.650494
0.021838 0.436601 0.667240
0.000000 0.384323 0.675175
0.000000 0.313092 0.673256
0.000000 0.220090 0.660406
0.000000 0.102306 0.635519
0.000000 0.000000 0.597458
0.000000 0.000000 0.545054
0.000000 0.000000 0.477108
0.000000 0.000000 0.392387
0.000000 0.000000 0.289631
0.000000 0.000000 0.167545
0.000000 0.000000 0.024807
0.000000 0.000000 0.000000
0.000000 0.185216 0.000000
0.000000 0.215307 0.000000
0.000000 0.242574 0.000000
0.000000 0.267999 0.000000
0.000000 0.292374 0.000000
0.000000 0.316302 0.000000
0.000000 0.340192 0.047921
0.000000 0.364263 0.100433
0.000000 0.388545 0.154843
0.000000 0.412873 0.210507
0.000000 0.436895 0.266745
0.000000 0.460066 0.322848
0.000000 0.481650 0.378077
0.001736 0.500721 0.431659
0.016769 0.516161 0.482791
0.027295 0.526661 0.530640
0.032326 0.530723 0.574341
0.030785 0.526654 0.612998
0.021514 0.512574 0.645684
0.003269 0.486410 0.671439
0.000000 0.445899 0.689275
0.000000 0.388586 0.698170
0.000000 0.311825 0.697074
0.000000 0.212780 0.684902
0.000000 0.088424 0.660541
0.000000 0.000000 0.622846
0.000000 0.000000 0.570640
0.000000 0.000000 0.502715
0.000000 0.000000 0.417832
0.000000 0.000000 0.314723
0.000000 0.000000 0.192085
0.000000 0.000000 0.048587
0.000000 0.000000 0.000000
0.000000 0.215904 0.000000
0.000000 0.247702 0.000000
0.000000 0.276489 0.000000
0.000000 0.303232 0.000000
0.000000 0.328706 0.000000
0.000000 0.353496 0.000000
0.000000 0.377994 0.050438
0.000000 0.402405 0.105146
0.000000 0.426738 0.161715
0.000000 0.450815 0.219492
0.000000 0.474265 0.277790
0.000000 0.496527 0.335892
0.000000 0.516848 0.393050
0.000000 0.534285 0.448485
0.000000 0.547703 0.501386
0.004608 0.555778 0.550912
0.006507 0.556991 0.596190
0.001285 0.549638 0.636316
0.000000 0.531817 0.670355
0.000000 0.501442 0.697340
0.000000 0.456230 0.716276
0.000000 0.393712 0.726132
0.000000 0.311224 0.725849
0.000000 0.205913 0.714338
0.000000 0.074734 0.690475
0.000000 0.000000 0.653108
0.000000 0.000000 0.601052
0.000000 0.000000 0.533092
0.000000 0.000000 0.447982
0.000000 0.000000 0.344445
0.000000 0.000000 0.221170
0.000000 0.000000 0.076819
0.000000 0.000000 0.000000
0.000000 0.245997 0.000000
0.000000 0.279861 0.000000
0.000000 0.310503 0.000000
0.000000 0.338871 0.000000
0.000000 0.365724 0.000000
0.000000 0.391630 0.002425
0.000000 0.416965 0.057013
0.000000 0.441916 0.114046
0.000000 0.466477 0.172893
0.000000 0.490451 0.232893
0.000000 0.513452 0.293351
0.000000 0.534901 0.353542
0.000000 0.554029 0.412711
0.000000 0.569875 0.470071
0.000000 0.581289 0.524803
0.000000 0.586928 0.576059
0.000000 0.585259 0.622956
0.000000 0.574558 0.664585
0.000000 0.552909 0.700002
0.000000 0.518207 0.728233
0.000000 0.468155 0.748273
0.000000 0.400263 0.759085
0.000000 0.311854 0.759604
0.000000 0.200056 0.748729
0.000000 0.061810 0.725332
0.000000 0.000000 0.688251
0.000000 0.000000 0.636295
0.000000 0.000000 0.568240
0.000000 0.000000 0.482832
0.000000 0.000000 0.378787
0.000000 0.000000 0.254786
0.000000 0.000000 0.109484
0.000000 0.000000 0.000000
0.000000 0.275960 0.000000
0.000000 0.312254 0.000000
0.000000 0.345087 0.000000
0.000000 0.375390 0.000000
0.000000 0.403906 0.000000
0.000000 0.431187 0.010711
0.000000 0.457591 0.067797
0.000000 0.483287 0.127279
0.000000 0.508254 0.188519
0.000000 0.532278 0.250846
0.000000 0.554955 0.313560
0.000000 0.575691 0.375927
0.000000 0.593699 0.437184
0.000000 0.608002 0.496536
0.000000 0.617432 0.553157
0.000000 0.620630 0.606190
0.000000 0.616046 0.654746
0.000000 0.601939 0.697907
0.000000 0.576378 0.734722
0.000000 0.537238 0.764208
0.000000 0.482207 0.785354
0.000000 0.408779 0.797115
0.000000 0.314258 0.798417
0.000000 0.195758 0.788152
0.000000 0.050200 0.765183
0.000000 0.000000 0.728343
0.000000 0.000000 0.676430
0.000000 0.000000 0.608215
0.000000 0.000000 0.522435
0.000000 0.000000 0.417797
0.000000 0.000000 0.292978
0.000000 0.000000 0.146620
0.000000 0.000000 0.000000
0.000000 0.306233 0.000000
0.000000 0.345324 0.000000
0.000000 0.380688 0.000000
0.000000 0.413241 0.000000
0.000000 0.443709 0.000000
0.000000 0.472624 0.023285
0.000000 0.500332 0.082998
0.000000 0.526982 0.145049
0.000000 0.552537 0.208792
0.000000 0.576767 0.273548
0.000000 0.599251 0.338608
0.000000 0.619377 0.403232
0.000000 0.636342 0.466649
0.000000 0.649152 0.528056
0.000000 0.656622 0.586619
0.000000 0.657377 0.641473
0.000000 0.649850 0.691723
0.000000 0.632283 0.736442
0.000000 0.602727 0.774670
0.000000 0.559042 0.805418
0.000000 0.498898 0.827667
0.000000 0.419773 0.840363
0.000000 0.318954 0.842425
0.000000 0.193538 0.832738
0.000000 0.040429 0.810157
0.000000 0.000000 0.773506
0.000000 0.000000 0.721577
0.000000 0.000000 0.653132
0.000000 0.000000 0.566901
0.000000 0.000000 0.461583
0.000000 0.000000 0.335846
0.000000 0.000000 0.188327
0.000000 0.000000 0.017631
0.000000 0.337234 0.000000
0.000000 0.379492 0.000000
0.000000 0.417731 0.000000
0.000000 0.452852 0.000000
0.000000 0.485562 0.000000
0.000000 0.516378 0.040418
0.000000 0.545627 0.102882
0.000000 0.573444 0.167618
0.000000 0.599774 0.233968
0.000000 0.624369 0.301249
0.000000 0.646792 0.368743
0.000000 0.666415 0.435702
0.000000 0.682417 0.501347
0.000000 0.693788 0.564867
0.000000 0.699326 0.625421
0.000000 0.697640 0.682137
0.000000 0.687144 0.734110
0.000000 0.666065 0.780406
0.000000 0.632437 0.820059
0.000000 0.584104 0.852071
0.000000 0.518717 0.875414
0.000000 0.433738 0.889029
0.000000 0.326438 0.891824
0.000000 0.193896 0.882679
0.000000 0.033001 0.860441
0.000000 0.000000 0.823924
0.000000 0.000000 0.771914
0.000000 0.000000 0.703165
0.000000 0.000000 0.616399
0.000000 0.000000 0.510308
0.000000 0.000000 0.383551
0.000000 0.000000 0.234758
0.000000 0.000000 0.062526
0.000000 0.369356 0.000000
0.000000 0.415155 0.000000
0.000000 0.456617 0.000000
0.000000 0.494626 0.000000
0.000000 0.529873 0.000000
0.000000 0.562858 0.062438
0.000000 0.593891 0.127775
0.000000 0.623091 0.195305
0.000000 0.650384 0.264365
0.000000 0.675507 0.334262
0.000000 0.698007 0.404272
0.000000 0.717236 0.473639
0.000000 0.732360 0.541575
0.003080 0.742350 0.607262
0.005633 0.745988 0.669852
0.000553 0.741864 0.728464
0.000000 0.728379 0.782186
0.000000 0.703741 0.830076
0.000000 0.665966 0.871160
0.000000 0.612883 0.904433
0.000000 0.542126 0.928858
0.000000 0.451141 0.943370
0.000000 0.337180 0.946868
0.000000 0.197307 0.938224
0.000000 0.028393 0.916277
0.000000 0.000000 0.879836
0.000000 0.000000 0.827676
0.000000 0.000000 0.758545
0.000000 0.000000 0.671156
0.000000 0.000000 0.564194
0.000000 0.000000 0.436311
0.000000 0.000000 0.286128
0.000000 0.000000 0.112235
0.000000 0.402969 0.000000
0.000000 0.452686 0.000000
0.000000 0.497722 0.000000
0.000000 0.538944 0.000000
0.000000 0.577027 0.024153
0.000000 0.612453 0.089732
0.000000 0.645516 0.158057
0.000000 0.676316 0.228488
0.000000 0.704766 0.300355
0.000000 0.730585 0.372956
0.001493 0.753300 0.445560
0.020539 0.772251 0.517402
0.034355 0.786584 0.587688
0.042045 0.795254 0.655593
0.042624 0.797026 0.720258
0.035026 0.790474 0.780797
0.018098 0.773981 0.836289
0.000000 0.745739 0.885785
0.000000 0.703748 0.928302
0.000000 0.645818 0.962828
0.000000 0.569568 0.988320
0.000000 0.472426 1.000000
0.000000 0.351629 1.000000
0.000000 0.204222 0.999680
0.000000 0.027061 0.977970
0.000000 0.000000 0.941540
0.000000 0.000000 0.889157
0.000000 0.000000 0.819560
0.000000 0.000000 0.731457
0.000000 0.000000 0.623522
0.000000 0.000000 0.494401
0.000000 0.000000 0.342707
0.000000 0.000000 0.167023
0.000000 0.438419 0.000000
0.000000 0.492435 0.000000
0.000000 0.541400 0.000000
0.000000 0.586163 0.000000
0.000000 0.627383 0.053978
0.000000 0.665526 0.122745
0.000000 0.700867 0.194169
0.000000 0.733492 0.267603
0.008508 0.763295 0.342368
0.036153 0.789979 0.417757
0.059676 0.813055 0.493027
0.078325 0.831844 0.567410
0.091263 0.845476 0.640101
0.097568 0.852891 0.710267
0.096235 0.852836 0.777044
0.086173 0.843867 0.839536
0.066206 0.824352 0.896815
0.035076 0.792465 0.947924
0.000000 0.746191 0.991872
0.000000 0.683321 1.000000
0.000000 0.601458 1.000000
0.000000 0.498013 1.000000
0.000000 0.370207 1.000000
0.000000 0.215068 1.000000
0.000000 0.029434 1.000000
0.000000 0.000000 1.000000
0.000000 0.000000 0.956708
0.000000 0.000000 0.886559
0.000000 0.000000 0.797643
0.000000 0.000000 0.688630
0.000000 0.000000 0.558156
0.000000 0.000000 0.404826
0.000000 0.000000 0.227215
0.000000 0.476028 0.000000
0.000000 0.534727 0.000000
0.000000 0.587979 0.000000
0.000000 0.636616 0.021018
0.000000 0.681278 0.089908
0.000000 0.722417 0.161979
0.016989 0.760290 0.236609
0.052378 0.794966 0.313143
0.084501 0.826322 0.390895
0.112749 0.854044 0.469149
0.136434 0.877627 0.547156
0.154778 0.896376 0.624138
0.166922 0.909403 0.699284
0.171922 0.915630 0.771753
0.168748 0.913789 0.840673
0.156287 0.902420 0.905139
0.133341 0.879873 0.964218
0.098626 0.844304 1.000000
0.050776 0.793682 1.000000
0.000000 0.725782 1.000000
0.000000 0.638190 1.000000
0.000000 0.528300 1.000000
0.000000 0.393316 1.000000
0.000000 0.230249 1.000000
0.000000 0.035920 1.000000
0.000000 0.000000 1.000000
0.000000 0.000000 1.000000
0.000000 0.000000 0.959945
0.000000 0.000000 0.870117
0.000000 0.000000 0.759914
0.000000 0.000000 0.627966
0.000000 0.000000 0.472871
0.000000 0.000000 0.293195
0.000000 0.516096 0.000000
0.000000 0.579867 0.000000
0.000000 0.637767 0.000000
0.000000 0.690612 0.060102
0.028167 0.739026 0.132508
0.070898 0.783443 0.207995
0.110963 0.824103 0.285934
0.147904 0.861060 0.365661
0.181173 0.894173 0.446483
0.210143 0.923111 0.527676
0.234099 0.947352 0.608484
0.252242 0.966185 0.688121
0.263690 0.978704 0.765768
0.267474 0.983816 0.840576
0.262543 0.980236 0.911665
0.247760 0.966485 0.978123
0.221903 0.940897 1.000000
0.183667 0.901613 1.000000
0.131662 0.846583 1.000000
0.064412 0.773567 1.000000
0.000000 0.680133 1.000000
0.000000 0.563659 1.000000
0.000000 0.421331 1.000000
0.000000 0.250145 1.000000
0.000000 0.046904 1.000000
0.000000 0.000000 1.000000
0.000000 0.000000 1.000000
0.000000 0.000000 1.000000
0.000000 0.000000 0.949335
0.000000 0.000000 0.837828
0.000000 0.000000 0.704282
0.000000 0.000000 0.547287
0.000000 0.000000 0.365403
0.000000 0.558897 0.000000
0.000000 0.628131 0.000000
0.042504 0.691045 0.033905
0.092624 0.748437 0.106362
0.140428 0.800916 0.182400
0.185602 0.848896 0.261411
0.227747 0.892605 0.342756
0.266379 0.932075 0.425765
0.300931 0.967152 0.509736
0.330750 0.997486 0.593939
0.355099 1.000000 0.677608
0.373156 1.000000 0.759950
0.384015 1.000000 0.840139
0.386685 1.000000 0.917318
0.380092 1.000000 0.990598
0.363074 1.000000 1.000000
0.334389 1.000000 1.000000
0.292706 0.964727 1.000000
0.236613 0.905234 1.000000
0.164612 0.827019 1.000000
0.075119 0.727634 1.000000
0.000000 0.604440 1.000000
0.000000 0.454607 1.000000
0.000000 0.275112 1.000000
0.000000 0.062745 1.000000
0.000000 0.000000 1.000000
0.000000 0.000000 1.000000
0.000000 0.000000 1.000000
0.000000 0.000000 1.000000
0.000000 0.000000 0.922884
0.000000 0.000000 0.787611
0.000000 0.000000 0.628579
0.000000 0.000000 0.444338
0.059690 0.604683 0.000000
0.117697 0.679775 0.011910
0.173486 0.748071 0.084169
0.226887 0.810354 0.160483
0.277648 0.867212 0.240266
0.325432 0.919047 0.322903
0.369816 0.966066 0.407748
0.410294 1.000000 0.494123
0.446275 1.000000 0.581318
0.477083 1.000000 0.668595
0.501957 1.000000 0.755181
0.520054 1.000000 0.840275
0.530444 1.000000 0.923043
0.532113 1.000000 1.000000
0.523963 1.000000 1.000000
0.504810 1.000000 1.000000
0.473389 1.000000 1.000000
0.428345 1.000000 1.000000
0.368243 0.969949 1.000000
0.291563 0.886456 1.000000
0.196697 0.781015 1.000000
0.081957 0.650969 1.000000
0.000000 0.493472 1.000000
0.000000 0.305485 1.000000
0.000000 0.083779 1.000000
0.000000 0.000000 1.000000
0.000000 0.000000 1.000000
0.000000 0.000000 1.000000
0.000000 0.000000 1.000000
0.000000 0.000000 1.000000
0.000000 0.000000 0.878519
0.000000 0.000000 0.717306
0.000000 0.000000 0.530557
0.209958 0.653682 0.000000
0.272032 0.735031 0.066575
0.331601 0.809082 0.142920
0.388475 0.876600 0.223207
0.442378 0.938158 0.306843
0.492950 0.994140 0.393206
0.539744 1.000000 0.481640
0.582232 1.000000 0.571460
0.619799 1.000000 0.661950
0.651747 1.000000 0.752362
0.677291 1.000000 0.841917
0.695566 1.000000 0.929804
0.705617 1.000000 1.000000
0.706409 1.000000 1.000000
0.696819 1.000000 1.000000
0.675643 1.000000 1.000000
0.641588 1.000000 1.000000
0.593281 1.000000 1.000000
0.529261 1.000000 1.000000
0.447985 0.952173 1.000000
0.347824 0.840573 1.000000
0.227064 0.703547 1.000000
0.083908 0.538232 1.000000
0.000000 0.341571 1.000000
0.000000 0.110320 1.000000
0.000000 0.000000 1.000000
0.000000 0.000000 1.000000
0.000000 0.000000 1.000000
0.000000 0.000000 1.000000
0.000000 0.000000 1.000000
0.000000 0.000000 0.977630
0.000000 0.000000 0.814088
0.000000 0.000000 0.624674
0.389557 0.706098 0.054243
0.455912 0.794106 0.130409
0.519472 0.874288 0.210963
0.580022 0.947391 0.295337
0.637262 1.000000 0.382930
0.690810 1.000000 0.473112
0.740197 1.000000 0.565220
0.784871 1.000000 0.658561
0.824193 1.000000 0.752411
0.857443 1.000000 0.846014
0.883813 1.000000 0.938584
0.902414 1.000000 1.000000
0.912269 1.000000 1.000000
0.912319 1.000000 1.000000
0.901419 1.000000 1.000000
0.878339 1.000000 1.000000
0.841768 1.000000 1.000000
0.790305 1.000000 1.000000
0.722469 1.000000 1.000000
0.636693 1.000000 1.000000
0.531324 0.906585 1.000000
0.404626 0.762454 1.000000
0.254778 0.589169 1.000000
0.079876 0.383657 1.000000
0.000000 0.142656 1.000000
0.000000 0.000000 1.000000
0.000000 0.000000 1.000000
0.000000 0.000000 1.000000
0.000000 0.000000 1.000000
0.000000 0.000000 1.000000
0.000000 0.000000 1.000000
0.000000 0.000000 0.919603
0.000000 0.000000 0.727361
0.601180 0.762112 0.123665
0.672044 0.857185 0.204281
0.739815 0.943876 0.289162
0.804254 1.000000 0.377731
0.865040 1.000000 0.469380
0.921765 1.000000 0.563471
0.973938 1.000000 0.659333
1.000000 1.000000 0.756266
1.000000 1.000000 0.853537
1.000000 1.000000 0.950384
1.000000 1.000000 1.000000
1.000000 1.000000 1.000000
1.000000 1.000000 1.000000
1.000000 1.000000 1.000000
1.000000 1.000000 1.000000
1.000000 1.000000 1.000000
1.000000 1.000000 1.000000
1.000000 1.000000 1.000000
0.950765 1.000000 1.000000
0.860595 1.000000 1.000000
0.750118 0.979302 1.000000
0.617575 0.827944 1.000000
0.461122 0.646541 1.000000
0.278832 0.432004 1.000000
0.068690 0.181053 1.000000
0.000000 0.000000 1.000000
0.000000 0.000000 1.000000
0.000000 0.000000 1.000000
0.000000 0.000000 1.000000
0.000000 0.000000 1.000000
0.000000 0.000000 1.000000
0.000000 0.000000 1.000000
0.000000 0.000000 0.839351
0.847615 0.821881 0.203926
0.923228 0.924427 0.289117
0.995441 1.000000 0.378438
1.000000 1.000000 0.471306
1.000000 1.000000 0.567106
1.000000 1.000000 0.665191
1.000000 1.000000 0.764883
1.000000 1.000000 0.865474
1.000000 1.000000 0.966224
1.000000 1.000000 1.000000
1.000000 1.000000 1.000000
1.000000 1.000000 1.000000
1.000000 1.000000 1.000000
1.000000 1.000000 1.000000
1.000000 1.000000 1.000000
1.000000 1.000000 1.000000
1.000000 1.000000 1.000000
1.000000 1.000000 1.000000
1.000000 1.000000 1.000000
1.000000 1.000000 1.000000
1.000000 1.000000 1.000000
0.868938 0.900249 1.000000
0.705978 0.710584 1.000000
0.516390 0.486851 1.000000
0.298137 0.225753 1.000000
0.049100 0.000000 1.000000
0.000000 0.000000 1.000000
