lrplugin/MindfulLensFilmEngine.lrplugin/profiles/luts/kodachrome_v2.cube
# Generated from ColorChecker fit
LUT_3D_SIZE 9
DOMAIN_MIN 0.0 0.0 0.0
DOMAIN_MAX 1.0 1.0 1.0
0.000000 0.000000 0.122154
0.000000 0.000000 0.141167
0.000000 0.000000 0.262324
0.000000 0.000000 0.438328
0.000000 0.000000 0.613054
0.000000 0.000000 0.721552
0.000000 0.000000 0.690049
0.000000 0.000000 0.435941
0.000000 0.000000 0.000000
0.102371 0.000000 0.000000
0.000000 0.000000 0.044510
0.000000 0.000000 0.249212
0.000000 0.001156 0.475639
0.017128 0.106396 0.661677
0.037883 0.166036 0.736386
0.000000 0.048438 0.620001
0.000000 0.000000 0.223931
0.000000 0.000000 0.000000
0.095659 0.219146 0.000000
0.000000 0.173761 0.000000
0.000000 0.180312 0.216595
0.027388 0.256384 0.473768
0.102129 0.368725 0.649905
0.125729 0.433248 0.668077
0.000000 0.315027 0.442528
0.000000 0.000000 0.000000
0.000000 0.000000 0.000000
0.066003 0.462218 0.000000
0.000000 0.399669 0.000000
0.000000 0.392205 0.239251
0.000000 0.454125 0.506495
0.036017 0.548892 0.650521
0.025994 0.589132 0.588410
0.000000 0.436633 0.228415
0.000000 0.000000 0.000000
0.000000 0.000000 0.000000
0.229814 0.774716 0.000000
0.100872 0.680147 0.095954
0.039143 0.639323 0.438446
0.031536 0.663258 0.694086
0.029215 0.712128 0.782792
0.000000 0.695275 0.615653
0.000000 0.471201 0.094933
0.000000 0.000000 0.000000
0.000000 0.000000 0.000000
0.868468 1.000000 0.238103
0.675081 1.000000 0.634446
0.542334 1.000000 0.981925
0.453750 0.959923 1.000000
0.357110 0.930931 1.000000
0.164449 0.820529 0.914561
0.000000 0.483937 0.205837
0.000000 0.000000 0.000000
0.000000 0.000000 0.000000
1.000000 1.000000 1.000000
1.000000 1.000000 1.000000
1.000000 1.000000 1.000000
1.000000 1.000000 1.000000
1.000000 1.000000 1.000000
1.000000 1.000000 1.000000
0.429095 0.547311 0.771368
0.000000 0.000000 0.000000
0.000000 0.000000 0.000000
1.000000 1.000000 1.000000
1.000000 1.000000 1.000000
1.000000 1.000000 1.000000
1.000000 1.000000 1.000000
1.000000 1.000000 1.000000
1.000000 1.000000 1.000000
1.000000 0.741056 1.000000
0.863903 0.000000 0.223275
0.000000 0.000000 0.000000
1.000000 1.000000 1.000000
1.000000 1.000000 1.000000
1.000000 1.000000 1.000000
1.000000 1.000000 1.000000
1.000000 1.000000 1.000000
1.000000 1.000000 1.000000
1.000000 1.000000 1.000000
1.000000 0.000000 1.000000
1.000000 0.000000 0.000000
0.098791 0.000000 0.265905
0.000000 0.000000 0.167314
0.000000 0.000000 0.185855
0.000000 0.000000 0.287075
0.000000 0.000000 0.427691
0.000000 0.000000 0.555597
0.000000 0.000000 0.609858
0.000000 0.000000 0.520718
0.000000 0.000000 0.209589
0.245934 0.166532 0.125413
0.136473 0.111356 0.145674
0.105462 0.101246 0.255132
0.147587 0.146278 0.413341
0.221789 0.205687 0.571030
0.251267 0.187876 0.670102
0.123477 0.000000 0.643632
0.000000 0.000000 0.415872
0.000000 0.000000 0.000000
0.229370 0.365685 0.000000
0.150592 0.310283 0.112240
0.147658 0.307969 0.288640
0.211867 0.365532 0.478328
0.298776 0.438924 0.626045
0.328197 0.433261 0.667701
0.184200 0.202819 0.530383
0.000000 0.000000 0.132353
0.000000 0.000000 0.000000
0.208586 0.561859 0.000000
0.129853 0.499076 0.136520
0.122588 0.492914 0.354887
0.174704 0.546877 0.549547
0.238371 0.613631 0.659246
0.230016 0.595006 0.613908
0.030323 0.341995 0.334628
0.000000 0.000000 0.000000
0.000000 0.000000 0.000000
0.408035 0.842912 0.096315
0.297213 0.761948 0.334504
0.251710 0.736649 0.568869
0.256057 0.767235 0.740992
0.259036 0.803087 0.783633
0.173689 0.742747 0.620723
0.000000 0.433923 0.167368
0.000000 0.000000 0.000000
0.000000 0.000000 0.000000
1.000000 1.000000 0.607375
0.940588 1.000000 0.868670
0.821446 1.000000 1.000000
0.740850 1.000000 1.000000
0.644198 1.000000 1.000000
0.441144 0.953379 0.846629
0.005602 0.551855 0.186088
0.000000 0.000000 0.000000
0.000000 0.000000 0.000000
1.000000 1.000000 1.000000
1.000000 1.000000 1.000000
1.000000 1.000000 1.000000
1.000000 1.000000 1.000000
1.000000 1.000000 1.000000
1.000000 1.000000 1.000000
0.760584 0.776307 0.594760
0.000000 0.000000 0.000000
0.000000 0.000000 0.000000
1.000000 1.000000 1.000000
1.000000 1.000000 1.000000
1.000000 1.000000 1.000000
1.000000 1.000000 1.000000
1.000000 1.000000 1.000000
1.000000 1.000000 1.000000
1.000000 1.000000 1.000000
1.000000 0.000000 0.000000
0.000000 0.000000 0.000000
1.000000 1.000000 1.000000
1.000000 1.000000 1.000000
1.000000 1.000000 1.000000
1.000000 1.000000 1.000000
1.000000 1.000000 1.000000
1.000000 1.000000 1.000000
1.000000 1.000000 1.000000
1.000000 0.399725 1.000000
1.000000 0.000000 0.000000
0.215507 0.026395 0.387313
0.052233 0.000000 0.188086
0.000000 0.000000 0.123088
0.000000 0.000000 0.170706
0.011461 0.000000 0.300500
0.014042 0.000000 0.473206
0.000000 0.000000 0.640732
0.000000 0.000000 0.746163
0.000000 0.000000 0.723755
0.332156 0.265651 0.278796
0.232025 0.187872 0.206406
0.213386 0.159059 0.239503
0.268542 0.178489 0.350483
0.354055 0.194605 0.502917
0.390740 0.105009 0.651550
0.263673 0.000000 0.742301
0.000000 0.000000 0.712263
0.000000 0.000000 0.489703
0.290483 0.414500 0.173943
0.223104 0.339235 0.200118
0.233265 0.321343 0.301501
0.309884 0.356815 0.444500
0.406137 0.390808 0.586696
0.439455 0.317639 0.676842
0.291526 0.000000 0.654868
0.000000 0.000000 0.451876
0.000000 0.000000 0.000000
0.258015 0.561582 0.136991
0.191499 0.485732 0.232459
0.196801 0.471173 0.371323
0.259454 0.510611 0.513999
0.329248 0.545917 0.612079
0.320228 0.468124 0.608326
0.110696 0.117427 0.436679
0.000000 0.000000 0.022252
0.000000 0.000000 0.000000
0.467245 0.802798 0.278660
0.368204 0.719620 0.413151
0.333491 0.697162 0.557691
0.345252 0.724847 0.666706
0.349889 0.741257 0.685795
0.258063 0.634142 0.551732
0.000000 0.240410 0.192467
0.000000 0.000000 0.000000
0.000000 0.000000 0.000000
1.000000 1.000000 0.756154
1.000000 1.000000 0.898403
0.937796 1.000000 1.000000
0.860240 1.000000 1.000000
0.759526 1.000000 0.961055
0.542929 0.900634 0.659275
0.081979 0.431037 0.073448
0.000000 0.000000 0.000000
0.000000 0.000000 0.000000
1.000000 1.000000 1.000000
1.000000 1.000000 1.000000
1.000000 1.000000 1.000000
1.000000 1.000000 1.000000
1.000000 1.000000 1.000000
1.000000 1.000000 1.000000
0.875999 0.777867 0.277321
0.000000 0.000000 0.000000
0.000000 0.000000 0.000000
1.000000 1.000000 1.000000
1.000000 1.000000 1.000000
1.000000 1.000000 1.000000
1.000000 1.000000 1.000000
1.000000 1.000000 1.000000
1.000000 1.000000 1.000000
1.000000 1.000000 1.000000
1.000000 0.063861 0.000000
0.000000 0.000000 0.000000
1.000000 1.000000 1.000000
1.000000 1.000000 1.000000
1.000000 1.000000 1.000000
1.000000 1.000000 1.000000
1.000000 1.000000 1.000000
1.000000 1.000000 1.000000
1.000000 1.000000 1.000000
1.000000 0.786653 0.593187
1.000000 0.000000 0.000000
0.340892 0.124973 0.475649
0.179644 0.025697 0.201269
0.107353 0.000000 0.080319
0.117327 0.000000 0.104028
0.167132 0.000000 0.254799
0.178589 0.000000 0.506210
0.037775 0.000000 0.823011
0.000000 0.000000 1.000000
0.000000 0.000000 1.000000
0.426884 0.337116 0.377888
0.331690 0.235506 0.238135
0.321927 0.189892 0.222265
0.387518 0.188757 0.315515
0.482643 0.169745 0.494300
0.525736 0.019665 0.726206
0.399490 0.000000 0.969994
0.000000 0.000000 1.000000
0.000000 0.000000 1.000000
0.354638 0.445822 0.274428
0.293856 0.346480 0.235197
0.313208 0.311926 0.288765
0.399233 0.327357 0.414381
0.502723 0.327132 0.582467
0.538729 0.194772 0.754621
0.386556 0.000000 0.883614
0.000000 0.000000 0.913390
0.000000 0.000000 0.779071
0.299722 0.547774 0.223235
0.240210 0.451658 0.249422
0.253768 0.424634 0.335789
0.323545 0.448612 0.455595
0.396950 0.454665 0.573273
0.385647 0.323031 0.644430
0.165557 0.000000 0.615846
0.000000 0.000000 0.425477
0.000000 0.000000 0.002453
0.502667 0.746920 0.328760
0.409789 0.651343 0.384262
0.381143 0.624672 0.465791
0.396496 0.645533 0.540615
0.399867 0.641714 0.567177
0.299536 0.490165 0.495093
0.000000 0.017000 0.265154
0.000000 0.000000 0.000000
0.000000 0.000000 0.000000
1.000000 1.000000 0.741939
1.000000 1.000000 0.789656
0.997835 1.000000 0.827711
0.919086 1.000000 0.817381
0.810979 0.984908 0.711120
0.578404 0.789159 0.452554
0.090511 0.253977 0.000000
0.000000 0.000000 0.000000
0.000000 0.000000 0.000000
1.000000 1.000000 1.000000
1.000000 1.000000 1.000000
1.000000 1.000000 1.000000
1.000000 1.000000 1.000000
1.000000 1.000000 1.000000
1.000000 1.000000 0.709243
0.894450 0.690646 0.000000
0.000000 0.000000 0.000000
0.000000 0.000000 0.000000
1.000000 1.000000 1.000000
1.000000 1.000000 1.000000
1.000000 1.000000 1.000000
1.000000 1.000000 1.000000
1.000000 1.000000 1.000000
1.000000 1.000000 1.000000
1.000000 1.000000 0.397416
1.000000 0.047650 0.000000
0.000000 0.000000 0.000000
1.000000 1.000000 1.000000
1.000000 1.000000 1.000000
1.000000 1.000000 1.000000
1.000000 1.000000 1.000000
1.000000 1.000000 1.000000
1.000000 1.000000 1.000000
1.000000 1.000000 1.000000
1.000000 0.997794 0.000000
1.000000 0.000000 0.000000
0.494815 0.210637 0.519870
0.332325 0.099220 0.204330
0.264974 0.040298 0.063527
0.283690 0.014842 0.101532
0.343657 0.000000 0.313590
0.364316 0.000000 0.686122
0.229362 0.000000 1.000000
0.000000 0.000000 1.000000
0.000000 0.000000 1.000000
0.559778 0.418182 0.425290
0.465844 0.297143 0.251975
0.462179 0.242264 0.223042
0.536325 0.231231 0.336575
0.640079 0.190892 0.581827
0.689497 0.000000 0.939228
0.564889 0.000000 1.000000
0.110823 0.000000 1.000000
0.000000 0.000000 1.000000
0.461287 0.503062 0.313266
0.403015 0.381061 0.242236
0.428372 0.334396 0.283700
0.521513 0.337467 0.429750
0.630850 0.313838 0.663650
0.669052 0.136233 0.959841
0.513044 0.000000 1.000000
0.004008 0.000000 1.000000
0.000000 0.000000 1.000000
0.382950 0.570006 0.235493
0.325948 0.452056 0.225811
0.344165 0.414131 0.295200
0.418369 0.427345 0.429760
0.493587 0.411974 0.606766
0.479101 0.237460 0.794668
0.248450 0.000000 0.953088
0.000000 0.000000 1.000000
0.000000 0.000000 0.975849
0.573336 0.731007 0.290153
0.481717 0.618477 0.299884
0.455135 0.586173 0.353726
0.470973 0.601921 0.431790
0.470871 0.582714 0.505361
0.360727 0.394706 0.536897
0.010694 0.000000 0.480032
0.000000 0.000000 0.279573
0.000000 0.000000 0.000000
1.000000 1.000000 0.621912
1.000000 0.995933 0.608123
1.000000 0.962486 0.601950
0.988367 0.969517 0.577514
0.870249 0.930733 0.500109
0.619979 0.709002 0.326205
0.104324 0.116357 0.003445
0.000000 0.000000 0.000000
0.000000 0.000000 0.000000
1.000000 1.000000 1.000000
1.000000 1.000000 1.000000
1.000000 1.000000 1.000000
1.000000 1.000000 1.000000
1.000000 1.000000 0.778169
1.000000 1.000000 0.348752
0.898857 0.616482 0.000000
0.000000 0.000000 0.000000
0.000000 0.000000 0.000000
1.000000 1.000000 1.000000
1.000000 1.000000 1.000000
1.000000 1.000000 1.000000
1.000000 1.000000 1.000000
1.000000 1.000000 1.000000
1.000000 1.000000 0.837181
1.000000 1.000000 0.000000
1.000000 0.017200 0.000000
0.000000 0.000000 0.000000
1.000000 1.000000 1.000000
1.000000 1.000000 1.000000
1.000000 1.000000 1.000000
1.000000 1.000000 1.000000
1.000000 1.000000 1.000000
1.000000 1.000000 1.000000
1.000000 1.000000 0.636533
1.000000 1.000000 0.000000
1.000000 0.000000 0.000000
0.660952 0.277664 0.508613
0.494667 0.167128 0.194418
0.430604 0.121997 0.078372
0.457308 0.112447 0.177389
0.527582 0.057813 0.499557
0.558485 0.000000 1.000000
0.431331 0.000000 1.000000
0.000000 0.000000 1.000000
0.000000 0.000000 1.000000
0.724306 0.509285 0.423286
0.628671 0.378854 0.258719
0.629043 0.327878 0.261141
0.710581 0.323246 0.441478
0.822701 0.281010 0.801825
0.879078 0.066386 1.000000
0.757640 0.000000 1.000000
0.300573 0.000000 1.000000
0.000000 0.000000 1.000000
0.613690 0.592817 0.306386
0.554559 0.455206 0.245674
0.583450 0.406612 0.319258
0.682136 0.410638 0.532071
0.796647 0.380050 0.880221
0.837271 0.176778 1.000000
0.678552 0.000000 1.000000
0.159289 0.000000 1.000000
0.000000 0.000000 1.000000
0.520749 0.641034 0.203339
0.462482 0.505314 0.199713
0.482479 0.463685 0.296152
0.559129 0.476462 0.491601
0.635078 0.453128 0.776177
0.617226 0.252325 1.000000
0.376731 0.000000 1.000000
0.000000 0.000000 1.000000
0.000000 0.000000 1.000000
0.702096 0.773972 0.206057
0.607551 0.645570 0.211748
0.579744 0.611842 0.281740
0.593679 0.629820 0.408986
0.588614 0.605700 0.577613
0.468064 0.394840 0.762922
0.099802 0.000000 0.931390
0.000000 0.000000 1.000000
0.000000 0.000000 1.000000
1.000000 1.000000 0.452937
1.000000 0.999627 0.419178
1.000000 0.971094 0.412420
1.000000 0.987078 0.419626
0.972840 0.950488 0.418932
0.703874 0.713398 0.379650
0.160356 0.077042 0.262265
0.000000 0.000000 0.018436
0.000000 0.000000 0.000000
1.000000 1.000000 1.000000
1.000000 1.000000 1.000000
1.000000 1.000000 0.871079
1.000000 1.000000 0.705409
1.000000 1.000000 0.481023
1.000000 1.000000 0.161244
0.935947 0.620400 0.000000
0.000000 0.000000 0.000000
0.000000 0.000000 0.000000
1.000000 1.000000 1.000000
1.000000 1.000000 1.000000
1.000000 1.000000 1.000000
1.000000 1.000000 1.000000
1.000000 1.000000 0.991260
1.000000 1.000000 0.334078
1.000000 1.000000 0.000000
1.000000 0.049326 0.000000
0.000000 0.000000 0.000000
1.000000 1.000000 1.000000
1.000000 1.000000 1.000000
1.000000 1.000000 1.000000
1.000000 1.000000 1.000000
1.000000 1.000000 1.000000
1.000000 1.000000 1.000000
1.000000 1.000000 0.000000
1.000000 1.000000 0.000000
1.000000 0.000000 0.000000
0.786790 0.283521 0.430199
0.614877 0.192518 0.168365
0.553165 0.182964 0.130199
0.587820 0.214235 0.345456
0.669261 0.194873 0.835066
0.712168 0.000000 1.000000
0.595473 0.000000 1.000000
0.162367 0.000000 1.000000
0.000000 0.000000 1.000000
0.877747 0.574050 0.373841
0.778168 0.449893 0.268845
0.781232 0.421620 0.355551
0.869715 0.445321 0.657725
0.990654 0.426252 1.000000
1.000000 0.218832 1.000000
0.939322 0.000000 1.000000
0.482404 0.000000 1.000000
0.000000 0.000000 1.000000
0.778916 0.684869 0.269399
0.716276 0.544331 0.269634
0.746948 0.509622 0.428073
0.850323 0.533548 0.762489
0.970053 0.518080 1.000000
1.000000 0.314349 1.000000
0.854451 0.000000 1.000000
0.327701 0.000000 1.000000
0.000000 0.000000 1.000000
0.689984 0.736798 0.156029
0.627389 0.593005 0.208894
0.647005 0.560499 0.384925
0.724838 0.588801 0.695910
0.801153 0.576595 1.000000
0.780468 0.371728 1.000000
0.531561 0.000000 1.000000
0.000000 0.000000 1.000000
0.000000 0.000000 1.000000
0.875600 0.857916 0.119374
0.774659 0.720351 0.171266
0.743058 0.695042 0.309755
0.753418 0.728226 0.540636
0.742616 0.715300 0.860879
0.611786 0.500826 1.000000
0.226319 0.000000 1.000000
0.000000 0.000000 1.000000
0.000000 0.000000 1.000000
1.000000 1.000000 0.291560
1.000000 1.000000 0.287880
1.000000 1.000000 0.332691
1.000000 1.000000 0.425798
1.000000 1.000000 0.558181
0.830121 0.818763 0.711992
0.259354 0.158081 0.860560
0.000000 0.000000 0.968385
0.000000 0.000000 0.991145
1.000000 1.000000 0.851200
1.000000 1.000000 0.736350
1.000000 1.000000 0.630350
1.000000 1.000000 0.527015
1.000000 1.000000 0.411333
1.000000 1.000000 0.259469
1.000000 0.730607 0.038759
0.000000 0.000000 0.000000
0.000000 0.000000 0.000000
1.000000 1.000000 1.000000
1.000000 1.000000 1.000000
1.000000 1.000000 1.000000
1.000000 1.000000 1.000000
1.000000 1.000000 0.641439
1.000000 1.000000 0.121162
1.000000 1.000000 0.000000
1.000000 0.184025 0.000000
0.000000 0.000000 0.000000
1.000000 1.000000 1.000000
1.000000 1.000000 1.000000
1.000000 1.000000 1.000000
1.000000 1.000000 1.000000
1.000000 1.000000 1.000000
1.000000 1.000000 0.563662
1.000000 1.000000 0.000000
1.000000 1.000000 0.000000
1.000000 0.000000 0.000000
0.783625 0.148854 0.272631
0.604966 0.101671 0.122686
0.545386 0.155110 0.224032
0.588671 0.257752 0.619268
0.682859 0.307343 1.000000
0.740246 0.150789 1.000000
0.637384 0.000000 1.000000
0.215084 0.000000 1.000000
0.000000 0.000000 1.000000
0.941189 0.539283 0.278604
0.836140 0.442701 0.292512
0.841268 0.461561 0.524941
0.936968 0.541158 1.000000
1.000000 0.575952 1.000000
1.000000 0.409565 1.000000
1.000000 0.000000 1.000000
0.582421 0.000000 1.000000
0.000000 0.000000 1.000000
0.887846 0.712184 0.217598
0.819762 0.587032 0.337922
0.851178 0.587653 0.642460
0.959106 0.656058 1.000000
1.000000 0.683419 1.000000
1.000000 0.510073 1.000000
0.975923 0.000000 1.000000
0.445142 0.000000 1.000000
0.000000 0.000000 1.000000
0.831324 0.796421 0.122502
0.762059 0.659883 0.290804
0.779848 0.654961 0.607481
0.858318 0.720380 1.000000
0.935351 0.744027 1.000000
0.913085 0.562953 1.000000
0.657915 0.000000 1.000000
0.000493 0.000000 1.000000
0.000000 0.000000 1.000000
1.000000 0.928120 0.072687
0.934224 0.793736 0.229534
0.896974 0.792321 0.497379
0.902804 0.859316 0.894860
0.886208 0.879323 1.000000
0.745941 0.686106 1.000000
0.345010 0.062593 1.000000
0.000000 0.000000 1.000000
0.000000 0.000000 1.000000
1.000000 1.000000 0.194011
1.000000 1.000000 0.278970
1.000000 1.000000 0.436015
1.000000 1.000000 0.677795
1.000000 1.000000 1.000000
0.962558 1.000000 1.000000
0.365875 0.344707 1.000000
0.000000 0.000000 1.000000
0.000000 0.000000 1.000000
1.000000 1.000000 0.658816
1.000000 1.000000 0.610456
1.000000 1.000000 0.593736
1.000000 1.000000 0.615313
1.000000 1.000000 0.673019
1.000000 1.000000 0.755858
1.000000 0.938496 0.844012
0.000000 0.000000 0.908833
0.000000 0.000000 0.912850
1.000000 1.000000 1.000000
1.000000 1.000000 1.000000
1.000000 1.000000 1.000000
1.000000 1.000000 0.923245
1.000000 1.000000 0.641286
1.000000 1.000000 0.324508
1.000000 1.000000 0.000000
1.000000 0.424482 0.000000
0.000000 0.000000 0.000000
1.000000 1.000000 1.000000
1.000000 1.000000 1.000000
1.000000 1.000000 1.000000
1.000000 1.000000 1.000000
1.000000 1.000000 1.000000
1.000000 1.000000 0.388288
1.000000 1.000000 0.000000
1.000000 1.000000 0.000000
1.000000 0.000000 0.000000
0.526564 0.000000 0.023596
0.340758 0.000000 0.053579
0.283809 0.000000 0.364582
0.337120 0.143727 1.000000
0.446348 0.301583 1.000000
0.521409 0.243212 1.000000
0.436474 0.000000 1.000000
0.029970 0.000000 1.000000
0.000000 0.000000 1.000000
0.799530 0.294975 0.138905
0.688202 0.252899 0.339564
0.695483 0.348957 0.787667
0.799387 0.517646 1.000000
0.942189 0.642631 1.000000
1.000000 0.556735 1.000000
0.934852 0.041948 1.000000
0.490541 0.000000 1.000000
0.000000 0.000000 1.000000
0.835170 0.570910 0.165960
0.760423 0.485091 0.474023
0.792264 0.548121 0.994420
0.905324 0.691214 1.000000
1.000000 0.794747 1.000000
1.000000 0.688259 1.000000
0.941959 0.150453 1.000000
0.411321 0.000000 1.000000
0.000000 0.000000 1.000000
0.849253 0.722212 0.131379
0.771690 0.613890 0.482577
0.786925 0.660645 1.000000
0.866203 0.790405 1.000000
0.945023 0.880261 1.000000
0.923143 0.756468 1.000000
0.664576 0.194441 1.000000
0.000000 0.000000 1.000000
0.000000 0.000000 1.000000
1.000000 0.893053 0.108263
1.000000 0.779823 0.437329
0.957200 0.823410 0.903901
0.958261 0.948455 1.000000
0.936533 1.000000 1.000000
0.788386 0.887308 1.000000
0.374449 0.296215 1.000000
0.000000 0.000000 1.000000
0.000000 0.000000 1.000000
1.000000 1.000000 0.216201
1.000000 1.000000 0.456870
1.000000 1.000000 0.795327
1.000000 1.000000 1.000000
1.000000 1.000000 1.000000
1.000000 1.000000 1.000000
0.408285 0.585340 1.000000
0.000000 0.000000 1.000000
0.000000 0.000000 1.000000
1.000000 1.000000 0.621266
1.000000 1.000000 0.706273
1.000000 1.000000 0.847816
1.000000 1.000000 1.000000
1.000000 1.000000 1.000000
1.000000 1.000000 1.000000
1.000000 1.000000 1.000000
0.000000 0.000000 1.000000
0.000000 0.000000 1.000000
1.000000 1.000000 1.000000
1.000000 1.000000 1.000000
1.000000 1.000000 1.000000
1.000000 1.000000 1.000000
1.000000 1.000000 1.000000
1.000000 1.000000 1.000000
1.000000 1.000000 1.000000
1.000000 0.737062 1.000000
0.000000 0.000000 0.948343
1.000000 1.000000 1.000000
1.000000 1.000000 1.000000
1.000000 1.000000 1.000000
1.000000 1.000000 1.000000
1.000000 1.000000 1.000000
1.000000 1.000000 0.784297
1.000000 1.000000 0.186255
1.000000 1.000000 0.000000
1.000000 0.000000 0.000000
