lrplugin/MindfulLensFilmEngine.lrplugin/profiles/luts/kodachrome_64.cube
# Generated from ColorChecker fit
LUT_3D_SIZE 33
DOMAIN_MIN 0.0 0.0 0.0
DOMAIN_MAX 1.0 1.0 1.0
0.000000 0.000000 0.122306
0.000000 0.000000 0.115176
0.000000 0.000000 0.116332
0.000000 0.000000 0.125192
0.000000 0.000000 0.141136
0.000000 0.000000 0.163511
0.000000 0.000000 0.191631
0.000000 0.000000 0.224773
0.000000 0.000000 0.262180
0.000000 0.000000 0.303062
0.000000 0.000000 0.346593
0.000000 0.000000 0.391912
0.000000 0.000000 0.438126
0.000000 0.000000 0.484305
0.000000 0.000000 0.529484
0.000000 0.000000 0.572667
0.000000 0.000000 0.612819
0.000000 0.000000 0.648873
0.000000 0.000000 0.679728
0.000000 0.000000 0.704247
0.000000 0.000000 0.721259
0.000000 0.000000 0.729558
0.000000 0.000000 0.727905
0.000000 0.000000 0.715023
0.000000 0.000000 0.689605
0.000000 0.000000 0.650307
0.000000 0.000000 0.595750
0.000000 0.000000 0.524521
0.000000 0.000000 0.435173
0.000000 0.000000 0.326224
0.000000 0.000000 0.196157
0.000000 0.000000 0.043422
0.000000 0.000000 0.000000
0.000000 0.000000 0.071596
0.000000 0.000000 0.072294
0.000000 0.000000 0.080933
0.000000 0.000000 0.096908
0.000000 0.000000 0.119575
0.000000 0.000000 0.148260
0.000000 0.000000 0.182250
0.000000 0.000000 0.220801
0.000000 0.000000 0.263133
0.000000 0.000000 0.308431
0.000000 0.000000 0.355847
0.000000 0.000000 0.404496
0.000000 0.000000 0.453461
0.000000 0.000000 0.501789
0.000000 0.000000 0.548493
0.000000 0.000000 0.592551
0.000000 0.000000 0.632907
0.000000 0.000000 0.668471
0.000000 0.000000 0.698116
0.000000 0.000000 0.720683
0.000000 0.000000 0.734977
0.000000 0.000000 0.739770
0.000000 0.000000 0.733798
0.000000 0.000000 0.715763
0.000000 0.000000 0.684332
0.000000 0.000000 0.638138
0.000000 0.000000 0.575780
0.000000 0.000000 0.495821
0.000000 0.000000 0.396791
0.000000 0.000000 0.277184
0.000000 0.000000 0.135460
0.000000 0.000000 0.000000
0.000000 0.000000 0.000000
0.047508 0.000000 0.019910
0.004450 0.000000 0.028197
0.000000 0.000000 0.044075
0.000000 0.000000 0.066914
0.000000 0.000000 0.096049
0.000000 0.000000 0.130779
0.000000 0.000000 0.170372
0.000000 0.000000 0.214058
0.000000 0.000000 0.261034
0.000000 0.000000 0.310462
0.000000 0.000000 0.361470
0.000000 0.000000 0.413150
0.000000 0.000000 0.464562
0.000000 0.000000 0.514729
0.000000 0.000000 0.562641
0.000000 0.000000 0.607252
0.000000 0.000000 0.647484
0.000000 0.000000 0.682221
0.000000 0.000000 0.710316
0.000000 0.000000 0.730585
0.000000 0.000000 0.741809
0.000000 0.000000 0.742738
0.000000 0.000000 0.732083
0.000000 0.000000 0.708523
0.000000 0.000000 0.670703
0.000000 0.000000 0.617232
0.000000 0.000000 0.546685
0.000000 0.000000 0.457602
0.000000 0.000000 0.348489
0.000000 0.000000 0.217818
0.000000 0.000000 0.064024
0.000000 0.000000 0.000000
0.000000 0.000000 0.000000
0.081566 0.000000 0.000000
0.041747 0.000000 0.000000
0.005505 0.000000 0.006132
0.000000 0.000000 0.035581
0.000000 0.000000 0.070923
0.000000 0.000000 0.111434
0.000000 0.000000 0.156356
0.000000 0.000000 0.204899
0.000000 0.000000 0.256234
0.000000 0.000000 0.309502
0.000000 0.000000 0.363805
0.000000 0.000000 0.418214
0.000000 0.000000 0.471764
0.000000 0.000000 0.523456
0.000000 0.000000 0.572256
0.000000 0.000000 0.617094
0.000000 0.020776 0.656869
0.000000 0.042854 0.690442
0.000000 0.060578 0.716642
0.000000 0.072004 0.734262
0.000000 0.074990 0.742061
0.000000 0.067195 0.738762
0.000000 0.046080 0.723057
0.000000 0.008908 0.693599
0.000000 0.000000 0.649009
0.000000 0.000000 0.587875
0.000000 0.000000 0.508746
0.000000 0.000000 0.410141
0.000000 0.000000 0.290541
0.000000 0.000000 0.148395
0.000000 0.000000 0.000000
0.000000 0.000000 0.000000
0.000000 0.000000 0.000000
0.102684 0.000000 0.000000
0.065684 0.000000 0.000000
0.032299 0.000000 0.000000
0.003113 0.000000 0.003463
0.000000 0.000000 0.044747
0.000000 0.000000 0.090768
0.000000 0.000000 0.140744
0.000000 0.000000 0.193861
0.000000 0.000000 0.249267
0.000000 0.000000 0.306080
0.000000 0.000000 0.363379
0.000000 0.000000 0.420210
0.000000 0.001013 0.475587
0.000000 0.026284 0.528485
0.000000 0.053039 0.577848
0.001926 0.080114 0.622583
0.016824 0.106150 0.661565
0.029418 0.129586 0.693632
0.038194 0.148665 0.717589
0.041502 0.161429 0.732206
0.037548 0.165724 0.736219
0.024403 0.159196 0.728327
0.000000 0.139293 0.707198
0.000000 0.103264 0.671464
0.000000 0.048160 0.619721
0.000000 0.000000 0.550533
0.000000 0.000000 0.462427
0.000000 0.000000 0.353897
0.000000 0.000000 0.223402
0.000000 0.000000 0.069367
0.000000 0.000000 0.000000
0.000000 0.000000 0.000000
0.000000 0.000000 0.000000
0.112594 0.034079 0.000000
0.077988 0.022708 0.000000
0.047028 0.011471 0.000000
0.020284 0.001575 0.000000
0.000000 0.000000 0.018252
0.000000 0.000000 0.069508
0.000000 0.000000 0.124258
0.000000 0.000000 0.181662
0.000000 0.000550 0.240848
0.000000 0.012925 0.300907
0.000000 0.029530 0.360898
0.000000 0.049983 0.419842
0.000000 0.073706 0.476728
0.010213 0.099919 0.530511
0.027507 0.127646 0.580109
0.044960 0.155712 0.624407
0.061327 0.182741 0.662256
0.075221 0.207163 0.692471
0.085117 0.227206 0.713833
0.089350 0.240901 0.725089
0.086115 0.246080 0.724951
0.073468 0.240376 0.712097
0.049325 0.221224 0.685169
0.011461 0.185862 0.642776
0.000000 0.131326 0.583491
0.000000 0.054457 0.505855
0.000000 0.000000 0.408372
0.000000 0.000000 0.289511
0.000000 0.000000 0.147710
0.000000 0.000000 0.000000
0.000000 0.000000 0.000000
0.000000 0.000000 0.000000
0.000000 0.000000 0.000000
0.113280 0.098380 0.000000
0.080637 0.086481 0.000000
0.051664 0.074882 0.000000
0.026917 0.064779 0.000000
0.006813 0.057165 0.000000
0.000000 0.052839 0.048564
0.000000 0.052399 0.107802
0.000000 0.056243 0.169205
0.000000 0.064575 0.231874
0.000000 0.077396 0.294878
0.000000 0.094512 0.357251
0.001797 0.115527 0.417994
0.017091 0.139849 0.476070
0.034495 0.166688 0.530411
0.053031 0.195053 0.579912
0.071578 0.223756 0.623435
0.088877 0.251411 0.659807
0.103530 0.276432 0.687819
0.113997 0.297035 0.706231
0.118600 0.311239 0.713764
0.115522 0.316862 0.709108
0.102804 0.311525 0.690916
0.078349 0.292651 0.657809
0.039920 0.257462 0.608372
0.000000 0.202985 0.541154
0.000000 0.126046 0.454672
0.000000 0.023273 0.347408
0.000000 0.000000 0.217807
0.000000 0.000000 0.064283
0.000000 0.000000 0.000000
0.000000 0.000000 0.000000
0.000000 0.000000 0.000000
0.000000 0.000000 0.000000
0.106980 0.159679 0.000000
0.075864 0.147131 0.000000
0.048433 0.135034 0.000000
0.025233 0.124568 0.000000
0.006666 0.116715 0.000000
0.000000 0.112260 0.029023
0.000000 0.111789 0.092463
0.000000 0.115687 0.157569
0.000000 0.124145 0.223421
0.000000 0.137152 0.289064
0.000000 0.154500 0.353509
0.011031 0.175781 0.415732
0.027310 0.200390 0.474674
0.045572 0.227523 0.529244
0.064822 0.256178 0.578312
0.083930 0.285153 0.620718
0.101621 0.313049 0.655265
0.116484 0.338268 0.680721
0.126968 0.359013 0.695822
0.131380 0.373289 0.699267
0.127889 0.378903 0.689721
0.114525 0.373462 0.665814
0.089177 0.354376 0.626145
0.049594 0.318856 0.569273
0.000000 0.263914 0.493726
0.000000 0.186363 0.397997
0.000000 0.082820 0.280543
0.000000 0.000000 0.139789
0.000000 0.000000 0.000000
0.000000 0.000000 0.000000
0.000000 0.000000 0.000000
0.000000 0.000000 0.000000
0.000000 0.000000 0.000000
0.096187 0.219124 0.000000
0.066153 0.205793 0.000000
0.039816 0.193044 0.000000
0.017705 0.182045 0.000000
0.000212 0.173766 0.000000
0.000000 0.168978 0.012159
0.000000 0.168253 0.079508
0.000000 0.171966 0.148020
0.000000 0.180293 0.216751
0.000000 0.193210 0.284724
0.000000 0.210498 0.350924
0.010520 0.231734 0.414305
0.027266 0.256303 0.473786
0.045858 0.283385 0.528250
0.065291 0.311967 0.576546
0.084418 0.340834 0.617489
0.101955 0.368573 0.649859
0.116476 0.393575 0.672402
0.126416 0.414029 0.683828
0.130069 0.427928 0.682814
0.125592 0.433065 0.668002
0.111001 0.427035 0.638000
0.084171 0.407235 0.591379
0.042839 0.370862 0.526679
0.000000 0.314916 0.442404
0.000000 0.236199 0.337021
0.000000 0.131312 0.208967
0.000000 0.000000 0.056641
0.000000 0.000000 0.000000
0.000000 0.000000 0.000000
0.000000 0.000000 0.000000
0.000000 0.000000 0.000000
0.000000 0.000000 0.000000
0.083644 0.277888 0.000000
0.054246 0.263625 0.000000
0.028546 0.250059 0.000000
0.007063 0.238343 0.000000
0.000000 0.229436 0.000000
0.000000 0.224095 0.000000
0.000000 0.222880 0.070386
0.000000 0.226154 0.142003
0.000000 0.234078 0.213305
0.000000 0.246617 0.283292
0.000000 0.263537 0.350929
0.002945 0.284405 0.415143
0.019631 0.308591 0.474830
0.038023 0.335263 0.528851
0.057099 0.363395 0.576031
0.075702 0.391760 0.615161
0.092532 0.418931 0.644999
0.106151 0.443286 0.664266
0.114980 0.463002 0.671650
0.117301 0.476059 0.665805
0.111258 0.480237 0.645347
0.094852 0.473118 0.608863
0.065946 0.452086 0.554900
0.022265 0.414326 0.481975
0.000000 0.356825 0.388567
0.000000 0.276371 0.273122
0.000000 0.169554 0.134052
0.000000 0.032765 0.000000
0.000000 0.000000 0.000000
0.000000 0.000000 0.000000
0.000000 0.000000 0.000000
0.000000 0.000000 0.000000
0.000000 0.000000 0.000000
0.072352 0.337175 0.000000
0.043133 0.321817 0.000000
0.017610 0.307252 0.000000
0.000000 0.294621 0.000000
0.000000 0.284870 0.000000
0.000000 0.278743 0.000000
0.000000 0.276788 0.066728
0.000000 0.279354 0.141143
0.000000 0.286589 0.214705
0.000000 0.298446 0.286390
0.000000 0.314678 0.355138
0.000000 0.334840 0.419856
0.007336 0.358286 0.479414
0.024989 0.384176 0.532650
0.043165 0.411467 0.578367
0.060691 0.438920 0.615331
0.076256 0.465097 0.642277
0.088407 0.488361 0.657903
0.095554 0.506878 0.660874
0.095964 0.518614 0.649818
0.087768 0.521336 0.623332
0.068955 0.512615 0.579976
0.037374 0.489820 0.518276
0.000000 0.450124 0.436724
0.000000 0.390501 0.333776
0.000000 0.307727 0.207855
0.000000 0.198378 0.057349
0.000000 0.058832 0.000000
0.000000 0.000000 0.000000
0.000000 0.000000 0.000000
0.000000 0.000000 0.000000
0.000000 0.000000 0.000000
0.000000 0.000000 0.000000
0.065562 0.398214 0.000000
0.036063 0.381584 0.000000
0.010248 0.365826 0.000000
0.000000 0.352068 0.000000
0.000000 0.341243 0.000000
0.000000 0.334083 0.000000
0.000000 0.331122 0.070345
0.000000 0.332697 0.147249
0.000000 0.338943 0.222756
0.000000 0.349801 0.295817
0.000000 0.365010 0.365350
0.000000 0.384112 0.430237
0.000000 0.406449 0.489327
0.009932 0.431167 0.541433
0.026657 0.457212 0.585335
0.042549 0.483331 0.619775
0.056285 0.508073 0.643466
0.066398 0.529789 0.655082
0.071284 0.546631 0.653263
0.069199 0.556553 0.636617
0.058258 0.557310 0.603715
0.036439 0.546457 0.553094
0.001577 0.521354 0.483257
0.000000 0.479159 0.392672
0.000000 0.416833 0.279773
0.000000 0.331140 0.142959
0.000000 0.218643 0.000000
0.000000 0.075707 0.000000
0.000000 0.000000 0.000000
0.000000 0.000000 0.000000
0.000000 0.000000 0.000000
0.000000 0.000000 0.000000
0.000000 0.000000 0.000000
0.066780 0.462266 0.000000
0.036534 0.444172 0.000000
0.009954 0.427011 0.000000
0.000000 0.411899 0.000000
0.000000 0.399756 0.000000
0.000000 0.391301 0.003242
0.000000 0.387055 0.083232
0.000000 0.387342 0.162312
0.000000 0.392286 0.239443
0.000000 0.401812 0.313555
0.000000 0.415648 0.383542
0.000000 0.433323 0.448261
0.000000 0.454167 0.506539
0.000000 0.477312 0.557166
0.011000 0.501691 0.598897
0.024696 0.526038 0.630453
0.036031 0.548891 0.650521
0.043529 0.568587 0.657753
0.045571 0.583265 0.650766
0.040399 0.590865 0.628143
0.026117 0.589131 0.588434
0.000686 0.575605 0.530151
0.000000 0.547633 0.451774
0.000000 0.502361 0.351747
0.000000 0.436739 0.228482
0.000000 0.347514 0.080353
0.000000 0.231239 0.000000
0.000000 0.084266 0.000000
0.000000 0.000000 0.000000
0.000000 0.000000 0.000000
0.000000 0.000000 0.000000
0.000000 0.000000 0.000000
0.000000 0.000000 0.000000
0.079765 0.530617 0.000000
0.048300 0.510853 0.000000
0.020478 0.492066 0.000000
0.000000 0.475360 0.000000
0.000000 0.461640 0.000000
0.000000 0.451614 0.025182
0.000000 0.445790 0.107564
0.000000 0.444478 0.188502
0.000000 0.447790 0.266935
0.000000 0.455638 0.341769
0.000000 0.467738 0.411873
0.000000 0.483605 0.476084
0.000000 0.502557 0.533203
0.000000 0.523712 0.581997
0.000000 0.545991 0.621198
0.010801 0.568116 0.649504
0.019161 0.588610 0.665578
0.023461 0.605799 0.668049
0.022068 0.617808 0.655510
0.013213 0.622566 0.626523
0.000000 0.617802 0.579611
0.000000 0.601046 0.513264
0.000000 0.569632 0.425940
0.000000 0.520692 0.316059
0.000000 0.451162 0.182008
0.000000 0.357780 0.022140
0.000000 0.237082 0.000000
0.000000 0.085410 0.000000
0.000000 0.000000 0.000000
0.000000 0.000000 0.000000
0.000000 0.000000 0.000000
0.000000 0.000000 0.000000
0.000000 0.000000 0.000000
0.108531 0.604583 0.000000
0.075369 0.582929 0.000000
0.045818 0.562278 0.000000
0.020329 0.543722 0.000000
0.000000 0.528153 0.000000
0.000000 0.516266 0.061239
0.000000 0.508555 0.145698
0.000000 0.505320 0.228173
0.000000 0.506657 0.307580
0.000000 0.512467 0.382802
0.000000 0.522453 0.452685
0.000000 0.536116 0.516042
0.000000 0.552762 0.571651
0.000000 0.571497 0.618255
0.000000 0.591229 0.654563
0.004790 0.610665 0.679250
0.009593 0.628318 0.690955
0.010106 0.642499 0.688284
0.004684 0.651322 0.669807
0.000000 0.652701 0.634061
0.000000 0.644354 0.579547
0.000000 0.623798 0.504733
0.000000 0.588352 0.408050
0.000000 0.535138 0.287898
0.000000 0.461078 0.142638
0.000000 0.362897 0.000000
0.000000 0.237119 0.000000
0.000000 0.080071 0.000000
0.000000 0.000000 0.000000
0.000000 0.000000 0.000000
0.000000 0.000000 0.000000
0.000000 0.000000 0.000000
0.000000 0.000000 0.000000
0.157343 0.685508 0.000000
0.122001 0.661730 0.000000
0.090231 0.638963 0.000000
0.062470 0.618288 0.000000
0.039018 0.600582 0.026283
0.020033 0.586529 0.113955
0.005533 0.576610 0.200171
0.000000 0.571111 0.283858
0.000000 0.570116 0.363909
0.000000 0.573514 0.439182
0.000000 0.580993 0.508501
0.000000 0.592044 0.570655
0.000000 0.605957 0.624399
0.001875 0.621827 0.668452
0.007174 0.638548 0.701500
0.010842 0.654817 0.722195
0.011500 0.669131 0.729152
0.007632 0.679789 0.720954
0.000000 0.684893 0.696148
0.000000 0.682344 0.653247
0.000000 0.669845 0.590728
0.000000 0.644903 0.507036
0.000000 0.604824 0.400581
0.000000 0.546716 0.269735
0.000000 0.467488 0.112841
0.000000 0.363852 0.000000
0.000000 0.232321 0.000000
0.000000 0.069208 0.000000
0.000000 0.000000 0.000000
0.000000 0.000000 0.000000
0.000000 0.000000 0.000000
0.000000 0.000000 0.000000
0.000000 0.000000 0.000000
0.230722 0.774764 0.000000
0.192709 0.748612 0.000000
0.158224 0.723464 0.000000
0.127689 0.700385 0.005863
0.101391 0.680242 0.096420
0.079474 0.663704 0.186055
0.061945 0.651241 0.273705
0.048669 0.643124 0.358275
0.039372 0.639427 0.438635
0.033641 0.640023 0.513618
0.030924 0.644589 0.582026
0.030526 0.652602 0.642624
0.031615 0.663342 0.694143
0.033220 0.675888 0.735281
0.034228 0.689122 0.764698
0.033388 0.701729 0.781024
0.029308 0.712192 0.782851
0.020458 0.718799 0.768737
0.005166 0.719636 0.737206
0.000000 0.712594 0.686748
0.000000 0.695364 0.615819
0.000000 0.665436 0.522837
0.000000 0.620107 0.406189
0.000000 0.556470 0.264227
0.000000 0.471422 0.095266
0.000000 0.361663 0.000000
0.000000 0.223691 0.000000
0.000000 0.053807 0.000000
0.000000 0.000000 0.000000
0.000000 0.000000 0.000000
0.000000 0.000000 0.000000
0.000000 0.000000 0.000000
0.000000 0.000000 0.000000
0.333441 0.873750 0.000000
0.292263 0.844962 0.000000
0.254559 0.817152 0.003366
0.220740 0.791372 0.096458
0.191080 0.768477 0.189167
0.165708 0.749121 0.280443
0.144620 0.733763 0.369201
0.127665 0.722661 0.454321
0.114559 0.715874 0.534650
0.104874 0.713266 0.608999
0.098044 0.714498 0.676145
0.093363 0.719036 0.734830
0.089984 0.726146 0.783762
0.086924 0.734894 0.821615
0.083055 0.744151 0.847028
0.077115 0.752587 0.858603
0.067697 0.758674 0.854912
0.053259 0.760685 0.834490
0.032115 0.756696 0.795836
0.002443 0.744583 0.737418
0.000000 0.722024 0.657666
0.000000 0.686498 0.554977
0.000000 0.635287 0.427715
0.000000 0.565472 0.274206
0.000000 0.473939 0.092745
0.000000 0.357372 0.000000
0.000000 0.212258 0.000000
0.000000 0.034886 0.000000
0.000000 0.000000 0.000000
0.000000 0.000000 0.000000
0.000000 0.000000 0.000000
0.000000 0.000000 0.000000
0.000000 0.000000 0.000000
0.470528 0.983895 0.000000
0.425682 0.952195 0.022398
0.384251 0.921428 0.117654
0.346634 0.892635 0.213072
0.313088 0.866657 0.307614
0.283734 0.844136 0.400207
0.258549 0.825518 0.489741
0.237374 0.811048 0.575075
0.219908 0.800773 0.655031
0.205712 0.794543 0.728396
0.194206 0.792006 0.793926
0.184670 0.792616 0.850337
0.176246 0.795626 0.896316
0.167936 0.800090 0.930512
0.158600 0.804864 0.951540
0.146960 0.808607 0.957981
0.131600 0.809777 0.948382
0.110961 0.806636 0.921254
0.083347 0.797244 0.875075
0.046920 0.779467 0.808287
0.000000 0.750969 0.719299
0.000000 0.709217 0.606483
0.000000 0.651479 0.468179
0.000000 0.574824 0.302692
0.000000 0.476124 0.108291
0.000000 0.352052 0.000000
0.000000 0.199081 0.000000
0.000000 0.013486 0.000000
0.000000 0.000000 0.000000
0.000000 0.000000 0.000000
0.000000 0.000000 0.000000
0.000000 0.000000 0.000000
0.000000 0.000000 0.000000
0.647263 1.000000 0.066788
0.598242 1.000000 0.163813
0.552571 1.000000 0.261554
0.510633 1.000000 0.358982
0.472675 0.976182 0.455034
0.438801 0.950135 0.548615
0.408979 0.927878 0.638592
0.383034 0.909643 0.723798
0.360653 0.895466 0.803034
0.341383 0.885182 0.875064
0.324631 0.878428 0.938618
0.309665 0.874643 0.992391
0.295612 0.873069 1.000000
0.281461 0.872746 1.000000
0.266060 0.872519 1.000000
0.248118 0.871032 1.000000
0.226204 0.866731 1.000000
0.198747 0.857864 1.000000
0.164036 0.842481 0.978141
0.120223 0.818433 0.902571
0.065317 0.783372 0.803927
0.000000 0.734751 0.680560
0.000000 0.669826 0.530784
0.000000 0.585654 0.352882
0.000000 0.479093 0.145099
0.000000 0.346803 0.000000
0.000000 0.185245 0.000000
0.000000 0.000000 0.000000
0.000000 0.000000 0.000000
0.000000 0.000000 0.000000
0.000000 0.000000 0.000000
0.000000 0.000000 0.000000
0.000000 0.000000 0.000000
0.869180 1.000000 0.238962
0.815471 1.000000 0.338616
0.765039 1.000000 0.438528
0.718254 1.000000 0.537645
0.675349 1.000000 0.634882
0.636416 1.000000 0.729118
0.601408 1.000000 0.819198
0.570139 1.000000 0.903933
0.542281 1.000000 0.982098
0.517369 0.986540 1.000000
0.494796 0.975105 1.000000
0.473817 0.966445 1.000000
0.453546 0.959788 1.000000
0.432958 0.954163 1.000000
0.410889 0.948400 1.000000
0.386034 0.941132 1.000000
0.356949 0.930791 1.000000
0.322049 0.915614 1.000000
0.279613 0.893635 1.000000
0.227775 0.862695 1.000000
0.164534 0.820431 0.914943
0.087747 0.764286 0.780595
0.000000 0.691501 0.618914
0.000000 0.599120 0.428156
0.000000 0.483989 0.206546
0.000000 0.342755 0.000000
0.000000 0.171866 0.000000
0.000000 0.000000 0.000000
0.000000 0.000000 0.000000
0.000000 0.000000 0.000000
0.000000 0.000000 0.000000
0.000000 0.000000 0.000000
0.000000 0.000000 0.000000
1.000000 1.000000 0.448485
1.000000 1.000000 0.550456
1.000000 1.000000 0.652220
0.975266 1.000000 0.752701
0.926875 1.000000 0.850791
0.882336 1.000000 0.945346
0.841590 1.000000 1.000000
0.804435 1.000000 1.000000
0.770533 1.000000 1.000000
0.739404 1.000000 1.000000
0.710429 1.000000 1.000000
0.682848 1.000000 1.000000
0.655764 1.000000 1.000000
0.628138 1.000000 1.000000
0.598791 1.000000 1.000000
0.566407 1.000000 1.000000
0.529528 1.000000 1.000000
0.486557 0.981155 1.000000
0.435758 0.951963 1.000000
0.375253 0.913495 1.000000
0.303026 0.863376 1.000000
0.216923 0.799035 0.910160
0.114646 0.717702 0.736134
0.000000 0.616407 0.532077
0.000000 0.491982 0.296188
0.000000 0.341063 0.026633
0.000000 0.160085 0.000000
0.000000 0.000000 0.000000
0.000000 0.000000 0.000000
0.000000 0.000000 0.000000
0.000000 0.000000 0.000000
0.000000 0.000000 0.000000
0.000000 0.000000 0.000000
1.000000 1.000000 0.699189
1.000000 1.000000 0.803160
1.000000 1.000000 0.906454
1.000000 1.000000 1.000000
1.000000 1.000000 1.000000
1.000000 1.000000 1.000000
1.000000 1.000000 1.000000
1.000000 1.000000 1.000000
1.000000 1.000000 1.000000
1.000000 1.000000 1.000000
0.977512 1.000000 1.000000
0.942736 1.000000 1.000000
0.908238 1.000000 1.000000
0.872965 1.000000 1.000000
0.835727 1.000000 1.000000
0.795192 1.000000 1.000000
0.749891 1.000000 1.000000
0.698212 1.000000 1.000000
0.638407 1.000000 1.000000
0.568585 0.972104 1.000000
0.486717 0.913463 1.000000
0.390633 0.840242 1.000000
0.278026 0.749657 0.886192
0.146447 0.638728 0.668387
0.000000 0.504273 0.417766
0.000000 0.342914 0.132470
0.000000 0.151074 0.000000
0.000000 0.000000 0.000000
0.000000 0.000000 0.000000
0.000000 0.000000 0.000000
0.000000 0.000000 0.000000
0.000000 0.000000 0.000000
0.000000 0.000000 0.000000
1.000000 1.000000 0.995088
1.000000 1.000000 1.000000
1.000000 1.000000 1.000000
1.000000 1.000000 1.000000
1.000000 1.000000 1.000000
1.000000 1.000000 1.000000
1.000000 1.000000 1.000000
1.000000 1.000000 1.000000
1.000000 1.000000 1.000000
1.000000 1.000000 1.000000
1.000000 1.000000 1.000000
1.000000 1.000000 1.000000
1.000000 1.000000 1.000000
1.000000 1.000000 1.000000
1.000000 1.000000 1.000000
1.000000 1.000000 1.000000
1.000000 1.000000 1.000000
0.963209 1.000000 1.000000
0.893750 1.000000 1.000000
0.813955 1.000000 1.000000
0.721783 0.971976 1.000000
0.615051 0.889176 1.000000
0.491437 0.788624 1.000000
0.348480 0.667326 0.841012
0.183578 0.522089 0.575200
0.000000 0.349521 0.273700
0.000000 0.146032 0.000000
0.000000 0.000000 0.000000
0.000000 0.000000 0.000000
0.000000 0.000000 0.000000
0.000000 0.000000 0.000000
0.000000 0.000000 0.000000
0.000000 0.000000 0.000000
1.000000 1.000000 1.000000
1.000000 1.000000 1.000000
1.000000 1.000000 1.000000
1.000000 1.000000 1.000000
1.000000 1.000000 1.000000
1.000000 1.000000 1.000000
1.000000 1.000000 1.000000
1.000000 1.000000 1.000000
1.000000 1.000000 1.000000
1.000000 1.000000 1.000000
1.000000 1.000000 1.000000
1.000000 1.000000 1.000000
1.000000 1.000000 1.000000
1.000000 1.000000 1.000000
1.000000 1.000000 1.000000
1.000000 1.000000 1.000000
1.000000 1.000000 1.000000
1.000000 1.000000 1.000000
1.000000 1.000000 1.000000
1.000000 1.000000 1.000000
1.000000 1.000000 1.000000
0.896601 0.947135 1.000000
0.761299 0.835885 1.000000
0.606275 0.703470 1.000000
0.428915 0.546685 0.772593
0.226464 0.362125 0.454421
0.000000 0.146187 0.097601
0.000000 0.000000 0.000000
0.000000 0.000000 0.000000
0.000000 0.000000 0.000000
0.000000 0.000000 0.000000
0.000000 0.000000 0.000000
0.000000 0.000000 0.000000
1.000000 1.000000 1.000000
1.000000 1.000000 1.000000
1.000000 1.000000 1.000000
1.000000 1.000000 1.000000
1.000000 1.000000 1.000000
1.000000 1.000000 1.000000
1.000000 1.000000 1.000000
1.000000 1.000000 1.000000
1.000000 1.000000 1.000000
1.000000 1.000000 1.000000
1.000000 1.000000 1.000000
1.000000 1.000000 1.000000
1.000000 1.000000 1.000000
1.000000 1.000000 1.000000
1.000000 1.000000 1.000000
1.000000 1.000000 1.000000
1.000000 1.000000 1.000000
1.000000 1.000000 1.000000
1.000000 1.000000 1.000000
1.000000 1.000000 1.000000
1.000000 1.000000 1.000000
1.000000 1.000000 1.000000
1.000000 0.892754 1.000000
0.926498 0.748460 1.000000
0.735978 0.579346 1.000000
0.519956 0.381996 0.678913
0.275526 0.152793 0.303900
0.000000 0.000000 0.000000
0.000000 0.000000 0.000000
0.000000 0.000000 0.000000
0.000000 0.000000 0.000000
0.000000 0.000000 0.000000
0.000000 0.000000 0.000000
1.000000 1.000000 1.000000
1.000000 1.000000 1.000000
1.000000 1.000000 1.000000
1.000000 1.000000 1.000000
1.000000 1.000000 1.000000
1.000000 1.000000 1.000000
1.000000 1.000000 1.000000
1.000000 1.000000 1.000000
1.000000 1.000000 1.000000
1.000000 1.000000 1.000000
1.000000 1.000000 1.000000
1.000000 1.000000 1.000000
1.000000 1.000000 1.000000
1.000000 1.000000 1.000000
1.000000 1.000000 1.000000
1.000000 1.000000 1.000000
1.000000 1.000000 1.000000
1.000000 1.000000 1.000000
1.000000 1.000000 1.000000
1.000000 1.000000 1.000000
1.000000 1.000000 1.000000
1.000000 1.000000 1.000000
1.000000 0.960571 1.000000
1.000000 0.803621 1.000000
1.000000 0.621385 1.000000
0.881376 0.410432 0.951639
0.622228 0.167136 0.557950
