lrplugin/MindfulLensFilmEngine.lrplugin/profiles/luts/kodak_solara_100.cube
# Generated from ColorChecker fit
LUT_3D_SIZE 9
DOMAIN_MIN 0.0 0.0 0.0
DOMAIN_MAX 1.0 1.0 1.0
0.029546 0.000000 0.028086
0.000000 0.000000 0.086800
0.000000 0.000000 0.159098
0.000000 0.000000 0.232535
0.000000 0.000000 0.293770
0.000000 0.000000 0.328559
0.000000 0.000000 0.321759
0.000000 0.000000 0.257328
0.000000 0.000000 0.118322
0.000000 0.000000 0.045768
0.000000 0.000000 0.154514
0.000000 0.000000 0.285580
0.000000 0.000000 0.421314
0.000000 0.000000 0.543163
0.000000 0.000000 0.631676
0.000000 0.000000 0.666502
0.000000 0.000000 0.626387
0.000000 0.000000 0.489181
0.000000 0.000000 0.000000
0.000000 0.000000 0.149728
0.000000 0.000000 0.335800
0.000000 0.000000 0.527318
0.000000 0.000000 0.700520
0.000000 0.000000 0.830747
0.000000 0.000000 0.892437
0.010191 0.000000 0.859130
0.284810 0.000000 0.703465
0.000000 0.000000 0.000000
0.000000 0.000000 0.076665
0.000000 0.000000 0.319183
0.000000 0.000000 0.565175
0.000000 0.020490 0.785672
0.047962 0.106677 0.950803
0.157321 0.166185 1.000000
0.318895 0.214704 0.990994
0.565998 0.272730 0.801815
0.000000 0.000000 0.000000
0.000000 0.000000 0.000000
0.000000 0.000000 0.259103
0.000000 0.000000 0.563463
0.065629 0.150939 0.832397
0.185718 0.331798 1.000000
0.302299 0.448378 1.000000
0.432079 0.500001 1.000000
0.598152 0.490797 0.838818
0.000000 0.000000 0.000000
0.000000 0.000000 0.000000
0.000000 0.000000 0.192885
0.000000 0.000000 0.564707
0.059207 0.000000 0.888426
0.190893 0.228281 1.000000
0.283337 0.403549 1.000000
0.343027 0.451310 1.000000
0.382830 0.359325 0.883014
0.000000 0.000000 0.000000
0.000000 0.000000 0.000000
0.000000 0.000000 0.171799
0.000000 0.000000 0.625382
0.000000 0.000000 1.000000
0.024209 0.000000 1.000000
0.069437 0.000000 1.000000
0.029015 0.000000 1.000000
0.000000 0.000000 1.000000
0.000000 0.000000 0.000000
0.000000 0.000000 0.000000
0.000000 0.000000 0.261067
0.000000 0.000000 0.815911
0.000000 0.000000 1.000000
0.000000 0.000000 1.000000
0.000000 0.000000 1.000000
0.000000 0.000000 1.000000
0.000000 0.000000 1.000000
0.000000 0.000000 0.000000
0.000000 0.000000 0.000000
0.000000 0.000000 0.539858
0.000000 0.000000 1.000000
0.000000 0.000000 1.000000
0.000000 0.000000 1.000000
0.000000 0.000000 1.000000
0.000000 0.000000 1.000000
0.000000 0.000000 1.000000
0.315770 0.281853 0.071657
0.253583 0.376266 0.079691
0.118638 0.324866 0.108743
0.000000 0.168647 0.151687
0.000000 0.000000 0.200501
0.000000 0.000000 0.246262
0.000000 0.000000 0.279145
0.000000 0.000000 0.288429
0.000000 0.000000 0.262490
0.095723 0.000000 0.118396
0.098406 0.062030 0.170758
0.059225 0.093709 0.251008
0.000000 0.055008 0.346814
0.000000 0.000000 0.444944
0.000000 0.000000 0.531266
0.000000 0.000000 0.590747
0.000000 0.000000 0.607456
0.107389 0.004102 0.564561
0.000000 0.000000 0.099671
0.010527 0.000000 0.195212
0.043557 0.075476 0.322764
0.061233 0.126023 0.464786
0.072493 0.145111 0.602836
0.092658 0.150611 0.717574
0.143431 0.165196 0.788759
0.252900 0.216345 0.795250
0.455532 0.336338 0.715005
0.000000 0.000000 0.011124
0.000000 0.000000 0.153899
0.052989 0.158668 0.330059
0.134390 0.291287 0.516853
0.205942 0.393353 0.690631
0.272743 0.466368 0.826843
0.346273 0.516639 0.900040
0.444398 0.555277 0.883870
0.591361 0.598196 0.751086
0.000000 0.000000 0.000000
0.000000 0.000000 0.061616
0.052869 0.157821 0.292891
0.184055 0.386430 0.528216
0.295018 0.576808 0.738731
0.380634 0.714090 0.894677
0.442160 0.788216 0.965395
0.487237 0.793929 0.919327
0.529887 0.730777 0.724015
0.000000 0.000000 0.000000
0.000000 0.000000 0.000000
0.000000 0.000000 0.245206
0.167850 0.173116 0.538022
0.305621 0.478235 0.791486
0.390506 0.697631 0.970628
0.413542 0.804874 1.000000
0.372146 0.778342 0.961579
0.270117 0.601214 0.698952
0.000000 0.000000 0.000000
0.000000 0.000000 0.000000
0.000000 0.000000 0.234896
0.027390 0.000000 0.599369
0.187641 0.000000 0.907195
0.260530 0.146876 1.000000
0.226867 0.317594 1.000000
0.073848 0.280590 1.000000
0.000000 0.002677 0.755006
0.000000 0.000000 0.000000
0.000000 0.000000 0.000000
0.000000 0.000000 0.323806
0.000000 0.000000 0.779301
0.000000 0.000000 1.000000
0.000000 0.000000 1.000000
0.000000 0.000000 1.000000
0.000000 0.000000 1.000000
0.000000 0.000000 0.985235
0.000000 0.000000 0.000000
0.000000 0.000000 0.000000
0.000000 0.000000 0.587727
0.000000 0.000000 1.000000
0.000000 0.000000 1.000000
0.000000 0.000000 1.000000
0.000000 0.000000 1.000000
0.000000 0.000000 1.000000
0.000000 0.000000 1.000000
0.561208 0.553082 0.114635
0.493086 0.642041 0.070007
0.380771 0.618169 0.053832
0.238197 0.517881 0.064306
0.085680 0.382399 0.098727
0.000000 0.257746 0.153489
0.000000 0.194750 0.224091
0.000000 0.249044 0.305127
0.005882 0.481065 0.390295
0.325868 0.200493 0.181114
0.299899 0.279496 0.176266
0.258603 0.293663 0.204878
0.205693 0.263041 0.259939
0.151259 0.212484 0.333535
0.111778 0.171647 0.416854
0.110108 0.174993 0.500183
0.175489 0.261786 0.572911
0.343544 0.476095 0.623525
0.192235 0.148450 0.190355
0.196678 0.214042 0.224005
0.207721 0.254207 0.293374
0.218851 0.272628 0.386240
0.229938 0.277789 0.489482
0.247235 0.282980 0.589078
0.283377 0.306294 0.670107
0.357381 0.370630 0.716749
0.494648 0.503690 0.712281
0.122556 0.234548 0.134622
0.153948 0.304366 0.210692
0.206924 0.379584 0.321988
0.264750 0.447518 0.451082
0.317072 0.500286 0.579643
0.359920 0.534808 0.688440
0.395706 0.552813 0.757343
0.433225 0.560830 0.765323
0.487655 0.570195 0.690448
0.063073 0.222418 0.020131
0.126226 0.335192 0.147743
0.219009 0.475612 0.307342
0.314462 0.614624 0.476288
0.392010 0.727980 0.631043
0.437460 0.796233 0.747166
0.443000 0.804744 0.799320
0.407203 0.743675 0.761264
0.335023 0.607995 0.605861
0.000000 0.000000 0.000000
0.052026 0.017278 0.060526
0.190765 0.274142 0.280003
0.323054 0.526892 0.497628
0.418096 0.734911 0.684654
0.451474 0.862388 0.811432
0.405155 0.878315 0.847415
0.267487 0.756487 0.761154
0.033203 0.475504 0.520302
0.000000 0.000000 0.000000
0.000000 0.000000 0.000000
0.052975 0.000000 0.284487
0.229587 0.000000 0.564822
0.342668 0.221155 0.795399
0.357579 0.454442 0.941362
0.246064 0.515789 0.966955
0.000000 0.362622 0.835520
0.000000 0.000000 0.509502
0.000000 0.000000 0.000000
0.000000 0.000000 0.000000
0.000000 0.000000 0.379261
0.000000 0.000000 0.741536
0.097058 0.000000 1.000000
0.095383 0.000000 1.000000
0.000000 0.000000 1.000000
0.000000 0.000000 1.000000
0.000000 0.000000 0.663140
0.000000 0.000000 0.000000
0.000000 0.000000 0.116141
0.000000 0.000000 0.636736
0.000000 0.000000 1.000000
0.000000 0.000000 1.000000
0.000000 0.000000 1.000000
0.000000 0.000000 1.000000
0.000000 0.000000 1.000000
0.000000 0.000000 1.000000
0.779489 0.765576 0.165887
0.687642 0.836096 0.072179
0.584930 0.829059 0.014364
0.476217 0.776302 0.000000
0.372751 0.714464 0.019578
0.292162 0.684988 0.086940
0.258461 0.734125 0.198858
0.302043 0.912925 0.355251
0.459687 1.000000 0.555133
0.524490 0.381337 0.241588
0.453064 0.399542 0.184271
0.397612 0.385373 0.165991
0.352774 0.354297 0.185053
0.319576 0.326587 0.238866
0.305424 0.327320 0.323937
0.324108 0.386376 0.435873
0.395800 0.538441 0.569381
0.547053 0.823004 0.718269
0.388926 0.358933 0.270481
0.331052 0.329015 0.248139
0.309050 0.303320 0.265227
0.307337 0.280949 0.314843
0.316716 0.265808 0.389186
0.334370 0.266606 0.479553
0.363866 0.296856 0.576344
0.415153 0.374878 0.669056
0.504563 0.523792 0.746288
0.332490 0.527243 0.241453
0.289576 0.474484 0.257873
0.295491 0.453964 0.311367
0.324430 0.448416 0.389825
0.356971 0.445379 0.480235
0.380077 0.437194 0.568688
0.387089 0.421008 0.640373
0.377735 0.398771 0.679579
0.358124 0.377238 0.669696
0.298868 0.641176 0.157340
0.280599 0.611956 0.221512
0.317176 0.634406 0.317652
0.372570 0.674894 0.428441
0.417137 0.704589 0.535661
0.427616 0.699466 0.620191
0.387126 0.640306 0.662012
0.285172 0.512690 0.640205
0.117640 0.307006 0.532950
0.215742 0.381678 0.034930
0.240081 0.443469 0.161044
0.318340 0.567779 0.311272
0.404270 0.704608 0.463086
0.458003 0.808758 0.593058
0.446054 0.839839 0.676860
0.341321 0.762260 0.689262
0.123085 0.545239 0.604137
0.000000 0.162796 0.394456
0.000000 0.000000 0.000000
0.087974 0.000000 0.112406
0.227214 0.000000 0.333367
0.356038 0.207821 0.540101
0.424353 0.449245 0.703971
0.388453 0.570761 0.795440
0.211012 0.520416 0.784070
0.000000 0.251057 0.638525
0.000000 0.000000 0.326567
0.000000 0.000000 0.000000
0.000000 0.000000 0.125482
0.000000 0.000000 0.439024
0.148374 0.000000 0.719776
0.244966 0.000000 0.933892
0.191867 0.000000 1.000000
0.000000 0.000000 1.000000
0.000000 0.000000 0.824469
0.000000 0.000000 0.415584
0.000000 0.000000 0.000000
0.000000 0.000000 0.264108
0.000000 0.000000 0.697279
0.000000 0.000000 1.000000
0.000000 0.000000 1.000000
0.000000 0.000000 1.000000
0.000000 0.000000 1.000000
0.000000 0.000000 1.000000
0.000000 0.000000 0.761760
0.976659 0.940839 0.227107
0.854187 1.000000 0.093469
0.758937 1.000000 0.003167
0.686706 1.000000 0.000000
0.639673 1.000000 0.000000
0.626399 1.000000 0.076139
0.661827 1.000000 0.238541
0.767284 1.000000 0.479459
0.970479 1.000000 0.803229
0.698475 0.495427 0.300313
0.575676 0.460825 0.200834
0.504910 0.428601 0.145971
0.471752 0.409642 0.139350
0.468156 0.419642 0.183698
0.492461 0.479098 0.280841
0.549388 0.613309 0.431708
0.650039 0.852382 0.636324
0.811902 1.000000 0.893818
0.557383 0.477596 0.339343
0.432260 0.360026 0.272474
0.377042 0.278620 0.248750
0.367078 0.227897 0.266589
0.384100 0.207185 0.323508
0.416224 0.220612 0.416125
0.457948 0.277112 0.540159
0.510153 0.390423 0.690427
0.580101 0.579086 0.860848
0.510522 0.707507 0.329707
0.389357 0.539900 0.299102
0.349024 0.433659 0.307420
0.354652 0.366938 0.347872
0.377750 0.322695 0.412766
0.396211 0.288692 0.493512
0.394309 0.257496 0.580619
0.362702 0.226477 0.663695
0.298430 0.197809 0.731451
0.499026 0.931351 0.270866
0.396374 0.767733 0.285378
0.378544 0.682100 0.331845
0.400440 0.636239 0.398266
0.423349 0.596741 0.471743
0.414940 0.535002 0.538474
0.349265 0.427219 0.583762
0.206759 0.254396 0.592005
0.000000 0.002341 0.546704
0.448021 0.821358 0.176227
0.386718 0.736846 0.249914
0.407283 0.738358 0.345837
0.454399 0.771310 0.446787
0.479130 0.785928 0.534654
0.438922 0.737238 0.590432
0.297605 0.585072 0.594210
0.025390 0.294067 0.525181
0.000000 0.000000 0.361636
0.266631 0.000000 0.073146
0.277785 0.066597 0.225269
0.360917 0.242882 0.387158
0.450483 0.433696 0.536397
0.487325 0.572892 0.649668
0.418666 0.599133 0.702753
0.198114 0.455883 0.670535
0.000000 0.091409 0.526997
0.000000 0.000000 0.245221
0.000000 0.000000 0.002929
0.000000 0.000000 0.257949
0.149115 0.000000 0.507518
0.306638 0.000000 0.724010
0.374157 0.000000 0.878898
0.288673 0.000000 0.942755
0.000000 0.000000 0.885257
0.000000 0.000000 0.675176
0.000000 0.000000 0.280386
0.000000 0.000000 0.020830
0.000000 0.000000 0.408411
0.000000 0.000000 0.772575
0.000000 0.000000 1.000000
0.049845 0.000000 1.000000
0.000000 0.000000 1.000000
0.000000 0.000000 1.000000
0.000000 0.000000 1.000000
0.000000 0.000000 0.564002
1.000000 1.000000 0.292820
1.000000 1.000000 0.133966
0.923031 1.000000 0.025896
0.900791 1.000000 0.000000
0.928460 1.000000 0.017828
1.000000 1.000000 0.143441
1.000000 1.000000 0.371059
1.000000 1.000000 0.711239
1.000000 1.000000 1.000000
0.847124 0.550287 0.350611
0.677923 0.491973 0.224844
0.601578 0.473081 0.149275
0.594592 0.499917 0.132850
0.639853 0.583596 0.183617
0.726630 0.740033 0.308720
0.850575 0.989949 0.514408
1.000000 1.000000 0.806026
1.000000 1.000000 1.000000
0.697745 0.508007 0.389063
0.511331 0.331749 0.294699
0.433615 0.225886 0.247198
0.430877 0.180359 0.250297
0.475782 0.189912 0.306834
0.547376 0.254096 0.418746
0.631090 0.377263 0.587072
0.718734 0.568571 0.811948
0.808504 0.841983 1.000000
0.657633 0.774953 0.390309
0.465157 0.521330 0.330866
0.390281 0.360492 0.312202
0.389061 0.266012 0.332845
0.423940 0.216269 0.390422
0.463741 0.194444 0.481664
0.483671 0.188524 0.602399
0.465318 0.191300 0.747556
0.396655 0.200366 0.911164
0.665365 1.000000 0.350430
0.486257 0.819285 0.334631
0.426708 0.656560 0.350775
0.432554 0.557634 0.392182
0.456014 0.484517 0.451273
0.455687 0.404024 0.519568
0.396558 0.287774 0.587686
0.249993 0.112190 0.645347
0.000000 0.000000 0.681372
0.643515 1.000000 0.279458
0.505480 0.910217 0.321224
0.482025 0.819789 0.383350
0.508761 0.782017 0.453948
0.527684 0.742543 0.520227
0.487173 0.651816 0.568500
0.341988 0.465086 0.584177
0.053272 0.142410 0.551770
0.000000 0.000000 0.454890
0.498651 0.436075 0.201371
0.437672 0.404764 0.319828
0.479352 0.481911 0.444313
0.549079 0.591986 0.557727
0.578628 0.664267 0.642072
0.506151 0.632832 0.678451
0.276189 0.436568 0.647067
0.000000 0.019162 0.527220
0.000000 0.000000 0.297314
0.121335 0.000000 0.154096
0.181672 0.000000 0.373572
0.325805 0.000000 0.581994
0.468903 0.000000 0.757054
0.532513 0.000000 0.875546
0.444569 0.000000 0.913362
0.139386 0.000000 0.845496
0.000000 0.000000 0.646042
0.000000 0.000000 0.288193
0.000000 0.000000 0.189509
0.000000 0.000000 0.539536
0.000000 0.000000 0.858676
0.167619 0.000000 1.000000
0.297007 0.000000 1.000000
0.218368 0.000000 1.000000
0.000000 0.000000 1.000000
0.000000 0.000000 0.996529
0.000000 0.000000 0.521021
1.000000 1.000000 0.350379
1.000000 1.000000 0.186591
1.000000 1.000000 0.081037
1.000000 1.000000 0.053192
1.000000 1.000000 0.121631
1.000000 1.000000 0.304030
1.000000 1.000000 0.617163
1.000000 1.000000 1.000000
1.000000 1.000000 1.000000
0.962159 0.543413 0.378634
0.762416 0.511589 0.248019
0.701110 0.558521 0.173187
0.745678 0.685935 0.168405
0.869937 0.900366 0.247039
1.000000 1.000000 0.421556
1.000000 1.000000 0.703521
1.000000 1.000000 1.000000
1.000000 1.000000 1.000000
0.802574 0.443706 0.404592
0.571712 0.258831 0.305330
0.493102 0.180872 0.256653
0.523957 0.195190 0.267617
0.627872 0.291951 0.346380
0.774825 0.466124 0.500199
0.941176 0.717482 0.735431
1.000000 1.000000 1.000000
1.000000 1.000000 1.000000
0.767219 0.719168 0.407006
0.521263 0.429467 0.342483
0.434432 0.266259 0.320595
0.453716 0.198540 0.345191
0.532488 0.200107 0.419218
0.630503 0.249562 0.544725
0.713898 0.330311 0.722861
0.755195 0.430564 0.953875
0.733296 0.543336 1.000000
0.792121 1.000000 0.378581
0.555371 0.773348 0.357384
0.477678 0.585629 0.368123
0.495811 0.488025 0.409437
0.552919 0.437968 0.479067
0.598533 0.397691 0.573852
0.588569 0.334235 0.689732
0.485325 0.219441 0.821746
0.257480 0.029957 0.964034
0.797297 1.000000 0.325971
0.602331 0.966361 0.361887
0.559414 0.835960 0.416292
0.595092 0.781719 0.482616
0.642290 0.744701 0.553390
0.640319 0.670774 0.620244
0.534870 0.510609 0.673909
0.278017 0.219682 0.704216
0.000000 0.000000 0.700097
0.686762 0.714313 0.269775
0.574434 0.610425 0.381797
0.600207 0.640266 0.496111
0.680403 0.723728 0.600937
0.737725 0.785508 0.683597
0.701259 0.755105 0.730514
0.506476 0.566824 0.727209
0.095226 0.159773 0.658305
0.000000 0.000000 0.507523
0.348523 0.000000 0.244544
0.367965 0.000000 0.456866
0.504619 0.000000 0.652532
0.664583 0.000000 0.814555
0.760338 0.151625 0.925049
0.710747 0.263015 0.965225
0.441057 0.136303 0.915397
0.000000 0.000000 0.754978
0.000000 0.000000 0.462482
0.000000 0.000000 0.298777
0.000000 0.000000 0.640795
0.161206 0.000000 0.944461
0.444465 0.000000 1.000000
0.615240 0.000000 1.000000
0.582169 0.000000 1.000000
0.260278 0.000000 1.000000
0.000000 0.000000 1.000000
0.000000 0.000000 0.655092
1.000000 1.000000 0.379963
1.000000 1.000000 0.237089
1.000000 1.000000 0.159902
1.000000 1.000000 0.173198
1.000000 1.000000 0.300871
1.000000 1.000000 0.565917
1.000000 1.000000 0.990430
1.000000 1.000000 1.000000
1.000000 1.000000 1.000000
1.000000 0.462275 0.363363
0.824181 0.528247 0.254905
0.809422 0.714600 0.207819
0.941811 1.000000 0.241693
1.000000 1.000000 0.375211
1.000000 1.000000 0.626160
1.000000 1.000000 1.000000
1.000000 1.000000 1.000000
1.000000 1.000000 1.000000
0.856846 0.268207 0.363709
0.609268 0.145889 0.287714
0.562258 0.169300 0.266028
0.663958 0.319221 0.313028
0.868897 0.581237 0.442190
1.000000 0.945738 0.666093
1.000000 1.000000 0.996412
1.000000 1.000000 1.000000
1.000000 1.000000 1.000000
0.825098 0.519708 0.356378
0.554378 0.264972 0.316097
0.489070 0.172731 0.320311
0.567097 0.207397 0.378188
0.732761 0.338190 0.497997
0.936750 0.539131 0.687105
1.000000 0.789046 0.951981
1.000000 1.000000 1.000000
1.000000 1.000000 1.000000
0.865948 0.936819 0.330698
0.601258 0.626631 0.334583
0.539885 0.487120 0.370399
0.609528 0.466332 0.442107
0.744268 0.517118 0.552766
0.884569 0.597133 0.704535
0.977277 0.668835 0.898674
0.975621 0.699488 1.000000
0.839212 0.661158 1.000000
0.896861 1.000000 0.289943
0.675649 0.898031 0.351648
0.648720 0.800728 0.429973
0.733548 0.805379 0.523668
0.853991 0.848470 0.630584
0.940290 0.871286 0.747671
0.929069 0.819921 0.870979
0.763333 0.645268 0.995660
0.392472 0.303029 1.000000
0.819295 0.778192 0.251336
0.687289 0.672375 0.389720
0.733589 0.727850 0.526661
0.865446 0.859930 0.655702
0.996497 0.988729 0.769484
1.000000 1.000000 0.859748
0.942631 0.940974 0.917337
0.616898 0.628672 0.932191
0.008725 0.041596 0.893353
0.518705 0.000000 0.246050
0.529909 0.000000 0.485172
0.696500 0.000000 0.702040
0.915509 0.191407 0.884987
1.000000 0.520415 1.000000
1.000000 0.704394 1.000000
0.953078 0.656703 1.000000
0.479707 0.295500 1.000000
0.000000 0.000000 0.819559
0.000000 0.000000 0.319207
0.081232 0.000000 0.688328
0.423456 0.000000 1.000000
0.778016 0.000000 1.000000
1.000000 0.000000 1.000000
1.000000 0.000000 1.000000
0.879522 0.000000 1.000000
0.279148 0.000000 1.000000
0.000000 0.000000 0.981320
1.000000 1.000000 0.354583
1.000000 1.000000 0.264036
1.000000 1.000000 0.246634
1.000000 1.000000 0.332492
1.000000 1.000000 0.550823
1.000000 1.000000 0.929943
1.000000 1.000000 1.000000
1.000000 1.000000 1.000000
1.000000 1.000000 1.000000
1.000000 0.284313 0.276606
0.850663 0.540495 0.222877
0.924846 0.960972 0.236113
1.000000 1.000000 0.341220
1.000000 1.000000 0.562205
1.000000 1.000000 0.922172
1.000000 1.000000 1.000000
1.000000 1.000000 1.000000
1.000000 1.000000 1.000000
0.837957 0.000000 0.237023
0.612283 0.000000 0.218024
0.640252 0.206868 0.257062
0.860940 0.589254 0.373834
1.000000 1.000000 0.587137
1.000000 1.000000 0.914867
1.000000 1.000000 1.000000
1.000000 1.000000 1.000000
1.000000 1.000000 1.000000
0.809504 0.146105 0.207833
0.553623 0.018483 0.226681
0.554204 0.091647 0.291888
0.740099 0.325430 0.417942
1.000000 0.684471 0.618430
1.000000 1.000000 0.906041
1.000000 1.000000 1.000000
1.000000 1.000000 1.000000
1.000000 1.000000 1.000000
0.865919 0.568963 0.174987
0.613878 0.365812 0.239999
0.614174 0.368817 0.336944
0.785439 0.521445 0.475098
1.000000 0.771964 0.662843
1.000000 1.000000 0.907655
1.000000 1.000000 1.000000
1.000000 1.000000 1.000000
1.000000 1.000000 1.000000
0.922116 0.860924 0.138380
0.716234 0.687952 0.263078
0.751627 0.717922 0.402531
0.936701 0.877935 0.560809
1.000000 1.000000 0.741081
1.000000 1.000000 0.945619
1.000000 1.000000 1.000000
1.000000 1.000000 1.000000
1.000000 1.000000 1.000000
0.876998 0.585377 0.111859
0.767875 0.569385 0.314966
0.882022 0.744539 0.512901
1.000000 1.000000 0.704526
1.000000 1.000000 0.887802
1.000000 1.000000 1.000000
1.000000 1.000000 1.000000
1.000000 1.000000 1.000000
1.000000 1.000000 1.000000
0.613466 0.000000 0.123219
0.659976 0.000000 0.428660
0.904812 0.000000 0.706254
1.000000 0.505061 0.949653
1.000000 0.994142 1.000000
1.000000 1.000000 1.000000
1.000000 1.000000 1.000000
1.000000 1.000000 1.000000
0.711249 0.744988 1.000000
0.000000 0.000000 0.214203
0.267710 0.000000 0.651106
0.703445 0.000000 1.000000
1.000000 0.000000 1.000000
1.000000 0.000000 1.000000
1.000000 0.251265 1.000000
1.000000 0.551049 1.000000
1.000000 0.430665 1.000000
0.413196 0.000000 1.000000
