lrplugin/MindfulLensFilmEngine.lrplugin/profiles/luts/kodachrome_v1.cube
# Generated from ColorChecker fit
LUT_3D_SIZE 5
DOMAIN_MIN 0.0 0.0 0.0
DOMAIN_MAX 1.0 1.0 1.0
0.000000 0.000000 0.087892
0.002790 0.000000 0.333332
0.244336 0.246381 0.644478
0.365843 0.129797 0.658063
0.000000 0.000000 0.000000
0.000000 0.120400 0.000000
0.000000 0.314751 0.153746
0.092072 0.481932 0.545205
0.000000 0.115825 0.615386
0.000000 0.000000 0.000000
0.000000 0.370013 0.000000
0.000000 0.650650 0.264430
0.000000 0.728467 0.782212
0.000000 0.028550 0.916243
0.000000 0.000000 0.112904
0.391513 0.707587 0.054648
0.825449 1.000000 0.753158
0.842728 1.000000 1.000000
0.000000 0.143614 1.000000
0.000000 0.000000 0.728913
1.000000 1.000000 0.974574
1.000000 1.000000 1.000000
1.000000 1.000000 1.000000
1.000000 0.639877 1.000000
0.000000 0.000000 1.000000
0.310737 0.000000 0.298743
0.184431 0.000000 0.282357
0.388269 0.143588 0.500471
0.671830 0.177425 0.695064
0.438633 0.000000 0.481238
0.281289 0.384074 0.228806
0.248115 0.320374 0.267438
0.392895 0.402846 0.521086
0.370725 0.238123 0.699990
0.000000 0.000000 0.387514
0.266282 0.579289 0.224651
0.317412 0.637710 0.363556
0.366875 0.693959 0.659238
0.000000 0.285874 0.790200
0.000000 0.000000 0.308065
1.000000 0.833776 0.379453
1.000000 1.000000 0.645787
1.000000 1.000000 0.971905
0.418053 0.625725 1.000000
0.000000 0.000000 0.263672
1.000000 1.000000 1.000000
1.000000 1.000000 1.000000
1.000000 1.000000 1.000000
1.000000 1.000000 1.000000
0.000000 0.000000 0.512787
0.566679 0.160259 0.313374
0.348965 0.025720 0.272990
0.623688 0.135163 0.561209
1.000000 0.276770 1.000000
1.000000 0.000000 1.000000
0.605815 0.578921 0.299576
0.420469 0.329250 0.275774
0.588251 0.310399 0.533585
0.794720 0.241755 0.888497
0.379385 0.000000 1.000000
0.589192 0.726367 0.251411
0.407124 0.571997 0.249937
0.411444 0.527410 0.444333
0.193233 0.243195 0.618347
0.000000 0.000000 0.428847
1.000000 0.893446 0.249358
1.000000 1.000000 0.257860
0.950922 1.000000 0.337735
0.270600 0.615543 0.240991
0.000000 0.000000 0.000000
1.000000 1.000000 0.611564
1.000000 1.000000 0.599593
1.000000 1.000000 0.495742
1.000000 1.000000 0.020281
0.000000 0.000000 0.000000
0.698718 0.172128 0.175431
0.783030 0.283682 0.605129
1.000000 0.607869 1.000000
1.000000 1.000000 1.000000
1.000000 0.716015 1.000000
0.863102 0.680112 0.194750
0.855927 0.547575 0.581432
1.000000 0.641816 1.000000
1.000000 0.794971 1.000000
1.000000 0.057317 1.000000
0.868383 0.836878 0.119130
0.720369 0.710167 0.429035
0.939791 0.716500 0.899212
1.000000 0.619221 1.000000
0.621071 0.000000 1.000000
1.000000 0.962682 0.016356
1.000000 1.000000 0.197623
1.000000 1.000000 0.387159
0.661267 0.882233 0.442216
0.000000 0.000000 0.093171
1.000000 1.000000 0.191878
1.000000 1.000000 0.174549
1.000000 1.000000 0.000000
1.000000 1.000000 0.000000
0.000000 0.000000 0.000000
0.161181 0.000000 0.105834
1.000000 0.404036 1.000000
1.000000 1.000000 1.000000
1.000000 1.000000 1.000000
1.000000 1.000000 1.000000
0.634909 0.165406 0.238030
1.000000 0.684136 1.000000
1.000000 1.000000 1.000000
1.000000 1.000000 1.000000
1.000000 1.000000 1.000000
0.813048 0.439038 0.254295
1.000000 0.811462 1.000000
1.000000 1.000000 1.000000
1.000000 1.000000 1.000000
1.000000 1.000000 1.000000
1.000000 0.620160 0.209715
1.000000 1.000000 1.000000
1.000000 1.000000 1.000000
1.000000 1.000000 1.000000
1.000000 0.547572 1.000000
1.000000 0.961654 0.397045
1.000000 1.000000 1.000000
1.000000 1.000000 1.000000
1.000000 1.000000 1.000000
0.921611 0.825207 0.478462
