lrplugin/MindfulLensFilmEngine.lrplugin/profiles/luts/leicachrome.cube
# Generated from ColorChecker fit
LUT_3D_SIZE 33
DOMAIN_MIN 0.0 0.0 0.0
DOMAIN_MAX 1.0 1.0 1.0
0.169387 0.095923 0.167544
0.128760 0.083346 0.158753
0.087916 0.068322 0.152435
0.047479 0.051638 0.148870
0.008032 0.034047 0.148296
0.000000 0.016267 0.150908
0.000000 0.000000 0.156860
0.000000 0.000000 0.166265
0.000000 0.000000 0.179193
0.000000 0.000000 0.195673
0.000000 0.000000 0.215691
0.000000 0.000000 0.239193
0.000000 0.000000 0.266082
0.000000 0.000000 0.296220
0.000000 0.000000 0.329426
0.000000 0.000000 0.365478
0.000000 0.000000 0.404112
0.000000 0.002714 0.445023
0.000000 0.032186 0.487863
0.000000 0.067909 0.532243
0.000000 0.110084 0.577731
0.000000 0.158877 0.623856
0.000000 0.214422 0.670102
0.000000 0.276815 0.715913
0.000000 0.346121 0.760691
0.029935 0.422368 0.803795
0.081399 0.505550 0.844544
0.136561 0.595627 0.882215
0.195073 0.692525 0.916041
0.256549 0.796134 0.945216
0.320561 0.906311 0.968891
0.386644 1.000000 0.986175
0.454295 1.000000 0.996136
0.209955 0.113013 0.220536
0.175526 0.104261 0.216585
0.140966 0.093165 0.215075
0.106856 0.080466 0.216256
0.073740 0.066876 0.220335
0.042122 0.053067 0.227479
0.012469 0.039681 0.237813
0.000000 0.027323 0.251418
0.000000 0.016565 0.268335
0.000000 0.007942 0.288564
0.000000 0.001958 0.312061
0.000000 0.000000 0.338743
0.000000 0.000000 0.368482
0.000000 0.004341 0.401110
0.000000 0.013243 0.436419
0.000000 0.026777 0.474154
0.000000 0.045238 0.514025
0.000000 0.068888 0.555693
0.000000 0.097952 0.598784
0.000000 0.132623 0.642877
0.000000 0.173058 0.687513
0.001121 0.219379 0.732187
0.034518 0.271675 0.776357
0.071851 0.330001 0.819436
0.112885 0.394374 0.860796
0.157348 0.464781 0.899768
0.204928 0.541172 0.935639
0.255275 0.623462 0.967658
0.308000 0.711533 0.995027
0.362674 0.805232 1.000000
0.418832 0.904371 1.000000
0.475966 1.000000 1.000000
0.533532 1.000000 1.000000
0.240817 0.128153 0.261992
0.212476 0.123404 0.262873
0.184062 0.116387 0.266148
0.156116 0.107802 0.272037
0.129142 0.098313 0.280719
0.103603 0.088552 0.292329
0.079925 0.079115 0.306962
0.058493 0.070564 0.324672
0.039655 0.063425 0.345469
0.023719 0.058192 0.369324
0.010955 0.055324 0.396162
0.001594 0.055243 0.425870
0.000000 0.058339 0.458292
0.000000 0.064967 0.493230
0.000000 0.075448 0.530445
0.001431 0.090067 0.569654
0.011184 0.109076 0.610535
0.024908 0.132691 0.652723
0.042562 0.161095 0.695811
0.064065 0.194436 0.739349
0.089299 0.232828 0.782849
0.118105 0.276349 0.825777
0.150287 0.325043 0.867559
0.185610 0.378921 0.907580
0.223799 0.437959 0.945182
0.264540 0.502096 0.979666
0.307481 0.571240 1.000000
0.352232 0.645263 1.000000
0.398363 0.724002 1.000000
0.445404 0.807260 1.000000
0.492848 0.894806 1.000000
0.540148 0.986374 1.000000
0.586720 1.000000 1.000000
0.262609 0.141549 0.292307
0.240246 0.140990 0.298014
0.217844 0.138214 0.306053
0.195903 0.133878 0.316616
0.174885 0.128603 0.329850
0.155214 0.122975 0.345862
0.137273 0.117548 0.364718
0.121409 0.112838 0.386440
0.107928 0.109329 0.411010
0.097098 0.107470 0.438368
0.089148 0.107676 0.468411
0.084267 0.110326 0.500996
0.082608 0.115766 0.535936
0.084281 0.124306 0.573004
0.089362 0.136224 0.611932
0.097884 0.151761 0.652406
0.109844 0.171124 0.694076
0.125198 0.194487 0.736545
0.143864 0.221988 0.779378
0.165721 0.253731 0.822097
0.190610 0.289786 0.864180
0.218333 0.330187 0.905066
0.248651 0.374935 0.944152
0.281289 0.423996 0.980792
0.315931 0.477303 1.000000
0.352224 0.534750 1.000000
0.389774 0.596203 1.000000
0.428150 0.661487 1.000000
0.466882 0.730398 1.000000
0.505460 0.802694 1.000000
0.543335 0.878100 1.000000
0.579921 0.956306 1.000000
0.614591 1.000000 1.000000
0.276103 0.153369 0.312038
0.259614 0.157196 0.322567
0.243093 0.158833 0.335352
0.226999 0.158892 0.350555
0.211755 0.157950 0.368295
0.197743 0.156551 0.388648
0.185307 0.155202 0.411649
0.174751 0.154378 0.437293
0.166341 0.154518 0.465532
0.160305 0.156027 0.496274
0.156831 0.159276 0.529388
0.156068 0.164600 0.564701
0.158126 0.172302 0.601997
0.163079 0.182647 0.641018
0.170957 0.195869 0.681467
0.181756 0.212166 0.723001
0.195430 0.231700 0.765239
0.211896 0.254602 0.807755
0.231031 0.280966 0.850084
0.252674 0.310852 0.891718
0.276623 0.344285 0.932107
0.302641 0.381257 0.970659
0.330449 0.421724 1.000000
0.359729 0.465608 1.000000
0.390127 0.512797 1.000000
0.421248 0.563145 1.000000
0.452658 0.616469 1.000000
0.483884 0.672554 1.000000
0.514416 0.731150 1.000000
0.543704 0.791971 1.000000
0.571158 0.854699 1.000000
0.596151 0.918980 1.000000
0.618015 0.984426 1.000000
0.282210 0.163744 0.321902
0.271493 0.172162 0.337251
0.260725 0.178392 0.354767
0.250325 0.183000 0.374580
0.240676 0.186522 0.396780
0.232117 0.189455 0.421414
0.224954 0.192264 0.448488
0.219449 0.195380 0.477966
0.215828 0.199197 0.509769
0.214277 0.204077 0.543779
0.214945 0.210347 0.579833
0.217940 0.218298 0.617728
0.223331 0.228188 0.657219
0.231150 0.240240 0.698019
0.241390 0.254643 0.739799
0.254002 0.271551 0.782189
0.268902 0.291083 0.824777
0.285966 0.313325 0.867108
0.305030 0.338327 0.908686
0.325891 0.366105 0.948975
0.348309 0.396642 0.987394
0.372005 0.429884 1.000000
0.396659 0.465744 1.000000
0.421913 0.504100 1.000000
0.447372 0.544796 1.000000
0.472600 0.587641 1.000000
0.497123 0.632410 1.000000
0.520427 0.678843 1.000000
0.541962 0.726646 1.000000
0.561135 0.775490 1.000000
0.577319 0.825013 1.000000
0.589843 0.874815 1.000000
0.598001 0.924466 1.000000
0.281981 0.172765 0.322779
0.276936 0.185990 0.342949
0.271795 0.197001 0.365181
0.266939 0.206324 0.389576
0.262707 0.214447 0.416193
0.259401 0.221827 0.445052
0.257282 0.228882 0.476126
0.256574 0.236000 0.509352
0.257462 0.243533 0.544620
0.260092 0.251796 0.581782
0.264571 0.261074 0.620647
0.270966 0.271613 0.660980
0.279308 0.283629 0.702508
0.289586 0.297299 0.744914
0.301751 0.312768 0.787839
0.315717 0.330148 0.830884
0.331358 0.349513 0.873606
0.348508 0.370904 0.915521
0.366963 0.394329 0.956104
0.386480 0.419760 0.994788
0.406778 0.447134 1.000000
0.427537 0.476355 1.000000
0.448397 0.507291 1.000000
0.468959 0.539777 1.000000
0.488787 0.573613 1.000000
0.507404 0.608564 1.000000
0.524297 0.644360 1.000000
0.538910 0.680698 1.000000
0.550652 0.717240 1.000000
0.558891 0.753614 1.000000
0.562957 0.789411 1.000000
0.562141 0.824191 1.000000
0.555695 0.857477 0.990613
0.276601 0.180488 0.315709
0.277131 0.198742 0.340702
0.277498 0.214735 0.367639
0.278037 0.228945 0.396590
0.279049 0.241818 0.427585
0.280795 0.253767 0.460612
0.283496 0.265166 0.495619
0.287335 0.276359 0.532508
0.292455 0.287653 0.571143
0.298963 0.299322 0.611345
0.306925 0.311604 0.652892
0.316367 0.324703 0.695523
0.327279 0.338789 0.738932
0.339610 0.353998 0.782773
0.353271 0.370429 0.826659
0.368134 0.388150 0.870159
0.384032 0.407193 0.912801
0.400760 0.427553 0.954073
0.418072 0.449195 0.993418
0.435685 0.472047 1.000000
0.453278 0.496002 1.000000
0.470488 0.520920 1.000000
0.486916 0.546625 1.000000
0.502123 0.572909 1.000000
0.515631 0.599526 1.000000
0.526924 0.626199 1.000000
0.535446 0.652614 1.000000
0.540602 0.678424 1.000000
0.541759 0.703246 1.000000
0.538246 0.726664 1.000000
0.529352 0.748227 1.000000
0.514326 0.767450 1.000000
0.492380 0.783812 0.931598
0.267395 0.186928 0.301893
0.273409 0.210446 0.331716
0.279162 0.231627 0.363347
0.284952 0.250907 0.396830
0.291038 0.268688 0.432164
0.297640 0.285338 0.469309
0.304939 0.301188 0.508179
0.313076 0.316538 0.548651
0.322156 0.331650 0.590557
0.332243 0.346755 0.633688
0.343363 0.362046 0.677794
0.355501 0.377685 0.722583
0.368607 0.393798 0.767719
0.382589 0.410474 0.812828
0.397317 0.427772 0.857491
0.412623 0.445714 0.901249
0.428299 0.464287 0.943601
0.444098 0.483446 0.984003
0.459737 0.503108 1.000000
0.474889 0.523158 1.000000
0.489193 0.543447 1.000000
0.502247 0.563789 1.000000
0.513609 0.583966 1.000000
0.522801 0.603724 1.000000
0.529303 0.622775 1.000000
0.532559 0.640796 1.000000
0.531973 0.657430 1.000000
0.526909 0.672287 1.000000
0.516693 0.684939 1.000000
0.500614 0.694927 1.000000
0.477918 0.701756 1.000000
0.447816 0.704895 0.941283
0.409479 0.703782 0.858843
0.255826 0.192063 0.282695
0.267233 0.221088 0.317353
0.278257 0.247675 0.353673
0.289157 0.272217 0.391667
0.300149 0.295073 0.431304
0.311414 0.316565 0.472515
0.323092 0.336982 0.515185
0.335283 0.356579 0.559160
0.348052 0.375575 0.604243
0.361421 0.394156 0.650196
0.375377 0.412472 0.696738
0.389863 0.430641 0.743547
0.404789 0.448744 0.790260
0.420023 0.466827 0.836470
0.435393 0.484906 0.881730
0.450691 0.502957 0.925552
0.465668 0.520924 0.967404
0.480038 0.538718 1.000000
0.493474 0.556213 1.000000
0.505612 0.573249 1.000000
0.516048 0.589634 1.000000
0.524339 0.605137 1.000000
0.530005 0.619496 1.000000
0.532524 0.632414 1.000000
0.531338 0.643559 1.000000
0.525849 0.652564 1.000000
0.515421 0.659029 1.000000
0.499376 0.662517 1.000000
0.477002 0.662559 1.000000
0.447544 0.658651 1.000000
0.410210 0.650254 0.949620
0.364169 0.636794 0.869776
0.308552 0.617664 0.773782
0.243495 0.195836 0.259639
0.260207 0.230618 0.299143
0.276390 0.262838 0.340146
0.292260 0.292844 0.382630
0.307995 0.320950 0.426537
0.323733 0.347435 0.471766
0.339573 0.372545 0.518173
0.355577 0.396489 0.565574
0.371767 0.419443 0.613743
0.388126 0.441550 0.662411
0.404598 0.462915 0.711269
0.421088 0.483612 0.759964
0.437464 0.503679 0.808104
0.453553 0.523118 0.855252
0.469143 0.541900 0.900932
0.483985 0.559958 0.944625
0.497791 0.577192 0.985769
0.510231 0.593468 1.000000
0.520940 0.608618 1.000000
0.529512 0.622437 1.000000
0.535503 0.634688 1.000000
0.538430 0.645098 1.000000
0.537770 0.653361 1.000000
0.532963 0.659135 1.000000
0.523409 0.662043 1.000000
0.508470 0.661677 1.000000
0.487468 0.657591 1.000000
0.459686 0.649305 1.000000
0.424370 0.636306 1.000000
0.380725 0.618046 0.957587
0.327918 0.593941 0.880779
0.265079 0.563375 0.787997
0.191295 0.525695 0.678011
0.232139 0.198147 0.234409
0.254073 0.238948 0.278771
0.275305 0.277037 0.324454
0.296010 0.312717 0.371413
0.316326 0.346259 0.419558
0.336349 0.377897 0.468759
0.356140 0.407833 0.518843
0.375718 0.436234 0.569595
0.395064 0.463231 0.620760
0.414122 0.488923 0.672040
0.432795 0.513371 0.723096
0.450947 0.536605 0.773544
0.468406 0.558618 0.822964
0.484956 0.579370 0.870889
0.500348 0.598787 0.916812
0.514290 0.616759 0.960186
0.526452 0.633142 1.000000
0.536467 0.647757 1.000000
0.543926 0.660392 1.000000
0.548385 0.670800 1.000000
0.549358 0.678698 1.000000
0.546320 0.683771 1.000000
0.538710 0.685666 1.000000
0.525926 0.684000 1.000000
0.507328 0.678353 1.000000
0.482236 0.668269 1.000000
0.449931 0.653261 1.000000
0.409658 0.632804 1.000000
0.360621 0.606342 0.966307
0.301983 0.573282 0.892971
0.232873 0.532997 0.803841
0.152377 0.484827 0.697700
0.059545 0.428075 0.573287
0.223635 0.198862 0.208853
0.250710 0.245953 0.258086
0.276884 0.290155 0.308450
0.302292 0.331729 0.359869
0.327030 0.370901 0.412222
0.351155 0.407862 0.465351
0.374686 0.442769 0.519054
0.397602 0.475746 0.573085
0.419844 0.506879 0.627160
0.441314 0.536223 0.680950
0.461875 0.563796 0.734087
0.481351 0.589584 0.786159
0.499526 0.613536 0.836714
0.516149 0.635569 0.885256
0.530926 0.655563 0.931250
0.543525 0.673365 0.974116
0.553577 0.688787 1.000000
0.560673 0.701607 1.000000
0.564365 0.711568 1.000000
0.564165 0.718379 1.000000
0.559548 0.721715 1.000000
0.549951 0.721214 1.000000
0.534769 0.716482 1.000000
0.513360 0.707090 1.000000
0.485043 0.692574 1.000000
0.449098 0.672436 1.000000
0.404767 0.646144 1.000000
0.351252 0.613130 0.977045
0.287716 0.572792 0.907617
0.213284 0.524494 0.822578
0.127041 0.467567 0.720721
0.028035 0.401303 0.600801
0.000000 0.324965 0.461528
0.219998 0.197807 0.184979
0.252135 0.251467 0.239100
0.283147 0.302038 0.294146
0.313128 0.349735 0.350011
0.342133 0.394741 0.406547
0.370179 0.437203 0.463563
0.397243 0.477235 0.520828
0.423265 0.514914 0.578067
0.448144 0.550286 0.634967
0.471742 0.583360 0.691168
0.493881 0.614111 0.746274
0.514345 0.642479 0.799841
0.532877 0.668372 0.851389
0.549185 0.691661 0.900391
0.562934 0.712183 0.946284
0.573752 0.729741 0.988457
0.581230 0.744102 1.000000
0.584916 0.755002 1.000000
0.584323 0.762139 1.000000
0.578923 0.765178 1.000000
0.568151 0.763749 1.000000
0.551399 0.757449 1.000000
0.528026 0.745838 1.000000
0.497347 0.728443 1.000000
0.458641 0.704758 1.000000
0.411148 0.674238 1.000000
0.354068 0.636309 0.991210
0.286562 0.590359 0.926123
0.207755 0.535742 0.845611
0.116728 0.471778 0.748479
0.012528 0.397754 0.633494
0.000000 0.312918 0.499378
0.000000 0.216489 0.344814
0.223378 0.194771 0.164956
0.260504 0.255290 0.223983
0.296253 0.312493 0.283715
0.330681 0.366551 0.344017
0.363801 0.417604 0.404709
0.395589 0.465755 0.465573
0.425983 0.511074 0.526347
0.454881 0.553594 0.586727
0.482142 0.593316 0.646369
0.507587 0.630206 0.704885
0.530997 0.664196 0.761847
0.552116 0.695182 0.816784
0.570647 0.723026 0.869184
0.586254 0.747556 0.918493
0.598566 0.768566 0.964114
0.607168 0.785815 1.000000
0.611609 0.799026 1.000000
0.611399 0.807889 1.000000
0.606009 0.812061 1.000000
0.594870 0.811161 1.000000
0.577376 0.804777 1.000000
0.552881 0.792460 1.000000
0.520700 0.773728 1.000000
0.480110 0.748063 1.000000
0.430348 0.714914 1.000000
0.370613 0.673696 1.000000
0.300064 0.623786 0.950038
0.217824 0.564531 0.874487
0.122973 0.495241 0.782518
0.014556 0.415192 0.672909
0.000000 0.323626 0.544395
0.000000 0.219749 0.395670
0.000000 0.102734 0.225385
0.236066 0.189505 0.151114
0.278108 0.257181 0.215068
0.318497 0.321289 0.279493
0.357248 0.381957 0.344223
0.394334 0.439279 0.409050
0.429690 0.493316 0.473724
0.463213 0.544093 0.537956
0.494760 0.591600 0.601411
0.524151 0.635794 0.663714
0.551165 0.676597 0.724450
0.575543 0.713896 0.783159
0.596987 0.747544 0.839342
0.615160 0.777360 0.892457
0.629688 0.803126 0.941919
0.640154 0.824594 0.987104
0.646107 0.841477 1.000000
0.647054 0.853456 1.000000
0.642464 0.860177 1.000000
0.631766 0.861252 1.000000
0.614353 0.856257 1.000000
0.589577 0.844735 1.000000
0.556750 0.826193 1.000000
0.515149 0.800107 1.000000
0.464008 0.765913 1.000000
0.402525 0.723018 1.000000
0.329858 0.670791 0.981052
0.245125 0.608567 0.910896
0.147408 0.535648 0.824527
0.035747 0.451300 0.720734
0.000000 0.354756 0.598264
0.000000 0.245212 0.455823
0.000000 0.121833 0.292076
0.000000 0.000000 0.105645
0.260490 0.181721 0.145945
0.307379 0.256862 0.214849
0.352313 0.328157 0.283975
0.395267 0.395691 0.353128
0.436172 0.459515 0.422069
0.474924 0.519644 0.490519
0.511379 0.576061 0.558159
0.545352 0.628711 0.624625
0.576623 0.677507 0.689512
0.604931 0.722328 0.752375
0.629976 0.763016 0.812726
0.651419 0.799381 0.870033
0.668883 0.831197 0.923727
0.681951 0.858204 0.973192
0.690170 0.880108 1.000000
0.693044 0.896579 1.000000
0.690041 0.907255 1.000000
0.680589 0.911736 1.000000
0.664077 0.909591 1.000000
0.639857 0.900353 1.000000
0.607240 0.883520 1.000000
0.565498 0.858556 1.000000
0.513866 0.824891 1.000000
0.451540 0.781921 1.000000
0.377674 0.729004 1.000000
0.291387 0.665469 0.956671
0.191757 0.590606 0.876335
0.077824 0.503673 0.778795
0.000000 0.403892 0.662811
0.000000 0.290451 0.527099
0.000000 0.162504 0.370337
0.000000 0.019171 0.191158
0.000000 0.000000 0.000000
0.299215 0.171096 0.152103
0.350885 0.254018 0.225982
0.400273 0.332791 0.299820
0.447312 0.407458 0.373391
0.491894 0.478024 0.446428
0.533873 0.544462 0.518622
0.573064 0.606708 0.589623
0.609243 0.664666 0.659039
0.642149 0.718205 0.726435
0.671478 0.767158 0.791335
0.696892 0.811325 0.853221
0.718010 0.850470 0.911534
0.734416 0.884326 0.965673
0.745651 0.912586 1.000000
0.751220 0.934914 1.000000
0.750589 0.950936 1.000000
0.743183 0.960245 1.000000
0.728392 0.962399 1.000000
0.705562 0.956921 1.000000
0.674005 0.943301 1.000000
0.632992 0.920993 1.000000
0.581754 0.889418 1.000000
0.519485 0.847961 1.000000
0.445339 0.795973 1.000000
0.358432 0.732771 1.000000
0.257842 0.657637 0.939917
0.142605 0.569820 0.849066
0.011720 0.468531 0.740006
0.000000 0.352951 0.611466
0.000000 0.222222 0.462133
0.000000 0.075456 0.290656
0.000000 0.000000 0.095637
0.000000 0.000000 0.000000
0.354944 0.157265 0.172400
0.411332 0.248294 0.251282
0.465086 0.334847 0.329845
0.516096 0.416922 0.407833
0.564214 0.494481 0.484951
0.609254 0.567452 0.560859
0.650990 0.635728 0.635176
0.689158 0.699168 0.707483
0.723455 0.757598 0.777313
0.753537 0.810807 0.844162
0.779025 0.858551 0.907482
0.799499 0.900550 0.966684
0.814499 0.936493 1.000000
0.823529 0.966030 1.000000
0.826051 0.988779 1.000000
0.821491 1.000000 1.000000
0.809234 1.000000 1.000000
0.788627 1.000000 1.000000
0.758979 1.000000 1.000000
0.719559 0.984915 1.000000
0.669597 0.956978 1.000000
0.608284 0.918611 1.000000
0.534774 0.869157 1.000000
0.448180 0.807921 1.000000
0.347577 0.734178 1.000000
0.232001 0.647165 0.933661
0.100450 0.546086 0.831962
0.000000 0.430111 0.711033
0.000000 0.298374 0.569575
0.000000 0.149975 0.406246
0.000000 0.000000 0.219662
0.000000 0.000000 0.008398
0.000000 0.000000 0.000000
0.430519 0.139827 0.209814
0.491566 0.239299 0.293728
0.549599 0.333943 0.377031
0.604469 0.423711 0.459438
0.655987 0.508521 0.540622
0.703925 0.588259 0.620215
0.748018 0.662774 0.697807
0.787959 0.731881 0.772947
0.823407 0.795360 0.845140
0.853977 0.852958 0.913853
0.879247 0.904386 0.978506
0.898758 0.949323 1.000000
0.912011 0.987409 1.000000
0.918466 1.000000 1.000000
0.917546 1.000000 1.000000
0.908637 1.000000 1.000000
0.891082 1.000000 1.000000
0.864189 1.000000 1.000000
0.827224 1.000000 1.000000
0.779417 1.000000 1.000000
0.719957 0.991258 1.000000
0.647995 0.945930 1.000000
0.562642 0.888282 1.000000
0.462973 0.817578 1.000000
0.348022 0.733046 1.000000
0.216783 0.633882 0.940934
0.068214 0.519245 0.828056
0.000000 0.388261 0.694914
0.000000 0.240020 0.540177
0.000000 0.073579 0.362476
0.000000 0.000000 0.160397
0.000000 0.000000 0.000000
0.000000 0.000000 0.000000
0.528919 0.118344 0.267480
0.594568 0.226604 0.356459
0.656798 0.329657 0.444519
0.715420 0.427412 0.531347
0.770203 0.519744 0.616586
0.820879 0.606493 0.699839
0.867143 0.687464 0.780666
0.908648 0.762430 0.858584
0.945009 0.831126 0.933072
0.975803 0.893255 1.000000
1.000000 0.948486 1.000000
1.000000 0.996450 1.000000
1.000000 1.000000 1.000000
1.000000 1.000000 1.000000
1.000000 1.000000 1.000000
1.000000 1.000000 1.000000
0.991756 1.000000 1.000000
0.958107 1.000000 1.000000
0.913331 1.000000 1.000000
0.856616 1.000000 1.000000
0.787112 1.000000 1.000000
0.703928 0.971130 1.000000
0.606136 0.905102 1.000000
0.492768 0.824717 1.000000
0.362818 0.729161 1.000000
0.215241 0.617583 0.964930
0.048953 0.489101 0.840543
0.000000 0.342794 0.694844
0.000000 0.177711 0.526472
0.000000 0.000000 0.334027
0.000000 0.000000 0.116067
0.000000 0.000000 0.000000
0.000000 0.000000 0.000000
0.653260 0.092340 0.348696
0.723458 0.209741 0.442774
0.789806 0.321532 0.535612
0.852074 0.427577 0.626867
0.909991 0.527708 0.716152
0.963250 0.621721 0.803041
1.000000 0.709377 0.887063
1.000000 0.790403 0.967709
1.000000 0.864494 1.000000
1.000000 0.931306 1.000000
1.000000 0.990464 1.000000
1.000000 1.000000 1.000000
1.000000 1.000000 1.000000
1.000000 1.000000 1.000000
1.000000 1.000000 1.000000
1.000000 1.000000 1.000000
1.000000 1.000000 1.000000
1.000000 1.000000 1.000000
1.000000 1.000000 1.000000
0.954332 1.000000 1.000000
0.874240 1.000000 1.000000
0.779265 0.993929 1.000000
0.668438 0.919344 1.000000
0.540751 0.829076 1.000000
0.395157 0.722267 1.000000
0.230570 0.598023 1.000000
0.045865 0.455416 0.872780
0.000000 0.293483 0.714182
0.000000 0.111228 0.531819
0.000000 0.000000 0.324261
0.000000 0.000000 0.090035
0.000000 0.000000 0.000000
0.000000 0.000000 0.000000
0.806799 0.061298 0.456923
0.881494 0.188204 0.556135
0.951884 0.309071 0.653773
1.000000 0.423720 0.749462
1.000000 0.531937 0.842787
1.000000 0.633475 0.933290
1.000000 0.728052 1.000000
1.000000 0.815352 1.000000
1.000000 0.895023 1.000000
1.000000 0.966679 1.000000
1.000000 1.000000 1.000000
1.000000 1.000000 1.000000
1.000000 1.000000 1.000000
1.000000 1.000000 1.000000
1.000000 1.000000 1.000000
1.000000 1.000000 1.000000
1.000000 1.000000 1.000000
1.000000 1.000000 1.000000
1.000000 1.000000 1.000000
1.000000 1.000000 1.000000
0.984656 1.000000 1.000000
0.877324 1.000000 1.000000
0.752871 0.930697 1.000000
0.610248 0.830353 1.000000
0.448366 0.712073 1.000000
0.266099 0.574918 1.000000
0.062282 0.417917 0.928283
0.000000 0.240065 0.756449
0.000000 0.040319 0.559742
0.000000 0.000000 0.336702
0.000000 0.000000 0.085828
0.000000 0.000000 0.000000
0.000000 0.000000 0.000000
0.992927 0.024667 0.595780
1.000000 0.161451 0.700166
1.000000 0.291741 0.802628
1.000000 0.415314 0.902761
1.000000 0.531915 1.000000
1.000000 0.641250 1.000000
1.000000 0.742995 1.000000
1.000000 0.836788 1.000000
1.000000 0.922234 1.000000
1.000000 0.998905 1.000000
1.000000 1.000000 1.000000
1.000000 1.000000 1.000000
1.000000 1.000000 1.000000
1.000000 1.000000 1.000000
1.000000 1.000000 1.000000
1.000000 1.000000 1.000000
1.000000 1.000000 1.000000
1.000000 1.000000 1.000000
1.000000 1.000000 1.000000
1.000000 1.000000 1.000000
1.000000 1.000000 1.000000
1.000000 1.000000 1.000000
0.862894 0.938814 1.000000
0.704720 0.828210 1.000000
0.525910 0.698248 1.000000
0.325298 0.547948 1.000000
0.101677 0.376294 1.000000
0.000000 0.182236 0.825325
0.000000 0.000000 0.613923
0.000000 0.000000 0.375037
0.000000 0.000000 0.107134
0.000000 0.000000 0.000000
0.000000 0.000000 0.000000
1.000000 0.000000 0.769050
1.000000 0.128898 0.878650
1.000000 0.268968 0.985962
1.000000 0.401798 1.000000
1.000000 0.527088 1.000000
1.000000 0.644501 1.000000
1.000000 0.753668 1.000000
1.000000 0.854185 1.000000
1.000000 0.945612 1.000000
1.000000 1.000000 1.000000
1.000000 1.000000 1.000000
1.000000 1.000000 1.000000
1.000000 1.000000 1.000000
1.000000 1.000000 1.000000
1.000000 1.000000 1.000000
1.000000 1.000000 1.000000
1.000000 1.000000 1.000000
1.000000 1.000000 1.000000
1.000000 1.000000 1.000000
1.000000 1.000000 1.000000
1.000000 1.000000 1.000000
1.000000 1.000000 1.000000
1.000000 0.943307 1.000000
0.827767 0.822268 1.000000
0.631392 0.680426 1.000000
0.411772 0.516755 1.000000
0.167659 0.330198 1.000000
0.000000 0.119658 0.924652
0.000000 0.000000 0.698206
0.000000 0.000000 0.443110
0.000000 0.000000 0.157803
0.000000 0.000000 0.000000
0.000000 0.000000 0.000000
1.000000 0.000000 0.980675
1.000000 0.089928 1.000000
1.000000 0.240144 1.000000
1.000000 0.382571 1.000000
1.000000 0.516865 1.000000
1.000000 0.642646 1.000000
1.000000 0.759500 1.000000
1.000000 0.866980 1.000000
1.000000 0.964601 1.000000
1.000000 1.000000 1.000000
1.000000 1.000000 1.000000
1.000000 1.000000 1.000000
1.000000 1.000000 1.000000
1.000000 1.000000 1.000000
1.000000 1.000000 1.000000
1.000000 1.000000 1.000000
1.000000 1.000000 1.000000
1.000000 1.000000 1.000000
1.000000 1.000000 1.000000
1.000000 1.000000 1.000000
1.000000 1.000000 1.000000
1.000000 1.000000 1.000000
1.000000 0.943753 1.000000
0.983129 0.812113 1.000000
0.768555 0.658199 1.000000
0.529266 0.480942 1.000000
0.263976 0.279239 1.000000
0.000000 0.051951 1.000000
0.000000 0.000000 0.816598
0.000000 0.000000 0.544932
0.000000 0.000000 0.241843
0.000000 0.000000 0.000000
0.000000 0.000000 0.000000
1.000000 0.000000 1.000000
1.000000 0.043883 1.000000
1.000000 0.204620 1.000000
1.000000 0.356994 1.000000
1.000000 0.500616 1.000000
1.000000 0.635064 1.000000
1.000000 0.759880 1.000000
1.000000 0.874571 1.000000
1.000000 0.978610 1.000000
1.000000 1.000000 1.000000
1.000000 1.000000 1.000000
1.000000 1.000000 1.000000
1.000000 1.000000 1.000000
1.000000 1.000000 1.000000
1.000000 1.000000 1.000000
1.000000 1.000000 1.000000
1.000000 1.000000 1.000000
1.000000 1.000000 1.000000
1.000000 1.000000 1.000000
1.000000 1.000000 1.000000
1.000000 1.000000 1.000000
1.000000 1.000000 1.000000
1.000000 0.939688 1.000000
1.000000 0.797291 1.000000
0.941277 0.631125 1.000000
0.681663 0.440075 1.000000
0.394512 0.222994 1.000000
