lrplugin/MindfulLensFilmEngine.lrplugin/profiles/luts/leicachrome.cube
# Generated from ColorChecker fit
LUT_3D_SIZE 9
DOMAIN_MIN 0.0 0.0 0.0
DOMAIN_MAX 1.0 1.0 1.0
0.169387 0.095923 0.167544
0.008032 0.034047 0.148296
0.000000 0.000000 0.179193
0.000000 0.000000 0.266082
0.000000 0.000000 0.404112
0.000000 0.110084 0.577731
0.000000 0.346121 0.760691
0.195073 0.692525 0.916041
0.454295 1.000000 0.996136
0.276103 0.153369 0.312038
0.211755 0.157950 0.368295
0.166341 0.154518 0.465532
0.158126 0.172302 0.601997
0.195430 0.231700 0.765239
0.276623 0.344285 0.932107
0.390127 0.512797 1.000000
0.514416 0.731150 1.000000
0.618015 0.984426 1.000000
0.267395 0.186928 0.301893
0.291038 0.268688 0.432164
0.322156 0.331650 0.590557
0.368607 0.393798 0.767719
0.428299 0.464287 0.943601
0.489193 0.543447 1.000000
0.529303 0.622775 1.000000
0.516693 0.684939 1.000000
0.409479 0.703782 0.858843
0.223635 0.198862 0.208853
0.327030 0.370901 0.412222
0.419844 0.506879 0.627160
0.499526 0.613536 0.836714
0.553577 0.688787 1.000000
0.559548 0.721715 1.000000
0.485043 0.692574 1.000000
0.287716 0.572792 0.907617
0.000000 0.324965 0.461528
0.260490 0.181721 0.145945
0.436172 0.459515 0.422069
0.576623 0.677507 0.689512
0.668883 0.831197 0.923727
0.690041 0.907255 1.000000
0.607240 0.883520 1.000000
0.377674 0.729004 1.000000
0.000000 0.403892 0.662811
0.000000 0.000000 0.000000
0.528919 0.118344 0.267480
0.770203 0.519744 0.616586
0.945009 0.831126 0.933072
1.000000 1.000000 1.000000
0.991756 1.000000 1.000000
0.787112 1.000000 1.000000
0.362818 0.729161 1.000000
0.000000 0.177711 0.526472
0.000000 0.000000 0.000000
1.000000 0.000000 0.769050
1.000000 0.527088 1.000000
1.000000 0.945612 1.000000
1.000000 1.000000 1.000000
1.000000 1.000000 1.000000
1.000000 1.000000 1.000000
0.631392 0.680426 1.000000
0.000000 0.000000 0.698206
0.000000 0.000000 0.000000
1.000000 0.000000 1.000000
1.000000 0.447335 1.000000
1.000000 0.989128 1.000000
1.000000 1.000000 1.000000
1.000000 1.000000 1.000000
1.000000 1.000000 1.000000
1.000000 0.560468 1.000000
0.010771 0.000000 1.000000
0.000000 0.000000 0.000000
1.000000 0.000000 1.000000
1.000000 0.236561 1.000000
1.000000 0.920127 1.000000
1.000000 1.000000 1.000000
1.000000 1.000000 1.000000
1.000000 1.000000 1.000000
1.000000 0.337245 1.000000
1.000000 0.000000 1.000000
0.000000 0.000000 1.000000
0.245113 0.224583 0.113964
0.073801 0.129272 0.029224
0.000000 0.042015 0.002347
0.000000 0.000000 0.041944
0.000000 0.031255 0.145929
0.000000 0.155477 0.301515
0.174703 0.383202 0.485218
0.416164 0.716218 0.662854
0.694889 1.000000 0.789541
0.327435 0.294548 0.261597
0.240434 0.248446 0.250179
0.189749 0.206721 0.287823
0.189122 0.195236 0.375543
0.242347 0.231023 0.503650
0.343270 0.322287 0.651760
0.475790 0.468404 0.788790
0.613856 0.659919 0.872954
0.721468 0.878550 0.851773
0.280161 0.334281 0.244460
0.270951 0.351993 0.304498
0.286200 0.363929 0.401105
0.329239 0.384707 0.527692
0.393455 0.420118 0.666974
0.462284 0.467123 0.790966
0.509214 0.513854 0.860985
0.497786 0.539613 0.827648
0.381592 0.514876 0.630873
0.189558 0.350747 0.138367
0.252396 0.449254 0.268571
0.321239 0.525354 0.419153
0.389009 0.582424 0.575928
0.438684 0.615010 0.714009
0.443290 0.608831 0.797814
0.365906 0.540775 0.781059
0.159663 0.378901 0.606762
0.000000 0.082441 0.207241
0.177189 0.341198 0.060418
0.307109 0.539856 0.260067
0.417983 0.693001 0.460212
0.492326 0.792767 0.639066
0.502704 0.822457 0.764146
0.411734 0.756545 0.792267
0.172088 0.560676 0.669547
0.000000 0.191667 0.331405
0.000000 0.000000 0.000000
0.399909 0.293172 0.168994
0.592721 0.613715 0.437943
0.734841 0.859163 0.683810
0.798374 1.000000 0.877210
0.745477 1.000000 0.978058
0.528359 0.909684 0.935573
0.089280 0.575355 0.688271
0.000000 0.000000 0.163972
0.000000 0.000000 0.000000
1.000000 0.184495 0.663759
1.000000 0.651032 1.000000
1.000000 1.000000 1.000000
1.000000 1.000000 1.000000
1.000000 1.000000 1.000000
0.989198 1.000000 1.000000
0.314292 0.576894 1.000000
0.000000 0.000000 0.308140
0.000000 0.000000 0.000000
1.000000 0.000000 1.000000
1.000000 0.622298 1.000000
1.000000 1.000000 1.000000
1.000000 1.000000 1.000000
1.000000 1.000000 1.000000
1.000000 1.000000 1.000000
1.000000 0.547666 1.000000
0.000000 0.000000 1.000000
0.000000 0.000000 0.000000
1.000000 0.000000 1.000000
1.000000 0.488288 1.000000
1.000000 1.000000 1.000000
1.000000 1.000000 1.000000
1.000000 1.000000 1.000000
1.000000 1.000000 1.000000
1.000000 0.460328 1.000000
0.818555 0.000000 1.000000
0.000000 0.000000 0.751924
0.364112 0.295779 0.142254
0.174048 0.168980 0.009594
0.049121 0.065755 0.000000
0.008958 0.019844 0.000000
0.063238 0.056156 0.059411
0.211692 0.190774 0.227540
0.444104 0.430948 0.445815
0.740307 0.775104 0.682815
1.000000 1.000000 0.896424
0.432820 0.385849 0.290703
0.314511 0.288697 0.227255
0.255679 0.212076 0.224203
0.265541 0.178480 0.285323
0.343367 0.201578 0.403694
0.478479 0.286207 0.561695
0.650251 0.428377 0.731008
0.828107 0.615267 0.872613
0.971525 0.825229 0.936795
0.355057 0.437529 0.263552
0.304480 0.388511 0.267076
0.301123 0.350502 0.318864
0.343793 0.334756 0.415096
0.421353 0.343696 0.541249
0.512715 0.370918 0.672105
0.586842 0.401187 0.771744
0.602749 0.410440 0.793548
0.509506 0.365784 0.680201
0.222988 0.462485 0.140687
0.236896 0.482462 0.209515
0.279170 0.497453 0.310783
0.338211 0.507466 0.433071
0.392469 0.503683 0.554256
0.410447 0.468454 0.641521
0.350701 0.375302 0.651347
0.161836 0.188921 0.529517
0.000000 0.000000 0.211115
0.164069 0.462671 0.043278
0.239993 0.574883 0.176316
0.318834 0.659635 0.322276
0.378582 0.705693 0.462136
0.387280 0.692996 0.566177
0.303020 0.592649 0.593980
0.073950 0.366934 0.494427
0.000000 0.000000 0.205702
0.000000 0.000000 0.000000
0.341053 0.430325 0.133779
0.477300 0.660387 0.330505
0.584418 0.834040 0.516940
0.629989 0.928807 0.666464
0.571645 0.913380 0.741755
0.357070 0.747626 0.694798
0.000000 0.382580 0.466874
0.000000 0.000000 0.000000
0.000000 0.000000 0.000000
0.951985 0.347976 0.615924
1.000000 0.723880 0.876392
1.000000 1.000000 1.000000
1.000000 1.000000 1.000000
1.000000 1.000000 1.000000
0.774528 0.927794 1.000000
0.103563 0.419027 0.775863
0.000000 0.000000 0.085862
0.000000 0.000000 0.000000
1.000000 0.188438 1.000000
1.000000 0.740552 1.000000
1.000000 1.000000 1.000000
1.000000 1.000000 1.000000
1.000000 1.000000 1.000000
1.000000 1.000000 1.000000
0.850637 0.463345 1.000000
0.000000 0.000000 0.746615
0.000000 0.000000 0.000000
1.000000 0.000000 1.000000
1.000000 0.675880 1.000000
1.000000 1.000000 1.000000
1.000000 1.000000 1.000000
1.000000 1.000000 1.000000
1.000000 1.000000 1.000000
1.000000 0.492895 1.000000
0.610618 0.000000 1.000000
0.000000 0.000000 0.524608
0.521257 0.326275 0.214534
0.308331 0.181417 0.053009
0.189880 0.079416 0.000000
0.181006 0.050646 0.000000
0.286864 0.116651 0.112606
0.502662 0.290145 0.325338
0.813657 0.575016 0.613495
1.000000 0.966319 0.948421
1.000000 1.000000 1.000000
0.590712 0.444851 0.365328
0.437125 0.307764 0.266978
0.371953 0.211123 0.243607
0.399889 0.174059 0.301757
0.515680 0.206872 0.437272
0.704123 0.311034 0.635297
0.940066 0.479188 0.870276
1.000000 0.695148 1.000000
1.000000 0.933899 1.000000
0.494120 0.515066 0.328995
0.398345 0.408117 0.291204
0.378329 0.332728 0.316626
0.428357 0.296785 0.404204
0.532764 0.299345 0.542182
0.665939 0.330638 0.708105
0.792322 0.372062 0.868820
0.866403 0.396188 0.980473
0.832727 0.366757 0.988512
0.329542 0.553286 0.189491
0.290829 0.501220 0.210216
0.308623 0.465351 0.278694
0.366799 0.442320 0.386269
0.439284 0.419943 0.513585
0.490057 0.377205 0.630587
0.473148 0.284261 0.696523
0.332638 0.102439 0.659940
0.002663 0.000000 0.458686
0.230330 0.566165 0.072057
0.248707 0.596104 0.149829
0.297742 0.620399 0.256200
0.350901 0.624449 0.374913
0.371702 0.584826 0.479014
0.313714 0.469271 0.530849
0.120559 0.236698 0.482065
0.000000 0.000000 0.273610
0.000000 0.000000 0.000000
0.365133 0.550647 0.143218
0.441403 0.692087 0.277141
0.515887 0.799566 0.416813
0.551641 0.847241 0.538379
0.501774 0.800440 0.607286
0.309444 0.615661 0.578280
0.000000 0.240574 0.395407
0.000000 0.000000 0.000000
0.000000 0.000000 0.000000
0.937891 0.493958 0.610781
1.000000 0.778773 0.800531
1.000000 0.994834 0.969487
1.000000 1.000000 1.000000
1.000000 1.000000 1.000000
0.685073 0.815484 0.983553
0.043669 0.297374 0.647798
0.000000 0.000000 0.026986
0.000000 0.000000 0.000000
1.000000 0.373615 1.000000
1.000000 0.836055 1.000000
1.000000 1.000000 1.000000
1.000000 1.000000 1.000000
1.000000 1.000000 1.000000
1.000000 1.000000 1.000000
0.771870 0.398873 1.000000
0.000000 0.000000 0.631614
0.000000 0.000000 0.000000
1.000000 0.157421 1.000000
1.000000 0.834111 1.000000
1.000000 1.000000 1.000000
1.000000 1.000000 1.000000
1.000000 1.000000 1.000000
1.000000 1.000000 1.000000
1.000000 0.527130 1.000000
0.580474 0.000000 1.000000
0.000000 0.000000 0.454088
0.691563 0.319934 0.289922
0.456348 0.181927 0.120068
0.350724 0.109824 0.050735
0.385268 0.130633 0.098831
0.560611 0.262531 0.270563
0.867437 0.514867 0.561439
1.000000 0.888161 0.956270
1.000000 1.000000 1.000000
1.000000 1.000000 1.000000
0.779708 0.476235 0.448445
0.591556 0.321808 0.333801
0.526535 0.231508 0.311971
0.584814 0.221099 0.392264
0.756617 0.297514 0.573286
1.000000 0.458859 0.842948
1.000000 0.694411 1.000000
1.000000 0.984618 1.000000
1.000000 1.000000 1.000000
0.679528 0.572388 0.407613
0.539408 0.427791 0.345189
0.509365 0.339067 0.364177
0.579158 0.310737 0.466286
0.728599 0.338490 0.642525
0.927553 0.409189 0.873203
1.000000 0.500867 1.000000
1.000000 0.582730 1.000000
1.000000 0.615151 1.000000
0.494980 0.629461 0.255456
0.404639 0.523322 0.242832
0.404724 0.458324 0.296526
0.474584 0.427745 0.410646
0.583623 0.416033 0.568600
0.691295 0.398807 0.743099
0.747105 0.342856 0.896156
0.690612 0.206142 0.979081
0.451425 0.000000 0.932490
0.365313 0.658812 0.121284
0.327275 0.622131 0.156618
0.353415 0.605386 0.239478
0.412674 0.590609 0.356374
0.464046 0.551006 0.483116
0.456574 0.450951 0.584815
0.329356 0.245991 0.615883
0.011541 0.000000 0.520033
0.000000 0.000000 0.230279
0.465070 0.662082 0.175695
0.482637 0.728240 0.257713
0.531537 0.786650 0.364774
0.570303 0.808101 0.475786
0.547519 0.754555 0.558962
0.401819 0.579145 0.571811
0.061893 0.226174 0.461147
0.000000 0.000000 0.163084
0.000000 0.000000 0.000000
1.000000 0.631202 0.630566
1.000000 0.835954 0.758570
1.000000 0.998797 0.885438
1.000000 1.000000 0.982480
1.000000 1.000000 1.000000
0.740753 0.787202 0.918831
0.159214 0.289592 0.647266
0.000000 0.000000 0.124124
0.000000 0.000000 0.000000
1.000000 0.548388 1.000000
1.000000 0.929866 1.000000
1.000000 1.000000 1.000000
1.000000 1.000000 1.000000
1.000000 1.000000 1.000000
1.000000 1.000000 1.000000
0.871113 0.432720 1.000000
0.000000 0.000000 0.660328
0.000000 0.000000 0.000000
1.000000 0.386146 1.000000
1.000000 0.984857 1.000000
1.000000 1.000000 1.000000
1.000000 1.000000 1.000000
1.000000 1.000000 1.000000
1.000000 1.000000 1.000000
1.000000 0.642321 1.000000
0.764572 0.000000 1.000000
0.000000 0.000000 0.542161
0.830187 0.267723 0.324534
0.577940 0.172960 0.168369
0.496176 0.170912 0.133449
0.590950 0.285220 0.239443
0.858369 0.530694 0.495326
1.000000 0.913318 0.899371
1.000000 1.000000 1.000000
1.000000 1.000000 1.000000
1.000000 1.000000 1.000000
0.958545 0.471783 0.500021
0.741224 0.334096 0.389175
0.687528 0.287979 0.392230
0.793104 0.345830 0.521258
1.000000 0.511216 0.777633
1.000000 0.778877 1.000000
1.000000 1.000000 1.000000
1.000000 1.000000 1.000000
1.000000 1.000000 1.000000
0.873600 0.602094 0.463228
0.694671 0.451615 0.394334
0.665914 0.385085 0.428304
0.772565 0.403658 0.569611
0.989911 0.499658 0.812028
1.000000 0.656582 1.000000
1.000000 0.849097 1.000000
1.000000 1.000000 1.000000
1.000000 1.000000 1.000000
0.685202 0.684428 0.306255
0.548910 0.553665 0.276520
0.542739 0.492753 0.334918
0.641516 0.491603 0.478322
0.810119 0.531297 0.692905
1.000000 0.584087 0.954144
1.000000 0.613397 1.000000
1.000000 0.573821 1.000000
1.000000 0.411126 1.000000
0.538498 0.734842 0.162486
0.449863 0.658679 0.169690
0.464702 0.631794 0.246601
0.547433 0.632853 0.382493
0.652525 0.631695 0.555940
0.724498 0.589330 0.734818
0.697925 0.457937 0.876304
0.497428 0.180869 0.926876
0.037685 0.000000 0.822313
0.613926 0.759679 0.206587
0.578746 0.775378 0.249084
0.613798 0.813303 0.339167
0.673088 0.840880 0.458511
0.700677 0.816702 0.578091
0.630676 0.690537 0.658184
0.387248 0.403321 0.648367
0.000000 0.000000 0.487519
0.000000 0.000000 0.103819
1.000000 0.755572 0.654509
1.000000 0.902769 0.731224
1.000000 1.000000 0.829711
1.000000 1.000000 0.924045
1.000000 1.000000 0.977602
0.941631 0.896221 0.943058
0.454942 0.460436 0.762393
0.000000 0.000000 0.366885
0.000000 0.000000 0.000000
1.000000 0.709438 1.000000
1.000000 1.000000 1.000000
1.000000 1.000000 1.000000
1.000000 1.000000 1.000000
1.000000 1.000000 1.000000
1.000000 1.000000 1.000000
1.000000 0.630461 1.000000
0.000000 0.000000 0.826219
0.000000 0.000000 0.000000
1.000000 0.598483 1.000000
1.000000 1.000000 1.000000
1.000000 1.000000 1.000000
1.000000 1.000000 1.000000
1.000000 1.000000 1.000000
1.000000 1.000000 1.000000
1.000000 0.904857 1.000000
1.000000 0.000000 1.000000
0.000000 0.000000 0.787626
0.872426 0.147712 0.271483
0.613085 0.144069 0.152509
0.570900 0.263714 0.178753
0.747400 0.526922 0.372650
1.000000 0.945138 0.745939
1.000000 1.000000 1.000000
1.000000 1.000000 1.000000
1.000000 1.000000 1.000000
1.000000 1.000000 1.000000
1.000000 0.410381 0.477022
0.829692 0.334995 0.391548
0.803179 0.382386 0.444313
0.977686 0.561584 0.650153
1.000000 0.872793 1.000000
1.000000 1.000000 1.000000
1.000000 1.000000 1.000000
1.000000 1.000000 1.000000
1.000000 1.000000 1.000000
1.000000 0.583888 0.456658
0.811277 0.470773 0.400941
0.799805 0.473447 0.472791
0.965089 0.589697 0.679445
1.000000 0.808482 1.000000
1.000000 1.000000 1.000000
1.000000 1.000000 1.000000
1.000000 1.000000 1.000000
1.000000 1.000000 1.000000
0.846250 0.698704 0.306561
0.674366 0.584251 0.277434
0.678077 0.572121 0.361507
0.827686 0.648860 0.558417
1.000000 0.792182 0.857103
1.000000 0.970975 1.000000
1.000000 1.000000 1.000000
1.000000 1.000000 1.000000
1.000000 1.000000 1.000000
0.699509 0.775589 0.164187
0.570776 0.698563 0.159054
0.590592 0.703920 0.249060
0.718851 0.766961 0.426242
0.905497 0.854158 0.671939
1.000000 0.923155 0.956793
1.000000 0.922765 1.000000
1.000000 0.792973 1.000000
0.886651 0.464935 1.000000
0.764907 0.825588 0.208273
0.687620 0.827132 0.225113
0.725239 0.884642 0.315335
0.827250 0.962176 0.463378
0.933186 1.000000 0.642981
0.972636 0.989399 0.817188
0.865237 0.823059 0.938339
0.520679 0.444683 0.948078
0.000000 0.000000 0.777350
1.000000 0.850034 0.658842
1.000000 0.973668 0.696205
1.000000 1.000000 0.781499
1.000000 1.000000 0.891565
1.000000 1.000000 0.992543
1.000000 1.000000 1.000000
0.915739 0.861768 0.978305
0.234127 0.239470 0.741875
0.000000 0.000000 0.253931
1.000000 0.840547 1.000000
1.000000 1.000000 1.000000
1.000000 1.000000 1.000000
1.000000 1.000000 1.000000
1.000000 1.000000 1.000000
1.000000 1.000000 1.000000
1.000000 1.000000 1.000000
0.568682 0.185586 1.000000
0.000000 0.000000 0.287849
1.000000 0.779033 1.000000
1.000000 1.000000 1.000000
1.000000 1.000000 1.000000
1.000000 1.000000 1.000000
1.000000 1.000000 1.000000
1.000000 1.000000 1.000000
1.000000 1.000000 1.000000
1.000000 0.281574 1.000000
0.000000 0.000000 1.000000
0.733718 0.000000 0.080881
0.481907 0.071907 0.024081
0.499701 0.376366 0.139724
0.784107 0.855359 0.453010
1.000000 1.000000 0.978442
1.000000 1.000000 1.000000
1.000000 1.000000 1.000000
1.000000 1.000000 1.000000
1.000000 1.000000 1.000000
1.000000 0.258018 0.333413
0.780663 0.301977 0.296367
0.801874 0.503682 0.425149
1.000000 0.868798 0.737361
1.000000 1.000000 1.000000
1.000000 1.000000 1.000000
1.000000 1.000000 1.000000
1.000000 1.000000 1.000000
1.000000 1.000000 1.000000
1.000000 0.484573 0.345719
0.816511 0.463552 0.324309
0.843004 0.593922 0.458420
1.000000 0.870105 0.758052
1.000000 1.000000 1.000000
1.000000 1.000000 1.000000
1.000000 1.000000 1.000000
1.000000 1.000000 1.000000
1.000000 1.000000 1.000000
0.904305 0.639911 0.218042
0.711872 0.594182 0.208726
0.746287 0.687013 0.340926
0.973328 0.901582 0.617046
1.000000 1.000000 1.000000
1.000000 1.000000 1.000000
1.000000 1.000000 1.000000
1.000000 1.000000 1.000000
1.000000 1.000000 1.000000
0.778109 0.749492 0.091909
0.624461 0.721703 0.091714
0.670216 0.813167 0.215340
0.870742 0.995817 0.457589
1.000000 1.000000 0.802565
1.000000 1.000000 1.000000
1.000000 1.000000 1.000000
1.000000 1.000000 1.000000
1.000000 1.000000 1.000000
0.851357 0.829063 0.150128
0.747286 0.864240 0.156658
0.808575 0.992885 0.265617
0.980184 1.000000 0.464208
1.000000 1.000000 0.728937
1.000000 1.000000 1.000000
1.000000 1.000000 1.000000
1.000000 1.000000 1.000000
0.870227 0.908267 1.000000
1.000000 0.884660 0.616793
1.000000 1.000000 0.628223
1.000000 1.000000 0.716996
1.000000 1.000000 0.862717
1.000000 1.000000 1.000000
1.000000 1.000000 1.000000
1.000000 1.000000 1.000000
1.000000 1.000000 1.000000
0.138818 0.313866 0.982760
1.000000 0.912602 1.000000
1.000000 1.000000 1.000000
1.000000 1.000000 1.000000
1.000000 1.000000 1.000000
1.000000 1.000000 1.000000
1.000000 1.000000 1.000000
1.000000 1.000000 1.000000
1.000000 1.000000 1.000000
0.011261 0.000000 0.921026
1.000000 0.899498 1.000000
1.000000 1.000000 1.000000
1.000000 1.000000 1.000000
1.000000 1.000000 1.000000
1.000000 1.000000 1.000000
1.000000 1.000000 1.000000
1.000000 1.000000 1.000000
1.000000 1.000000 1.000000
0.791886 0.000000 1.000000
0.309643 0.000000 0.000000
0.084668 0.000000 0.000000
0.187526 0.484109 0.000000
0.610699 1.000000 0.432079
1.000000 1.000000 1.000000
1.000000 1.000000 1.000000
1.000000 1.000000 1.000000
1.000000 1.000000 1.000000
1.000000 1.000000 1.000000
0.723598 0.000000 0.020154
0.497981 0.199614 0.056075
0.592141 0.627922 0.288664
0.988151 1.000000 0.738289
1.000000 1.000000 1.000000
1.000000 1.000000 1.000000
1.000000 1.000000 1.000000
1.000000 1.000000 1.000000
1.000000 1.000000 1.000000
0.833101 0.258057 0.085226
0.617798 0.395341 0.120735
0.707621 0.723382 0.342968
1.000000 1.000000 0.764693
1.000000 1.000000 1.000000
1.000000 1.000000 1.000000
1.000000 1.000000 1.000000
1.000000 1.000000 1.000000
1.000000 1.000000 1.000000
0.765692 0.462771 0.000000
0.572437 0.549664 0.030544
0.663059 0.815116 0.234808
0.998814 1.000000 0.617325
1.000000 1.000000 1.000000
1.000000 1.000000 1.000000
1.000000 1.000000 1.000000
1.000000 1.000000 1.000000
1.000000 1.000000 1.000000
0.684203 0.612089 0.000000
0.525507 0.695122 0.000000
0.622844 0.938039 0.110927
0.927060 1.000000 0.443502
1.000000 1.000000 0.916268
1.000000 1.000000 1.000000
1.000000 1.000000 1.000000
1.000000 1.000000 1.000000
1.000000 1.000000 1.000000
0.786762 0.726460 0.000000
0.675913 0.854539 0.011574
0.786656 1.000000 0.159351
1.000000 1.000000 0.431823
1.000000 1.000000 0.808259
1.000000 1.000000 1.000000
1.000000 1.000000 1.000000
1.000000 1.000000 1.000000
1.000000 1.000000 1.000000
1.000000 0.816620 0.498585
1.000000 1.000000 0.498986
1.000000 1.000000 0.609392
1.000000 1.000000 0.812172
1.000000 1.000000 1.000000
1.000000 1.000000 1.000000
1.000000 1.000000 1.000000
1.000000 1.000000 1.000000
1.000000 1.000000 1.000000
1.000000 0.883590 1.000000
1.000000 1.000000 1.000000
1.000000 1.000000 1.000000
1.000000 1.000000 1.000000
1.000000 1.000000 1.000000
1.000000 1.000000 1.000000
1.000000 1.000000 1.000000
1.000000 1.000000 1.000000
1.000000 1.000000 1.000000
1.000000 0.918681 1.000000
1.000000 1.000000 1.000000
1.000000 1.000000 1.000000
1.000000 1.000000 1.000000
1.000000 1.000000 1.000000
1.000000 1.000000 1.000000
1.000000 1.000000 1.000000
1.000000 1.000000 1.000000
1.000000 1.000000 1.000000
