lrplugin/MindfulLensFilmEngine.lrplugin/profiles/luts/leicachrome.cube
# Generated from ColorChecker fit
LUT_3D_SIZE 5
DOMAIN_MIN 0.0 0.0 0.0
DOMAIN_MAX 1.0 1.0 1.0
0.169387 0.095923 0.167544
0.000000 0.000000 0.179193
0.000000 0.000000 0.404112
0.000000 0.346121 0.760691
0.454295 1.000000 0.996136
0.267395 0.186928 0.301893
0.322156 0.331650 0.590557
0.428299 0.464287 0.943601
0.529303 0.622775 1.000000
0.409479 0.703782 0.858843
0.260490 0.181721 0.145945
0.576623 0.677507 0.689512
0.690041 0.907255 1.000000
0.377674 0.729004 1.000000
0.000000 0.000000 0.000000
1.000000 0.000000 0.769050
1.000000 0.945612 1.000000
1.000000 1.000000 1.000000
0.631392 0.680426 1.000000
0.000000 0.000000 0.000000
1.000000 0.000000 1.000000
1.000000 0.920127 1.000000
1.000000 1.000000 1.000000
1.000000 0.337245 1.000000
0.000000 0.000000 1.000000
0.364112 0.295779 0.142254
0.049121 0.065755 0.000000
0.063238 0.056156 0.059411
0.444104 0.430948 0.445815
1.000000 1.000000 0.896424
0.355057 0.437529 0.263552
0.301123 0.350502 0.318864
0.421353 0.343696 0.541249
0.586842 0.401187 0.771744
0.509506 0.365784 0.680201
0.164069 0.462671 0.043278
0.318834 0.659635 0.322276
0.387280 0.692996 0.566177
0.073950 0.366934 0.494427
0.000000 0.000000 0.000000
0.951985 0.347976 0.615924
1.000000 1.000000 1.000000
1.000000 1.000000 1.000000
0.103563 0.419027 0.775863
0.000000 0.000000 0.000000
1.000000 0.000000 1.000000
1.000000 1.000000 1.000000
1.000000 1.000000 1.000000
1.000000 0.492895 1.000000
0.000000 0.000000 0.524608
0.691563 0.319934 0.289922
0.350724 0.109824 0.050735
0.560611 0.262531 0.270563
1.000000 0.888161 0.956270
1.000000 1.000000 1.000000
0.679528 0.572388 0.407613
0.509365 0.339067 0.364177
0.728599 0.338490 0.642525
1.000000 0.500867 1.000000
1.000000 0.615151 1.000000
0.365313 0.658812 0.121284
0.353415 0.605386 0.239478
0.464046 0.551006 0.483116
0.329356 0.245991 0.615883
0.000000 0.000000 0.230279
1.000000 0.631202 0.630566
1.000000 0.998797 0.885438
1.000000 1.000000 1.000000
0.159214 0.289592 0.647266
0.000000 0.000000 0.000000
1.000000 0.386146 1.000000
1.000000 1.000000 1.000000
1.000000 1.000000 1.000000
1.000000 0.642321 1.000000
0.000000 0.000000 0.542161
0.872426 0.147712 0.271483
0.570900 0.263714 0.178753
1.000000 0.945138 0.745939
1.000000 1.000000 1.000000
1.000000 1.000000 1.000000
1.000000 0.583888 0.456658
0.799805 0.473447 0.472791
1.000000 0.808482 1.000000
1.000000 1.000000 1.000000
1.000000 1.000000 1.000000
0.699509 0.775589 0.164187
0.590592 0.703920 0.249060
0.905497 0.854158 0.671939
1.000000 0.922765 1.000000
0.886651 0.464935 1.000000
1.000000 0.850034 0.658842
1.000000 1.000000 0.781499
1.000000 1.000000 0.992543
0.915739 0.861768 0.978305
0.000000 0.000000 0.253931
1.000000 0.779033 1.000000
1.000000 1.000000 1.000000
1.000000 1.000000 1.000000
1.000000 1.000000 1.000000
0.000000 0.000000 1.000000
0.309643 0.000000 0.000000
0.187526 0.484109 0.000000
1.000000 1.000000 1.000000
1.000000 1.000000 1.000000
1.000000 1.000000 1.000000
0.833101 0.258057 0.085226
0.707621 0.723382 0.342968
1.000000 1.000000 1.000000
1.000000 1.000000 1.000000
1.000000 1.000000 1.000000
0.684203 0.612089 0.000000
0.622844 0.938039 0.110927
1.000000 1.000000 0.916268
1.000000 1.000000 1.000000
1.000000 1.000000 1.000000
1.000000 0.816620 0.498585
1.000000 1.000000 0.609392
1.000000 1.000000 1.000000
1.000000 1.000000 1.000000
1.000000 1.000000 1.000000
1.000000 0.918681 1.000000
1.000000 1.000000 1.000000
1.000000 1.000000 1.000000
1.000000 1.000000 1.000000
1.000000 1.000000 1.000000
