lrplugin/MindfulLensFilmEngine.lrplugin/profiles/luts/neo_max.cube
# Generated from ColorChecker fit
LUT_3D_SIZE 33
DOMAIN_MIN 0.0 0.0 0.0
DOMAIN_MAX 1.0 1.0 1.0
0.265237 0.000000 0.000000
0.259816 0.000000 0.000000
0.255009 0.000000 0.036805
0.250820 0.000000 0.093108
0.247249 0.000000 0.141490
0.244297 0.000000 0.182772
0.241965 0.000000 0.217729
0.240252 0.008349 0.247090
0.239156 0.032020 0.271542
0.238676 0.053816 0.291726
0.238807 0.073862 0.308239
0.239547 0.092287 0.321633
0.240891 0.109216 0.332415
0.242833 0.124776 0.341049
0.245366 0.139093 0.347952
0.248484 0.152292 0.353499
0.252180 0.164499 0.358019
0.256443 0.175841 0.361797
0.261266 0.186441 0.365073
0.266637 0.196426 0.368041
0.272546 0.205921 0.370854
0.278980 0.215049 0.373618
0.285927 0.223936 0.376393
0.293374 0.232707 0.379199
0.301307 0.241485 0.382006
0.309709 0.250395 0.384743
0.318566 0.259560 0.387295
0.327861 0.269105 0.389498
0.337577 0.279152 0.391149
0.347695 0.289825 0.391996
0.358195 0.301248 0.391745
0.369059 0.313543 0.390056
0.380266 0.326833 0.386546
0.259816 0.000000 0.000000
0.254702 0.000000 0.041496
0.250203 0.000000 0.101892
0.246322 0.000000 0.153803
0.243059 0.000000 0.198081
0.240417 0.000000 0.235536
0.238395 0.015248 0.266931
0.236991 0.039771 0.292985
0.236205 0.062335 0.314374
0.236033 0.083065 0.331727
0.236473 0.102089 0.345630
0.237521 0.119534 0.356624
0.239170 0.135525 0.365206
0.241417 0.150189 0.371826
0.244255 0.163652 0.376893
0.247675 0.176040 0.380769
0.251671 0.187478 0.383773
0.256233 0.198092 0.386177
0.261351 0.208007 0.388211
0.267016 0.217349 0.390059
0.273216 0.226242 0.391861
0.279938 0.234811 0.393713
0.287171 0.243180 0.395664
0.294900 0.251475 0.397720
0.303111 0.259818 0.399845
0.311788 0.268336 0.401953
0.320916 0.277150 0.403918
0.330479 0.286385 0.405567
0.340457 0.296164 0.406683
0.350833 0.306611 0.407006
0.361588 0.317849 0.406229
0.372701 0.330001 0.404001
0.384152 0.343189 0.399927
0.255009 0.000000 0.036805
0.250203 0.000000 0.101892
0.246012 0.000000 0.157900
0.242440 0.000000 0.205713
0.239488 0.000000 0.246176
0.237155 0.019847 0.280084
0.235443 0.045307 0.308191
0.234349 0.068724 0.331204
0.233872 0.090222 0.349788
0.234009 0.109930 0.364561
0.234757 0.127974 0.376097
0.236111 0.144481 0.384928
0.238067 0.159577 0.391537
0.240619 0.173387 0.396366
0.243759 0.186039 0.399810
0.247481 0.197657 0.402221
0.251776 0.208369 0.403907
0.256635 0.218297 0.405129
0.262048 0.227570 0.406106
0.268005 0.236310 0.407010
0.274494 0.244643 0.407971
0.281503 0.252695 0.409072
0.289019 0.260589 0.410352
0.297028 0.268449 0.411808
0.305515 0.276401 0.413388
0.314466 0.284567 0.414999
0.323863 0.293072 0.416502
0.333690 0.302040 0.417714
0.343928 0.311593 0.418406
0.354560 0.321856 0.418306
0.365566 0.332950 0.417098
0.376925 0.345000 0.414418
0.388617 0.358128 0.409862
0.250820 0.000000 0.093108
0.246322 0.000000 0.153803
0.242440 0.000000 0.205713
0.239178 0.000000 0.249715
0.236535 0.022146 0.286638
0.234513 0.048629 0.317269
0.233110 0.072983 0.342350
0.232326 0.095334 0.362577
0.232158 0.115810 0.378603
0.232604 0.134538 0.391035
0.233659 0.151645 0.400438
0.235320 0.167256 0.407329
0.237581 0.181498 0.412184
0.240436 0.194498 0.415431
0.243879 0.206380 0.417455
0.247901 0.217272 0.418597
0.252494 0.227298 0.419153
0.257648 0.236584 0.419373
0.263355 0.245255 0.419466
0.269603 0.253437 0.419591
0.276380 0.261253 0.419868
0.283673 0.268829 0.420369
0.291471 0.276289 0.421123
0.299757 0.283758 0.422112
0.308519 0.291359 0.423277
0.317740 0.299216 0.424512
0.327403 0.307454 0.425667
0.337492 0.316196 0.426547
0.347988 0.325566 0.426914
0.358872 0.335686 0.426483
0.370126 0.346679 0.424927
0.381728 0.358669 0.421872
0.393657 0.371778 0.416901
0.247249 0.000000 0.141490
0.243059 0.000000 0.198081
0.239488 0.000000 0.246176
0.236535 0.022146 0.286638
0.234203 0.049736 0.320288
0.232490 0.075112 0.347900
0.231398 0.098401 0.370206
0.230923 0.119730 0.387890
0.231064 0.139226 0.401594
0.231818 0.157017 0.411915
0.233180 0.173228 0.419405
0.235147 0.187986 0.424571
0.237712 0.201417 0.427877
0.240870 0.213648 0.429741
0.244613 0.224804 0.430537
0.248934 0.235011 0.430593
0.253824 0.244394 0.430196
0.259273 0.253080 0.429584
0.265271 0.261192 0.428953
0.271807 0.268856 0.428455
0.278870 0.276197 0.428195
0.286446 0.283340 0.428236
0.294522 0.290408 0.428594
0.303085 0.297527 0.429242
0.312118 0.304819 0.430109
0.321607 0.312410 0.431077
0.331533 0.320423 0.431986
0.341881 0.328981 0.432630
0.352632 0.338208 0.432759
0.363766 0.348227 0.432077
0.375264 0.359161 0.430246
0.387105 0.371133 0.426881
0.399269 0.384265 0.421553
0.244297 0.000000 0.182772
0.240417 0.000000 0.235536
0.237155 0.019847 0.280084
0.234513 0.048629 0.317269
0.232490 0.075112 0.347900
0.231088 0.099423 0.372741
0.230305 0.121690 0.392511
0.230139 0.142039 0.407884
0.230588 0.160598 0.419491
0.231649 0.177493 0.427918
0.233318 0.192851 0.433705
0.235589 0.206798 0.437350
0.238458 0.219461 0.439302
0.241917 0.230965 0.439971
0.245960 0.241436 0.439718
0.250578 0.251001 0.438863
0.255763 0.259784 0.437677
0.261504 0.267910 0.436391
0.267792 0.275506 0.435188
0.274615 0.282695 0.434209
0.281962 0.289603 0.433548
0.289818 0.296354 0.433257
0.298171 0.303073 0.433341
0.307007 0.309883 0.433761
0.316309 0.316909 0.434436
0.326062 0.324275 0.435236
0.336250 0.332105 0.435990
0.346853 0.340521 0.436482
0.357855 0.349647 0.436448
0.369236 0.359607 0.435584
0.380975 0.370523 0.433539
0.393052 0.382518 0.429918
0.405446 0.395715 0.424281
0.241965 0.000000 0.217729
0.238395 0.015248 0.266931
0.235443 0.045307 0.308191
0.233110 0.072983 0.342350
0.231398 0.098401 0.370206
0.230305 0.121690 0.392511
0.229831 0.142977 0.409974
0.229973 0.162388 0.423258
0.230730 0.180052 0.432982
0.232097 0.196094 0.439721
0.234071 0.210641 0.444004
0.236646 0.223820 0.446317
0.239817 0.235756 0.447101
0.243576 0.246576 0.446751
0.247917 0.256405 0.445619
0.252831 0.265369 0.444013
0.258309 0.273593 0.442194
0.264341 0.281203 0.440380
0.270916 0.288324 0.438745
0.278024 0.295080 0.437416
0.285652 0.301597 0.436479
0.293786 0.307998 0.435973
0.302413 0.314409 0.435893
0.311519 0.320953 0.436188
0.321087 0.327755 0.436765
0.331102 0.334938 0.437485
0.341547 0.342625 0.438164
0.352403 0.350941 0.438575
0.363653 0.360009 0.438445
0.375276 0.369951 0.437457
0.387253 0.380891 0.435249
0.399562 0.392951 0.431415
0.412182 0.406254 0.425503
0.240252 0.008349 0.247090
0.236991 0.039771 0.292985
0.234349 0.068724 0.331204
0.232326 0.095334 0.362577
0.230923 0.119730 0.387890
0.230139 0.142039 0.407884
0.229973 0.162388 0.423258
0.230423 0.180905 0.434662
0.231487 0.197716 0.442706
0.233159 0.212947 0.447952
0.235437 0.226726 0.450920
0.238315 0.239178 0.452082
0.241786 0.250430 0.451870
0.245843 0.260607 0.450667
0.250480 0.269836 0.448814
0.255688 0.278241 0.446607
0.261457 0.285949 0.444298
0.267777 0.293084 0.442092
0.274638 0.299772 0.440153
0.282028 0.306138 0.438596
0.289934 0.312305 0.437497
0.298344 0.318399 0.436881
0.307242 0.324544 0.436735
0.316615 0.330863 0.436996
0.326447 0.337482 0.437560
0.336720 0.344524 0.438275
0.347419 0.352111 0.438949
0.358525 0.360369 0.439341
0.370019 0.369419 0.439169
0.381881 0.379386 0.438102
0.394091 0.390391 0.435770
0.406628 0.402558 0.431755
0.419470 0.416009 0.425593
0.239156 0.032020 0.271542
0.236205 0.062335 0.314374
0.233872 0.090222 0.349788
0.232158 0.115810 0.378603
0.231064 0.139226 0.401594
0.230588 0.160598 0.419491
0.230730 0.180052 0.432982
0.231487 0.197716 0.442706
0.232855 0.213716 0.449261
0.234832 0.228178 0.453199
0.237412 0.241231 0.455026
0.240591 0.252999 0.455208
0.244360 0.263608 0.454160
0.248715 0.273185 0.452259
0.253646 0.281856 0.449832
0.259145 0.289745 0.447165
0.265203 0.296978 0.444497
0.271810 0.303681 0.442024
0.278954 0.309978 0.439897
0.286623 0.315994 0.438223
0.294805 0.321854 0.437062
0.303487 0.327682 0.436433
0.312654 0.333603 0.436308
0.322290 0.339740 0.436615
0.332382 0.346218 0.437238
0.342911 0.353159 0.438015
0.353860 0.360689 0.438740
0.365211 0.368930 0.439164
0.376945 0.378005 0.438992
0.389042 0.388037 0.437883
0.401482 0.399149 0.435455
0.414243 0.411464 0.431278
0.427303 0.425104 0.424880
0.238676 0.053816 0.291726
0.236033 0.083065 0.331727
0.234009 0.109930 0.364561
0.232604 0.134538 0.391035
0.231818 0.157017 0.411915
0.231649 0.177493 0.427918
0.232097 0.196094 0.439721
0.233159 0.212947 0.447952
0.234832 0.228178 0.453199
0.237112 0.241915 0.456000
0.239993 0.254283 0.456854
0.243470 0.265409 0.456212
0.247536 0.275418 0.454481
0.252185 0.284437 0.452024
0.257409 0.292591 0.449159
0.263198 0.300006 0.446159
0.269542 0.306807 0.443254
0.276432 0.313119 0.440627
0.283856 0.319067 0.438419
0.291802 0.324776 0.436725
0.300257 0.330370 0.435595
0.309208 0.335974 0.435036
0.318640 0.341712 0.435009
0.328537 0.347709 0.435431
0.338885 0.354087 0.436174
0.349666 0.360971 0.437066
0.360861 0.368484 0.437890
0.372454 0.376749 0.438384
0.384425 0.385890 0.438244
0.396753 0.396030 0.437118
0.409418 0.407291 0.434610
0.422398 0.419795 0.430282
0.435671 0.433667 0.423649
0.238807 0.073862 0.308239
0.236473 0.102089 0.345630
0.234757 0.127974 0.376097
0.233659 0.151645 0.400438
0.233180 0.173228 0.419405
0.233318 0.192851 0.433705
0.234071 0.210641 0.444004
0.235437 0.226726 0.450920
0.237412 0.241231 0.455026
0.239993 0.254283 0.456854
0.243173 0.266009 0.456889
0.246947 0.276534 0.455570
0.251308 0.285985 0.453294
0.256250 0.294488 0.450414
0.261763 0.302168 0.447235
0.267839 0.309150 0.444020
0.274467 0.315561 0.440987
0.281638 0.321524 0.438309
0.289339 0.327165 0.436115
0.297559 0.332608 0.434489
0.306284 0.337979 0.433470
0.315500 0.343401 0.433053
0.325194 0.348998 0.433189
0.335349 0.354895 0.433783
0.345949 0.361216 0.434697
0.356977 0.368083 0.435746
0.368416 0.375621 0.436704
0.380246 0.383953 0.437298
0.392449 0.393202 0.437210
0.405004 0.403490 0.436079
0.417889 0.414941 0.433498
0.431084 0.427677 0.429017
0.444566 0.441820 0.422140
0.239547 0.092287 0.321633
0.237521 0.119534 0.356624
0.236111 0.144481 0.384928
0.235320 0.167256 0.407329
0.235147 0.187986 0.424571
0.235589 0.206798 0.437350
0.236646 0.223820 0.446317
0.238315 0.239178 0.452082
0.240591 0.252999 0.455208
0.243470 0.265409 0.456212
0.246947 0.276534 0.455570
0.251016 0.286502 0.453711
0.255670 0.295437 0.451019
0.260901 0.303465 0.447836
0.266702 0.310713 0.444456
0.273061 0.317304 0.441132
0.279971 0.323366 0.438070
0.287419 0.329022 0.435432
0.295395 0.334398 0.433336
0.303885 0.339617 0.431853
0.312877 0.344806 0.431014
0.322356 0.350087 0.430801
0.332307 0.355586 0.431154
0.342715 0.361425 0.431967
0.353564 0.367730 0.433091
0.364836 0.374622 0.434331
0.376514 0.382227 0.435447
0.388577 0.390667 0.436156
0.401008 0.400064 0.436130
0.413784 0.410543 0.434996
0.426886 0.422226 0.432336
0.440291 0.435234 0.427689
0.453976 0.449691 0.420548
0.240891 0.109216 0.332415
0.239170 0.135525 0.365206
0.238067 0.159577 0.391537
0.237581 0.181498 0.412184
0.237712 0.201417 0.427877
0.238458 0.219461 0.439302
0.239817 0.235756 0.447101
0.241786 0.250430 0.451870
0.244360 0.263608 0.454160
0.247536 0.275418 0.454481
0.251308 0.285985 0.453294
0.255670 0.295437 0.451019
0.260614 0.303897 0.448029
0.266133 0.311494 0.444652
0.272217 0.318351 0.441175
0.278859 0.324594 0.437837
0.286046 0.330348 0.434833
0.293769 0.335739 0.432315
0.302016 0.340891 0.430388
0.310773 0.345929 0.429115
0.320027 0.350977 0.428513
0.329765 0.356160 0.428555
0.339971 0.361601 0.429168
0.350629 0.367424 0.430235
0.361722 0.373754 0.431597
0.373234 0.380714 0.433047
0.385145 0.388426 0.434334
0.397438 0.397015 0.435165
0.410091 0.406604 0.435199
0.423085 0.417314 0.434053
0.436398 0.429269 0.431298
0.450008 0.442592 0.426461
0.463891 0.457404 0.419024
0.242833 0.124776 0.341049
0.241417 0.150189 0.371826
0.240619 0.173387 0.396366
0.240436 0.194498 0.415431
0.240870 0.213648 0.429741
0.241917 0.230965 0.439971
0.243576 0.246576 0.446751
0.245843 0.260607 0.450667
0.248715 0.273185 0.452259
0.252185 0.284437 0.452024
0.256250 0.294488 0.450414
0.260901 0.303465 0.447836
0.266133 0.311494 0.444652
0.271936 0.318699 0.441182
0.278302 0.325208 0.437698
0.285222 0.331144 0.434429
0.292684 0.336633 0.431560
0.300679 0.341801 0.429230
0.309192 0.346771 0.427535
0.318213 0.351668 0.426526
0.327727 0.356618 0.426208
0.337719 0.361743 0.426543
0.348175 0.367168 0.427447
0.359078 0.373017 0.428794
0.370412 0.379414 0.430410
0.382159 0.386482 0.432080
0.394300 0.394344 0.433541
0.406817 0.403124 0.434487
0.419689 0.412944 0.434569
0.432895 0.423928 0.433391
0.446414 0.436197 0.430513
0.460223 0.449875 0.425450
0.474300 0.465083 0.417675
0.245366 0.139093 0.347952
0.244255 0.163652 0.376893
0.243759 0.186039 0.399810
0.243879 0.206380 0.417455
0.244613 0.224804 0.430537
0.245960 0.241436 0.439718
0.247917 0.256405 0.445619
0.250480 0.269836 0.448814
0.253646 0.281856 0.449832
0.257409 0.292591 0.449159
0.261763 0.302168 0.447235
0.266702 0.310713 0.444456
0.272217 0.318351 0.441175
0.278302 0.325208 0.437698
0.284947 0.331409 0.434287
0.292141 0.337080 0.431160
0.299875 0.342346 0.428491
0.308137 0.347332 0.426408
0.316915 0.352161 0.424995
0.326195 0.356960 0.424292
0.335964 0.361852 0.424293
0.346207 0.366962 0.424949
0.356909 0.372413 0.426166
0.368053 0.378330 0.427804
0.379623 0.384835 0.429681
0.391600 0.392052 0.431569
0.403967 0.400106 0.433194
0.416703 0.409118 0.434241
0.429788 0.419211 0.434346
0.443201 0.430509 0.433104
0.456921 0.443134 0.430064
0.470925 0.457208 0.424730
0.485189 0.472854 0.416563
0.248484 0.152292 0.353499
0.247675 0.176040 0.380769
0.247481 0.197657 0.402221
0.247901 0.217272 0.418597
0.248934 0.235011 0.430593
0.250578 0.251001 0.438863
0.252831 0.265369 0.444013
0.255688 0.278241 0.446607
0.259145 0.289745 0.447165
0.263198 0.300006 0.446159
0.267839 0.309150 0.444020
0.273061 0.317304 0.441132
0.278859 0.324594 0.437837
0.285222 0.331144 0.434429
0.292141 0.337080 0.431160
0.299608 0.342528 0.428237
0.307609 0.347612 0.425822
0.316135 0.352457 0.424032
0.325173 0.357189 0.422940
0.334709 0.361930 0.422574
0.344729 0.366807 0.422919
0.355218 0.371942 0.423914
0.366162 0.377461 0.425452
0.377542 0.383486 0.427385
0.389343 0.390141 0.429517
0.401546 0.397550 0.431610
0.414133 0.405835 0.433379
0.427083 0.415121 0.434497
0.440376 0.425529 0.434591
0.453991 0.437183 0.433243
0.467906 0.450204 0.429991
0.482098 0.464716 0.424328
0.496544 0.480841 0.415704
0.252180 0.164499 0.358019
0.251671 0.187478 0.383773
0.251776 0.208369 0.403907
0.252494 0.227298 0.419153
0.253824 0.244394 0.430196
0.255763 0.259784 0.437677
0.258309 0.273593 0.442194
0.261457 0.285949 0.444298
0.265203 0.296978 0.444497
0.269542 0.306807 0.443254
0.274467 0.315561 0.440987
0.279971 0.323366 0.438070
0.286046 0.330348 0.434833
0.292684 0.336633 0.431560
0.299875 0.342346 0.428491
0.307609 0.347612 0.425822
0.315875 0.352556 0.423703
0.324661 0.357303 0.422242
0.333954 0.361977 0.421499
0.343742 0.366703 0.421492
0.354009 0.371606 0.422194
0.364740 0.376809 0.423532
0.375920 0.382436 0.425391
0.387533 0.388611 0.427608
0.399560 0.395457 0.429979
0.411984 0.403098 0.432253
0.424785 0.411658 0.434135
0.437944 0.421258 0.435286
0.451440 0.432022 0.435322
0.465251 0.444073 0.433813
0.479356 0.457532 0.430288
0.493731 0.472523 0.424229
0.508353 0.489168 0.415072
0.256443 0.175841 0.361797
0.256233 0.198092 0.386177
0.256635 0.218297 0.405129
0.257648 0.236584 0.419373
0.259273 0.253080 0.429584
0.261504 0.267910 0.436391
0.264341 0.281203 0.440380
0.267777 0.293084 0.442092
0.271810 0.303681 0.442024
0.276432 0.313119 0.440627
0.281638 0.321524 0.438309
0.287419 0.329022 0.435432
0.293769 0.335739 0.432315
0.300679 0.341801 0.429230
0.308137 0.347332 0.426408
0.316135 0.352457 0.424032
0.324661 0.357303 0.422242
0.333703 0.361992 0.421133
0.343248 0.366651 0.420756
0.353282 0.371404 0.421117
0.363791 0.376373 0.422178
0.374760 0.381685 0.423855
0.386172 0.387462 0.426020
0.398011 0.393829 0.428503
0.410260 0.400908 0.431084
0.422899 0.408823 0.433504
0.435910 0.417697 0.435457
0.449272 0.427653 0.436590
0.462965 0.438815 0.436511
0.476967 0.451304 0.434778
0.491256 0.465242 0.430907
0.505807 0.480753 0.424370
0.520599 0.497959 0.414594
0.261266 0.186441 0.365073
0.261351 0.208007 0.388211
0.262048 0.227570 0.406106
0.263355 0.245255 0.419466
0.265271 0.261192 0.428953
0.267792 0.275506 0.435188
0.270916 0.288324 0.438745
0.274638 0.299772 0.440153
0.278954 0.309978 0.439897
0.283856 0.319067 0.438419
0.289339 0.327165 0.436115
0.295395 0.334398 0.433336
0.302016 0.340891 0.430388
0.309192 0.346771 0.427535
0.316915 0.352161 0.424995
0.325173 0.357189 0.422940
0.333954 0.361977 0.421499
0.343248 0.366651 0.420756
0.353040 0.371336 0.420751
0.363316 0.376156 0.421478
0.374063 0.381235 0.422889
0.385264 0.386696 0.424888
0.396903 0.392665 0.427337
0.408964 0.399264 0.430052
0.421429 0.406617 0.432806
0.434278 0.414847 0.435326
0.447493 0.424078 0.437294
0.461053 0.434431 0.438350
0.474937 0.446031 0.438086
0.489123 0.458999 0.436052
0.503590 0.473458 0.431753
0.518312 0.489531 0.424649
0.533267 0.507338 0.414154
0.266637 0.196426 0.368041
0.267016 0.217349 0.390059
0.268005 0.236310 0.407010
0.269603 0.253437 0.419591
0.271807 0.268856 0.428455
0.274615 0.282695 0.434209
0.278024 0.295080 0.437416
0.282028 0.306138 0.438596
0.286623 0.315994 0.438223
0.291802 0.324776 0.436725
0.297559 0.332608 0.434489
0.303885 0.339617 0.431853
0.310773 0.345929 0.429115
0.318213 0.351668 0.426526
0.326195 0.356960 0.424292
0.334709 0.361930 0.422574
0.343742 0.366703 0.421492
0.353282 0.371404 0.421117
0.363316 0.376156 0.421478
0.373830 0.381084 0.422559
0.384809 0.386313 0.424299
0.396238 0.391967 0.426592
0.408099 0.398168 0.429289
0.420376 0.405041 0.432195
0.433051 0.412709 0.435071
0.446105 0.421296 0.437633
0.459518 0.430924 0.439553
0.473270 0.441716 0.440459
0.487339 0.453795 0.439931
0.501704 0.467284 0.437510
0.516342 0.482304 0.432687
0.531228 0.498978 0.424913
0.546340 0.517429 0.413590
0.272546 0.205921 0.370854
0.273216 0.226242 0.391861
0.274494 0.244643 0.407971
0.276380 0.261253 0.419868
0.278870 0.276197 0.428195
0.281962 0.289603 0.433548
0.285652 0.301597 0.436479
0.289934 0.312305 0.437497
0.294805 0.321854 0.437062
0.300257 0.330370 0.435595
0.306284 0.337979 0.433470
0.312877 0.344806 0.431014
0.320027 0.350977 0.428513
0.327727 0.356618 0.426208
0.335964 0.361852 0.424293
0.344729 0.366807 0.422919
0.354009 0.371606 0.422194
0.363791 0.376373 0.422178
0.374063 0.381235 0.422889
0.384809 0.386313 0.424299
0.396016 0.391734 0.426337
0.407666 0.397620 0.428886
0.419744 0.404095 0.431785
0.432232 0.411284 0.434827
0.445112 0.419308 0.437764
0.458364 0.428292 0.440300
0.471969 0.438359 0.442096
0.485907 0.449631 0.442767
0.500155 0.462230 0.441886
0.514692 0.476280 0.438978
0.529495 0.491903 0.433526
0.544539 0.509221 0.424968
0.559801 0.528355 0.412698
0.278980 0.215049 0.373618
0.279938 0.234811 0.393713
0.281503 0.252695 0.409072
0.283673 0.268829 0.420369
0.286446 0.283340 0.428236
0.289818 0.296354 0.433257
0.293786 0.307998 0.435973
0.298344 0.318399 0.436881
0.303487 0.327682 0.436433
0.309208 0.335974 0.435036
0.315500 0.343401 0.433053
0.322356 0.350087 0.430801
0.329765 0.356160 0.428555
0.337719 0.361743 0.426543
0.346207 0.366962 0.424949
0.355218 0.371942 0.423914
0.364740 0.376809 0.423532
0.374760 0.381685 0.423855
0.385264 0.386696 0.424888
0.396238 0.391967 0.426592
0.407666 0.397620 0.428886
0.419533 0.403780 0.431640
0.431822 0.410571 0.434683
0.444515 0.418115 0.437798
0.457593 0.426538 0.440724
0.471039 0.435960 0.443154
0.484830 0.446507 0.444738
0.498947 0.458299 0.445081
0.513368 0.471460 0.443743
0.528071 0.486113 0.440239
0.543031 0.502379 0.434042
0.558227 0.520381 0.424577
0.573631 0.540240 0.411226
0.285927 0.223936 0.376393
0.287171 0.243180 0.395664
0.289019 0.260589 0.410352
0.291471 0.276289 0.421123
0.294522 0.290408 0.428594
0.298171 0.303073 0.433341
0.302413 0.314409 0.435893
0.307242 0.324544 0.436735
0.312654 0.333603 0.436308
0.318640 0.341712 0.435009
0.325194 0.348998 0.433189
0.332307 0.355586 0.431154
0.339971 0.361601 0.429168
0.348175 0.367168 0.427447
0.356909 0.372413 0.426166
0.366162 0.377461 0.425452
0.375920 0.382436 0.425391
0.386172 0.387462 0.426020
0.396903 0.392665 0.427337
0.408099 0.398168 0.429289
0.419744 0.404095 0.431785
0.431822 0.410571 0.434683
0.444316 0.417718 0.437802
0.457208 0.425660 0.440913
0.470479 0.434521 0.443744
0.484111 0.444424 0.445977
0.498082 0.455491 0.447252
0.512372 0.467845 0.447160
0.526959 0.481609 0.445253
0.541820 0.496905 0.441033
0.556933 0.513855 0.433962
0.572272 0.532582 0.423454
0.587812 0.553207 0.408880
0.293374 0.232707 0.379199
0.294900 0.251475 0.397720
0.297028 0.268449 0.411808
0.299757 0.283758 0.422112
0.303085 0.297527 0.429242
0.307007 0.309883 0.433761
0.311519 0.320953 0.436188
0.316615 0.330863 0.436996
0.322290 0.339740 0.436615
0.328537 0.347709 0.435431
0.335349 0.354895 0.433783
0.342715 0.361425 0.431967
0.350629 0.367424 0.430235
0.359078 0.373017 0.428794
0.368053 0.378330 0.427804
0.377542 0.383486 0.427385
0.387533 0.388611 0.427608
0.398011 0.393829 0.428503
0.408964 0.399264 0.430052
0.420376 0.405041 0.432195
0.432232 0.411284 0.434827
0.444515 0.418115 0.437798
0.457208 0.425660 0.440913
0.470293 0.434041 0.443933
0.483751 0.443382 0.446575
0.497562 0.453805 0.448510
0.511707 0.465434 0.449364
0.526163 0.478391 0.448722
0.540909 0.492798 0.446120
0.555922 0.508779 0.441053
0.571179 0.526454 0.432969
0.586655 0.545947 0.421271
0.602324 0.567379 0.405321
0.301307 0.241485 0.382006
0.303110 0.259818 0.399845
0.305515 0.276401 0.413388
0.308519 0.291359 0.423277
0.312118 0.304819 0.430109
0.316309 0.316909 0.434436
0.321087 0.327755 0.436765
0.326447 0.337482 0.437560
0.332382 0.346218 0.437238
0.338885 0.354087 0.436174
0.345949 0.361216 0.434697
0.353564 0.367730 0.433091
0.361722 0.373754 0.431597
0.370412 0.379414 0.430410
0.379623 0.384835 0.429681
0.389343 0.390141 0.429517
0.399560 0.395457 0.429979
0.410260 0.400908 0.431084
0.421429 0.406617 0.432806
0.433051 0.412709 0.435071
0.445112 0.419308 0.437764
0.457593 0.426538 0.440724
0.470479 0.434521 0.443744
0.483751 0.443382 0.446575
0.497389 0.453243 0.448921
0.511374 0.464228 0.450444
0.525685 0.476460 0.450759
0.540301 0.490060 0.449438
0.555199 0.505152 0.446007
0.570357 0.521858 0.439949
0.585750 0.540300 0.430701
0.601355 0.560599 0.417657
0.617145 0.582878 0.400164
0.309709 0.250395 0.384743
0.311788 0.268336 0.401953
0.314466 0.284567 0.414999
0.317740 0.299216 0.424512
0.321607 0.312410 0.431077
0.326062 0.324275 0.435236
0.331102 0.334938 0.437485
0.336720 0.344524 0.438275
0.342911 0.353159 0.438015
0.349666 0.360971 0.437066
0.356977 0.368083 0.435746
0.364836 0.374622 0.434331
0.373234 0.380714 0.433047
0.382159 0.386482 0.432080
0.391600 0.392052 0.431569
0.401546 0.397550 0.431610
0.411984 0.403098 0.432253
0.422899 0.408823 0.433504
0.434278 0.414847 0.435326
0.446105 0.421296 0.437633
0.458364 0.428292 0.440300
0.471039 0.435960 0.443154
0.484111 0.444424 0.445977
0.497562 0.453805 0.448510
0.511374 0.464228 0.450444
0.525525 0.475816 0.451431
0.539996 0.488691 0.451074
0.554764 0.502976 0.448934
0.569807 0.518794 0.444528
0.585103 0.536266 0.437325
0.600626 0.555514 0.426752
0.616352 0.576661 0.412192
0.632256 0.599828 0.392982
0.318566 0.259560 0.387295
0.320916 0.277150 0.403918
0.323863 0.293072 0.416502
0.327403 0.307454 0.425667
0.331533 0.320423 0.431986
0.336250 0.332105 0.435990
0.341547 0.342625 0.438164
0.347419 0.352111 0.438949
0.353860 0.360689 0.438740
0.360861 0.368484 0.437890
0.368416 0.375621 0.436704
0.376514 0.382227 0.435447
0.385145 0.388426 0.434334
0.394300 0.394344 0.433541
0.403967 0.400106 0.433194
0.414133 0.405835 0.433379
0.424785 0.411658 0.434135
0.435910 0.417697 0.435457
0.447493 0.424078 0.437294
0.459518 0.430924 0.439553
0.471969 0.438359 0.442096
0.484830 0.446507 0.444738
0.498082 0.455491 0.447252
0.511707 0.465434 0.449364
0.525685 0.476460 0.450759
0.539996 0.488691 0.451074
0.554619 0.502251 0.449903
