lrplugin/MindfulLensFilmEngine.lrplugin/profiles/luts/neo_max.cube
# Generated from ColorChecker fit
LUT_3D_SIZE 5
DOMAIN_MIN 0.0 0.0 0.0
DOMAIN_MAX 1.0 1.0 1.0
0.265237 0.000000 0.000000
0.239156 0.032020 0.271542
0.252180 0.164499 0.358019
0.301307 0.241485 0.382006
0.380266 0.326833 0.386546
0.239156 0.032020 0.271542
0.232855 0.213716 0.449261
0.265203 0.296978 0.444497
0.332382 0.346218 0.437238
0.427303 0.425104 0.424880
0.252180 0.164499 0.358019
0.265203 0.296978 0.444497
0.315875 0.352556 0.423703
0.399560 0.395457 0.429979
0.508353 0.489168 0.415072
0.301307 0.241485 0.382006
0.332382 0.346218 0.437238
0.399560 0.395457 0.429979
0.497389 0.453243 0.448921
0.617145 0.582878 0.400164
0.380266 0.326833 0.386546
0.427303 0.425104 0.424880
0.508353 0.489168 0.415072
0.617145 0.582878 0.400164
0.744141 0.769353 0.240609
0.239156 0.032020 0.271542
0.232855 0.213716 0.449261
0.265203 0.296978 0.444497
0.332382 0.346218 0.437238
0.427303 0.425104 0.424880
0.232855 0.213716 0.449261
0.246243 0.335398 0.490524
0.297551 0.380241 0.439733
0.382145 0.412469 0.431226
0.492119 0.495567 0.416753
0.265203 0.296978 0.444497
0.297551 0.380241 0.439733
0.366547 0.408133 0.402910
0.466738 0.444696 0.422720
0.589403 0.553231 0.405263
0.332382 0.346218 0.437238
0.382145 0.412469 0.431226
0.466738 0.444696 0.422720
0.579892 0.506756 0.454763
0.712067 0.661765 0.387807
0.427303 0.425104 0.424880
0.492119 0.495567 0.416753
0.589403 0.553231 0.405263
0.712067 0.661765 0.387807
0.849754 0.884103 0.179186
0.252180 0.164499 0.358019
0.265203 0.296978 0.444497
0.315875 0.352556 0.423703
0.399560 0.395457 0.429979
0.508353 0.489168 0.415072
0.265203 0.296978 0.444497
0.297551 0.380241 0.439733
0.366547 0.408133 0.402910
0.466738 0.444696 0.422720
0.589403 0.553231 0.405263
0.315875 0.352556 0.423703
0.366547 0.408133 0.402910
0.452322 0.429749 0.394837
0.566930 0.481259 0.442531
0.700830 0.625780 0.406440
0.399560 0.395457 0.429979
0.466738 0.444696 0.422720
0.566930 0.481259 0.442531
0.693046 0.568816 0.486806
0.834731 0.770300 0.370350
0.508353 0.489168 0.415072
0.589403 0.553231 0.405263
0.700830 0.625780 0.406440
0.834731 0.770300 0.370350
0.979930 1.000000 0.066147
0.301307 0.241485 0.382006
0.332382 0.346218 0.437238
0.399560 0.395457 0.429979
0.497389 0.453243 0.448921
0.617145 0.582878 0.400164
0.332382 0.346218 0.437238
0.382145 0.412469 0.431226
0.466738 0.444696 0.422720
0.579892 0.506756 0.454763
0.712067 0.661765 0.387807
0.399560 0.395457 0.429979
0.466738 0.444696 0.422720
0.566930 0.481259 0.442531
0.693046 0.568816 0.486806
0.834731 0.770300 0.370350
0.497389 0.453243 0.448921
0.579892 0.506756 0.454763
0.693046 0.568816 0.486806
0.828945 0.702910 0.496798
0.976415 0.971783 0.253894
0.617145 0.582878 0.400164
0.712067 0.661765 0.387807
0.834731 0.770300 0.370350
0.976415 0.971783 0.253894
1.000000 1.000000 0.000000
0.380266 0.326833 0.386546
0.427303 0.425104 0.424880
0.508353 0.489168 0.415072
0.617145 0.582878 0.400164
0.744141 0.769353 0.240609
0.427303 0.425104 0.424880
0.492119 0.495567 0.416753
0.589403 0.553231 0.405263
0.712067 0.661765 0.387807
0.849754 0.884103 0.179186
0.508353 0.489168 0.415072
0.589403 0.553231 0.405263
0.700830 0.625780 0.406440
0.834731 0.770300 0.370350
0.979930 1.000000 0.066147
0.617145 0.582878 0.400164
0.712067 0.661765 0.387807
0.834731 0.770300 0.370350
0.976415 0.971783 0.253894
1.000000 1.000000 0.000000
0.744141 0.769353 0.240609
0.849754 0.884103 0.179186
0.979930 1.000000 0.066147
1.000000 1.000000 0.000000
1.000000 1.000000 0.000000
