lrplugin/MindfulLensFilmEngine.lrplugin/profiles/luts/neo_max.cube
# Generated from ColorChecker fit
LUT_3D_SIZE 9
DOMAIN_MIN 0.0 0.0 0.0
DOMAIN_MAX 1.0 1.0 1.0
0.265237 0.000000 0.000000
0.247249 0.000000 0.141490
0.239156 0.032020 0.271542
0.240891 0.109216 0.332415
0.252180 0.164499 0.358019
0.272546 0.205921 0.370854
0.301307 0.241485 0.382006
0.337577 0.279152 0.391149
0.380266 0.326833 0.386546
0.247249 0.000000 0.141490
0.234203 0.049736 0.320288
0.231064 0.139226 0.401594
0.237712 0.201417 0.427877
0.253824 0.244394 0.430196
0.278870 0.276197 0.428195
0.312118 0.304819 0.430109
0.352632 0.338208 0.432759
0.399269 0.384265 0.421553
0.239156 0.032020 0.271542
0.231064 0.139226 0.401594
0.232855 0.213716 0.449261
0.244360 0.263608 0.454160
0.265203 0.296978 0.444497
0.294805 0.321854 0.437062
0.332382 0.346218 0.437238
0.376945 0.378005 0.438992
0.427303 0.425104 0.424880
0.240891 0.109216 0.332415
0.237712 0.201417 0.427877
0.244360 0.263608 0.454160
0.260614 0.303897 0.448029
0.286046 0.330348 0.434833
0.320027 0.350977 0.428513
0.361722 0.373754 0.431597
0.410091 0.406604 0.435199
0.463891 0.457404 0.419024
0.252180 0.164499 0.358019
0.253824 0.244394 0.430196
0.265203 0.296978 0.444497
0.286046 0.330348 0.434833
0.315875 0.352556 0.423703
0.354009 0.371606 0.422194
0.399560 0.395457 0.429979
0.451440 0.432022 0.435322
0.508353 0.489168 0.415072
0.272546 0.205921 0.370854
0.278870 0.276197 0.428195
0.294805 0.321854 0.437062
0.320027 0.350977 0.428513
0.354009 0.371606 0.422194
0.396016 0.391734 0.426337
0.445112 0.419308 0.437764
0.500155 0.462230 0.441886
0.559801 0.528355 0.412698
0.301307 0.241485 0.382006
0.312118 0.304819 0.430109
0.332382 0.346218 0.437238
0.361722 0.373754 0.431597
0.399560 0.395457 0.429979
0.445112 0.419308 0.437764
0.497389 0.453243 0.448921
0.555199 0.505152 0.446007
0.617145 0.582878 0.400164
0.337577 0.279152 0.391149
0.352632 0.338208 0.432759
0.376945 0.378005 0.438992
0.410091 0.406604 0.435199
0.451440 0.432022 0.435322
0.500155 0.462230 0.441886
0.555199 0.505152 0.446007
0.615327 0.568666 0.427388
0.679092 0.660604 0.354322
0.380266 0.326833 0.386546
0.399269 0.384265 0.421553
0.427303 0.425104 0.424880
0.463891 0.457404 0.419024
0.508353 0.489168 0.415072
0.559801 0.528355 0.412698
0.617145 0.582878 0.400164
0.679092 0.660604 0.354322
0.744141 0.769353 0.240609
0.247249 0.000000 0.141490
0.234203 0.049736 0.320288
0.231064 0.139226 0.401594
0.237712 0.201417 0.427877
0.253824 0.244394 0.430196
0.278870 0.276197 0.428195
0.312118 0.304819 0.430109
0.352632 0.338208 0.432759
0.399269 0.384265 0.421553
0.234203 0.049736 0.320288
0.226113 0.155583 0.442310
0.227925 0.228717 0.482899
0.239467 0.277258 0.481672
0.260364 0.309280 0.466832
0.290037 0.332812 0.455172
0.327701 0.355836 0.452073
0.372370 0.386287 0.451504
0.422850 0.432055 0.436020
0.231064 0.139226 0.401594
0.227925 0.228717 0.482899
0.234647 0.288205 0.496928
0.251009 0.325799 0.480444
0.276583 0.349562 0.458798
0.310740 0.367511 0.445930
0.352645 0.387616 0.444367
0.401259 0.417801 0.445225
0.455337 0.465944 0.428207
0.237712 0.201417 0.427877
0.239467 0.277258 0.481672
0.251009 0.325799 0.480444
0.272065 0.355138 0.458104
0.302158 0.373325 0.437152
0.340606 0.388367 0.428672
0.386524 0.408221 0.432341
0.438821 0.440801 0.436420
0.496203 0.493973 0.417759
0.253824 0.244394 0.430196
0.260364 0.309280 0.466832
0.276583 0.349562 0.458798
0.302158 0.373325 0.437152
0.336559 0.388610 0.421539
0.379055 0.403409 0.420193
0.428707 0.425670 0.429936
0.484376 0.463293 0.436176
0.544714 0.524135 0.412911
0.278870 0.276197 0.428195
0.290037 0.332812 0.455172
0.310740 0.367511 0.445930
0.340606 0.388367 0.428672
0.379055 0.403409 0.420193
0.425302 0.420618 0.425872
0.478360 0.447930 0.439678
0.537036 0.493236 0.444167
0.599934 0.564378 0.410484
0.312118 0.304819 0.430109
0.327701 0.355836 0.452073
0.352645 0.387616 0.444367
0.386524 0.408221 0.432341
0.428707 0.425670 0.429936
0.478360 0.447930 0.439678
0.534443 0.482928 0.452684
0.595712 0.538541 0.448656
0.660721 0.622601 0.395887
0.352632 0.338208 0.432759
0.372370 0.386287 0.451504
0.401259 0.417801 0.445225
0.438821 0.440801 0.436420
0.484376 0.463293 0.436176
0.537036 0.493236 0.444167
0.595712 0.538541 0.448656
0.659110 0.607076 0.426493
0.725729 0.706661 0.343117
0.399269 0.384265 0.421553
0.422850 0.432055 0.436020
0.455337 0.465944 0.428207
0.496203 0.493973 0.417759
0.544714 0.524135 0.412911
0.599934 0.564378 0.410484
0.660721 0.622601 0.395887
0.725729 0.706661 0.343117
0.793409 0.824366 0.214760
0.239156 0.032020 0.271542
0.231064 0.139226 0.401594
0.232855 0.213716 0.449261
0.244360 0.263608 0.454160
0.265203 0.296978 0.444497
0.294805 0.321854 0.437062
0.332382 0.346218 0.437238
0.376945 0.378005 0.438992
0.427303 0.425104 0.424880
0.231064 0.139226 0.401594
0.227925 0.228717 0.482899
0.234647 0.288205 0.496928
0.251009 0.325799 0.480444
0.276583 0.349562 0.458798
0.310740 0.367511 0.445930
0.352645 0.387616 0.444367
0.401259 0.417801 0.445225
0.455337 0.465944 0.428207
0.232855 0.213716 0.449261
0.234647 0.288205 0.496928
0.246243 0.335398 0.490524
0.267370 0.363393 0.463959
0.297551 0.380241 0.439733
0.336105 0.393946 0.428930
0.382145 0.412469 0.431226
0.434581 0.443720 0.434884
0.492119 0.495567 0.416753
0.244360 0.263608 0.454160
0.251009 0.325799 0.480444
0.267370 0.363393 0.463959
0.293121 0.384476 0.435765
0.327732 0.397089 0.415506
0.370472 0.409223 0.411415
0.420403 0.428827 0.420315
0.476384 0.463802 0.427615
0.537069 0.522002 0.407312
0.265203 0.296978 0.444497
0.276583 0.349562 0.458798
0.297551 0.380241 0.439733
0.327732 0.397089 0.415506
0.366547 0.408133 0.402910
0.413212 0.421357 0.407325
0.466738 0.444696 0.422720
0.525934 0.486040 0.431651
0.589403 0.553231 0.405263
0.294805 0.321854 0.437062
0.310740 0.367511 0.445930
0.336105 0.393946 0.428930
0.370472 0.409223 0.411415
0.413212 0.421357 0.407325
0.463489 0.438320 0.419187
0.520265 0.468035 0.438115
0.582295 0.518381 0.443815
0.648133 0.597189 0.404576
0.332382 0.346218 0.437238
0.352645 0.387616 0.444367
0.382145 0.412469 0.431226
0.420403 0.428827 0.420315
0.466738 0.444696 0.422720
0.520265 0.468035 0.438115
0.579892 0.506756 0.454763
0.644326 0.568726 0.449514
0.712067 0.661765 0.387807
0.376945 0.378005 0.438992
0.401259 0.417801 0.445225
0.434581 0.443720 0.434884
0.476384 0.463802 0.427615
0.525934 0.486040 0.431651
0.582295 0.518381 0.443815
0.644326 0.568726 0.449514
0.710680 0.644931 0.422747
0.779807 0.754804 0.326099
0.427303 0.425104 0.424880
0.455337 0.465944 0.428207
0.492119 0.495567 0.416753
0.537069 0.522002 0.407312
0.589403 0.553231 0.405263
0.648133 0.597189 0.404576
0.712067 0.661765 0.387807
0.779807 0.754804 0.326099
0.849754 0.884103 0.179186
0.240891 0.109216 0.332415
0.237712 0.201417 0.427877
0.244360 0.263608 0.454160
0.260614 0.303897 0.448029
0.286046 0.330348 0.434833
0.320027 0.350977 0.428513
0.361722 0.373754 0.431597
0.410091 0.406604 0.435199
0.463891 0.457404 0.419024
0.237712 0.201417 0.427877
0.239467 0.277258 0.481672
0.251009 0.325799 0.480444
0.272065 0.355138 0.458104
0.302158 0.373325 0.437152
0.340606 0.388367 0.428672
0.386524 0.408221 0.432341
0.438821 0.440801 0.436420
0.496203 0.493973 0.417759
0.244360 0.263608 0.454160
0.251009 0.325799 0.480444
0.267370 0.363393 0.463959
0.293121 0.384476 0.435765
0.327732 0.397089 0.415506
0.370472 0.409223 0.411415
0.420403 0.428827 0.420315
0.476384 0.463802 0.427615
0.537069 0.522002 0.407312
0.260614 0.303897 0.448029
0.272065 0.355138 0.458104
0.293121 0.384476 0.435765
0.323407 0.399988 0.409215
0.362344 0.409701 0.395246
0.409148 0.421596 0.399241
0.462831 0.443611 0.415165
0.522200 0.483633 0.425578
0.585858 0.549508 0.401621
0.286046 0.330348 0.434833
0.302158 0.373325 0.437152
0.327732 0.397089 0.415506
0.362344 0.409701 0.395246
0.405362 0.419178 0.390314
0.455952 0.433492 0.403235
0.513074 0.460566 0.425125
0.575485 0.508277 0.435688
0.641737 0.584459 0.403215
0.320027 0.350977 0.428513
0.340606 0.388367 0.428672
0.370472 0.409223 0.411415
0.409148 0.421596 0.399241
0.455952 0.433492 0.403235
0.509998 0.452869 0.423072
0.570196 0.487639 0.447015
0.635251 0.545670 0.451915
0.703665 0.634782 0.403208
0.361722 0.373754 0.431597
0.386524 0.408221 0.432341
0.420403 0.428827 0.420315
0.462831 0.443611 0.415165
0.513074 0.460566 0.425125
0.570196 0.487639 0.447015
0.633055 0.532733 0.466246
0.700306 0.603701 0.456814
0.770399 0.708353 0.381305
0.410091 0.406604 0.435199
0.438821 0.440801 0.436420
0.476384 0.463802 0.427615
0.522200 0.483633 0.425578
0.575485 0.508277 0.435688
0.635251 0.545670 0.451915
0.700306 0.603701 0.456814
0.769254 0.690214 0.421530
0.840492 0.813005 0.305796
0.463891 0.457404 0.419024
0.496203 0.493973 0.417759
0.537069 0.522002 0.407312
0.585858 0.549508 0.401621
0.641737 0.584459 0.403215
0.703665 0.634782 0.403208
0.770399 0.708353 0.381305
0.840492 0.813005 0.305796
0.912291 0.956523 0.133561
0.252180 0.164499 0.358019
0.253824 0.244394 0.430196
0.265203 0.296978 0.444497
0.286046 0.330348 0.434833
0.315875 0.352556 0.423703
0.354009 0.371606 0.422194
0.399560 0.395457 0.429979
0.451440 0.432022 0.435322
0.508353 0.489168 0.415072
0.253824 0.244394 0.430196
0.260364 0.309280 0.466832
0.276583 0.349562 0.458798
0.302158 0.373325 0.437152
0.336559 0.388610 0.421539
0.379055 0.403409 0.420193
0.428707 0.425670 0.429936
0.484376 0.463293 0.436176
0.544714 0.524135 0.412911
0.265203 0.296978 0.444497
0.276583 0.349562 0.458798
0.297551 0.380241 0.439733
0.327732 0.397089 0.415506
0.366547 0.408133 0.402910
0.413212 0.421357 0.407325
0.466738 0.444696 0.422720
0.525934 0.486040 0.431651
0.589403 0.553231 0.405263
0.286046 0.330348 0.434833
0.302158 0.373325 0.437152
0.327732 0.397089 0.415506
0.362344 0.409701 0.395246
0.405362 0.419178 0.390314
0.455952 0.433492 0.403235
0.513074 0.460566 0.425125
0.575485 0.508277 0.435688
0.641737 0.584459 0.403215
0.315875 0.352556 0.423703
0.336559 0.388610 0.421539
0.366547 0.408133 0.402910
0.405362 0.419178 0.390314
0.452322 0.429749 0.394837
0.506541 0.447806 0.416156
0.566930 0.481259 0.442531
0.632192 0.537977 0.450813
0.700830 0.625780 0.406440
0.354009 0.371606 0.422194
0.379055 0.403409 0.420193
0.413212 0.421357 0.407325
0.455952 0.433492 0.403235
0.506541 0.447806 0.416156
0.564044 0.472246 0.442910
0.627318 0.514713 0.468906
0.695018 0.583063 0.468141
0.765593 0.685104 0.403202
0.399560 0.395457 0.429979
0.428707 0.425670 0.429936
0.466738 0.444696 0.422720
0.513074 0.460566 0.425125
0.566930 0.481259 0.442531
0.627318 0.514713 0.468906
0.693046 0.568816 0.486806
0.762717 0.651413 0.467377
0.834731 0.770300 0.370350
0.451440 0.432022 0.435322
0.484376 0.463293 0.436176
0.525934 0.486040 0.431651
0.575485 0.508277 0.435688
0.632192 0.537977 0.450813
0.695018 0.583063 0.468141
0.762717 0.651413 0.467377
0.833844 0.750859 0.416811
0.906744 0.889187 0.273323
0.508353 0.489168 0.415072
0.544714 0.524135 0.412911
0.589403 0.553231 0.405263
0.641737 0.584459 0.403215
0.700830 0.625780 0.406440
0.765593 0.685104 0.403202
0.834731 0.770300 0.370350
0.906744 0.889187 0.273323
0.979930 1.000000 0.066147
0.272546 0.205921 0.370854
0.278870 0.276197 0.428195
0.294805 0.321854 0.437062
0.320027 0.350977 0.428513
0.354009 0.371606 0.422194
0.396016 0.391734 0.426337
0.445112 0.419308 0.437764
0.500155 0.462230 0.441885
0.559801 0.528355 0.412698
0.278870 0.276197 0.428195
0.290037 0.332812 0.455172
0.310740 0.367511 0.445930
0.340606 0.388367 0.428672
0.379055 0.403409 0.420193
0.425302 0.420618 0.425872
0.478360 0.447930 0.439678
0.537036 0.493236 0.444167
0.599934 0.564378 0.410484
0.294805 0.321854 0.437062
0.310740 0.367511 0.445930
0.336105 0.393946 0.428930
0.370472 0.409223 0.411415
0.413212 0.421357 0.407325
0.463489 0.438320 0.419186
0.520265 0.468035 0.438115
0.582295 0.518381 0.443815
0.648133 0.597189 0.404576
0.320027 0.350977 0.428513
0.340606 0.388367 0.428672
0.370472 0.409223 0.411415
0.409148 0.421596 0.399241
0.455952 0.433492 0.403235
0.509998 0.452869 0.423072
0.570196 0.487639 0.447015
0.635251 0.545670 0.451915
0.703665 0.634782 0.403208
0.354009 0.371606 0.422194
0.379055 0.403409 0.420193
0.413212 0.421357 0.407325
0.455952 0.433492 0.403235
0.506541 0.447806 0.416156
0.564044 0.472245 0.442910
0.627318 0.514713 0.468906
0.695018 0.583063 0.468141
0.765593 0.685104 0.403202
0.396016 0.391734 0.426337
0.425302 0.420618 0.425872
0.463489 0.438320 0.419186
0.509998 0.452869 0.423072
0.564044 0.472245 0.442910
0.624639 0.504386 0.472667
0.690592 0.557180 0.494902
0.760504 0.638472 0.480757
0.832776 0.756057 0.389966
0.445112 0.419308 0.437764
0.478360 0.447930 0.439678
0.520265 0.468035 0.438115
0.570196 0.487639 0.447015
0.627318 0.514713 0.468906
0.690592 0.557180 0.494902
0.758774 0.622920 0.504707
0.830417 0.719763 0.466613
0.903868 0.855495 0.337498
0.500155 0.462230 0.441885
0.537036 0.493236 0.444167
0.582295 0.518381 0.443815
0.635251 0.545670 0.451915
0.695018 0.583063 0.468141
0.760504 0.638472 0.480757
0.830417 0.719763 0.466613
0.903256 0.834757 0.391146
0.977319 0.991228 0.208383
0.559801 0.528355 0.412698
0.599934 0.564378 0.410484
0.648133 0.597189 0.404576
0.703665 0.634782 0.403208
0.765593 0.685104 0.403202
0.832776 0.756057 0.389966
0.903868 0.855495 0.337498
0.977319 0.991228 0.208383
1.000000 1.000000 0.000000
0.301307 0.241485 0.382006
0.312118 0.304819 0.430109
0.332382 0.346218 0.437238
0.361722 0.373754 0.431597
0.399560 0.395457 0.429979
0.445112 0.419308 0.437764
0.497389 0.453243 0.448921
0.555199 0.505152 0.446007
0.617145 0.582878 0.400164
0.312118 0.304819 0.430109
0.327701 0.355836 0.452073
0.352645 0.387616 0.444367
0.386524 0.408221 0.432341
0.428707 0.425669 0.429936
0.478360 0.447930 0.439678
0.534443 0.482928 0.452684
0.595712 0.538541 0.448656
0.660721 0.622601 0.395887
0.332382 0.346218 0.437238
0.352645 0.387616 0.444367
0.382145 0.412469 0.431226
0.420403 0.428827 0.420315
0.466738 0.444696 0.422720
0.520265 0.468035 0.438115
0.579892 0.506756 0.454763
0.644326 0.568726 0.449514
0.712067 0.661765 0.387807
0.361722 0.373754 0.431597
0.386524 0.408221 0.432341
0.420403 0.428827 0.420315
0.462831 0.443611 0.415165
0.513074 0.460566 0.425125
0.570196 0.487639 0.447015
0.633055 0.532733 0.466246
0.700306 0.603701 0.456814
0.770399 0.708353 0.381305
0.399560 0.395457 0.429979
0.428707 0.425670 0.429936
0.466738 0.444696 0.422720
0.513074 0.460566 0.425125
0.566930 0.481259 0.442531
0.627318 0.514713 0.468906
0.693046 0.568816 0.486806
0.762717 0.651413 0.467377
0.834731 0.770300 0.370350
0.445112 0.419308 0.437764
0.478360 0.447930 0.439678
0.520265 0.468035 0.438115
0.570196 0.487639 0.447015
0.627318 0.514713 0.468906
0.690592 0.557180 0.494902
0.758774 0.622920 0.504707
0.830417 0.719763 0.466613
0.903868 0.855495 0.337498
0.497389 0.453243 0.448921
0.534443 0.482928 0.452684
0.579892 0.506756 0.454763
0.633055 0.532733 0.466246
0.693046 0.568816 0.486806
0.758774 0.622920 0.504707
0.828945 0.702910 0.496798
0.902060 0.816606 0.428518
0.976415 0.971783 0.253894
0.555199 0.505152 0.446007
0.595712 0.538541 0.448656
0.644326 0.568726 0.449514
0.700306 0.603701 0.456814
0.762717 0.651413 0.467377
0.830417 0.719763 0.466613
0.902060 0.816606 0.428518
0.976096 0.949751 0.315679
1.000000 1.000000 0.079269
0.617145 0.582878 0.400164
0.660721 0.622601 0.395887
0.712067 0.661765 0.387807
0.770399 0.708353 0.381305
0.834731 0.770300 0.370350
0.903868 0.855495 0.337498
0.976415 0.971783 0.253894
1.000000 1.000000 0.079269
1.000000 1.000000 0.000000
0.337577 0.279152 0.391149
0.352632 0.338208 0.432759
0.376945 0.378005 0.438992
0.410091 0.406604 0.435199
0.451440 0.432022 0.435322
0.500155 0.462230 0.441885
0.555199 0.505152 0.446007
0.615327 0.568666 0.427388
0.679092 0.660604 0.354322
0.352632 0.338208 0.432759
0.372370 0.386287 0.451504
0.401259 0.417801 0.445225
0.438821 0.440801 0.436420
0.484376 0.463293 0.436176
0.537036 0.493236 0.444167
0.595712 0.538541 0.448656
0.659110 0.607076 0.426493
0.725729 0.706661 0.343117
0.376945 0.378005 0.438992
0.401259 0.417801 0.445225
0.434581 0.443720 0.434884
0.476384 0.463802 0.427615
0.525934 0.486040 0.431651
0.582295 0.518381 0.443815
0.644326 0.568726 0.449514
0.710680 0.644931 0.422747
0.779807 0.754804 0.326099
0.410091 0.406604 0.435199
0.438821 0.440801 0.436420
0.476384 0.463802 0.427615
0.522200 0.483633 0.425578
0.575485 0.508277 0.435688
0.635251 0.545670 0.451915
0.700306 0.603701 0.456814
0.769254 0.690214 0.421530
0.840492 0.813005 0.305796
0.451440 0.432022 0.435322
0.484376 0.463293 0.436176
0.525934 0.486040 0.431651
0.575485 0.508277 0.435688
0.632192 0.537977 0.450813
0.695018 0.583063 0.468141
0.762717 0.651413 0.467377
0.833844 0.750859 0.416811
0.906744 0.889187 0.273323
0.500155 0.462230 0.441885
0.537036 0.493236 0.444167
0.582295 0.518381 0.443815
0.635251 0.545670 0.451915
0.695018 0.583063 0.468141
0.760504 0.638472 0.480757
0.830417 0.719763 0.466613
0.903256 0.834757 0.391146
0.977319 0.991228 0.208383
0.555199 0.505152 0.446007
0.595712 0.538541 0.448656
0.644326 0.568726 0.449514
0.700306 0.603701 0.456814
0.762717 0.651413 0.467377
0.830417 0.719763 0.466613
0.902060 0.816606 0.428518
0.976096 0.949751 0.315679
1.000000 1.000000 0.079269
0.615327 0.568666 0.427388
0.659110 0.607076 0.426493
0.710680 0.644931 0.422747
0.769254 0.690214 0.421530
0.833844 0.750859 0.416811
0.903256 0.834757 0.391146
0.976096 0.949751 0.315679
1.000000 1.000000 0.150143
1.000000 1.000000 0.000000
0.679092 0.660604 0.354322
0.725729 0.706661 0.343117
0.779807 0.754804 0.326099
0.840492 0.813005 0.305796
0.906744 0.889187 0.273323
0.977319 0.991228 0.208383
1.000000 1.000000 0.079269
1.000000 1.000000 0.000000
1.000000 1.000000 0.000000
0.380266 0.326833 0.386546
0.399269 0.384265 0.421553
0.427303 0.425104 0.424880
0.463891 0.457404 0.419024
0.508353 0.489168 0.415072
0.559801 0.528355 0.412698
0.617145 0.582878 0.400164
0.679092 0.660604 0.354322
0.744141 0.769353 0.240609
0.399269 0.384265 0.421553
0.422850 0.432055 0.436020
0.455337 0.465944 0.428207
0.496203 0.493973 0.417759
0.544714 0.524135 0.412911
0.599934 0.564378 0.410484
0.660721 0.622601 0.395887
0.725729 0.706661 0.343117
0.793409 0.824366 0.214760
0.427303 0.425104 0.424880
0.455337 0.465944 0.428207
0.492119 0.495567 0.416753
0.537069 0.522002 0.407312
0.589403 0.553231 0.405263
0.648133 0.597189 0.404576
0.712067 0.661765 0.387807
0.779807 0.754804 0.326099
0.849754 0.884103 0.179186
0.463891 0.457404 0.419024
0.496203 0.493973 0.417759
0.537069 0.522002 0.407312
0.585858 0.549508 0.401621
0.641737 0.584459 0.403215
0.703665 0.634782 0.403208
0.770399 0.708353 0.381305
0.840492 0.813005 0.305796
0.912291 0.956523 0.133561
0.508353 0.489168 0.415072
0.544714 0.524135 0.412911
0.589403 0.553231 0.405263
0.641737 0.584459 0.403215
0.700830 0.625780 0.406440
0.765593 0.685104 0.403202
0.834731 0.770300 0.370350
0.906744 0.889187 0.273323
0.979930 1.000000 0.066147
0.559801 0.528355 0.412698
0.599934 0.564378 0.410484
0.648133 0.597189 0.404576
0.703665 0.634782 0.403208
0.765593 0.685104 0.403202
0.832776 0.756057 0.389966
0.903868 0.855495 0.337498
0.977319 0.991228 0.208383
1.000000 1.000000 0.000000
0.617145 0.582878 0.400164
0.660721 0.622601 0.395887
0.712067 0.661765 0.387807
0.770399 0.708353 0.381305
0.834731 0.770300 0.370350
0.903868 0.855495 0.337498
0.976415 0.971783 0.253894
1.000000 1.000000 0.079269
1.000000 1.000000 0.000000
0.679092 0.660604 0.354322
0.725729 0.706661 0.343117
0.779807 0.754804 0.326099
0.840492 0.813005 0.305796
0.906744 0.889187 0.273323
0.977319 0.991228 0.208383
1.000000 1.000000 0.079269
1.000000 1.000000 0.000000
1.000000 1.000000 0.000000
0.744141 0.769353 0.240609
0.793409 0.824366 0.214760
0.849754 0.884103 0.179186
0.912291 0.956523 0.133561
0.979930 1.000000 0.066147
1.000000 1.000000 0.000000
1.000000 1.000000 0.000000
1.000000 1.000000 0.000000
1.000000 1.000000 0.000000
