lrplugin/MindfulLensFilmEngine.lrplugin/profiles/luts/oktar.cube
# Generated from ColorChecker fit
LUT_3D_SIZE 5
DOMAIN_MIN 0.0 0.0 0.0
DOMAIN_MAX 1.0 1.0 1.0
0.000000 0.000000 0.210908
0.000000 0.000000 0.371657
0.160249 0.201882 0.611704
0.122606 0.144823 0.617180
0.000000 0.000000 0.000000
0.000000 0.000000 0.000000
0.000000 0.063315 0.213611
0.111680 0.440295 0.597971
0.000000 0.474344 0.739051
0.000000 0.000000 0.114144
0.000000 0.000000 0.000000
0.000000 0.246293 0.257055
0.000000 0.558065 0.697890
0.000000 0.428947 0.860943
0.000000 0.000000 0.189647
0.000000 0.211342 0.389765
0.191972 0.375639 0.776194
0.245594 0.508192 1.000000
0.000000 0.074650 1.000000
0.000000 0.000000 0.562965
1.000000 0.063363 1.000000
1.000000 0.118789 1.000000
1.000000 0.071129 1.000000
0.265011 0.000000 1.000000
0.000000 0.000000 1.000000
0.318045 0.242819 0.305400
0.246456 0.240375 0.272151
0.332895 0.226268 0.430561
0.288632 0.000000 0.516293
0.000000 0.000000 0.090036
0.157557 0.212079 0.176118
0.234326 0.310971 0.253987
0.389091 0.441256 0.525596
0.225212 0.189785 0.692746
0.000000 0.000000 0.282266
0.167625 0.512529 0.221699
0.275478 0.573525 0.342090
0.356622 0.681722 0.632512
0.000000 0.342860 0.760903
0.000000 0.000000 0.220230
0.515767 0.647850 0.573351
0.615751 0.644734 0.722006
0.559652 0.677379 0.991191
0.000000 0.170415 1.000000
0.000000 0.000000 0.252481
1.000000 0.000000 1.000000
1.000000 0.000000 1.000000
1.000000 0.000000 1.000000
0.276216 0.000000 1.000000
0.000000 0.000000 1.000000
0.636577 0.508044 0.456216
0.357616 0.323387 0.283066
0.421330 0.208297 0.425228
0.566996 0.000000 0.667899
0.237697 0.000000 0.621300
0.459092 0.435042 0.307693
0.307096 0.275639 0.247076
0.433660 0.261512 0.480783
0.470151 0.000000 0.760149
0.000000 0.000000 0.661532
0.456689 0.709526 0.274951
0.312417 0.496692 0.251724
0.357919 0.477595 0.476042
0.116651 0.116956 0.665375
0.000000 0.000000 0.362223
0.643147 0.611891 0.400538
0.465681 0.379956 0.393896
0.364532 0.362972 0.562227
0.000000 0.000000 0.589138
0.000000 0.000000 0.000000
1.000000 0.000000 1.000000
1.000000 0.000000 1.000000
0.786936 0.000000 1.000000
0.000000 0.000000 1.000000
0.000000 0.000000 0.130801
0.886700 0.597880 0.485529
0.528596 0.416406 0.308737
0.792646 0.497411 0.582207
1.000000 0.426818 1.000000
1.000000 0.000000 1.000000
0.697405 0.538687 0.302383
0.432524 0.280382 0.249002
0.741599 0.392921 0.601822
1.000000 0.381114 1.000000
1.000000 0.000000 1.000000
0.694693 0.834547 0.205529
0.401829 0.481273 0.193867
0.610050 0.579959 0.518556
0.870820 0.554304 0.946601
0.439408 0.000000 1.000000
0.738604 0.542566 0.148856
0.374872 0.189199 0.151559
0.414686 0.341662 0.394971
0.301596 0.342542 0.612234
0.000000 0.000000 0.361516
0.852193 0.000000 0.432490
0.453032 0.000000 0.476541
0.335204 0.000000 0.639866
0.000000 0.000000 0.621746
0.000000 0.000000 0.000000
0.852818 0.097683 0.249150
0.665142 0.273580 0.287143
1.000000 1.000000 0.921639
1.000000 1.000000 1.000000
1.000000 1.000000 1.000000
0.786021 0.250787 0.167786
0.645477 0.221768 0.349527
1.000000 0.900845 1.000000
1.000000 1.000000 1.000000
1.000000 1.000000 1.000000
0.924282 0.757780 0.172818
0.707698 0.566251 0.410067
1.000000 1.000000 1.000000
1.000000 1.000000 1.000000
1.000000 1.000000 1.000000
0.973904 0.452476 0.129475
0.636430 0.253863 0.388331
1.000000 0.963640 0.964926
1.000000 1.000000 1.000000
1.000000 1.000000 1.000000
0.804202 0.000000 0.249224
0.379310 0.000000 0.550121
0.673729 0.000000 1.000000
1.000000 0.307819 1.000000
0.578897 0.536128 1.000000
