lrplugin/MindfulLensFilmEngine.lrplugin/profiles/luts/oktar.cube
# Generated from ColorChecker fit
LUT_3D_SIZE 9
DOMAIN_MIN 0.0 0.0 0.0
DOMAIN_MAX 1.0 1.0 1.0
0.000000 0.000000 0.210908
0.000000 0.000000 0.268588
0.000000 0.000000 0.371657
0.059136 0.100793 0.497284
0.160249 0.201882 0.611704
0.203859 0.241146 0.670215
0.122606 0.144823 0.617180
0.000000 0.000000 0.386025
0.000000 0.000000 0.000000
0.000000 0.000000 0.039579
0.000000 0.000000 0.129592
0.000000 0.008459 0.271061
0.051062 0.182167 0.439037
0.169751 0.339972 0.597640
0.206226 0.427966 0.700052
0.086382 0.367314 0.688518
0.000000 0.054259 0.494348
0.000000 0.000000 0.037919
0.000000 0.000000 0.000000
0.000000 0.000000 0.045701
0.000000 0.063315 0.213611
0.000000 0.262067 0.410367
0.111680 0.440295 0.597971
0.116314 0.539022 0.727489
0.000000 0.474344 0.739051
0.000000 0.137433 0.561850
0.000000 0.000000 0.114144
0.000000 0.000000 0.000000
0.000000 0.000000 0.015335
0.000000 0.147463 0.201124
0.000000 0.343732 0.416486
0.030491 0.513154 0.621305
0.000000 0.591680 0.764532
0.000000 0.490340 0.784179
0.000000 0.095234 0.607325
0.000000 0.000000 0.150110
0.000000 0.000000 0.000000
0.000000 0.082289 0.058552
0.000000 0.246293 0.257055
0.000000 0.419616 0.484245
0.000000 0.558065 0.697890
0.000000 0.592522 0.844824
0.000000 0.428947 0.860943
0.000000 0.000000 0.671209
0.000000 0.000000 0.189647
0.000000 0.098769 0.067206
0.000000 0.202093 0.217053
0.000000 0.334411 0.426500
0.021214 0.471388 0.662136
0.027522 0.563761 0.879614
0.000000 0.537344 1.000000
0.000000 0.293025 1.000000
0.000000 0.000000 0.815579
0.000000 0.000000 0.298229
0.000000 0.211342 0.389765
0.026583 0.279640 0.554176
0.191972 0.375639 0.776194
0.288576 0.469934 1.000000
0.245594 0.508192 1.000000
0.000000 0.411157 1.000000
0.000000 0.074650 1.000000
0.000000 0.000000 1.000000
0.000000 0.000000 0.562965
0.374936 0.223498 0.969291
0.570265 0.260904 1.000000
0.735368 0.323014 1.000000
0.811213 0.375354 1.000000
0.720253 0.358521 1.000000
0.366429 0.188191 1.000000
0.000000 0.000000 1.000000
0.000000 0.000000 1.000000
0.000000 0.000000 1.000000
1.000000 0.063363 1.000000
1.000000 0.081074 1.000000
1.000000 0.118789 1.000000
1.000000 0.136964 1.000000
1.000000 0.071129 1.000000
1.000000 0.000000 1.000000
0.265011 0.000000 1.000000
0.000000 0.000000 1.000000
0.000000 0.000000 1.000000
0.107530 0.057391 0.238685
0.108653 0.107517 0.241754
0.149794 0.162828 0.300808
0.220879 0.221772 0.396113
0.293323 0.257870 0.496999
0.320028 0.219719 0.561859
0.235385 0.030990 0.538152
0.000000 0.000000 0.362401
0.000000 0.000000 0.000000
0.000000 0.000000 0.122762
0.051062 0.075602 0.157789
0.138783 0.182077 0.253426
0.246220 0.296377 0.387820
0.338044 0.386954 0.528188
0.360413 0.397336 0.630805
0.240972 0.246124 0.641015
0.000000 0.000000 0.493223
0.000000 0.000000 0.110899
0.000000 0.024305 0.065823
0.000000 0.130833 0.122052
0.113823 0.259368 0.241903
0.235868 0.398218 0.401409
0.323785 0.510765 0.565667
0.316989 0.535467 0.688839
0.136380 0.385858 0.714149
0.000000 0.000000 0.573889
0.000000 0.000000 0.189412
0.000000 0.147672 0.057349
0.000000 0.248365 0.127421
0.099970 0.376921 0.262516
0.219773 0.516578 0.436550
0.285393 0.625649 0.612503
0.229498 0.637523 0.742422
0.000000 0.460664 0.767415
0.000000 0.000000 0.617656
0.000000 0.000000 0.212381
0.000000 0.310985 0.108462
0.006644 0.392570 0.188415
0.132470 0.506170 0.333178
0.238077 0.629955 0.514553
0.267902 0.717168 0.693403
0.147871 0.696129 0.819658
0.000000 0.470232 0.832310
0.000000 0.000000 0.659416
0.000000 0.000000 0.218098
0.022001 0.460767 0.251925
0.135787 0.517034 0.341191
0.256753 0.607766 0.493444
0.341105 0.706063 0.678368
0.326535 0.760100 0.854712
0.132225 0.693127 0.970288
0.000000 0.403467 0.961973
0.000000 0.000000 0.755706
0.000000 0.000000 0.266494
0.293461 0.532758 0.542139
0.412958 0.564560 0.643547
0.528443 0.631574 0.804507
0.589376 0.701832 0.992587
0.526705 0.718438 1.000000
0.252867 0.599572 1.000000
0.000000 0.238489 1.000000
0.000000 0.000000 0.984700
0.000000 0.000000 0.439137
0.768047 0.451912 1.000000
0.899072 0.467166 1.000000
1.000000 0.516678 1.000000
1.000000 0.563407 1.000000
0.944011 0.545390 1.000000
0.590292 0.375737 1.000000
0.000000 0.000000 1.000000
0.000000 0.000000 1.000000
0.000000 0.000000 0.839240
1.000000 0.132398 1.000000
1.000000 0.146086 1.000000
1.000000 0.191373 1.000000
1.000000 0.226149 1.000000
1.000000 0.183381 1.000000
1.000000 0.000000 1.000000
0.407919 0.000000 1.000000
0.000000 0.000000 1.000000
0.000000 0.000000 1.000000
0.318045 0.242819 0.305400
0.256021 0.237880 0.255132
0.246456 0.240375 0.272151
0.281026 0.246185 0.339819
0.332895 0.226268 0.430561
0.356717 0.126658 0.505868
0.288632 0.000000 0.516293
0.046269 0.000000 0.401455
0.000000 0.000000 0.090036
0.220583 0.161771 0.213576
0.206671 0.188749 0.195482
0.242728 0.234462 0.247857
0.313687 0.289725 0.351947
0.385968 0.320425 0.478061
0.407480 0.267525 0.585573
0.307620 0.047066 0.622921
0.000000 0.000000 0.527606
0.000000 0.000000 0.226194
0.157557 0.212079 0.176118
0.172972 0.247357 0.179032
0.234326 0.310971 0.253987
0.319807 0.388664 0.380110
0.389091 0.441256 0.525596
0.383342 0.404640 0.647701
0.225212 0.189785 0.692746
0.000000 0.000000 0.596118
0.000000 0.000000 0.282266
0.134622 0.347881 0.176965
0.165477 0.374907 0.193120
0.236697 0.438166 0.281273
0.319728 0.518331 0.418438
0.367500 0.571153 0.570691
0.314434 0.527456 0.693173
0.076436 0.293139 0.730088
0.000000 0.000000 0.614707
0.000000 0.000000 0.269361
0.167625 0.512529 0.221699
0.204925 0.521814 0.246722
0.275478 0.573525 0.342090
0.343981 0.643268 0.482700
0.356622 0.681722 0.632512
0.241078 0.614642 0.744550
0.000000 0.342860 0.760903
0.000000 0.000000 0.612724
0.000000 0.000000 0.220230
0.282599 0.638591 0.337541
0.322248 0.627709 0.370456
0.386491 0.663744 0.470450
0.433285 0.717233 0.610305
0.402072 0.733785 0.751863
0.213783 0.634086 0.846034
0.000000 0.313897 0.832788
0.000000 0.000000 0.641163
0.000000 0.000000 0.189260
0.515767 0.647850 0.573351
0.558561 0.621439 0.616577
0.615751 0.644734 0.722006
0.638548 0.683200 0.860302
0.559652 0.677379 0.991191
0.293248 0.542887 1.000000
0.000000 0.170415 1.000000
0.000000 0.000000 0.772658
0.000000 0.000000 0.252481
0.913539 0.451306 0.999630
0.965171 0.421068 1.000000
1.000000 0.441620 1.000000
1.000000 0.473360 1.000000
0.895354 0.451758 1.000000
0.550360 0.287362 1.000000
0.000000 0.000000 1.000000
0.000000 0.000000 1.000000
0.000000 0.000000 0.507563
1.000000 0.000000 1.000000
1.000000 0.000000 1.000000
1.000000 0.000000 1.000000
1.000000 0.009116 1.000000
1.000000 0.000000 1.000000
1.000000 0.000000 1.000000
0.276216 0.000000 1.000000
0.000000 0.000000 1.000000
0.000000 0.000000 1.000000
0.485668 0.388100 0.385670
0.358396 0.326682 0.288474
0.301949 0.281925 0.270573
0.309754 0.247146 0.318425
0.356727 0.190741 0.407551
0.399271 0.056177 0.502536
0.375276 0.000000 0.557031
0.204122 0.000000 0.513750
0.000000 0.000000 0.304471
0.382690 0.289299 0.296126
0.300805 0.248188 0.231910
0.288251 0.237080 0.248730
0.331711 0.244226 0.330927
0.399356 0.232949 0.451906
0.440845 0.141650 0.574136
0.387324 0.000000 0.649151
0.151429 0.000000 0.617548
0.000000 0.000000 0.408990
0.324103 0.338121 0.258177
0.268699 0.297484 0.215368
0.279589 0.298491 0.253723
0.336714 0.324323 0.355467
0.401498 0.333235 0.491890
0.416858 0.258556 0.623343
0.307195 0.008693 0.699244
0.000000 0.000000 0.658075
0.000000 0.000000 0.427381
0.305956 0.474746 0.250224
0.263021 0.421815 0.220644
0.281803 0.420466 0.270745
0.335497 0.448810 0.380635
0.378784 0.460032 0.519487
0.347836 0.382394 0.645538
0.160310 0.119232 0.706088
0.000000 0.000000 0.637503
0.000000 0.000000 0.365211
0.334486 0.628572 0.272307
0.294903 0.557641 0.251174
0.310919 0.546528 0.306627
0.348982 0.568273 0.416657
0.357031 0.570993 0.548322
0.264491 0.477879 0.657741
0.000000 0.187197 0.690099
0.000000 0.000000 0.579643
0.000000 0.000000 0.249688
0.426117 0.718210 0.346105
0.385667 0.630639 0.332033
0.393153 0.609418 0.389841
0.408281 0.622517 0.495403
0.372244 0.612984 0.613658
0.207723 0.498940 0.698612
0.000000 0.173583 0.693331
0.000000 0.000000 0.529949
0.000000 0.000000 0.129661
0.607464 0.651489 0.514937
0.566820 0.555700 0.509939
0.564909 0.531090 0.570499
0.554692 0.540559 0.670379
0.470617 0.522086 0.772400
0.228622 0.388723 0.828451
0.000000 0.028598 0.779482
0.000000 0.000000 0.555511
0.000000 0.000000 0.075617
0.915328 0.325453 0.843764
0.880060 0.236931 0.853244
0.872780 0.222714 0.920353
0.839703 0.240633 1.000000
0.708534 0.223597 1.000000
0.388466 0.079589 1.000000
0.000000 0.000000 1.000000
0.000000 0.000000 0.745063
0.000000 0.000000 0.179685
1.000000 0.000000 1.000000
1.000000 0.000000 1.000000
1.000000 0.000000 1.000000
1.000000 0.000000 1.000000
1.000000 0.000000 1.000000
0.758721 0.000000 1.000000
0.027394 0.000000 1.000000
0.000000 0.000000 1.000000
0.000000 0.000000 0.555632
0.636577 0.508044 0.456216
0.449537 0.399282 0.323637
0.357616 0.323387 0.283066
0.355992 0.271116 0.324057
0.421330 0.208297 0.425228
0.511785 0.075836 0.554260
0.566996 0.000000 0.667899
0.508095 0.000000 0.711954
0.237697 0.000000 0.621300
0.520443 0.389872 0.356616
0.375293 0.288180 0.258415
0.324764 0.234741 0.252522
0.357289 0.215240 0.326373
0.442788 0.190437 0.456469
0.532670 0.096169 0.608377
0.559834 0.000000 0.736724
0.438663 0.000000 0.785205
0.065032 0.000000 0.686578
0.459092 0.435042 0.307693
0.336804 0.324373 0.231887
0.307096 0.275639 0.247076
0.351655 0.269454 0.338580
0.433660 0.261512 0.480783
0.497774 0.182577 0.637135
0.470151 0.000000 0.760149
0.258430 0.000000 0.791401
0.000000 0.000000 0.661532
0.438964 0.569779 0.282305
0.325404 0.441150 0.220308
0.300841 0.386433 0.246380
0.340217 0.381175 0.343726
0.399967 0.375999 0.484613
0.418011 0.296601 0.630375
0.313757 0.043753 0.731408
0.000000 0.000000 0.727171
0.000000 0.000000 0.546192
0.456689 0.709526 0.274951
0.342617 0.561015 0.221571
0.312417 0.496692 0.251724
0.334288 0.487035 0.346497
0.357919 0.477595 0.476042
0.314485 0.389002 0.599575
0.116651 0.116956 0.665375
0.000000 0.000000 0.610789
0.000000 0.000000 0.362223
0.519081 0.758940 0.301769
0.400155 0.595689 0.255213
0.358432 0.525200 0.286040
0.355370 0.512879 0.373221
0.333912 0.499211 0.484792
0.218490 0.399753 0.577853
0.000000 0.105137 0.598567
0.000000 0.000000 0.482163
0.000000 0.000000 0.152933
0.643147 0.611891 0.400538
0.519916 0.446108 0.362406
0.465681 0.379956 0.393896
0.435154 0.373773 0.471863
0.364532 0.362972 0.562227
0.171504 0.258044 0.619969
0.000000 0.000000 0.589138
0.000000 0.000000 0.402846
0.000000 0.000000 0.000000
0.856079 0.151469 0.630676
0.733991 0.002423 0.605966
0.671148 0.000000 0.641505
0.615517 0.000000 0.712031
0.496552 0.000000 0.781347
0.225198 0.000000 0.802320
0.000000 0.000000 0.716882
0.000000 0.000000 0.456027
0.000000 0.000000 0.000000
1.000000 0.000000 1.000000
1.000000 0.000000 1.000000
1.000000 0.000000 1.000000
0.948527 0.000000 1.000000
0.786936 0.000000 1.000000
0.441429 0.000000 1.000000
0.000000 0.000000 1.000000
0.000000 0.000000 0.746537
0.000000 0.000000 0.130801
0.775695 0.590805 0.495861
0.541953 0.454382 0.344577
0.433550 0.374015 0.298722
0.447416 0.337895 0.350945
0.561966 0.309288 0.482958
0.737104 0.226536 0.665540
0.914222 0.003055 0.858531
1.000000 0.000000 1.000000
0.947403 0.000000 1.000000
0.646835 0.460543 0.383358
0.450716 0.316331 0.268442
0.380432 0.245599 0.257812
0.426168 0.231471 0.342000
0.559596 0.232142 0.500603
0.733873 0.180886 0.702282
0.883649 0.000000 0.904763
0.925058 0.000000 1.000000
0.755724 0.000000 1.000000
0.583587 0.508797 0.322462
0.405939 0.344532 0.231522
0.353080 0.269470 0.242113
0.408450 0.261664 0.342650
0.536976 0.274241 0.510614
0.685074 0.235404 0.712551
0.780646 0.048432 0.904068
0.733084 0.000000 1.000000
0.433266 0.000000 1.000000
0.562782 0.647838 0.280490
0.389347 0.458319 0.204530
0.338114 0.372023 0.225733
0.385778 0.361934 0.330400
0.490521 0.376108 0.493894
0.592014 0.337680 0.680643
0.611415 0.144858 0.844141
0.451372 0.000000 0.926942
0.000000 0.000000 0.860670
0.571439 0.779151 0.246401
0.392857 0.566243 0.179820
0.332346 0.468874 0.204424
0.359857 0.454958 0.304395
0.426829 0.467484 0.452982
0.466187 0.424516 0.612497
0.392347 0.219192 0.734315
0.101210 0.000000 0.758877
0.000000 0.000000 0.615686
0.606767 0.793438 0.230790
0.418570 0.566067 0.171385
0.342773 0.464848 0.195573
0.342581 0.452627 0.285422
0.362689 0.467323 0.412062
0.329278 0.421930 0.535690
0.150019 0.204517 0.605565
0.000000 0.000000 0.560010
0.000000 0.000000 0.326414
0.676162 0.570615 0.265896
0.478779 0.344771 0.214858
0.386581 0.253991 0.238211
0.356031 0.256050 0.315905
0.325078 0.283797 0.416955
0.213159 0.245158 0.499440
0.000000 0.023132 0.510503
0.000000 0.000000 0.386352
0.000000 0.000000 0.052258
0.797208 0.000000 0.405594
0.595963 0.000000 0.367513
0.491147 0.000000 0.393006
0.432478 0.000000 0.459909
0.351161 0.000000 0.535121
0.159890 0.000000 0.574603
0.000000 0.000000 0.523383
0.000000 0.000000 0.315552
0.000000 0.000000 0.000000
0.997678 0.000000 0.725403
0.802789 0.000000 0.708261
0.694032 0.000000 0.742267
0.614379 0.000000 0.803140
0.488292 0.000000 0.855661
0.221719 0.000000 0.853677
0.000000 0.000000 0.740098
0.000000 0.000000 0.446899
0.000000 0.000000 0.000000
0.886700 0.597880 0.485529
0.626904 0.464031 0.337356
0.528596 0.416406 0.308737
0.590455 0.440632 0.395418
0.792646 0.497411 0.582207
1.000000 0.522522 0.842977
1.000000 0.426818 1.000000
1.000000 0.096225 1.000000
1.000000 0.000000 1.000000
0.753615 0.471711 0.366763
0.526402 0.313587 0.257538
0.462168 0.261152 0.265284
0.552847 0.294966 0.383627
0.771860 0.370661 0.595260
1.000000 0.418946 0.871941
1.000000 0.345604 1.000000
1.000000 0.031493 1.000000
1.000000 0.000000 1.000000
0.697405 0.538687 0.302383
0.483501 0.347808 0.219306
0.432524 0.280382 0.249002
0.529664 0.311899 0.382982
0.741599 0.392921 0.601822
1.000000 0.449088 0.875164
1.000000 0.381114 1.000000
1.000000 0.064787 1.000000
1.000000 0.000000 1.000000
0.685295 0.697122 0.254166
0.470319 0.472073 0.187831
0.416677 0.386537 0.228460
0.502815 0.410934 0.365448
0.688665 0.490759 0.577254
0.915649 0.546580 0.831404
1.000000 0.474043 1.000000
1.000000 0.143867 1.000000
0.979930 0.000000 1.000000
0.694693 0.834547 0.205529
0.469162 0.580975 0.149926
0.401829 0.481273 0.193867
0.464395 0.500793 0.324629
0.610050 0.579959 0.518556
0.773470 0.634271 0.741056
0.870820 0.554304 0.946601
0.799753 0.205708 1.000000
0.439408 0.000000 1.000000
0.713201 0.827708 0.161526
0.472523 0.558323 0.114044
0.385368 0.455465 0.157070
0.416690 0.479413 0.275770
0.512934 0.565522 0.444368
0.602034 0.624223 0.626158
0.593408 0.541023 0.773493
0.377966 0.176500 0.827794
0.000000 0.000000 0.719545
0.738604 0.542566 0.148856
0.483087 0.277144 0.110275
0.374872 0.189199 0.151559
0.372172 0.233944 0.255754
0.414686 0.341662 0.394971
0.423602 0.417716 0.530384
0.301596 0.342542 0.612234
0.000000 0.000000 0.579822
0.000000 0.000000 0.361516
0.778880 0.000000 0.215852
0.513724 0.000000 0.190352
0.388109 0.000000 0.232460
0.353502 0.000000 0.323106
0.342860 0.000000 0.432284
0.270626 0.000000 0.519052
0.032732 0.000000 0.531534
0.000000 0.000000 0.406916
0.000000 0.000000 0.071449
0.852193 0.000000 0.432490
0.587493 0.000000 0.427646
0.453032 0.000000 0.476541
0.393531 0.000000 0.557989
0.335204 0.000000 0.639866
0.185748 0.000000 0.679117
0.000000 0.000000 0.621746
0.000000 0.000000 0.402825
0.000000 0.000000 0.000000
0.932016 0.464111 0.408249
0.674399 0.373619 0.290137
0.620345 0.406499 0.306411
0.770284 0.545815 0.455911
1.000000 0.749706 0.726543
1.000000 0.951386 1.000000
1.000000 1.000000 1.000000
1.000000 0.956341 1.000000
1.000000 0.501420 1.000000
0.811276 0.367119 0.299345
0.580431 0.234241 0.223354
0.555634 0.246242 0.277722
0.730571 0.381117 0.459173
1.000000 0.591935 0.753496
1.000000 0.806841 1.000000
1.000000 0.929054 1.000000
1.000000 0.836868 1.000000
1.000000 0.383654 1.000000
0.779112 0.477354 0.249456
0.555641 0.297395 0.202376
0.539162 0.282119 0.280015
0.716616 0.404452 0.476982
1.000000 0.612394 0.776950
1.000000 0.829019 1.000000
1.000000 0.952477 1.000000
1.000000 0.855995 1.000000
1.000000 0.387871 1.000000
0.793138 0.679177 0.214819
0.562538 0.454504 0.186834
0.538333 0.412617 0.276318
0.700716 0.521370 0.475763
1.000000 0.723694 0.766724
1.000000 0.937595 1.000000
1.000000 1.000000 1.000000
1.000000 0.947524 1.000000
1.000000 0.454938 1.000000
0.821156 0.846160 0.173309
0.573821 0.586207 0.158001
0.530738 0.525437 0.251299
0.665360 0.626636 0.443579
0.932625 0.827666 0.714279
1.000000 1.000000 1.000000
1.000000 1.000000 1.000000
1.000000 1.000000 1.000000
1.000000 0.514938 1.000000
0.841157 0.841096 0.124439
0.572373 0.562356 0.118785
0.504160 0.497495 0.211263
0.603224 0.604230 0.390131
0.817760 0.815352 0.632712
1.000000 1.000000 0.905394
1.000000 1.000000 1.000000
1.000000 1.000000 1.000000
1.000000 0.487169 1.000000
0.841320 0.515989 0.089365
0.551271 0.242022 0.093740
0.456567 0.194926 0.184159
0.517173 0.327349 0.346764
0.674537 0.567013 0.556764
0.851598 0.816714 0.778427
0.952783 0.954326 0.965090
0.864005 0.832795 1.000000
0.452667 0.280144 0.992072
0.820012 0.000000 0.110882
0.513775 0.000000 0.129054
0.396118 0.000000 0.219571
0.420258 0.000000 0.366461
0.520902 0.000000 0.542812
0.614244 0.251962 0.710779
0.597965 0.430722 0.821582
0.351236 0.336282 0.815501
0.000000 0.000000 0.621884
0.785789 0.000000 0.253422
0.473337 0.000000 0.292558
0.341157 0.000000 0.388728
0.335721 0.000000 0.523842
0.384992 0.000000 0.668875
0.398420 0.000000 0.783864
0.266941 0.000000 0.817911
0.000000 0.000000 0.709183
0.000000 0.000000 0.384911
0.852818 0.097683 0.249150
0.633197 0.101881 0.193185
0.665142 0.273580 0.287143
0.950831 0.593281 0.532961
1.000000 1.000000 0.921639
1.000000 1.000000 1.000000
1.000000 1.000000 1.000000
1.000000 1.000000 1.000000
1.000000 1.000000 1.000000
0.769063 0.063852 0.175721
0.569631 0.005928 0.165640
0.625245 0.139054 0.300014
0.931338 0.438659 0.578662
1.000000 0.855250 0.990469
1.000000 1.000000 1.000000
1.000000 1.000000 1.000000
1.000000 1.000000 1.000000
1.000000 1.000000 1.000000
0.786021 0.250787 0.167786
0.587257 0.129830 0.189970
0.645477 0.221768 0.349527
0.949371 0.496961 0.644162
1.000000 0.900845 1.000000
1.000000 1.000000 1.000000
1.000000 1.000000 1.000000
1.000000 1.000000 1.000000
1.000000 1.000000 1.000000
0.851696 0.528889 0.176041
0.638975 0.351052 0.220265
0.683633 0.406251 0.393170
0.967618 0.659779 0.690343
1.000000 1.000000 1.000000
1.000000 1.000000 1.000000
1.000000 1.000000 1.000000
1.000000 1.000000 1.000000
1.000000 1.000000 1.000000
0.924282 0.757780 0.172818
0.687873 0.536277 0.232255
0.707698 0.566251 0.410067
0.958959 0.807923 0.699727
1.000000 1.000000 1.000000
1.000000 1.000000 1.000000
1.000000 1.000000 1.000000
1.000000 1.000000 1.000000
1.000000 1.000000 1.000000
0.972161 0.786292 0.152092
0.707229 0.541404 0.223309
0.695843 0.564729 0.400986
0.906461 0.811419 0.676477
1.000000 1.000000 1.000000
1.000000 1.000000 1.000000
1.000000 1.000000 1.000000
1.000000 1.000000 1.000000
1.000000 1.000000 1.000000
0.973904 0.452476 0.129475
0.680508 0.211546 0.212438
0.636430 0.253863 0.388331
0.803381 0.529508 0.646393
1.000000 0.963640 0.964926
1.000000 1.000000 1.000000
1.000000 1.000000 1.000000
1.000000 1.000000 1.000000
1.000000 1.000000 1.000000
0.918268 0.000000 0.142222
0.601365 0.000000 0.240290
0.528006 0.000000 0.416147
0.653161 0.000000 0.656917
0.913286 0.307924 0.938784
1.000000 0.862046 1.000000
1.000000 1.000000 1.000000
1.000000 1.000000 1.000000
1.000000 1.000000 1.000000
0.804202 0.000000 0.249224
0.473640 0.000000 0.369154
0.379310 0.000000 0.550121
0.469435 0.000000 0.777130
0.673729 0.000000 1.000000
0.903390 0.000000 1.000000
1.000000 0.307819 1.000000
0.991054 0.634976 1.000000
0.578897 0.536128 1.000000
