lrplugin/MindfulLensFilmEngine.lrplugin/profiles/luts/oktar.cube
# Generated from ColorChecker fit
LUT_3D_SIZE 33
DOMAIN_MIN 0.0 0.0 0.0
DOMAIN_MAX 1.0 1.0 1.0
0.000000 0.000000 0.210908
0.000000 0.000000 0.220235
0.000000 0.000000 0.233075
0.000000 0.000000 0.249261
0.000000 0.000000 0.268588
0.000000 0.000000 0.290805
0.000000 0.000000 0.315620
0.000000 0.000000 0.342696
0.000000 0.000000 0.371657
0.000000 0.014721 0.402081
0.003005 0.043301 0.433505
0.031005 0.072132 0.465422
0.059136 0.100793 0.497284
0.086818 0.128764 0.528499
0.113394 0.155429 0.558433
0.138137 0.180072 0.586408
0.160249 0.201882 0.611704
0.178857 0.219949 0.633560
0.193018 0.233268 0.651169
0.201715 0.240734 0.663685
0.203859 0.241146 0.670215
0.198290 0.233206 0.669828
0.183774 0.215517 0.661545
0.159005 0.186586 0.644350
0.122606 0.144823 0.617180
0.073127 0.088539 0.578931
0.009044 0.015948 0.528455
0.000000 0.000000 0.464564
0.000000 0.000000 0.386025
0.000000 0.000000 0.291562
0.000000 0.000000 0.179858
0.000000 0.000000 0.049552
0.000000 0.000000 0.000000
0.000000 0.000000 0.160854
0.000000 0.000000 0.172306
0.000000 0.000000 0.187399
0.000000 0.000000 0.205960
0.000000 0.000000 0.227773
0.000000 0.000000 0.252581
0.000000 0.000000 0.280082
0.000000 0.000000 0.309934
0.000000 0.000000 0.341749
0.000000 0.021866 0.375098
0.001778 0.055088 0.409510
0.032476 0.088566 0.444470
0.063062 0.121857 0.479421
0.092925 0.154424 0.513763
0.121385 0.185627 0.546854
0.147687 0.214735 0.578007
0.171008 0.240914 0.606496
0.190447 0.263236 0.631548
0.205036 0.280675 0.652352
0.213731 0.292106 0.668049
0.215418 0.296309 0.677742
0.208908 0.291966 0.680489
0.192943 0.277660 0.675305
0.166190 0.251879 0.661163
0.127245 0.213012 0.636993
0.074632 0.159350 0.601684
0.006802 0.089090 0.554079
0.000000 0.000328 0.492980
0.000000 0.000000 0.417147
0.000000 0.000000 0.325297
0.000000 0.000000 0.216103
0.000000 0.000000 0.088196
0.000000 0.000000 0.000000
0.000000 0.000000 0.115906
0.000000 0.000000 0.129290
0.000000 0.000000 0.146438
0.000000 0.000000 0.167169
0.000000 0.000000 0.191258
0.000000 0.000000 0.218440
0.000000 0.000000 0.248405
0.000000 0.000000 0.280801
0.000000 0.000000 0.315234
0.000000 0.030258 0.351266
0.000000 0.067502 0.388417
0.030091 0.104999 0.426165
0.062725 0.142288 0.463944
0.094360 0.178809 0.501146
0.124287 0.213906 0.537120
0.151727 0.246824 0.571172
0.175827 0.276713 0.602566
0.195664 0.302623 0.630522
0.210241 0.323508 0.654220
0.218488 0.338225 0.672795
0.219264 0.345533 0.685338
0.211355 0.344094 0.690901
0.193476 0.332472 0.688491
0.164269 0.309134 0.677072
0.122302 0.272449 0.655567
0.066073 0.220691 0.622853
0.000000 0.152035 0.577769
0.000000 0.064557 0.519107
0.000000 0.000000 0.445619
0.000000 0.000000 0.356013
0.000000 0.000000 0.248954
0.000000 0.000000 0.123066
0.000000 0.000000 0.000000
0.000000 0.000000 0.075605
0.000000 0.000000 0.090743
0.000000 0.000000 0.109762
0.000000 0.000000 0.132470
0.000000 0.000000 0.158638
0.000000 0.000000 0.187990
0.000000 0.000000 0.220208
0.000000 0.000000 0.254932
0.000000 0.000007 0.291760
0.000000 0.040052 0.330246
0.000000 0.080726 0.369901
0.024267 0.121645 0.410195
0.058566 0.162325 0.450554
0.091581 0.202189 0.490361
0.122578 0.240560 0.528958
0.150752 0.276664 0.565641
0.175223 0.309630 0.599667
0.195042 0.338489 0.630249
0.209185 0.362175 0.656556
0.216557 0.379525 0.677715
0.215989 0.389279 0.692811
0.206243 0.390078 0.700886
0.186005 0.380467 0.700938
0.153891 0.358894 0.691925
0.108445 0.323707 0.672760
0.048136 0.273161 0.642313
0.000000 0.205409 0.599413
0.000000 0.118509 0.542846
0.000000 0.010423 0.471353
0.000000 0.000000 0.383636
0.000000 0.000000 0.278352
0.000000 0.000000 0.154114
0.000000 0.000000 0.009496
0.000000 0.000000 0.039579
0.000000 0.000000 0.056305
0.000000 0.000000 0.077022
0.000000 0.000000 0.101531
0.000000 0.000000 0.129592
0.000000 0.000000 0.160923
0.000000 0.000000 0.195197
0.000000 0.000000 0.232047
0.000000 0.008459 0.271061
0.000000 0.051366 0.311784
0.000000 0.094905 0.353722
0.015466 0.138673 0.396333
0.051062 0.182167 0.439037
0.085086 0.224789 0.481209
0.116775 0.265843 0.522180
0.145299 0.304534 0.561242
0.169751 0.339972 0.597640
0.189156 0.371169 0.630580
0.202463 0.397038 0.659223
0.208551 0.416398 0.682688
0.206226 0.427966 0.700052
0.194221 0.430366 0.710347
0.171198 0.422122 0.712565
0.135746 0.401661 0.705653
0.086382 0.367314 0.688518
0.021549 0.317314 0.660021
0.000000 0.249796 0.618983
0.000000 0.162797 0.564180
0.000000 0.054259 0.494348
0.000000 0.000000 0.408179
0.000000 0.000000 0.304320
0.000000 0.000000 0.181379
0.000000 0.000000 0.037919
0.000000 0.000000 0.007538
0.000000 0.000000 0.025700
0.000000 0.000000 0.047956
0.000000 0.000000 0.074101
0.000000 0.000000 0.103885
0.000000 0.000000 0.137018
0.000000 0.000000 0.173164
0.000000 0.000000 0.211949
0.000000 0.019034 0.252952
0.000000 0.064271 0.295711
0.000000 0.110139 0.339721
0.004186 0.156212 0.384435
0.040734 0.201969 0.429263
0.075412 0.246792 0.473571
0.107435 0.289965 0.516684
0.135943 0.330673 0.557883
0.160006 0.368007 0.596407
0.178619 0.400958 0.631452
0.190708 0.428420 0.662173
0.195123 0.449191 0.687678
0.190645 0.461970 0.707037
0.175981 0.465360 0.719274
0.149766 0.457866 0.723373
0.110563 0.437895 0.718272
0.056861 0.403758 0.702870
0.000000 0.353667 0.676019
0.000000 0.285739 0.636533
0.000000 0.197991 0.583180
0.000000 0.088344 0.514686
0.000000 0.000000 0.429735
0.000000 0.000000 0.326968
0.000000 0.000000 0.204982
0.000000 0.000000 0.062333
0.000000 0.000000 0.000000
0.000000 0.000000 0.000000
0.000000 0.000000 0.022387
0.000000 0.000000 0.050016
0.000000 0.000000 0.081365
0.000000 0.000000 0.116135
0.000000 0.000000 0.153984
0.000000 0.000000 0.194527
0.000000 0.031734 0.237336
0.000000 0.078800 0.281941
0.000000 0.126486 0.327829
0.000000 0.174348 0.374443
0.028138 0.221846 0.421186
0.063138 0.268341 0.467416
0.095155 0.313096 0.512450
0.123302 0.355278 0.555559
0.146623 0.393958 0.595976
0.164087 0.428107 0.632887
0.174593 0.456599 0.665438
0.176966 0.478212 0.692732
0.169959 0.491626 0.713827
0.152254 0.495424 0.727742
0.122458 0.488090 0.733450
0.079110 0.468013 0.729883
0.020671 0.433482 0.715929
0.000000 0.382692 0.690436
0.000000 0.313738 0.652205
0.000000 0.224618 0.599999
0.000000 0.113233 0.532534
0.000000 0.000000 0.448487
0.000000 0.000000 0.346489
0.000000 0.000000 0.225130
0.000000 0.000000 0.082958
0.000000 0.000000 0.000000
0.000000 0.000000 0.000000
0.000000 0.000000 0.000221
0.000000 0.000000 0.029195
0.000000 0.000000 0.061964
0.000000 0.000000 0.098221
0.000000 0.000000 0.137615
0.000000 0.000000 0.179753
0.000000 0.046522 0.224199
0.000000 0.094940 0.270474
0.000000 0.143963 0.318057
0.000000 0.193126 0.366383
0.013874 0.241869 0.414847
0.048881 0.289533 0.462797
0.080570 0.335362 0.509543
0.108030 0.378504 0.554349
0.130276 0.418008 0.596438
0.146252 0.452826 0.634989
0.154831 0.481813 0.669138
0.154810 0.503726 0.697981
0.144918 0.517227 0.720568
0.123809 0.520877 0.735909
0.090064 0.513142 0.742968
0.042195 0.492389 0.740670
0.000000 0.456891 0.727896
0.000000 0.404819 0.703482
0.000000 0.334250 0.666224
0.000000 0.243163 0.614875
0.000000 0.129439 0.548143
0.000000 0.000000 0.464697
0.000000 0.000000 0.363161
0.000000 0.000000 0.242115
0.000000 0.000000 0.100099
0.000000 0.000000 0.000000
0.000000 0.000000 0.000000
0.000000 0.000000 0.000000
0.000000 0.000000 0.011643
0.000000 0.000000 0.045701
0.000000 0.000000 0.083307
0.000000 0.000000 0.124103
0.000000 0.014959 0.167685
0.000000 0.063315 0.213611
0.000000 0.112639 0.261393
0.000000 0.162544 0.310502
0.000000 0.212547 0.360365
0.000000 0.262067 0.410367
0.033298 0.310426 0.459851
0.064358 0.356849 0.508115
0.090822 0.400462 0.554417
0.111680 0.440295 0.597971
0.125849 0.475282 0.637948
0.132175 0.504256 0.673477
0.129429 0.525956 0.703643
0.116314 0.539022 0.727489
0.091457 0.541997 0.744017
0.053413 0.533326 0.752184
0.000668 0.511358 0.750904
0.000000 0.474344 0.739051
0.000000 0.420437 0.715453
0.000000 0.347693 0.678898
0.000000 0.254071 0.628130
0.000000 0.137433 0.561850
0.000000 0.000000 0.478716
0.000000 0.000000 0.377346
0.000000 0.000000 0.256312
0.000000 0.000000 0.114144
0.000000 0.000000 0.000000
0.000000 0.000000 0.000000
0.000000 0.000000 0.000000
0.000000 0.000000 0.000000
0.000000 0.000000 0.032678
0.000000 0.000000 0.071509
0.000000 0.000000 0.113574
0.000000 0.033142 0.158465
0.000000 0.081993 0.205727
0.000000 0.131801 0.254867
0.000000 0.182162 0.305346
0.000000 0.232571 0.356584
0.000000 0.282428 0.407956
0.017085 0.331036 0.458798
0.047234 0.377598 0.508400
0.072415 0.421223 0.556011
0.091590 0.460919 0.600837
0.103651 0.495601 0.642040
0.107417 0.524083 0.678741
0.101634 0.545082 0.710018
0.084977 0.557220 0.734905
0.056047 0.559020 0.752395
0.013374 0.548907 0.761437
0.000000 0.525210 0.760939
0.000000 0.486160 0.749763
0.000000 0.429891 0.726731
0.000000 0.354438 0.690622
0.000000 0.257742 0.640172
0.000000 0.137643 0.574074
0.000000 0.000000 0.490978
0.000000 0.000000 0.389492
0.000000 0.000000 0.268181
0.000000 0.000000 0.125568
0.000000 0.000000 0.000000
0.000000 0.000000 0.000000
0.000000 0.000000 0.000000
0.000000 0.000000 0.000000
0.000000 0.000000 0.023081
0.000000 0.000000 0.063026
0.000000 0.005739 0.106244
0.000000 0.053429 0.152319
0.000000 0.102388 0.200788
0.000000 0.152289 0.251149
0.000000 0.202706 0.302856
0.000000 0.253116 0.355319
0.000000 0.302898 0.407907
0.000980 0.351335 0.459945
0.029954 0.397611 0.510717
0.053582 0.440814 0.559463
0.070799 0.479935 0.605380
0.080471 0.513866 0.647623
0.081390 0.541402 0.685304
0.072276 0.561242 0.717492
0.051778 0.571987 0.743215
0.018470 0.572139 0.761455
0.000000 0.560105 0.771155
0.000000 0.534193 0.771212
0.000000 0.492615 0.760483
0.000000 0.433485 0.737780
0.000000 0.354819 0.701874
0.000000 0.254536 0.651493
0.000000 0.130458 0.585320
0.000000 0.000000 0.502000
0.000000 0.000000 0.400130
0.000000 0.000000 0.278268
0.000000 0.000000 0.134927
0.000000 0.000000 0.000000
0.000000 0.000000 0.000000
0.000000 0.000000 0.000000
0.000000 0.000000 0.000000
0.000000 0.000000 0.017181
0.000000 0.000000 0.058142
0.000000 0.028141 0.102410
0.000000 0.075585 0.149558
0.000000 0.124295 0.199117
0.000000 0.173924 0.250577
0.000000 0.224025 0.303382
0.000000 0.274057 0.356935
0.000000 0.323379 0.410596
0.000000 0.371253 0.463683
0.013315 0.416845 0.515470
0.035139 0.459223 0.565190
0.050142 0.497356 0.612031
0.057162 0.530118 0.655140
0.054966 0.556285 0.693621
0.042247 0.574534 0.726536
0.017626 0.583446 0.752901
0.000000 0.581506 0.771693
0.000000 0.567100 0.781846
0.000000 0.538515 0.782248
0.000000 0.493945 0.771748
0.000000 0.431482 0.749151
0.000000 0.349123 0.713218
0.000000 0.244769 0.662668
0.000000 0.116220 0.596179
0.000000 0.000000 0.512385
0.000000 0.000000 0.409876
0.000000 0.000000 0.287201
0.000000 0.000000 0.142866
0.000000 0.000000 0.000000
0.000000 0.000000 0.000000
0.000000 0.000000 0.000000
0.000000 0.000000 0.000000
0.000000 0.000000 0.015335
0.000000 0.007115 0.057227
0.000000 0.052461 0.102453
0.000000 0.099334 0.150577
0.000000 0.147463 0.201124
0.000000 0.196482 0.253572
0.000000 0.245924 0.307359
0.000000 0.295228 0.361880
0.000000 0.343732 0.416486
0.000000 0.390680 0.470486
0.000000 0.435218 0.523148
0.017940 0.476392 0.573694
0.030491 0.513154 0.621305
0.034617 0.544356 0.665121
0.029056 0.568756 0.704236
0.012477 0.585010 0.737703
0.000000 0.591680 0.764532
0.000000 0.587231 0.783691
0.000000 0.570028 0.794105
0.000000 0.538340 0.794654
0.000000 0.490340 0.784179
0.000000 0.424100 0.761477
0.000000 0.337600 0.725300
0.000000 0.228717 0.674360
0.000000 0.095234 0.607325
0.000000 0.000000 0.522821
0.000000 0.000000 0.419431
0.000000 0.000000 0.295694
0.000000 0.000000 0.150110
0.000000 0.000000 0.000000
0.000000 0.000000 0.000000
0.000000 0.000000 0.000000
0.000000 0.000000 0.000000
0.000000 0.000000 0.017981
0.000000 0.033875 0.060734
0.000000 0.078350 0.106840
0.000000 0.124356 0.155858
0.000000 0.171602 0.207301
0.000000 0.219701 0.260641
0.000000 0.268168 0.315308
0.000000 0.316420 0.370687
0.000000 0.363777 0.426122
0.000000 0.409462 0.480915
0.000000 0.452602 0.534323
0.002879 0.492223 0.585561
0.012762 0.527257 0.633802
0.013768 0.556538 0.678177
0.004613 0.578800 0.717773
0.000000 0.592683 0.751633
0.000000 0.596729 0.778761
0.000000 0.589380 0.798115
0.000000 0.568984 0.808611
0.000000 0.533791 0.809123
0.000000 0.481951 0.798482
0.000000 0.411519 0.775477
0.000000 0.320453 0.738853
0.000000 0.206612 0.687312
0.000000 0.067759 0.619515
0.000000 0.000000 0.534079
0.000000 0.000000 0.429579
0.000000 0.000000 0.304547
0.000000 0.000000 0.157472
0.000000 0.000000 0.000000
0.000000 0.000000 0.000000
0.000000 0.000000 0.000000
0.000000 0.000000 0.000000
0.000000 0.020475 0.025646
0.000000 0.062077 0.069201
0.000000 0.105420 0.116124
0.000000 0.150290 0.165963
0.000000 0.196377 0.218226
0.000000 0.243275 0.272375
0.000000 0.290477 0.327832
0.000000 0.337382 0.383974
0.000000 0.383290 0.440137
0.000000 0.427404 0.495613
0.000000 0.468830 0.549652
0.000000 0.506576 0.601462
0.000000 0.539554 0.650206
0.000000 0.566576 0.695007
0.000000 0.586360 0.734943
0.000000 0.597523 0.769051
0.000000 0.598588 0.796324
0.000000 0.587979 0.815714
0.000000 0.564022 0.826127
0.000000 0.524947 0.826431
0.000000 0.468885 0.815447
0.000000 0.393873 0.791955
0.000000 0.297846 0.754693
0.000000 0.178645 0.702355
0.000000 0.034013 0.633593
0.000000 0.000000 0.547017
0.000000 0.000000 0.441191
0.000000 0.000000 0.314641
0.000000 0.000000 0.165847
0.000000 0.000000 0.000000
0.000000 0.000000 0.000000
0.000000 0.000000 0.000000
0.000000 0.012700 0.000000
0.000000 0.051040 0.038939
0.000000 0.091265 0.083251
0.000000 0.133240 0.130939
0.000000 0.176733 0.181543
0.000000 0.221414 0.234562
0.000000 0.266855 0.289450
0.000000 0.312531 0.345621
0.000000 0.357821 0.402443
0.000000 0.402005 0.459244
0.000000 0.444267 0.515309
0.000000 0.483692 0.569878
0.000000 0.519269 0.622151
0.000000 0.549889 0.671284
0.000000 0.574346 0.716390
0.000000 0.591336 0.756541
0.000000 0.599458 0.790763
0.000000 0.597215 0.818043
0.000000 0.583010 0.837323
0.000000 0.555151 0.847503
0.000000 0.511846 0.847439
0.000000 0.451209 0.835947
0.000000 0.371255 0.811799
0.000000 0.269900 0.773722
0.000000 0.144964 0.720404
0.000000 0.000000 0.650487
0.000000 0.000000 0.562574
0.000000 0.000000 0.455221
0.000000 0.000000 0.326945
0.000000 0.000000 0.176217
0.000000 0.000000 0.000000
0.000000 0.000000 0.000000
0.000000 0.010776 0.000000
0.000000 0.045550 0.017316
0.000000 0.082289 0.058552
0.000000 0.120937 0.103590
0.000000 0.161338 0.152005
0.000000 0.203240 0.203331
0.000000 0.246293 0.257055
0.000000 0.290051 0.312626
0.000000 0.333968 0.369447
0.000000 0.377402 0.426881
0.000000 0.419616 0.484245
0.000000 0.459771 0.540816
0.000000 0.496935 0.595827
0.000000 0.530076 0.648470
0.000000 0.558065 0.697890
0.000000 0.579676 0.743195
0.000000 0.593586 0.783446
0.000000 0.598374 0.817664
0.000000 0.592522 0.844824
0.000000 0.574415 0.863862
0.000000 0.542340 0.873669
0.000000 0.494486 0.873094
0.000000 0.428947 0.860943
0.000000 0.343716 0.835980
0.000000 0.236693 0.796925
0.000000 0.105677 0.742456
0.000000 0.000000 0.671209
0.000000 0.000000 0.581776
0.000000 0.000000 0.472707
0.000000 0.000000 0.342510
0.000000 0.000000 0.189647
0.000000 0.000000 0.000000
0.000000 0.014720 0.000000
0.000000 0.045709 0.005581
0.000000 0.078680 0.043325
0.000000 0.113653 0.085265
0.000000 0.150550 0.131011
0.000000 0.189198 0.180129
0.000000 0.229323 0.232144
0.000000 0.270556 0.286537
0.000000 0.312431 0.342747
0.000000 0.354382 0.400170
0.000000 0.395749 0.458158
0.000000 0.435772 0.516023
0.000000 0.473596 0.573032
0.000000 0.508265 0.628411
0.000000 0.538730 0.681341
0.000000 0.563842 0.730962
0.000000 0.582355 0.776372
0.000000 0.592925 0.816624
0.000000 0.594113 0.850729
0.000000 0.584381 0.877658
0.000000 0.562092 0.896335
0.000000 0.525515 0.905644
0.000000 0.472820 0.904426
0.000000 0.402078 0.891479
0.000000 0.311267 0.865557
0.000000 0.198263 0.825373
0.000000 0.060847 0.769597
0.000000 0.000000 0.696856
0.000000 0.000000 0.605734
0.000000 0.000000 0.494773
0.000000 0.000000 0.362472
0.000000 0.000000 0.207287
0.000000 0.024339 0.000000
0.000000 0.051409 0.004964
0.000000 0.080414 0.038851
0.000000 0.111450 0.077295
0.000000 0.144518 0.119940
0.000000 0.179520 0.166389
0.000000 0.216262 0.216199
0.000000 0.254452 0.268887
0.000000 0.293700 0.323925
0.000000 0.333520 0.380743
0.000000 0.373327 0.438731
0.000000 0.412441 0.497232
0.000000 0.450083 0.555548
0.000000 0.485376 0.612940
0.000000 0.517346 0.668624
0.000000 0.544924 0.721774
0.000000 0.566940 0.771521
0.000000 0.582129 0.816955
0.000000 0.589129 0.857121
0.000000 0.586478 0.891022
0.000000 0.572619 0.917619
0.000000 0.545898 0.935830
0.000000 0.504561 0.944529
0.000000 0.446759 0.942550
0.000000 0.370544 0.928681
0.000000 0.273873 0.901669
0.000000 0.154603 0.860220
0.000000 0.010495 0.802993
0.000000 0.000000 0.728609
0.000000 0.000000 0.635642
0.000000 0.000000 0.522627
0.000000 0.000000 0.388054
0.000000 0.000000 0.230370
0.000000 0.062332 0.016681
0.000000 0.087258 0.046395
0.000000 0.114181 0.080995
0.000000 0.143178 0.120160
0.000000 0.174230 0.163526
0.000000 0.207219 0.210685
0.000000 0.241931 0.261189
0.000000 0.278055 0.314545
0.000000 0.315180 0.370217
0.000000 0.352802 0.427628
0.000000 0.390314 0.486157
0.000000 0.427018 0.545141
0.000000 0.462113 0.603873
0.002133 0.494705 0.661606
0.011843 0.523799 0.717547
0.012528 0.548305 0.770862
0.002887 0.567035 0.820675
0.000000 0.578703 0.866066
0.000000 0.581928 0.906072
0.000000 0.575227 0.939689
0.000000 0.557026 0.965868
0.000000 0.525647 0.983520
0.000000 0.479319 0.991511
0.000000 0.416173 0.988665
0.000000 0.334241 0.973763
0.000000 0.231460 0.945544
0.000000 0.105667 0.902705
0.000000 0.000000 0.843898
0.000000 0.000000 0.767733
0.000000 0.000000 0.672779
0.000000 0.000000 0.557560
0.000000 0.000000 0.420560
0.000000 0.000000 0.260216
0.000000 0.098769 0.067206
0.000000 0.121488 0.097664
0.000000 0.146259 0.133018
0.000000 0.173141 0.172939
0.000000 0.202093 0.217053
0.000000 0.232979 0.264945
0.000000 0.265565 0.316158
0.000000 0.299519 0.370191
0.000000 0.334411 0.426500
0.000000 0.369717 0.484499
0.000000 0.404812 0.543560
0.000000 0.438975 0.603010
0.021214 0.471388 0.662136
0.036379 0.501135 0.720181
0.043334 0.527202 0.776344
0.040823 0.548480 0.829783
0.027522 0.563761 0.879614
0.002032 0.571739 0.924907
0.000000 0.571011 0.964694
0.000000 0.560079 0.997960
0.000000 0.537344 1.000000
0.000000 0.501111 1.000000
0.000000 0.449590 1.000000
0.000000 0.380890 1.000000
0.000000 0.293025 1.000000
0.000000 0.183910 0.998492
0.000000 0.051365 0.954152
0.000000 0.000000 0.893647
0.000000 0.000000 0.815579
0.000000 0.000000 0.718508
0.000000 0.000000 0.600950
0.000000 0.000000 0.461380
0.000000 0.000000 0.298229
0.000000 0.132801 0.128586
0.000000 0.153277 0.159849
0.000000 0.175854 0.196011
0.000000 0.200570 0.236735
0.000000 0.227367 0.281638
0.000000 0.256088 0.330298
0.000000 0.286478 0.382249
0.000000 0.318187 0.436981
0.000000 0.350765 0.493943
0.000000 0.383666 0.552540
0.022011 0.416247 0.612136
0.048493 0.447767 0.672050
0.068689 0.477389 0.731560
0.081464 0.504175 0.789901
0.085609 0.527094 0.846264
0.079845 0.545015 0.899800
0.062819 0.556711 0.949613
0.033106 0.560856 0.994769
0.000000 0.556028 1.000000
0.000000 0.540707 1.000000
0.000000 0.513277 1.000000
0.000000 0.472022 1.000000
0.000000 0.415131 1.000000
0.000000 0.340695 1.000000
0.000000 0.246708 1.000000
0.000000 0.131064 1.000000
0.000000 0.000000 1.000000
0.000000 0.000000 0.953664
0.000000 0.000000 0.873583
0.000000 0.000000 0.774278
0.000000 0.000000 0.654258
0.000000 0.000000 0.511990
0.000000 0.000000 0.345895
0.000000 0.163537 0.201971
0.000000 0.181761 0.234112
0.000000 0.202129 0.271149
0.000000 0.224659 0.312735
0.000000 0.249272 0.358483
0.000000 0.275793 0.407958
0.000000 0.303946 0.460688
0.000000 0.333361 0.516156
0.019884 0.363569 0.573800
0.054834 0.394005 0.633018
0.085235 0.424004 0.693165
0.110068 0.452807 0.753554
0.128244 0.479555 0.813452
0.138601 0.503293 0.872087
0.139904 0.522969 0.928642
0.130846 0.537432 0.982258
0.110049 0.545434 1.000000
0.076062 0.545631 1.000000
0.027360 0.536582 1.000000
0.000000 0.516745 1.000000
0.000000 0.484485 1.000000
0.000000 0.438066 1.000000
0.000000 0.375658 1.000000
0.000000 0.295332 1.000000
0.000000 0.195061 1.000000
0.000000 0.072721 1.000000
0.000000 0.000000 1.000000
0.000000 0.000000 1.000000
0.000000 0.000000 0.943262
0.000000 0.000000 0.841621
0.000000 0.000000 0.719030
0.000000 0.000000 0.573948
0.000000 0.000000 0.404788
0.000000 0.190042 0.288591
0.000000 0.206034 0.321697
0.000000 0.224205 0.359689
0.000000 0.244556 0.402213
0.000000 0.266985 0.448872
0.000000 0.291298 0.499225
0.019906 0.317200 0.552789
0.060797 0.344301 0.609040
0.098684 0.372112 0.667409
0.132666 0.400048 0.727285
0.161774 0.427425 0.788014
0.184962 0.453463 0.848900
0.201115 0.477285 0.909203
0.209045 0.497914 0.968143
0.207490 0.514279 1.000000
0.195118 0.525210 1.000000
0.170524 0.529439 1.000000
0.132229 0.525602 1.000000
0.078684 0.512236 1.000000
0.008267 0.487783 1.000000
0.000000 0.450586 1.000000
0.000000 0.398891 1.000000
0.000000 0.330845 1.000000
0.000000 0.244501 1.000000
0.000000 0.137813 1.000000
0.000000 0.008636 1.000000
0.000000 0.000000 1.000000
0.000000 0.000000 1.000000
0.000000 0.000000 1.000000
0.000000 0.000000 0.922155
0.000000 0.000000 0.796897
0.000000 0.000000 0.648898
0.000000 0.000000 0.476564
0.000000 0.211342 0.389765
0.000000 0.225148 0.423935
0.000000 0.241164 0.462976
0.000000 0.259367 0.506525
0.026583 0.279640 0.554176
0.071203 0.301766 0.605481
0.114173 0.325431 0.659948
0.154714 0.350225 0.717045
0.191972 0.375639 0.776194
0.225021 0.401069 0.836776
0.252863 0.425811 0.898130
0.274429 0.449065 0.959551
0.288576 0.469934 1.000000
0.294090 0.487422 1.000000
0.289682 0.500436 1.000000
0.273994 0.507789 1.000000
0.245594 0.508192 1.000000
0.202979 0.500260 1.000000
0.144571 0.482513 1.000000
0.068722 0.453371 1.000000
0.000000 0.411157 1.000000
0.000000 0.354098 1.000000
0.000000 0.280323 1.000000
0.000000 0.187862 1.000000
0.000000 0.074650 1.000000
0.000000 0.000000 1.000000
0.000000 0.000000 1.000000
0.000000 0.000000 1.000000
0.000000 0.000000 1.000000
0.000000 0.000000 1.000000
0.000000 0.000000 0.889573
0.000000 0.000000 0.738568
0.000000 0.000000 0.562965
0.000000 0.226418 0.506894
0.000000 0.238114 0.542242
0.043846 0.252042 0.582438
0.090301 0.268160 0.627112
0.136272 0.286330 0.675849
0.181098 0.306316 0.728194
0.224042 0.327786 0.783646
0.264298 0.350307 0.841664
0.300987 0.373353 0.901662
0.333156 0.396298 0.963014
0.359781 0.418420 1.000000
0.379766 0.438898 1.000000
0.391943 0.456815 1.000000
0.395069 0.471156 1.000000
0.387832 0.480809 1.000000
0.368845 0.484564 1.000000
0.336652 0.481116 1.000000
0.289721 0.469058 1.000000
0.226449 0.446891 1.000000
0.145163 0.413014 1.000000
0.044114 0.365733 1.000000
0.000000 0.303252 1.000000
0.000000 0.223681 1.000000
0.000000 0.125031 1.000000
0.000000 0.005218 1.000000
0.000000 0.000000 1.000000
0.000000 0.000000 1.000000
0.000000 0.000000 1.000000
0.000000 0.000000 1.000000
0.000000 0.000000 1.000000
0.000000 0.000000 0.998857
0.000000 0.000000 0.844772
0.000000 0.000000 0.665817
0.075057 0.234211 0.641463
0.121770 0.243899 0.678115
0.168976 0.255834 0.719587
0.216130 0.269955 0.765500
0.262615 0.286105 0.815432
0.307743 0.304028 0.868917
0.350751 0.323370 0.925448
0.390808 0.343682 0.984476
0.427006 0.364415 1.000000
0.458368 0.384924 1.000000
0.483843 0.404468 1.000000
0.502308 0.422205 1.000000
0.512568 0.437199 1.000000
0.513356 0.448416 1.000000
0.503332 0.454723 1.000000
0.481084 0.454890 1.000000
0.445127 0.447592 1.000000
0.393905 0.431405 1.000000
0.325789 0.404806 1.000000
0.239077 0.366178 1.000000
0.131996 0.313804 1.000000
0.002701 0.245870 1.000000
0.000000 0.160466 1.000000
0.000000 0.055584 1.000000
0.000000 0.000000 1.000000
0.000000 0.000000 1.000000
0.000000 0.000000 1.000000
