lrplugin/MindfulLensFilmEngine.lrplugin/profiles/luts/portra_400_nlp_calib.cube
# Generated from ColorChecker fit
LUT_3D_SIZE 5
DOMAIN_MIN 0.0 0.0 0.0
DOMAIN_MAX 1.0 1.0 1.0
0.070374 0.000000 0.093225
0.000000 0.000000 0.000000
0.000000 0.000000 0.000000
0.000000 0.000000 0.000000
0.000000 0.000000 0.789726
0.677158 0.333863 0.427793
0.142572 0.054625 0.542937
0.000000 0.000000 0.613178
0.000000 0.000000 0.462582
0.000000 0.165189 0.127061
1.000000 0.547527 0.267669
0.685134 0.543804 0.867418
0.070834 0.225820 1.000000
0.000000 0.000000 0.261255
0.000000 0.000000 0.000000
1.000000 0.756295 1.000000
1.000000 0.917959 1.000000
0.998210 0.285588 1.000000
0.000000 0.000000 0.896585
0.000000 0.000000 0.000000
1.000000 1.000000 1.000000
1.000000 1.000000 1.000000
1.000000 0.072224 1.000000
0.997114 0.000000 1.000000
0.000000 0.000000 0.000000
0.239855 0.193781 0.126348
0.000000 0.000000 0.000000
0.000000 0.000000 0.000000
0.000000 0.000000 0.414365
1.000000 0.254758 1.000000
0.465374 0.446476 0.349101
0.268132 0.313261 0.324119
0.268832 0.268855 0.513346
0.517109 0.379816 0.858007
1.000000 0.640637 1.000000
0.364382 0.519055 0.046412
0.421406 0.690041 0.482735
0.329487 0.669734 0.713141
0.000000 0.396073 0.438672
0.000000 0.000000 0.000000
1.000000 0.809655 0.738359
1.000000 1.000000 1.000000
1.000000 1.000000 1.000000
0.000000 0.127643 0.777070
0.000000 0.000000 0.000000
1.000000 1.000000 1.000000
1.000000 1.000000 1.000000
1.000000 1.000000 1.000000
1.000000 0.000000 1.000000
0.000000 0.000000 0.000000
0.569040 0.277609 0.303823
0.072642 0.000000 0.000000
0.142514 0.000000 0.000000
0.801426 0.050768 1.000000
1.000000 0.388906 1.000000
0.585393 0.521051 0.434961
0.425595 0.292412 0.273306
0.627893 0.284342 0.550941
1.000000 0.324653 1.000000
1.000000 0.169095 1.000000
0.123838 0.462114 0.000000
0.268696 0.529095 0.244091
0.406128 0.537223 0.511735
0.244000 0.185693 0.614897
0.000000 0.000000 0.583630
0.869092 0.717766 0.521404
1.000000 1.000000 1.000000
1.000000 1.000000 1.000000
0.072814 0.283264 0.566209
0.000000 0.000000 0.000000
1.000000 1.000000 1.000000
1.000000 1.000000 1.000000
1.000000 1.000000 1.000000
1.000000 1.000000 1.000000
0.000000 0.000000 0.000000
0.834259 0.155402 0.369509
0.267857 0.000000 0.000000
0.448834 0.183095 0.247704
1.000000 0.576957 1.000000
1.000000 0.775678 1.000000
1.000000 0.671213 0.550364
0.753045 0.410338 0.413448
1.000000 0.511265 0.906868
1.000000 0.563063 1.000000
1.000000 0.082733 1.000000
0.450995 0.636031 0.095847
0.561594 0.624929 0.295569
0.800598 0.696889 0.701807
0.691557 0.312359 1.000000
0.000000 0.000000 1.000000
1.000000 0.885658 0.568224
1.000000 1.000000 1.000000
1.000000 1.000000 1.000000
0.727263 0.693055 0.845129
0.000000 0.000000 0.000000
1.000000 1.000000 1.000000
1.000000 1.000000 1.000000
1.000000 1.000000 1.000000
1.000000 1.000000 1.000000
0.000000 0.000000 0.369975
0.038400 0.000000 0.000000
0.000000 0.000000 0.000000
0.000000 0.402699 0.591369
0.605883 1.000000 1.000000
1.000000 1.000000 1.000000
0.938725 0.319979 0.202584
0.615126 0.394694 0.409775
0.964877 0.981918 1.000000
1.000000 1.000000 1.000000
1.000000 1.000000 1.000000
0.741745 0.609530 0.000000
0.861242 0.850905 0.423529
1.000000 1.000000 1.000000
1.000000 1.000000 1.000000
0.225845 0.000000 1.000000
1.000000 1.000000 0.628354
1.000000 1.000000 1.000000
1.000000 1.000000 1.000000
1.000000 1.000000 1.000000
0.000000 0.000000 1.000000
1.000000 1.000000 1.000000
1.000000 1.000000 1.000000
1.000000 1.000000 1.000000
1.000000 1.000000 1.000000
1.000000 0.668178 1.000000
