lrplugin/MindfulLensFilmEngine.lrplugin/profiles/luts/portra_400_nlp_calib.cube
# Generated from ColorChecker fit
LUT_3D_SIZE 33
DOMAIN_MIN 0.0 0.0 0.0
DOMAIN_MAX 1.0 1.0 1.0
0.070374 0.000000 0.093225
0.000000 0.000000 0.028344
0.000000 0.000000 0.000000
0.000000 0.000000 0.000000
0.000000 0.000000 0.000000
0.000000 0.000000 0.000000
0.000000 0.000000 0.000000
0.000000 0.000000 0.000000
0.000000 0.000000 0.000000
0.000000 0.000000 0.000000
0.000000 0.000000 0.000000
0.000000 0.000000 0.000000
0.000000 0.000000 0.000000
0.000000 0.000000 0.000000
0.000000 0.000000 0.000000
0.000000 0.000000 0.000000
0.000000 0.000000 0.000000
0.000000 0.000000 0.000000
0.000000 0.000000 0.000000
0.000000 0.000000 0.000000
0.000000 0.000000 0.000000
0.000000 0.000000 0.000000
0.000000 0.000000 0.000000
0.000000 0.000000 0.000000
0.000000 0.000000 0.000000
0.000000 0.000000 0.000000
0.000000 0.000000 0.049093
0.000000 0.000000 0.139391
0.000000 0.000000 0.241658
0.000000 0.000000 0.356820
0.000000 0.000000 0.485856
0.000000 0.000000 0.629797
0.000000 0.000000 0.789726
0.187367 0.003159 0.187246
0.075815 0.000000 0.131065
0.000000 0.000000 0.080741
0.000000 0.000000 0.035800
0.000000 0.000000 0.000000
0.000000 0.000000 0.000000
0.000000 0.000000 0.000000
0.000000 0.000000 0.000000
0.000000 0.000000 0.000000
0.000000 0.000000 0.000000
0.000000 0.000000 0.000000
0.000000 0.000000 0.000000
0.000000 0.000000 0.000000
0.000000 0.000000 0.000000
0.000000 0.000000 0.000000
0.000000 0.000000 0.000000
0.000000 0.000000 0.000000
0.000000 0.000000 0.000000
0.000000 0.000000 0.000000
0.000000 0.000000 0.000000
0.000000 0.000000 0.000000
0.000000 0.000000 0.000000
0.000000 0.000000 0.000000
0.000000 0.000000 0.000000
0.000000 0.000000 0.041466
0.000000 0.000000 0.099127
0.000000 0.000000 0.165491
0.000000 0.000000 0.241325
0.000000 0.000000 0.327444
0.000000 0.000000 0.424717
0.000000 0.000000 0.534065
0.000000 0.000000 0.656459
0.000000 0.000000 0.792924
0.291059 0.064415 0.265295
0.187325 0.006793 0.217828
0.082450 0.000000 0.176040
0.000000 0.000000 0.139396
0.000000 0.000000 0.107413
0.000000 0.000000 0.079659
0.000000 0.000000 0.055754
0.000000 0.000000 0.035371
0.000000 0.000000 0.018234
0.000000 0.000000 0.004117
0.000000 0.000000 0.000000
0.000000 0.000000 0.000000
0.000000 0.000000 0.000000
0.000000 0.000000 0.000000
0.000000 0.000000 0.000000
0.000000 0.000000 0.000000
0.000000 0.000000 0.000000
0.000000 0.000000 0.000000
0.000000 0.000000 0.001555
0.000000 0.000000 0.016675
0.000000 0.000000 0.035759
0.000000 0.000000 0.059204
0.000000 0.000000 0.087458
0.000000 0.000000 0.121019
0.000000 0.000000 0.160440
0.000000 0.000000 0.206322
0.000000 0.000000 0.259322
0.000000 0.000000 0.320145
0.000000 0.000000 0.389550
0.000000 0.000000 0.468346
0.000000 0.000000 0.557395
0.000000 0.000000 0.657611
0.000000 0.000000 0.769958
0.381972 0.120244 0.327575
0.285769 0.068937 0.288848
0.188445 0.012166 0.255599
0.090398 0.000000 0.227234
0.000000 0.000000 0.203211
0.000000 0.000000 0.183040
0.000000 0.000000 0.166283
0.000000 0.000000 0.152554
0.000000 0.000000 0.141517
0.000000 0.000000 0.132889
0.000000 0.000000 0.126438
0.000000 0.000000 0.121986
0.000000 0.000000 0.119404
0.000000 0.000000 0.118615
0.000000 0.000000 0.119595
0.000000 0.000000 0.122372
0.000000 0.000000 0.127024
0.000000 0.000000 0.133681
0.000000 0.000000 0.142527
0.000000 0.000000 0.153794
0.000000 0.000000 0.167770
0.000000 0.000000 0.184790
0.000000 0.000000 0.205245
0.000000 0.000000 0.229576
0.000000 0.000000 0.258274
0.000000 0.000000 0.291885
0.000000 0.000000 0.331005
0.000000 0.000000 0.376280
0.000000 0.000000 0.428412
0.000000 0.000000 0.488150
0.000000 0.000000 0.556299
0.000000 0.000000 0.633712
0.000000 0.000000 0.721296
0.460829 0.171112 0.374551
0.371873 0.126040 0.344597
0.281774 0.075589 0.319898
0.190893 0.020665 0.299802
0.099613 0.000000 0.283707
0.008342 0.000000 0.271067
0.000000 0.000000 0.261382
0.000000 0.000000 0.254210
0.000000 0.000000 0.249154
0.000000 0.000000 0.245875
0.000000 0.000000 0.244082
0.000000 0.000000 0.243536
0.000000 0.000000 0.244051
0.000000 0.000000 0.245492
0.000000 0.000000 0.247775
0.000000 0.000000 0.250870
0.000000 0.000000 0.254796
0.000000 0.000000 0.259626
0.000000 0.000000 0.265482
0.000000 0.000000 0.272541
0.000000 0.000000 0.281029
0.000000 0.000000 0.291226
0.000000 0.000000 0.303462
0.000000 0.000000 0.318119
0.000000 0.000000 0.335631
0.000000 0.000000 0.356485
0.000000 0.000000 0.381216
0.000000 0.000000 0.410415
0.000000 0.000000 0.444723
0.000000 0.000000 0.484831
0.000000 0.000000 0.531485
0.000000 0.000000 0.585481
0.000000 0.000000 0.647666
0.528552 0.217472 0.406948
0.446561 0.178560 0.385808
0.363366 0.134304 0.369679
0.279288 0.085578 0.357849
0.194673 0.033242 0.349660
0.109890 0.000000 0.344503
0.025331 0.000000 0.341825
0.000000 0.000000 0.341120
0.000000 0.000000 0.341937
0.000000 0.000000 0.343875
0.000000 0.000000 0.346585
0.000000 0.000000 0.349771
0.000000 0.000000 0.353186
0.000000 0.000000 0.356638
0.000000 0.000000 0.359985
0.000000 0.000000 0.363136
0.000000 0.000000 0.366054
0.000000 0.000000 0.368751
0.000000 0.000000 0.371292
0.000000 0.000000 0.373794
0.000000 0.000000 0.376426
0.000000 0.000000 0.379408
0.000000 0.000000 0.383012
0.000000 0.000000 0.387561
0.000000 0.000000 0.393431
0.000000 0.000000 0.401049
0.000000 0.000000 0.410894
0.000000 0.000000 0.423495
0.000000 0.000000 0.439437
0.000000 0.000000 0.459351
0.000000 0.000000 0.483925
0.000000 0.000000 0.513896
0.000000 0.030012 0.550052
0.586266 0.259766 0.425750
0.510959 0.226939 0.413473
0.434347 0.188756 0.405941
0.356712 0.146058 0.402383
0.278360 0.099674 0.402083
0.199624 0.050411 0.404375
0.120857 0.000000 0.408643
0.042438 0.000000 0.414326
0.000000 0.000000 0.420913
0.000000 0.000000 0.427944
0.000000 0.000000 0.435013
0.000000 0.000000 0.441763
0.000000 0.000000 0.447891
0.000000 0.000000 0.453144
0.000000 0.000000 0.457323
0.000000 0.000000 0.460277
0.000000 0.000000 0.461911
0.000000 0.000000 0.462179
0.000000 0.000000 0.461087
0.000000 0.000000 0.458693
0.000000 0.000000 0.455107
0.000000 0.000000 0.450491
0.000000 0.000000 0.445058
0.000000 0.000000 0.439074
0.000000 0.000000 0.432854
0.000000 0.000000 0.426767
0.000000 0.000000 0.421233
0.000000 0.000000 0.416725
0.000000 0.000000 0.413766
0.000000 0.000000 0.412931
0.000000 0.000000 0.414847
0.000000 0.000000 0.420193
0.000000 0.104923 0.429700
0.635293 0.298424 0.432197
0.566393 0.271611 0.428841
0.496046 0.239379 0.429942
0.424495 0.202542 0.434672
0.352009 0.161893 0.442254
0.278880 0.118210 0.451964
0.205425 0.072252 0.463129
0.131983 0.024763 0.475127
0.058919 0.000000 0.487390
0.000000 0.000000 0.499400
0.000000 0.000000 0.510690
0.000000 0.000000 0.520846
0.000000 0.000000 0.529506
0.000000 0.000000 0.536359
0.000000 0.000000 0.541145
0.000000 0.000000 0.543658
0.000000 0.000000 0.543742
0.000000 0.000000 0.541292
0.000000 0.000000 0.536256
0.000000 0.000000 0.528635
0.000000 0.000000 0.518478
0.000000 0.000000 0.505890
0.000000 0.000000 0.491024
0.000000 0.000000 0.474087
0.000000 0.000000 0.455338
0.000000 0.000000 0.435085
0.000000 0.000000 0.413691
0.000000 0.000000 0.391568
0.000000 0.000000 0.369182
0.000000 0.000000 0.347050
0.000000 0.000000 0.325739
0.000000 0.045905 0.305870
0.000000 0.149814 0.288115
0.677158 0.333863 0.427793
0.614390 0.312995 0.433424
0.549992 0.286598 0.443202
0.484169 0.255454 0.456241
0.417151 0.220325 0.471706
0.349193 0.181959 0.488814
0.280572 0.141082 0.506833
0.211590 0.098407 0.525083
0.142572 0.054625 0.542937
0.073868 0.010412 0.559817
0.005851 0.000000 0.575200
0.000000 0.000000 0.588612
0.000000 0.000000 0.599632
0.000000 0.000000 0.607890
0.000000 0.000000 0.613070
0.000000 0.000000 0.614904
0.000000 0.000000 0.613178
0.000000 0.000000 0.607731
0.000000 0.000000 0.598451
0.000000 0.000000 0.585278
0.000000 0.000000 0.568206
0.000000 0.000000 0.547278
0.000000 0.000000 0.522591
0.000000 0.000000 0.494293
0.000000 0.000000 0.462582
0.000000 0.000000 0.427710
0.000000 0.000000 0.389981
0.000000 0.000000 0.349747
0.000000 0.000000 0.307417
0.000000 0.000000 0.263448
0.000000 0.000000 0.218349
0.000000 0.073345 0.172682
0.000000 0.165189 0.127061
0.713586 0.366488 0.414299
0.656677 0.351498 0.428990
0.597914 0.330822 0.447497
0.537465 0.305207 0.468877
0.475521 0.275388 0.492234
0.412299 0.242077 0.516727
0.348038 0.205973 0.541566
0.282999 0.167753 0.566012
0.217472 0.128081 0.589379
0.151766 0.087599 0.611031
0.086217 0.046935 0.630385
0.021184 0.006697 0.646911
0.000000 0.000000 0.660127
0.000000 0.000000 0.669606
0.000000 0.000000 0.674971
0.000000 0.000000 0.675898
0.000000 0.000000 0.672113
0.000000 0.000000 0.663396
0.000000 0.000000 0.649577
0.000000 0.000000 0.630539
0.000000 0.000000 0.606214
0.000000 0.000000 0.576589
0.000000 0.000000 0.541701
0.000000 0.000000 0.501639
0.000000 0.000000 0.456544
0.000000 0.000000 0.406609
0.000000 0.000000 0.352077
0.000000 0.000000 0.293245
0.000000 0.000000 0.230461
0.000000 0.000000 0.164123
0.000000 0.004273 0.094683
0.000000 0.073331 0.022644
0.000000 0.151536 0.000000
0.746502 0.396691 0.393733
0.695180 0.387517 0.417567
0.641741 0.372448 0.444865
0.586314 0.352203 0.474623
0.529053 0.327483 0.505890
0.470134 0.298971 0.537764
0.409759 0.267332 0.569396
0.348152 0.233214 0.599991
0.285562 0.197247 0.628802
0.222261 0.160044 0.655135
0.158545 0.122200 0.678349
0.094736 0.084293 0.697854
0.031177 0.046882 0.713110
0.000000 0.010510 0.723632
0.000000 0.000000 0.728984
0.000000 0.000000 0.728784
0.000000 0.000000 0.722698
0.000000 0.000000 0.710448
0.000000 0.000000 0.691805
0.000000 0.000000 0.666593
0.000000 0.000000 0.634687
0.000000 0.000000 0.596014
0.000000 0.000000 0.550553
0.000000 0.000000 0.498335
0.000000 0.000000 0.439440
0.000000 0.000000 0.374005
0.000000 0.000000 0.302213
0.000000 0.000000 0.224302
0.000000 0.000000 0.140562
0.000000 0.000000 0.051333
0.000000 0.000000 0.000000
0.000000 0.046335 0.000000
0.000000 0.109333 0.000000
0.778031 0.424854 0.368378
0.732027 0.421434 0.401444
0.683603 0.411864 0.437601
0.632849 0.396830 0.475785
0.579880 0.377003 0.514986
0.524835 0.353034 0.554245
0.467876 0.325556 0.592654
0.409189 0.295187 0.629357
0.348984 0.262525 0.663551
0.287496 0.228151 0.694483
0.224982 0.192630 0.721452
0.161725 0.156507 0.743810
0.098031 0.120310 0.760960
0.034228 0.084551 0.772356
0.000000 0.049722 0.777504
0.000000 0.016301 0.775963
0.000000 0.000000 0.767343
0.000000 0.000000 0.751304
0.000000 0.000000 0.727560
0.000000 0.000000 0.695876
0.000000 0.000000 0.656068
0.000000 0.000000 0.608006
0.000000 0.000000 0.551608
0.000000 0.000000 0.486848
0.000000 0.000000 0.413748
0.000000 0.000000 0.332383
0.000000 0.000000 0.242881
0.000000 0.000000 0.145420
0.000000 0.000000 0.040231
0.000000 0.000000 0.000000
0.000000 0.000000 0.000000
0.000000 0.000000 0.000000
0.000000 0.039044 0.000000
0.810499 0.451345 0.340770
0.769547 0.453620 0.383167
0.725831 0.449442 0.428260
0.679403 0.439465 0.474926
0.630338 0.424326 0.522095
0.578738 0.404647 0.568751
0.524727 0.381030 0.613926
0.468451 0.354060 0.656707
0.410083 0.324305 0.696231
0.349818 0.292314 0.731687
0.287877 0.258619 0.762315
0.224502 0.223735 0.787409
0.159960 0.188160 0.806313
0.094544 0.152373 0.818422
0.028568 0.116836 0.823184
0.000000 0.081992 0.820099
0.000000 0.048269 0.808717
0.000000 0.016076 0.788642
0.000000 0.000000 0.759528
0.000000 0.000000 0.721082
0.000000 0.000000 0.673061
0.000000 0.000000 0.615275
0.000000 0.000000 0.547585
0.000000 0.000000 0.469906
0.000000 0.000000 0.382201
0.000000 0.000000 0.284487
0.000000 0.000000 0.176833
0.000000 0.000000 0.059359
0.000000 0.000000 0.000000
0.000000 0.000000 0.000000
0.000000 0.000000 0.000000
0.000000 0.000000 0.000000
0.000000 0.000000 0.000000
0.846432 0.476519 0.313708
0.810268 0.484435 0.365544
0.770955 0.485544 0.419657
0.728508 0.480470 0.474867
0.682963 0.469820 0.530047
0.634382 0.454181 0.584119
0.582852 0.434126 0.636060
0.528481 0.410208 0.684896
0.471402 0.382963 0.729705
0.411774 0.352910 0.769619
0.349777 0.320550 0.803819
0.285616 0.286365 0.831539
0.219520 0.250821 0.852065
0.151742 0.214367 0.864735
0.082558 0.177433 0.868936
0.012269 0.140432 0.864111
0.000000 0.103759 0.849751
0.000000 0.067793 0.825401
0.000000 0.032892 0.790656
0.000000 0.000000 0.745165
0.000000 0.000000 0.688626
0.000000 0.000000 0.620791
0.000000 0.000000 0.541462
0.000000 0.000000 0.450495
0.000000 0.000000 0.347795
0.000000 0.000000 0.233320
0.000000 0.000000 0.107080
0.000000 0.000000 0.000000
0.000000 0.000000 0.000000
0.000000 0.000000 0.000000
0.000000 0.000000 0.000000
0.000000 0.000000 0.000000
0.000000 0.000000 0.000000
0.888557 0.500722 0.290250
0.856919 0.514225 0.351638
0.821707 0.520520 0.414865
0.782897 0.520200 0.478692
0.740488 0.513838 0.541932
0.694504 0.501992 0.603450
0.644991 0.485203 0.662162
0.592021 0.463993 0.717038
0.535688 0.438866 0.767097
0.476111 0.410309 0.811410
0.413432 0.378793 0.849102
0.347820 0.344767 0.879347
0.279463 0.308668 0.901373
0.208576 0.270911 0.914458
0.135398 0.231897 0.917933
0.060190 0.192005 0.911180
0.000000 0.151600 0.893632
0.000000 0.111029 0.864776
0.000000 0.070621 0.824148
0.000000 0.030685 0.771337
0.000000 0.000000 0.705985
0.000000 0.000000 0.627783
0.000000 0.000000 0.536476
0.000000 0.000000 0.431861
0.000000 0.000000 0.313783
0.000000 0.000000 0.182143
0.000000 0.000000 0.036892
0.000000 0.000000 0.000000
0.000000 0.000000 0.000000
0.000000 0.000000 0.000000
0.000000 0.000000 0.000000
0.000000 0.000000 0.000000
0.000000 0.000000 0.000000
0.939802 0.524285 0.273711
0.912430 0.543325 0.344776
0.881018 0.554707 0.417218
0.845506 0.558992 0.489741
0.805852 0.556723 0.561099
0.762042 0.548426 0.630099
0.714085 0.534610 0.695599
0.662013 0.515766 0.756508
0.605883 0.492366 0.811787
0.545775 0.464867 0.860450
0.481792 0.433706 0.901562
0.414064 0.399305 0.934240
0.342743 0.362065 0.957651
0.268003 0.322372 0.971016
0.190046 0.280595 0.973606
0.109094 0.237082 0.964745
0.025395 0.192167 0.943808
0.000000 0.146164 0.910223
0.000000 0.099371 0.863467
0.000000 0.052067 0.803072
0.000000 0.004515 0.728618
0.000000 0.000000 0.639741
0.000000 0.000000 0.536125
0.000000 0.000000 0.417508
0.000000 0.000000 0.283679
0.000000 0.000000 0.134478
0.000000 0.000000 0.000000
0.000000 0.000000 0.000000
0.000000 0.000000 0.000000
0.000000 0.000000 0.000000
0.000000 0.000000 0.000000
0.000000 0.000000 0.000000
0.000000 0.000000 0.000000
1.000000 0.547527 0.267669
0.979929 0.572058 0.348540
0.952021 0.588430 0.430308
0.919467 0.597176 0.511615
0.882190 0.598806 0.591158
0.840136 0.593816 0.667685
0.793275 0.582682 0.739994
0.741602 0.565864 0.806938
0.685134 0.543804 0.867418
0.623914 0.516926 0.920390
0.558007 0.485637 0.964859
0.487502 0.450325 0.999883
0.412514 0.411363 1.000000
0.333180 0.369103 1.000000
0.249661 0.323884 1.000000
0.162142 0.276022 1.000000
0.070834 0.225820 1.000000
0.000000 0.173560 0.965458
0.000000 0.119509 0.912338
0.000000 0.063915 0.844099
0.000000 0.007009 0.760265
0.000000 0.000000 0.660411
0.000000 0.000000 0.544164
0.000000 0.000000 0.411202
0.000000 0.000000 0.261255
0.000000 0.000000 0.094106
0.000000 0.000000 0.000000
0.000000 0.000000 0.000000
0.000000 0.000000 0.000000
0.000000 0.000000 0.000000
0.000000 0.000000 0.000000
0.000000 0.000000 0.000000
0.000000 0.000000 0.000000
1.000000 0.570758 0.275957
1.000000 0.600732 0.366775
1.000000 0.622002 0.457985
1.000000 0.635066 0.548173
0.972839 0.640405 0.635976
0.932124 0.638482 0.720082
0.885902 0.629742 0.799233
0.834130 0.614614 0.872221
0.776787 0.593509 0.937890
0.713877 0.566818 0.995136
0.645426 0.534918 1.000000
0.571486 0.498165 1.000000
0.492132 0.456901 1.000000
0.407463 0.411447 1.000000
0.317603 0.362108 1.000000
0.222697 0.309173 1.000000
0.122917 0.252909 1.000000
0.018457 0.193570 1.000000
0.000000 0.131391 0.974742
0.000000 0.066587 0.898411
0.000000 0.000000 0.804925
0.000000 0.000000 0.693802
0.000000 0.000000 0.564608
0.000000 0.000000 0.416964
0.000000 0.000000 0.250543
0.000000 0.000000 0.065066
0.000000 0.000000 0.000000
0.000000 0.000000 0.000000
0.000000 0.000000 0.000000
0.000000 0.000000 0.000000
0.000000 0.000000 0.000000
0.000000 0.000000 0.000000
0.000000 0.000000 0.000000
1.000000 0.594271 0.302671
1.000000 0.629647 0.403583
1.000000 0.655723 0.504362
1.000000 0.672966 0.603535
1.000000 0.681825 0.699679
1.000000 0.682733 0.791427
0.995509 0.676102 0.877459
0.943142 0.662330 0.956509
0.884388 0.641797 1.000000
0.819211 0.614862 1.000000
0.747600 0.581871 1.000000
0.669568 0.543150 1.000000
0.585152 0.499006 1.000000
0.494411 0.449732 1.000000
0.397431 0.395601 1.000000
0.294320 0.336869 1.000000
0.185210 0.273773 1.000000
0.070257 0.206536 1.000000
0.000000 0.135359 1.000000
0.000000 0.060428 0.970257
0.000000 0.000000 0.866856
0.000000 0.000000 0.744178
0.000000 0.000000 0.601732
0.000000 0.000000 0.439079
0.000000 0.000000 0.255833
0.000000 0.000000 0.051658
0.000000 0.000000 0.000000
0.000000 0.000000 0.000000
0.000000 0.000000 0.000000
0.000000 0.000000 0.000000
0.000000 0.000000 0.000000
0.000000 0.000000 0.000000
0.000000 0.000000 0.000000
1.000000 0.618350 0.352163
1.000000 0.659088 0.463326
1.000000 0.689882 0.573807
1.000000 0.711167 0.682077
1.000000 0.723361 0.786655
1.000000 0.726865 0.886113
1.000000 0.722060 0.979074
1.000000 0.709314 1.000000
1.000000 0.688972 1.000000
0.943667 0.661365 1.000000
0.868282 0.626807 1.000000
0.785503 0.585591 1.000000
0.695328 0.537994 1.000000
0.597781 0.484277 1.000000
0.492905 0.424682 1.000000
0.380773 0.359433 1.000000
0.261476 0.288737 1.000000
0.135134 0.212783 1.000000
0.001888 0.131744 1.000000
0.000000 0.045772 1.000000
0.000000 0.000000 0.950576
0.000000 0.000000 0.816067
0.000000 0.000000 0.660070
0.000000 0.000000 0.482088
0.000000 0.000000 0.281676
0.000000 0.000000 0.058439
0.000000 0.000000 0.000000
0.000000 0.000000 0.000000
0.000000 0.000000 0.000000
0.000000 0.000000 0.000000
0.000000 0.000000 0.000000
0.000000 0.000000 0.000000
0.000000 0.000000 0.000000
1.000000 0.643266 0.429047
1.000000 0.689329 0.550624
1.000000 0.724755 0.670951
1.000000 0.749948 0.788439
1.000000 0.765294 0.901549
1.000000 0.771162 1.000000
1.000000 0.767904 1.000000
1.000000 0.755854 1.000000
1.000000 0.735327 1.000000
1.000000 0.706623 1.000000
1.000000 0.670022 1.000000
0.923244 0.625788 1.000000
0.826619 0.574167 1.000000
0.721530 0.515387 1.000000
0.607987 0.449659 1.000000
0.486019 0.377176 1.000000
0.355682 0.298114 1.000000
0.217056 0.212629 1.000000
0.070244 0.120864 1.000000
0.000000 0.022940 1.000000
0.000000 0.000000 1.000000
0.000000 0.000000 0.914252
0.000000 0.000000 0.744415
0.000000 0.000000 0.550793
0.000000 0.000000 0.332881
0.000000 0.000000 0.090228
0.000000 0.000000 0.000000
0.000000 0.000000 0.000000
0.000000 0.000000 0.000000
0.000000 0.000000 0.000000
0.000000 0.000000 0.000000
0.000000 0.000000 0.000000
0.000000 0.000000 0.000000
1.000000 0.669278 0.538195
1.000000 0.720632 0.670358
1.000000 0.760607 0.800681
1.000000 0.789576 0.927516
1.000000 0.807893 1.000000
1.000000 0.815897 1.000000
1.000000 0.813908 1.000000
1.000000 0.802228 1.000000
1.000000 0.781141 1.000000
1.000000 0.750916 1.000000
1.000000 0.711801 1.000000
1.000000 0.664030 1.000000
0.983179 0.607815 1.000000
0.869819 0.543355 1.000000
0.746836 0.470828 1.000000
0.614221 0.390397 1.000000
0.471992 0.302204 1.000000
0.320190 0.206378 1.000000
0.158879 0.103026 1.000000
0.000000 0.000000 1.000000
0.000000 0.000000 1.000000
0.000000 0.000000 1.000000
0.000000 0.000000 0.859818
0.000000 0.000000 0.650253
0.000000 0.000000 0.414517
0.000000 0.000000 0.152101
0.000000 0.000000 0.000000
0.000000 0.000000 0.000000
0.000000 0.000000 0.000000
0.000000 0.000000 0.000000
0.000000 0.000000 0.000000
0.000000 0.000000 0.000000
0.000000 0.000000 0.000000
1.000000 0.696632 0.684739
1.000000 0.753245 0.827668
1.000000 0.797689 0.968146
1.000000 0.830304 1.000000
1.000000 0.851416 1.000000
1.000000 0.861330 1.000000
1.000000 0.860335 1.000000
1.000000 0.848701 1.000000
1.000000 0.826683 1.000000
1.000000 0.794516 1.000000
1.000000 0.752419 1.000000
1.000000 0.700591 1.000000
1.000000 0.639217 1.000000
1.000000 0.568462 1.000000
0.913814 0.488473 1.000000
0.769744 0.399380 1.000000
0.614773 0.301298 1.000000
0.448904 0.194320 1.000000
0.272164 0.078524 1.000000
0.084603 0.000000 1.000000
0.000000 0.000000 1.000000
0.000000 0.000000 1.000000
0.000000 0.000000 1.000000
0.000000 0.000000 0.785788
0.000000 0.000000 0.531912
0.000000 0.000000 0.249395
0.000000 0.000000 0.000000
0.000000 0.000000 0.000000
0.000000 0.000000 0.000000
0.000000 0.000000 0.000000
0.000000 0.000000 0.000000
0.000000 0.000000 0.000000
0.000000 0.000000 0.000000
1.000000 0.725564 0.874068
1.000000 0.787406 1.000000
1.000000 0.836240 1.000000
1.000000 0.872377 1.000000
1.000000 0.896107 1.000000
1.000000 0.907707 1.000000
1.000000 0.907434 1.000000
1.000000 0.895527 1.000000
1.000000 0.872208 1.000000
1.000000 0.837681 1.000000
1.000000 0.792135 1.000000
1.000000 0.735736 1.000000
1.000000 0.668639 1.000000
1.000000 0.590976 1.000000
1.000000 0.502864 1.000000
0.957150 0.404402 1.000000
0.788590 0.295671 1.000000
0.607767 0.176735 1.000000
0.414670 0.047640 1.000000
0.209310 0.000000 1.000000
0.000000 0.000000 1.000000
0.000000 0.000000 1.000000
0.000000 0.000000 1.000000
0.000000 0.000000 0.962978
0.000000 0.000000 0.690652
0.000000 0.000000 0.387704
0.000000 0.000000 0.053555
0.000000 0.000000 0.000000
0.000000 0.000000 0.000000
0.000000 0.000000 0.000000
0.000000 0.000000 0.000000
0.000000 0.000000 0.000000
0.000000 0.000000 0.000000
1.000000 0.756295 1.000000
1.000000 0.823340 1.000000
1.000000 0.876490 1.000000
1.000000 0.916023 1.000000
1.000000 0.942200 1.000000
1.000000 0.955266 1.000000
1.000000 0.955445 1.000000
1.000000 0.942945 1.000000
1.000000 0.917959 1.000000
1.000000 0.880658 1.000000
1.000000 0.831198 1.000000
1.000000 0.769716 1.000000
1.000000 0.696334 1.000000
1.000000 0.611154 1.000000
1.000000 0.514261 1.000000
1.000000 0.405722 1.000000
0.998210 0.285588 1.000000
0.801547 0.153890 1.000000
0.591167 0.010643 1.000000
0.367042 0.000000 1.000000
0.129169 0.000000 1.000000
0.000000 0.000000 1.000000
0.000000 0.000000 1.000000
0.000000 0.000000 1.000000
0.000000 0.000000 0.896585
0.000000 0.000000 0.572883
0.000000 0.000000 0.215919
0.000000 0.000000 0.000000
0.000000 0.000000 0.000000
0.000000 0.000000 0.000000
0.000000 0.000000 0.000000
0.000000 0.000000 0.000000
0.000000 0.000000 0.000000
1.000000 0.789035 1.000000
1.000000 0.861259 1.000000
1.000000 0.918652 1.000000
1.000000 0.961461 1.000000
1.000000 0.989915 1.000000
1.000000 1.000000 1.000000
1.000000 1.000000 1.000000
1.000000 0.991185 1.000000
1.000000 0.964167 1.000000
1.000000 0.923679 1.000000
1.000000 0.869844 1.000000
1.000000 0.802770 1.000000
1.000000 0.722545 1.000000
1.000000 0.629241 1.000000
1.000000 0.522911 1.000000
1.000000 0.403591 1.000000
1.000000 0.271301 1.000000
1.000000 0.126040 1.000000
0.806628 0.000000 1.000000
0.562773 0.000000 1.000000
0.303611 0.000000 1.000000
0.029123 0.000000 1.000000
0.000000 0.000000 1.000000
0.000000 0.000000 1.000000
0.000000 0.000000 1.000000
0.000000 0.000000 0.811047
0.000000 0.000000 0.430931
0.000000 0.000000 0.014827
0.000000 0.000000 0.000000
0.000000 0.000000 0.000000
0.000000 0.000000 0.000000
0.000000 0.000000 0.000000
0.000000 0.000000 0.000000
1.000000 0.823983 1.000000
1.000000 0.901364 1.000000
1.000000 0.962930 1.000000
1.000000 1.000000 1.000000
1.000000 1.000000 1.000000
1.000000 1.000000 1.000000
1.000000 1.000000 1.000000
1.000000 1.000000 1.000000
1.000000 1.000000 1.000000
1.000000 0.966966 1.000000
1.000000 0.908299 1.000000
1.000000 0.835125 1.000000
1.000000 0.747501 1.000000
1.000000 0.645469 1.000000
1.000000 0.529049 1.000000
1.000000 0.398247 1.000000
1.000000 0.253050 1.000000
1.000000 0.093427 1.000000
1.000000 0.000000 1.000000
0.801678 0.000000 1.000000
0.520224 0.000000 1.000000
0.221804 0.000000 1.000000
0.000000 0.000000 1.000000
0.000000 0.000000 1.000000
0.000000 0.000000 1.000000
0.000000 0.000000 1.000000
0.000000 0.000000 0.704974
