lrplugin/MindfulLensFilmEngine.lrplugin/profiles/luts/portra_800.cube
# Generated from ColorChecker fit
LUT_3D_SIZE 5
DOMAIN_MIN 0.0 0.0 0.0
DOMAIN_MAX 1.0 1.0 1.0
0.000052 0.000038 0.000012
0.001193 0.000934 0.001656
0.004275 0.003365 0.011463
0.000640 0.000438 0.001616
0.000002 0.000001 0.000005
0.000524 0.000407 0.000130
0.008058 0.011032 0.016214
0.026535 0.044131 0.117348
0.007479 0.005832 0.019567
0.000044 0.000017 0.000077
0.000093 0.000128 0.000068
0.000000 0.010396 0.010205
0.000000 0.058239 0.068393
0.000000 0.006790 0.011089
0.000016 0.000016 0.000047
0.000000 0.000003 0.000003
0.000000 0.000616 0.000537
0.000000 0.003467 0.003089
0.000000 0.000367 0.000369
0.000000 0.000001 0.000001
0.000000 0.000000 0.000000
0.000000 0.000001 0.000001
0.000000 0.000005 0.000004
0.000000 0.000000 0.000000
0.000000 0.000000 0.000000
0.001457 0.001088 0.000269
0.019296 0.014727 0.008566
0.021779 0.016767 0.046250
0.003765 0.002034 0.007632
0.000018 0.000006 0.000029
0.018749 0.016677 0.006332
0.167445 0.155864 0.117001
0.247397 0.237171 0.571300
0.082489 0.034185 0.130349
0.000536 0.000116 0.000730
0.012516 0.013678 0.008748
0.039125 0.154031 0.152347
0.097819 0.596334 0.621426
0.036729 0.049143 0.117016
0.000265 0.000030 0.000640
0.000632 0.001023 0.000574
0.009667 0.022490 0.019016
0.038640 0.088419 0.085772
0.001773 0.005328 0.010193
0.000000 0.000000 0.000041
0.000004 0.000007 0.000003
0.000047 0.000082 0.000068
0.000192 0.000296 0.000285
0.000014 0.000020 0.000033
0.000000 0.000000 0.000000
0.010830 0.003137 0.004294
0.085926 0.025793 0.032903
0.028298 0.013812 0.016526
0.002175 0.001183 0.001811
0.000006 0.000002 0.000007
0.073653 0.062093 0.035160
0.385913 0.259879 0.212886
0.570893 0.251996 0.440079
0.061960 0.011191 0.086188
0.000104 0.000000 0.000452
0.134666 0.170928 0.079352
0.300585 0.485849 0.233076
0.378739 0.488619 0.591463
0.000000 0.000000 0.263591
0.000000 0.000000 0.002479
0.034604 0.051845 0.020376
0.078219 0.137400 0.067851
0.217959 0.280007 0.215540
0.037898 0.032206 0.087197
0.000172 0.000068 0.000964
0.000301 0.000494 0.000203
0.000642 0.001084 0.000563
0.001831 0.002002 0.002443
0.000463 0.000413 0.001114
0.000003 0.000002 0.000010
0.014898 0.002932 0.006176
0.115268 0.022329 0.045715
0.020349 0.006031 0.007731
0.000565 0.000306 0.000433
0.000001 0.000000 0.000001
0.114837 0.060218 0.031098
0.631005 0.178740 0.149668
0.283603 0.149696 0.192937
0.023761 0.013058 0.027143
0.000050 0.000018 0.000131
0.560101 0.493737 0.074700
0.792872 0.613740 0.235885
0.802132 0.745780 0.856554
0.195239 0.173964 0.327523
0.001081 0.000843 0.003190
0.170058 0.154275 0.023708
0.166778 0.185105 0.072490
0.289830 0.282955 0.501512
0.090133 0.080046 0.226947
0.000539 0.000434 0.001894
0.001071 0.001100 0.000246
0.001165 0.001484 0.000716
0.002118 0.001914 0.005761
0.000682 0.000565 0.002397
0.000004 0.000003 0.000018
0.000448 0.000090 0.000157
0.003229 0.000560 0.001110
0.000421 0.000087 0.000079
0.000003 0.000002 0.000001
0.000000 0.000000 0.000000
0.013661 0.008174 0.001415
0.044364 0.010598 0.002144
0.005879 0.002315 0.001990
0.000375 0.000315 0.000585
0.000002 0.000001 0.000004
0.125058 0.092390 0.003225
0.121146 0.074278 0.008345
0.025459 0.020168 0.043599
0.005890 0.005175 0.016244
0.000035 0.000028 0.000124
0.035882 0.025854 0.000212
0.025236 0.019100 0.002131
0.007328 0.006287 0.021780
0.002243 0.001828 0.008503
0.000014 0.000010 0.000061
0.000196 0.000144 0.000003
0.000138 0.000111 0.000018
0.000049 0.000039 0.000194
0.000016 0.000012 0.000073
0.000000 0.000000 0.000001
