lrplugin/MindfulLensFilmEngine.lrplugin/profiles/luts/portra_800.cube
# Generated from ColorChecker fit
LUT_3D_SIZE 9
DOMAIN_MIN 0.0 0.0 0.0
DOMAIN_MAX 1.0 1.0 1.0
0.000052 0.000038 0.000012
0.000344 0.000258 0.000175
0.001193 0.000934 0.001656
0.002957 0.002382 0.007012
0.004275 0.003365 0.011463
0.002647 0.001971 0.007027
0.000640 0.000438 0.001616
0.000060 0.000036 0.000141
0.000002 0.000001 0.000005
0.000271 0.000202 0.000061
0.001749 0.001355 0.000871
0.005657 0.004886 0.008087
0.013378 0.012451 0.034348
0.020015 0.017597 0.057017
0.013383 0.010353 0.035925
0.003574 0.002328 0.008625
0.000375 0.000198 0.000798
0.000015 0.000006 0.000029
0.000524 0.000407 0.000130
0.003116 0.002782 0.001764
0.008058 0.011032 0.016214
0.015485 0.030632 0.069263
0.026535 0.044131 0.117348
0.022526 0.025901 0.076834
0.007479 0.005832 0.019567
0.000939 0.000503 0.001959
0.000044 0.000017 0.000077
0.000373 0.000332 0.000128
0.001579 0.002565 0.001755
0.000000 0.013699 0.016373
0.000000 0.045573 0.069562
0.000000 0.067324 0.117965
0.000835 0.038627 0.078628
0.004017 0.008429 0.020763
0.000812 0.000706 0.002184
0.000048 0.000023 0.000091
0.000093 0.000128 0.000068
0.000000 0.001344 0.001053
0.000000 0.010396 0.010205
0.000000 0.039235 0.042151
0.000000 0.058239 0.068393
0.000000 0.032473 0.043609
0.000000 0.006790 0.011089
0.000098 0.000538 0.001136
0.000016 0.000016 0.000047
0.000006 0.000028 0.000019
0.000000 0.000416 0.000352
0.000000 0.003914 0.003502
0.000000 0.015291 0.014017
0.000000 0.022480 0.021512
0.000000 0.012261 0.012733
0.000000 0.002484 0.002962
0.000000 0.000188 0.000276
0.000000 0.000005 0.000010
0.000000 0.000003 0.000003
0.000000 0.000062 0.000054
0.000000 0.000616 0.000537
0.000000 0.002395 0.002096
0.000000 0.003467 0.003089
0.000000 0.001856 0.001723
0.000000 0.000367 0.000369
0.000000 0.000027 0.000031
0.000000 0.000001 0.000001
0.000000 0.000000 0.000000
0.000000 0.000004 0.000003
0.000000 0.000039 0.000034
0.000000 0.000148 0.000129
0.000000 0.000210 0.000185
0.000000 0.000110 0.000099
0.000000 0.000021 0.000020
0.000000 0.000002 0.000002
0.000000 0.000000 0.000000
0.000000 0.000000 0.000000
0.000000 0.000000 0.000000
0.000000 0.000001 0.000001
0.000000 0.000004 0.000003
0.000000 0.000005 0.000004
0.000000 0.000003 0.000002
0.000000 0.000000 0.000000
0.000000 0.000000 0.000000
0.000000 0.000000 0.000000
0.000434 0.000323 0.000080
0.002673 0.001999 0.000810
0.007240 0.005565 0.005939
0.012485 0.009919 0.023594
0.015532 0.011927 0.038622
0.009701 0.006788 0.024191
0.002483 0.001521 0.005759
0.000251 0.000129 0.000526
0.000010 0.000004 0.000019
0.002310 0.001755 0.000459
0.013834 0.010593 0.004239
0.035729 0.029042 0.029651
0.059035 0.051832 0.117544
0.077565 0.063224 0.197116
0.054100 0.036629 0.129126
0.015651 0.008418 0.032842
0.001782 0.000745 0.003270
0.000079 0.000026 0.000128
0.004755 0.003779 0.001181
0.026360 0.021790 0.009552
0.059034 0.061829 0.062809
0.082564 0.124401 0.247108
0.125898 0.162975 0.425963
0.112453 0.096118 0.295218
0.039465 0.022334 0.081249
0.005165 0.002020 0.008856
0.000251 0.000072 0.000379
0.004045 0.003559 0.001526
0.018121 0.019588 0.011072
0.018816 0.068420 0.070248
0.000000 0.185386 0.268986
0.000000 0.264866 0.459485
0.058557 0.152901 0.324237
0.034258 0.033938 0.092774
0.005562 0.002926 0.010605
0.000302 0.000100 0.000475
0.001576 0.001678 0.000984
0.004131 0.009848 0.007438
0.000000 0.051489 0.050147
0.000000 0.176468 0.185475
0.000000 0.255452 0.294302
0.000000 0.139796 0.192717
0.004688 0.028685 0.051969
0.001823 0.002236 0.005718
0.000124 0.000068 0.000251
0.000307 0.000432 0.000298
0.000293 0.003191 0.002716
0.000000 0.022570 0.020525
0.000000 0.081910 0.074549
0.000000 0.115023 0.109289
0.000000 0.059759 0.063836
0.000000 0.011430 0.015125
0.000031 0.000805 0.001477
0.000013 0.000021 0.000059
0.000033 0.000063 0.000044
0.000056 0.000566 0.000482
0.000000 0.004457 0.003951
0.000000 0.015983 0.014202
0.000000 0.021665 0.019819
0.000000 0.010785 0.010671
0.000000 0.001950 0.002261
0.000000 0.000126 0.000194
0.000000 0.000003 0.000007
0.000002 0.000005 0.000003
0.000011 0.000046 0.000038
0.000064 0.000360 0.000320
0.000184 0.001257 0.001135
0.000156 0.001656 0.001538
0.000021 0.000798 0.000791
0.000000 0.000138 0.000157
0.000000 0.000008 0.000013
0.000000 0.000000 0.000000
0.000000 0.000000 0.000000
0.000001 0.000002 0.000001
0.000004 0.000011 0.000010
0.000014 0.000039 0.000036
0.000016 0.000050 0.000048
0.000006 0.000024 0.000024
0.000001 0.000004 0.000005
0.000000 0.000000 0.000000
0.000000 0.000000 0.000000
0.001457 0.001088 0.000269
0.008394 0.006277 0.001819
0.019296 0.014727 0.008566
0.022906 0.018280 0.028593
0.021779 0.016767 0.046250
0.013578 0.008980 0.030128
0.003765 0.002034 0.007632
0.000416 0.000178 0.000754
0.000018 0.000006 0.000029
0.007919 0.006420 0.001757
0.043268 0.034414 0.010454
0.094777 0.076248 0.045721
0.110549 0.092701 0.148208
0.119221 0.089544 0.245492
0.087445 0.050774 0.170830
0.027558 0.012043 0.047524
0.003366 0.001113 0.005219
0.000157 0.000040 0.000224
0.018749 0.016677 0.006332
0.088925 0.077242 0.031350
0.167445 0.155864 0.117001
0.177525 0.205217 0.344942
0.247397 0.237171 0.571300
0.229762 0.143198 0.425756
0.082489 0.034185 0.130349
0.010923 0.003162 0.015727
0.000536 0.000116 0.000730
0.021563 0.021154 0.011291
0.080272 0.082430 0.050322
0.103556 0.168904 0.169511
0.067620 0.330698 0.452881
0.179058 0.458153 0.708701
0.229145 0.259033 0.529292
0.092823 0.053975 0.167488
0.013100 0.004216 0.020997
0.000668 0.000128 0.001007
0.012516 0.013678 0.008748
0.037714 0.051443 0.040010
0.039125 0.154031 0.152347
0.039587 0.440645 0.428372
0.097819 0.596334 0.621426
0.099083 0.292589 0.410330
0.036729 0.049143 0.117016
0.005113 0.002606 0.013755
0.000265 0.000030 0.000640
0.003675 0.004767 0.003044
0.011115 0.020221 0.015830
0.027600 0.089868 0.078743
0.078448 0.283995 0.248248
0.100010 0.362497 0.346014
0.044588 0.162749 0.200288
0.007091 0.023572 0.048708
0.000449 0.000794 0.005032
0.000014 0.000000 0.000217
0.000632 0.001023 0.000574
0.002173 0.004477 0.003224
0.009667 0.022490 0.019016
0.031724 0.071323 0.063152
0.038640 0.088419 0.085772
0.015540 0.038470 0.046139
0.001773 0.005328 0.010193
0.000004 0.000151 0.000972
0.000000 0.000000 0.000041
0.000069 0.000127 0.000063
0.000236 0.000482 0.000317
0.001133 0.002185 0.001842
0.003767 0.006753 0.006104
0.004672 0.008309 0.008106
0.001982 0.003632 0.004210
0.000265 0.000519 0.000903
0.000007 0.000018 0.000086
0.000000 0.000000 0.000004
0.000004 0.000007 0.000003
0.000012 0.000023 0.000014
0.000047 0.000082 0.000068
0.000151 0.000240 0.000217
0.000192 0.000296 0.000285
0.000087 0.000133 0.000148
0.000014 0.000020 0.000033
0.000001 0.000001 0.000003
0.000000 0.000000 0.000000
0.003396 0.001901 0.000981
0.016884 0.009718 0.004541
0.032396 0.019617 0.010047
0.027499 0.018489 0.016347
0.017375 0.012736 0.021137
0.009596 0.006202 0.014068
0.002680 0.001369 0.003896
0.000303 0.000118 0.000427
0.000013 0.000004 0.000018
0.015767 0.012450 0.004980
0.072142 0.055713 0.020560
0.132005 0.099649 0.050448
0.124255 0.089228 0.098517
0.115812 0.072978 0.134168
0.079683 0.040875 0.094715
0.023731 0.009312 0.028856
0.002772 0.000796 0.003495
0.000125 0.000026 0.000163
0.041340 0.041560 0.019404
0.152118 0.151095 0.070460
0.220989 0.210504 0.159601
0.216668 0.167912 0.283070
0.318561 0.186817 0.369032
0.256165 0.113259 0.284618
0.078046 0.022442 0.097317
0.009130 0.001381 0.012862
0.000414 0.000023 0.000634
0.063826 0.070527 0.040536
0.187696 0.217781 0.139192
0.188166 0.268600 0.271528
0.180461 0.306548 0.407292
0.379947 0.393747 0.548602
0.294898 0.166649 0.478022
0.079430 0.006899 0.175622
0.008287 0.000000 0.024070
0.000351 0.000000 0.001217
0.051187 0.061665 0.036837
0.135855 0.181907 0.124045
0.155324 0.319170 0.259735
0.269438 0.651513 0.509687
0.387182 0.738523 0.775296
0.165146 0.224492 0.604556
0.011932 0.000000 0.198240
0.000000 0.000000 0.025831
0.000000 0.000000 0.001308
0.022708 0.032359 0.017078
0.058367 0.094016 0.056679
0.110404 0.225968 0.157136
0.283023 0.555863 0.424876
0.340313 0.618475 0.627554
0.115508 0.202149 0.408673
0.000672 0.000040 0.116809
0.000000 0.000000 0.014650
0.000000 0.000000 0.000766
0.006244 0.010298 0.004792
0.015484 0.027948 0.014903
0.035318 0.066584 0.045848
0.098273 0.165642 0.132707
0.121591 0.190782 0.184624
0.049767 0.073361 0.110314
0.005414 0.006329 0.030629
0.000000 0.000000 0.004012
0.000000 0.000000 0.000224
0.000887 0.001556 0.000692
0.002111 0.003909 0.001946
0.004334 0.007702 0.005233
0.011613 0.017836 0.014406
0.015281 0.021552 0.019665
0.007501 0.009663 0.012082
0.001364 0.001449 0.003658
0.000094 0.000056 0.000521
0.000003 0.000000 0.000030
0.000052 0.000094 0.000041
0.000121 0.000223 0.000107
0.000203 0.000351 0.000227
0.000492 0.000711 0.000573
0.000689 0.000900 0.000826
0.000391 0.000460 0.000579
0.000090 0.000090 0.000199
0.000009 0.000007 0.000030
0.000000 0.000000 0.000002
0.010830 0.003137 0.004294
0.049725 0.014387 0.019137
0.085926 0.025793 0.032903
0.062052 0.021753 0.026545
0.028298 0.013812 0.016526
0.010729 0.006124 0.007855
0.002175 0.001183 0.001811
0.000183 0.000085 0.000174
0.000006 0.000002 0.000007
0.037300 0.017648 0.014648
0.160484 0.070922 0.059337
0.273216 0.116266 0.109293
0.246757 0.109665 0.137003
0.196936 0.098469 0.139356
0.099846 0.049976 0.078149
0.021008 0.009250 0.019158
0.001712 0.000558 0.001938
0.000055 0.000009 0.000079
0.073653 0.062093 0.035160
0.259135 0.201848 0.116574
0.385913 0.259879 0.212886
0.464906 0.230342 0.343620
0.570893 0.251996 0.440079
0.315774 0.117351 0.297909
0.061960 0.011191 0.086188
0.004265 0.000000 0.009956
0.000104 0.000000 0.000452
0.117130 0.131860 0.068969
0.321059 0.360148 0.199836
0.350180 0.384536 0.266682
0.410183 0.307678 0.304579
0.573996 0.267864 0.543799
0.267389 0.001366 0.542001
0.023744 0.000000 0.198625
0.000000 0.000000 0.027108
0.000000 0.000000 0.001416
0.134666 0.170928 0.079352
0.309867 0.415259 0.211542
0.300585 0.485849 0.233076
0.329573 0.581479 0.248887
0.378739 0.488619 0.591463
0.093789 0.003505 0.650188
0.000000 0.000000 0.263591
0.000000 0.000000 0.041350
0.000000 0.000000 0.002479
0.096253 0.134404 0.054592
0.199066 0.304403 0.136278
0.214148 0.385762 0.177075
0.336158 0.596655 0.305810
0.444248 0.651635 0.537335
0.219689 0.240593 0.488151
0.035779 0.010573 0.204835
0.001676 0.000000 0.035435
0.000008 0.000000 0.002283
0.034604 0.051845 0.020376
0.069713 0.114010 0.048834
0.078219 0.137400 0.067851
0.141742 0.217062 0.129661
0.217959 0.280007 0.215540
0.143057 0.153754 0.198752
0.037898 0.032206 0.087197
0.004047 0.002492 0.015228
0.000172 0.000068 0.000964
0.005192 0.008192 0.003282
0.010570 0.017848 0.007654
0.011486 0.019604 0.010003
0.020337 0.028184 0.019225
0.034202 0.040036 0.036313
0.025406 0.026085 0.036922
0.007586 0.006817 0.016206
0.000889 0.000696 0.002698
0.000040 0.000027 0.000162
0.000301 0.000494 0.000203
0.000623 0.001075 0.000465
0.000642 0.001084 0.000563
0.001032 0.001342 0.001113
0.001831 0.002002 0.002443
0.001463 0.001438 0.002617
0.000463 0.000413 0.001114
0.000056 0.000046 0.000176
0.000003 0.000002 0.000010
0.020363 0.004357 0.008505
0.093483 0.019746 0.038402
0.159187 0.034319 0.063963
0.106403 0.026313 0.042872
0.036944 0.013621 0.018116
0.010184 0.005200 0.006854
0.001711 0.000925 0.001361
0.000119 0.000061 0.000106
0.000003 0.000001 0.000003
0.066329 0.019396 0.026216
0.294515 0.078130 0.111523
0.499506 0.132082 0.186411
0.385642 0.125946 0.166396
0.218296 0.100379 0.136114
0.089446 0.045518 0.071067
0.016293 0.007819 0.015344
0.001095 0.000433 0.001285
0.000026 0.000005 0.000043
0.114686 0.066042 0.043332
0.440522 0.198110 0.149259
0.715184 0.280661 0.247376
0.709249 0.306891 0.359474
0.624247 0.302095 0.466123
0.294706 0.131520 0.287234
0.051576 0.016078 0.070543
0.002952 0.000000 0.007063
0.000043 0.000000 0.000301
0.200112 0.193190 0.072243
0.531689 0.435869 0.189880
0.701102 0.465763 0.253912
0.759709 0.453776 0.420169
0.799090 0.445838 0.691045
0.394120 0.168477 0.527424
0.067833 0.006083 0.169521
0.003546 0.000000 0.023545
0.000030 0.000000 0.001355
0.330999 0.358125 0.103055
0.636074 0.703172 0.248778
0.616904 0.650471 0.276608
0.635079 0.647452 0.388574
0.840610 0.792383 0.735394
0.563303 0.458462 0.734707
0.150542 0.097224 0.323656
0.015808 0.006926 0.057081
0.000652 0.000134 0.003711
0.291155 0.325868 0.088094
0.498794 0.619194 0.206325
0.415853 0.553883 0.231288
0.497790 0.623657 0.370197
0.869366 0.950400 0.782556
0.714016 0.694970 0.885120
0.227631 0.197422 0.417501
0.027599 0.021153 0.073532
0.001262 0.000845 0.004621
0.105868 0.124910 0.035958
0.180968 0.240462 0.082668
0.147963 0.212500 0.094227
0.196947 0.242669 0.180214
0.380641 0.404224 0.431916
0.330451 0.321068 0.498014
0.109622 0.098307 0.224374
0.013668 0.011315 0.037018
0.000636 0.000486 0.002188
0.014866 0.018785 0.005947
0.026254 0.037074 0.013514
0.021743 0.032351 0.015430
0.029033 0.034405 0.033830
0.057857 0.058716 0.087608
0.051493 0.048583 0.099408
0.017386 0.015398 0.042494
0.002194 0.001827 0.006618
0.000103 0.000081 0.000372
0.000794 0.001078 0.000372
0.001458 0.002179 0.000840
0.001222 0.001877 0.000960
0.001544 0.001778 0.002302
0.003090 0.002997 0.006132
0.002794 0.002541 0.006780
0.000955 0.000823 0.002778
0.000121 0.000099 0.000415
0.000006 0.000004 0.000022
0.014898 0.002932 0.006176
0.068288 0.013126 0.027929
0.115268 0.022329 0.045715
0.073218 0.015482 0.027287
0.020349 0.006031 0.007731
0.003913 0.001831 0.002187
0.000565 0.000306 0.000433
0.000038 0.000020 0.000034
0.000001 0.000000 0.000001
0.052102 0.013392 0.019097
0.229351 0.050073 0.081038
0.378956 0.080349 0.127731
0.253762 0.065756 0.085030
0.099176 0.041121 0.047523
0.031926 0.016895 0.023591
0.005572 0.002941 0.005102
0.000379 0.000182 0.000418
0.000009 0.000004 0.000014
0.114837 0.060218 0.031098
0.414578 0.145995 0.102090
0.631005 0.178740 0.149668
0.471501 0.168723 0.167077
0.283603 0.149696 0.192937
0.123133 0.070807 0.113586
0.023761 0.013058 0.027143
0.001767 0.000856 0.002801
0.000050 0.000018 0.000131
0.288828 0.238873 0.052817
0.666498 0.436807 0.126411
0.791756 0.382802 0.171524
0.628002 0.333207 0.318956
0.526257 0.372186 0.468041
0.299331 0.226941 0.325745
0.075575 0.056815 0.106237
0.007748 0.005529 0.015612
0.000315 0.000204 0.000928
0.560101 0.493737 0.074700
0.938596 0.818626 0.176667
0.792872 0.613740 0.235885
0.639916 0.516207 0.474221
0.802132 0.745780 0.856554
0.618230 0.574581 0.796507
0.195239 0.173964 0.327523
0.023657 0.019850 0.053170
0.001081 0.000843 0.003190
0.494711 0.437041 0.060200
0.745957 0.711467 0.144309
0.514748 0.511516 0.189745
0.444497 0.446703 0.438284
0.751575 0.746673 1.000000
0.657266 0.626888 1.000000
0.221128 0.200583 0.455049
0.027815 0.023872 0.071853
0.001300 0.001052 0.004122
0.170058 0.154275 0.023708
0.254094 0.256042 0.056047
0.166778 0.185105 0.072490
0.152850 0.161801 0.193764
0.289830 0.282955 0.501512
0.263175 0.244952 0.549140
0.090133 0.080046 0.226947
0.011461 0.009696 0.034413
0.000539 0.000434 0.001894
0.022020 0.021070 0.003901
0.033680 0.036226 0.009069
0.022415 0.026719 0.011610
0.021009 0.022263 0.033720
0.041119 0.038707 0.090660
0.037872 0.033986 0.098198
0.013078 0.011242 0.039408
0.001672 0.001377 0.005779
0.000079 0.000062 0.000308
0.001071 0.001100 0.000246
0.001696 0.001969 0.000564
0.001165 0.001484 0.000716
0.001082 0.001140 0.002138
0.002118 0.001914 0.005761
0.001965 0.001694 0.006126
0.000682 0.000565 0.002397
0.000088 0.000070 0.000343
0.000004 0.000003 0.000018
0.004129 0.000806 0.001631
0.018723 0.003464 0.007331
0.031213 0.005722 0.011843
0.019169 0.003686 0.006572
0.004598 0.001122 0.001262
0.000605 0.000252 0.000197
0.000069 0.000038 0.000043
0.000005 0.000003 0.000004
0.000000 0.000000 0.000000
0.017246 0.004864 0.005229
0.072116 0.015199 0.021229
0.113979 0.021324 0.031696
0.068802 0.014394 0.016787
0.019463 0.006746 0.005399
0.004447 0.002472 0.002581
0.000745 0.000454 0.000636
0.000055 0.000033 0.000058
0.000002 0.000001 0.000002
0.059019 0.033368 0.010255
0.183812 0.066067 0.028320
0.249851 0.061325 0.033388
0.147880 0.039721 0.027873
0.057488 0.029335 0.031070
0.021584 0.015063 0.020179
0.004709 0.003483 0.005566
0.000438 0.000328 0.000674
0.000016 0.000012 0.000035
0.205256 0.156484 0.020354
0.414562 0.254192 0.042687
0.419818 0.178609 0.045087
0.239772 0.100676 0.082733
0.138863 0.100342 0.135286
0.079414 0.068730 0.105927
0.022717 0.019949 0.037359
0.002623 0.002252 0.005478
0.000117 0.000096 0.000309
0.424919 0.332846 0.024800
0.659606 0.500819 0.057867
0.478237 0.313205 0.074064
0.255948 0.168371 0.168509
0.238626 0.211949 0.340594
0.183595 0.170617 0.325276
0.059933 0.054309 0.127702
0.007455 0.006492 0.019197
0.000347 0.000288 0.001066
0.371147 0.286467 0.015385
0.525804 0.420263 0.039893
0.313302 0.251864 0.058434
0.161080 0.137126 0.165933
0.211907 0.197689 0.401107
0.184446 0.169489 0.415366
0.062763 0.055646 0.165105
0.007968 0.006783 0.024352
0.000375 0.000306 0.001314
0.123543 0.095408 0.005234
0.171968 0.140511 0.013740
0.096382 0.084173 0.021102
0.050051 0.046494 0.070085
0.076926 0.070577 0.183604
0.069858 0.062008 0.193088
0.024117 0.020637 0.075753
0.003085 0.002541 0.010917
0.000146 0.000116 0.000575
0.015306 0.012065 0.000848
0.021461 0.018141 0.002147
0.012021 0.011107 0.003250
0.006448 0.006118 0.011390
0.010512 0.009306 0.030490
0.009698 0.008263 0.031863
0.003371 0.002773 0.012290
0.000433 0.000344 0.001736
0.000021 0.000016 0.000090
0.000704 0.000576 0.000055
0.001004 0.000893 0.000134
0.000574 0.000565 0.000195
0.000318 0.000305 0.000677
0.000530 0.000450 0.001809
0.000492 0.000402 0.001868
0.000172 0.000136 0.000709
0.000022 0.000017 0.000099
0.000001 0.000001 0.000005
0.000448 0.000090 0.000157
0.001979 0.000356 0.000696
0.003229 0.000560 0.001110
0.001926 0.000341 0.000586
0.000421 0.000087 0.000079
0.000040 0.000014 0.000000
0.000003 0.000002 0.000001
0.000000 0.000000 0.000000
0.000000 0.000000 0.000000
0.002549 0.000852 0.000537
0.009702 0.002126 0.001973
0.014363 0.002439 0.002722
0.007976 0.001332 0.001157
0.001778 0.000462 0.000128
0.000261 0.000146 0.000083
0.000040 0.000029 0.000034
0.000003 0.000002 0.000004
0.000000 0.000000 0.000000
0.013661 0.008174 0.001415
0.036576 0.014244 0.002953
0.044364 0.010598 0.002144
0.022502 0.004447 0.001124
0.005879 0.002315 0.001990
0.001620 0.001213 0.001747
0.000375 0.000315 0.000585
0.000040 0.000034 0.000079
0.000002 0.000001 0.000004
0.058086 0.042281 0.003269
0.106447 0.064400 0.006015
0.094729 0.039531 0.003935
0.042834 0.013966 0.007125
0.015506 0.009415 0.015053
0.007498 0.006495 0.013356
0.002221 0.001976 0.004884
0.000268 0.000233 0.000699
0.000012 0.000010 0.000038
0.125058 0.092390 0.003225
0.185712 0.132282 0.007671
0.121146 0.074278 0.008345
0.045684 0.024486 0.019466
0.025459 0.020168 0.043599
0.017899 0.015981 0.042515
0.005890 0.005175 0.016244
0.000741 0.000630 0.002333
0.000035 0.000028 0.000124
0.109078 0.079285 0.001129
0.150435 0.110566 0.003947
0.082749 0.059567 0.006388
0.026775 0.019260 0.020204
0.021077 0.018152 0.050332
0.017517 0.015301 0.051220
0.005983 0.005077 0.019655
0.000763 0.000626 0.002787
0.000036 0.000029 0.000145
0.035882 0.025854 0.000212
0.048588 0.035839 0.001026
0.025236 0.019100 0.002131
0.007738 0.006212 0.008295
0.007328 0.006287 0.021780
0.006474 0.005444 0.022348
0.002243 0.001828 0.008503
0.000288 0.000227 0.001189
0.000014 0.000010 0.000061
0.004370 0.003157 0.000036
0.005915 0.004401 0.000150
0.003042 0.002363 0.000313
0.000941 0.000781 0.001287
0.000978 0.000813 0.003426
0.000884 0.000713 0.003499
0.000308 0.000241 0.001317
0.000040 0.000030 0.000182
0.000002 0.000001 0.000009
0.000196 0.000144 0.000003
0.000267 0.000203 0.000010
0.000138 0.000111 0.000018
0.000044 0.000037 0.000073
0.000049 0.000039 0.000194
0.000044 0.000034 0.000197
0.000016 0.000012 0.000073
0.000002 0.000001 0.000010
0.000000 0.000000 0.000001
