lrplugin/MindfulLensFilmEngine.lrplugin/profiles/luts/portra_160.cube
# Generated from ColorChecker fit
LUT_3D_SIZE 9
DOMAIN_MIN 0.0 0.0 0.0
DOMAIN_MAX 1.0 1.0 1.0
0.262727 0.032759 0.202987
0.017809 0.000000 0.133470
0.000000 0.000000 0.094295
0.000000 0.000000 0.042300
0.000000 0.000000 0.000000
0.000000 0.000000 0.000000
0.000000 0.000000 0.000000
0.000000 0.000000 0.000000
0.000000 0.000000 0.000000
0.191195 0.000000 0.253292
0.148696 0.001218 0.333506
0.085994 0.000000 0.442044
0.000000 0.000000 0.527039
0.000000 0.000000 0.540175
0.000000 0.000000 0.436688
0.000000 0.000000 0.175360
0.000000 0.000000 0.000000
0.000000 0.000000 0.000000
0.031537 0.022052 0.171837
0.115851 0.131999 0.367551
0.197350 0.211036 0.581024
0.255768 0.262554 0.751682
0.261487 0.283158 0.822502
0.175533 0.262661 0.740011
0.000000 0.184089 0.454288
0.000000 0.023678 0.000000
0.000000 0.000000 0.000000
0.000000 0.177317 0.099708
0.088755 0.340508 0.367753
0.213627 0.463512 0.634441
0.310048 0.539202 0.830494
0.335949 0.553659 0.890179
0.239907 0.486177 0.751318
0.000000 0.309260 0.355282
0.000000 0.000000 0.000000
0.000000 0.000000 0.000000
0.284368 0.560585 0.257344
0.335838 0.713185 0.545608
0.388340 0.807276 0.804851
0.396711 0.825209 0.957087
0.306432 0.742545 0.927879
0.053631 0.528056 0.646339
0.000000 0.143727 0.045132
0.000000 0.000000 0.000000
0.000000 0.000000 0.000000
1.000000 1.000000 0.944530
1.000000 1.000000 1.000000
1.000000 1.000000 1.000000
0.853306 1.000000 1.000000
0.495572 0.930648 1.000000
0.000000 0.457730 0.680152
0.000000 0.000000 0.000000
0.000000 0.000000 0.000000
0.000000 0.000000 0.000000
1.000000 1.000000 1.000000
1.000000 1.000000 1.000000
1.000000 1.000000 1.000000
1.000000 1.000000 1.000000
1.000000 1.000000 1.000000
0.258959 0.373227 1.000000
0.000000 0.000000 0.000000
0.000000 0.000000 0.000000
0.000000 0.000000 0.000000
1.000000 1.000000 1.000000
1.000000 1.000000 1.000000
1.000000 1.000000 1.000000
1.000000 1.000000 1.000000
1.000000 1.000000 1.000000
1.000000 0.401176 1.000000
0.000000 0.000000 0.705932
0.000000 0.000000 0.000000
0.000000 0.000000 0.000000
1.000000 1.000000 1.000000
1.000000 1.000000 1.000000
1.000000 1.000000 1.000000
1.000000 1.000000 1.000000
1.000000 1.000000 1.000000
1.000000 0.696803 1.000000
1.000000 0.000000 1.000000
0.000000 0.000000 0.000000
0.000000 0.000000 0.000000
0.336035 0.316706 0.183447
0.060560 0.114484 0.012385
0.000000 0.000000 0.000000
0.000000 0.000000 0.000000
0.000000 0.000000 0.000000
0.000000 0.000000 0.000000
0.000000 0.000000 0.000000
0.000000 0.000000 0.000000
0.000000 0.000000 0.000000
0.276729 0.238140 0.244913
0.198798 0.183158 0.231990
0.113687 0.114022 0.264985
0.025636 0.045844 0.311221
0.000000 0.000000 0.341576
0.000000 0.000000 0.330476
0.000000 0.000000 0.255899
0.000000 0.000000 0.099372
0.000000 0.000000 0.000000
0.121419 0.223850 0.166302
0.164830 0.275798 0.276061
0.217009 0.312616 0.422474
0.269747 0.338896 0.564159
0.305480 0.352440 0.663286
0.297290 0.344261 0.685574
0.208906 0.298584 0.600294
0.000000 0.192844 0.380267
0.000000 0.000000 0.001864
0.063379 0.348344 0.092240
0.137019 0.455509 0.280283
0.225064 0.537523 0.487166
0.306857 0.588455 0.662803
0.352383 0.595588 0.760655
0.322276 0.539412 0.737735
0.167814 0.393633 0.554607
0.000000 0.125164 0.175384
0.000000 0.000000 0.000000
0.394828 0.714726 0.246703
0.392671 0.813994 0.459688
0.400246 0.869042 0.665154
0.384447 0.863419 0.804303
0.302809 0.773886 0.821892
0.103517 0.570413 0.666227
0.000000 0.216184 0.289164
0.000000 0.000000 0.000000
0.000000 0.000000 0.000000
1.000000 1.000000 0.933013
1.000000 1.000000 1.000000
1.000000 1.000000 1.000000
0.848942 1.000000 1.000000
0.488272 0.973430 1.000000
0.000000 0.511956 0.729666
0.000000 0.000000 0.053640
0.000000 0.000000 0.000000
0.000000 0.000000 0.000000
1.000000 1.000000 1.000000
1.000000 1.000000 1.000000
1.000000 1.000000 1.000000
1.000000 1.000000 1.000000
1.000000 1.000000 1.000000
0.300116 0.467335 1.000000
0.000000 0.000000 0.177059
0.000000 0.000000 0.000000
0.000000 0.000000 0.000000
1.000000 1.000000 1.000000
1.000000 1.000000 1.000000
1.000000 1.000000 1.000000
1.000000 1.000000 1.000000
1.000000 1.000000 1.000000
1.000000 0.568439 1.000000
0.000000 0.000000 1.000000
0.000000 0.000000 0.000000
0.000000 0.000000 0.000000
1.000000 1.000000 1.000000
1.000000 1.000000 1.000000
1.000000 1.000000 1.000000
1.000000 1.000000 1.000000
1.000000 1.000000 1.000000
1.000000 0.975758 1.000000
1.000000 0.000000 1.000000
0.000000 0.000000 0.289993
0.000000 0.000000 0.000000
0.475110 0.560950 0.238676
0.147674 0.273835 0.000000
0.000000 0.000000 0.000000
0.000000 0.000000 0.000000
0.000000 0.000000 0.000000
0.000000 0.000000 0.000000
0.000000 0.000000 0.000000
0.000000 0.000000 0.000000
0.000000 0.000000 0.000000
0.409786 0.428398 0.296747
0.282992 0.293896 0.195892
0.158920 0.163378 0.148522
0.053865 0.053155 0.141152
0.000000 0.000000 0.163853
0.000000 0.000000 0.210243
0.000000 0.000000 0.277491
0.000000 0.000000 0.366318
0.000000 0.000000 0.480996
0.238506 0.362981 0.203879
0.235559 0.341501 0.233729
0.249840 0.322283 0.309102
0.285196 0.311118 0.407809
0.336118 0.307007 0.511212
0.387745 0.302163 0.604222
0.415860 0.282008 0.675303
0.386895 0.225178 0.716467
0.257924 0.103518 0.723279
0.163425 0.444468 0.108235
0.192616 0.485018 0.223163
0.243232 0.517062 0.367104
0.306669 0.535870 0.509162
0.364970 0.529921 0.621991
0.390824 0.480908 0.681798
0.347565 0.363732 0.668337
0.189174 0.146508 0.564915
0.000000 0.000000 0.358389
0.485636 0.781229 0.237329
0.440347 0.821414 0.382766
0.410367 0.833278 0.532156
0.374645 0.801571 0.645898
0.302774 0.704250 0.687938
0.154993 0.512487 0.625774
0.000000 0.190663 0.430456
0.000000 0.000000 0.076584
0.000000 0.000000 0.000000
1.000000 1.000000 0.898021
1.000000 1.000000 1.000000
1.000000 1.000000 1.000000
0.844428 1.000000 1.000000
0.489921 0.921352 0.980146
0.005731 0.476856 0.698306
0.000000 0.000000 0.214874
0.000000 0.000000 0.000000
0.000000 0.000000 0.000000
1.000000 1.000000 1.000000
1.000000 1.000000 1.000000
1.000000 1.000000 1.000000
1.000000 1.000000 1.000000
1.000000 1.000000 1.000000
0.367461 0.482569 1.000000
0.000000 0.000000 0.354151
0.000000 0.000000 0.000000
0.000000 0.000000 0.000000
1.000000 1.000000 1.000000
1.000000 1.000000 1.000000
1.000000 1.000000 1.000000
1.000000 1.000000 1.000000
1.000000 1.000000 1.000000
1.000000 0.666779 1.000000
0.000000 0.000000 1.000000
0.000000 0.000000 0.000000
0.000000 0.000000 0.000000
1.000000 1.000000 1.000000
1.000000 1.000000 1.000000
1.000000 1.000000 1.000000
1.000000 1.000000 1.000000
1.000000 1.000000 1.000000
1.000000 1.000000 1.000000
1.000000 0.000000 1.000000
0.000000 0.000000 0.831119
0.000000 0.000000 0.000000
0.689485 0.796393 0.354328
0.291268 0.407093 0.001137
0.000000 0.034947 0.000000
0.000000 0.000000 0.000000
0.000000 0.000000 0.000000
0.000000 0.000000 0.000000
0.000000 0.000000 0.000000
0.000000 0.000000 0.000000
0.000000 0.000000 0.000000
0.603169 0.601562 0.402896
0.416668 0.375085 0.227188
0.239667 0.172342 0.102505
0.100517 0.010842 0.034558
0.018216 0.000000 0.032605
0.002407 0.000000 0.109460
0.053378 0.000000 0.281484
0.162066 0.000000 0.568590
0.310050 0.000000 0.994241
0.398874 0.476224 0.287116
0.346699 0.373700 0.250978
0.317089 0.292442 0.259206
0.325946 0.239439 0.308804
0.379818 0.214891 0.400326
0.475899 0.212211 0.537876
0.602029 0.218019 0.729109
0.736693 0.212152 0.985231
0.849023 0.167652 1.000000
0.287630 0.505409 0.158690
0.277479 0.476566 0.215266
0.292647 0.457475 0.301000
0.336588 0.444603 0.404190
0.403400 0.427630 0.516682
0.477827 0.389447 0.633873
0.535260 0.306155 0.754713
0.541735 0.147067 0.881700
0.453935 0.000000 1.000000
0.579413 0.802748 0.248668
0.504071 0.785912 0.342160
0.446493 0.758267 0.441054
0.397682 0.705759 0.524939
0.339288 0.607547 0.576956
0.243605 0.436000 0.583796
0.073574 0.156700 0.535698
0.000000 0.000000 0.426456
0.000000 0.000000 0.253412
1.000000 1.000000 0.867447
1.000000 1.000000 0.933117
1.000000 1.000000 0.971883
0.873409 1.000000 0.954627
0.536751 0.851260 0.855783
0.107590 0.437088 0.653334
0.000000 0.000000 0.328814
0.000000 0.000000 0.000000
0.000000 0.000000 0.000000
1.000000 1.000000 1.000000
1.000000 1.000000 1.000000
1.000000 1.000000 1.000000
1.000000 1.000000 1.000000
1.000000 1.000000 1.000000
0.503084 0.506527 1.000000
0.000000 0.000000 0.470159
0.000000 0.000000 0.000000
0.000000 0.000000 0.000000
1.000000 1.000000 1.000000
1.000000 1.000000 1.000000
1.000000 1.000000 1.000000
1.000000 1.000000 1.000000
1.000000 1.000000 1.000000
1.000000 0.786734 1.000000
0.008190 0.000000 1.000000
0.000000 0.000000 0.000000
0.000000 0.000000 0.000000
1.000000 1.000000 1.000000
1.000000 1.000000 1.000000
1.000000 1.000000 1.000000
1.000000 1.000000 1.000000
1.000000 1.000000 1.000000
1.000000 1.000000 1.000000
1.000000 0.000000 1.000000
0.000000 0.000000 1.000000
0.000000 0.000000 0.000000
0.973113 1.000000 0.494796
0.487881 0.538091 0.076769
0.000000 0.076386 0.000000
0.000000 0.000000 0.000000
0.000000 0.000000 0.000000
0.000000 0.000000 0.000000
0.000000 0.000000 0.000000
0.000000 0.000000 0.000000
0.000000 0.000000 0.270957
0.854104 0.776593 0.536202
0.599637 0.453500 0.306593
0.358325 0.175502 0.115524
0.170575 0.000000 0.000000
0.067440 0.000000 0.000000
0.070620 0.000000 0.040339
0.192457 0.000000 0.287963
0.435945 0.000000 0.734146
0.794720 0.026994 1.000000
0.603019 0.585476 0.397304
0.501332 0.402107 0.316971
0.424424 0.260617 0.269822
0.400252 0.169196 0.272054
0.447420 0.129244 0.343412
0.575178 0.135370 0.507193
0.783421 0.175396 0.790245
1.000000 0.230356 1.000000
1.000000 0.274494 1.000000
0.439766 0.556000 0.233342
0.397962 0.462802 0.254200
0.382250 0.399223 0.294338
0.408139 0.362931 0.361244
0.481782 0.344805 0.465958
0.599980 0.328934 0.623068
0.750180 0.292618 0.850716
0.910472 0.206371 1.000000
1.000000 0.033914 1.000000
0.683198 0.807059 0.278902
0.593469 0.743077 0.343927
0.520834 0.687408 0.405776
0.468354 0.627198 0.463233
0.429732 0.542803 0.518628
0.389320 0.407794 0.577845
0.322114 0.188950 0.650317
0.193757 0.000000 0.749029
0.000000 0.000000 0.890516
1.000000 1.000000 0.847922
1.000000 1.000000 0.891145
1.000000 1.000000 0.900190
0.953956 1.000000 0.865130
0.649417 0.825122 0.779592
0.286431 0.462432 0.640751
0.000000 0.000000 0.449334
0.000000 0.000000 0.209619
0.000000 0.000000 0.000000
1.000000 1.000000 1.000000
1.000000 1.000000 1.000000
1.000000 1.000000 1.000000
1.000000 1.000000 1.000000
1.000000 1.000000 1.000000
0.733495 0.611928 1.000000
0.000000 0.000000 0.587404
0.000000 0.000000 0.000000
0.000000 0.000000 0.000000
1.000000 1.000000 1.000000
1.000000 1.000000 1.000000
1.000000 1.000000 1.000000
1.000000 1.000000 1.000000
1.000000 1.000000 1.000000
1.000000 1.000000 1.000000
0.446926 0.000000 1.000000
0.000000 0.000000 0.179384
0.000000 0.000000 0.000000
1.000000 1.000000 1.000000
1.000000 1.000000 1.000000
1.000000 1.000000 1.000000
1.000000 1.000000 1.000000
1.000000 1.000000 1.000000
1.000000 1.000000 1.000000
1.000000 0.000000 1.000000
0.000000 0.000000 1.000000
0.000000 0.000000 0.000000
1.000000 1.000000 0.603210
0.718475 0.675783 0.148331
0.125774 0.124464 0.000000
0.000000 0.000000 0.000000
0.000000 0.000000 0.000000
0.000000 0.000000 0.000000
0.000000 0.000000 0.000000
0.000000 0.000000 0.000000
0.000000 0.000000 0.492578
1.000000 0.957569 0.648241
0.816132 0.541032 0.393557
0.501712 0.192562 0.154904
0.253442 0.000000 0.000000
0.114430 0.000000 0.000000
0.118431 0.000000 0.000000
0.289846 0.000000 0.295749
0.643721 0.000000 0.869681
1.000000 0.170788 1.000000
0.835860 0.697755 0.494466
0.686962 0.441551 0.399606
0.561934 0.249452 0.316724
0.500787 0.130847 0.281206
0.534183 0.088334 0.331992
0.683426 0.117724 0.511569
0.960468 0.208036 0.865979
1.000000 0.341502 1.000000
1.000000 0.493567 1.000000
0.608022 0.606198 0.300662
0.544841 0.461494 0.316313
0.505402 0.367889 0.331340
0.517268 0.324249 0.372421
0.598649 0.322653 0.469789
0.758401 0.348388 0.657225
0.996026 0.379956 0.972063
1.000000 0.389067 1.000000
1.000000 0.340643 1.000000
0.788454 0.807054 0.304953
0.702588 0.713615 0.372862
0.630025 0.649222 0.418993
0.585878 0.602220 0.461320
0.575910 0.554167 0.521368
0.596526 0.479828 0.624212
0.634779 0.347185 0.798478
0.668368 0.117426 1.000000
0.665637 0.000000 1.000000
1.000000 1.000000 0.824813
1.000000 1.000000 0.877784
1.000000 1.000000 0.879275
1.000000 1.000000 0.838554
0.832992 0.890022 0.768438
0.549915 0.607787 0.685297
0.213929 0.194063 0.609048
0.000000 0.000000 0.563161
0.000000 0.000000 0.574658
1.000000 1.000000 1.000000
1.000000 1.000000 1.000000
1.000000 1.000000 1.000000
1.000000 1.000000 1.000000
1.000000 1.000000 1.000000
1.000000 0.856607 1.000000
0.169621 0.033530 0.746946
0.000000 0.000000 0.249876
0.000000 0.000000 0.000000
1.000000 1.000000 1.000000
1.000000 1.000000 1.000000
1.000000 1.000000 1.000000
1.000000 1.000000 1.000000
1.000000 1.000000 1.000000
1.000000 1.000000 1.000000
1.000000 0.007125 1.000000
0.000000 0.000000 0.550067
0.000000 0.000000 0.000000
1.000000 1.000000 1.000000
1.000000 1.000000 1.000000
1.000000 1.000000 1.000000
1.000000 1.000000 1.000000
1.000000 1.000000 1.000000
1.000000 1.000000 1.000000
1.000000 0.284987 1.000000
0.394390 0.000000 1.000000
0.000000 0.000000 0.000000
1.000000 1.000000 0.601438
0.948431 0.814241 0.145567
0.242854 0.181067 0.000000
0.000000 0.000000 0.000000
0.000000 0.000000 0.000000
0.000000 0.000000 0.000000
0.000000 0.000000 0.000000
0.000000 0.000000 0.000000
0.000000 0.000000 0.610165
1.000000 1.000000 0.669329
1.000000 0.634691 0.426272
0.641067 0.228346 0.166709
0.322941 0.000000 0.000000
0.135594 0.000000 0.000000
0.124836 0.000000 0.000000
0.327123 0.000000 0.282402
0.769558 0.087523 0.960630
1.000000 0.442725 1.000000
1.000000 0.805196 0.517365
0.875516 0.491981 0.445522
0.704130 0.266709 0.354422
0.604649 0.139967 0.298646
0.619790 0.115552 0.336324
0.782911 0.190474 0.529138
1.000000 0.354953 0.942320
1.000000 0.592419 1.000000
1.000000 0.879515 1.000000
0.765009 0.651076 0.307861
0.693313 0.475529 0.356690
0.639885 0.374172 0.374963
0.644343 0.347070 0.408552
0.736953 0.387501 0.506881
0.938628 0.481952 0.722925
1.000000 0.610123 1.000000
1.000000 0.744923 1.000000
1.000000 0.852475 1.000000
0.871062 0.800745 0.282478
0.809896 0.703351 0.392497
0.755117 0.657348 0.452110
0.733895 0.652279 0.498483
0.764047 0.670902 0.572333
0.854034 0.689182 0.717927
1.000000 0.676298 0.983083
1.000000 0.594639 1.000000
1.000000 0.399806 1.000000
1.000000 1.000000 0.762227
1.000000 1.000000 0.865012
1.000000 1.000000 0.888992
1.000000 1.000000 0.862626
1.000000 1.000000 0.817924
0.890124 0.913170 0.790446
0.690230 0.643081 0.819304
0.454597 0.219767 0.947161
0.151176 0.000000 1.000000
1.000000 1.000000 1.000000
1.000000 1.000000 1.000000
1.000000 1.000000 1.000000
1.000000 1.000000 1.000000
1.000000 1.000000 1.000000
1.000000 1.000000 1.000000
0.767737 0.628676 0.968584
0.000000 0.000000 0.659547
0.000000 0.000000 0.406532
1.000000 1.000000 1.000000
1.000000 1.000000 1.000000
1.000000 1.000000 1.000000
1.000000 1.000000 1.000000
1.000000 1.000000 1.000000
1.000000 1.000000 1.000000
1.000000 0.779883 1.000000
0.060331 0.000000 0.973448
0.000000 0.000000 0.048197
1.000000 1.000000 1.000000
1.000000 1.000000 1.000000
1.000000 1.000000 1.000000
1.000000 1.000000 1.000000
1.000000 1.000000 1.000000
1.000000 1.000000 1.000000
1.000000 1.000000 1.000000
1.000000 0.000000 1.000000
0.000000 0.000000 0.632749
1.000000 1.000000 0.390085
1.000000 0.932658 0.000000
0.297499 0.233199 0.000000
0.000000 0.000000 0.000000
0.000000 0.000000 0.000000
0.000000 0.000000 0.000000
0.000000 0.000000 0.000000
0.000000 0.000000 0.000000
0.000000 0.000000 0.587314
1.000000 1.000000 0.508519
1.000000 0.716607 0.321662
0.732050 0.272797 0.075738
0.337320 0.000000 0.000000
0.091765 0.000000 0.000000
0.053252 0.000000 0.000000
0.270292 0.030306 0.204220
0.782044 0.379542 0.971164
1.000000 0.879630 1.000000
1.000000 0.885053 0.383503
1.000000 0.538465 0.380092
0.809944 0.305269 0.316165
0.673355 0.197250 0.265496
0.668341 0.219405 0.305406
0.840321 0.369943 0.516770
1.000000 0.640283 0.984012
1.000000 1.000000 1.000000
1.000000 1.000000 1.000000
0.867760 0.670827 0.180888
0.802996 0.492913 0.309153
0.747902 0.413892 0.366904
0.754153 0.435027 0.419208
0.864069 0.550796 0.534679
1.000000 0.748885 0.785486
1.000000 1.000000 1.000000
1.000000 1.000000 1.000000
1.000000 1.000000 1.000000
0.891329 0.771264 0.145873
0.878284 0.703230 0.345103
0.861587 0.710542 0.455272
0.880465 0.783945 0.532738
0.964788 0.907393 0.637412
1.000000 1.000000 0.832754
1.000000 1.000000 1.000000
1.000000 1.000000 1.000000
1.000000 1.000000 1.000000
1.000000 1.000000 0.603007
1.000000 1.000000 0.803549
1.000000 1.000000 0.887933
1.000000 1.000000 0.903812
1.000000 1.000000 0.902387
1.000000 1.000000 0.938413
1.000000 1.000000 1.000000
1.000000 1.000000 1.000000
1.000000 0.737208 1.000000
1.000000 1.000000 1.000000
1.000000 1.000000 1.000000
1.000000 1.000000 1.000000
1.000000 1.000000 1.000000
1.000000 1.000000 1.000000
1.000000 1.000000 1.000000
1.000000 1.000000 1.000000
0.832899 0.831353 1.000000
0.079770 0.000000 1.000000
1.000000 1.000000 1.000000
1.000000 1.000000 1.000000
1.000000 1.000000 1.000000
1.000000 1.000000 1.000000
1.000000 1.000000 1.000000
1.000000 1.000000 1.000000
1.000000 1.000000 1.000000
1.000000 0.592809 1.000000
0.000000 0.000000 0.810106
1.000000 1.000000 1.000000
1.000000 1.000000 1.000000
1.000000 1.000000 1.000000
1.000000 1.000000 1.000000
1.000000 1.000000 1.000000
1.000000 1.000000 1.000000
1.000000 1.000000 1.000000
1.000000 0.572840 1.000000
0.079993 0.000000 1.000000
1.000000 1.000000 0.000000
1.000000 0.995342 0.000000
0.226519 0.252984 0.000000
0.000000 0.000000 0.000000
0.000000 0.000000 0.000000
0.000000 0.000000 0.000000
0.000000 0.000000 0.000000
0.000000 0.000000 0.000000
0.000000 0.248977 0.366361
1.000000 1.000000 0.053602
1.000000 0.754028 0.000000
0.714742 0.300977 0.000000
0.239244 0.018083 0.000000
0.000000 0.000000 0.000000
0.000000 0.022844 0.000000
0.069775 0.323565 0.000000
0.634188 0.820578 0.844192
1.000000 1.000000 1.000000
1.000000 0.899700 0.000000
1.000000 0.551190 0.107429
0.822730 0.343131 0.113940
0.652842 0.288509 0.101616
0.628363 0.393520 0.166971
0.806765 0.657570 0.410073
1.000000 1.000000 0.934537
1.000000 1.000000 1.000000
1.000000 1.000000 1.000000
0.857730 0.630762 0.000000
0.817930 0.486771 0.086260
0.776079 0.467987 0.227597
0.795908 0.576872 0.332696
0.931793 0.809102 0.489365
1.000000 1.000000 0.788965
1.000000 1.000000 1.000000
1.000000 1.000000 1.000000
1.000000 1.000000 1.000000
0.793980 0.686859 0.000000
0.855063 0.689314 0.151685
0.899332 0.792682 0.357358
0.978069 0.988908 0.500842
1.000000 1.000000 0.661237
1.000000 1.000000 0.921197
1.000000 1.000000 1.000000
1.000000 1.000000 1.000000
1.000000 1.000000 1.000000
1.000000 1.000000 0.268734
1.000000 1.000000 0.622848
1.000000 1.000000 0.813426
1.000000 1.000000 0.907314
1.000000 1.000000 0.974907
1.000000 1.000000 1.000000
1.000000 1.000000 1.000000
1.000000 1.000000 1.000000
1.000000 1.000000 1.000000
1.000000 1.000000 1.000000
1.000000 1.000000 1.000000
1.000000 1.000000 1.000000
1.000000 1.000000 1.000000
1.000000 1.000000 1.000000
1.000000 1.000000 1.000000
1.000000 1.000000 1.000000
1.000000 1.000000 1.000000
1.000000 1.000000 1.000000
1.000000 1.000000 1.000000
1.000000 1.000000 1.000000
1.000000 1.000000 1.000000
1.000000 1.000000 1.000000
1.000000 1.000000 1.000000
1.000000 1.000000 1.000000
1.000000 1.000000 1.000000
1.000000 1.000000 1.000000
1.000000 1.000000 1.000000
1.000000 1.000000 1.000000
1.000000 1.000000 1.000000
1.000000 1.000000 1.000000
1.000000 1.000000 1.000000
1.000000 1.000000 1.000000
1.000000 1.000000 1.000000
1.000000 1.000000 1.000000
1.000000 1.000000 1.000000
1.000000 0.485744 1.000000
