lrplugin/MindfulLensFilmEngine.lrplugin/profiles/luts/portra_400_nlp_calib.cube
# Generated from ColorChecker fit
LUT_3D_SIZE 9
DOMAIN_MIN 0.0 0.0 0.0
DOMAIN_MAX 1.0 1.0 1.0
0.070374 0.000000 0.093225
0.000000 0.000000 0.000000
0.000000 0.000000 0.000000
0.000000 0.000000 0.000000
0.000000 0.000000 0.000000
0.000000 0.000000 0.000000
0.000000 0.000000 0.000000
0.000000 0.000000 0.241658
0.000000 0.000000 0.789726
0.460829 0.171112 0.374551
0.099613 0.000000 0.283707
0.000000 0.000000 0.249154
0.000000 0.000000 0.244051
0.000000 0.000000 0.254796
0.000000 0.000000 0.281029
0.000000 0.000000 0.335631
0.000000 0.000000 0.444723
0.000000 0.000000 0.647666
0.677158 0.333863 0.427793
0.417151 0.220325 0.471706
0.142572 0.054625 0.542937
0.000000 0.000000 0.599632
0.000000 0.000000 0.613178
0.000000 0.000000 0.568206
0.000000 0.000000 0.462582
0.000000 0.000000 0.307417
0.000000 0.165189 0.127061
0.810499 0.451345 0.340770
0.630338 0.424326 0.522095
0.410083 0.324305 0.696231
0.159960 0.188160 0.806313
0.000000 0.048269 0.808717
0.000000 0.000000 0.673061
0.000000 0.000000 0.382201
0.000000 0.000000 0.000000
0.000000 0.000000 0.000000
1.000000 0.547527 0.267669
0.882190 0.598806 0.591158
0.685134 0.543804 0.867418
0.412514 0.411363 1.000000
0.070834 0.225820 1.000000
0.000000 0.007009 0.760265
0.000000 0.000000 0.261255
0.000000 0.000000 0.000000
0.000000 0.000000 0.000000
1.000000 0.643266 0.429047
1.000000 0.765294 0.901549
1.000000 0.735327 1.000000
0.826619 0.574167 1.000000
0.355682 0.298114 1.000000
0.000000 0.000000 1.000000
0.000000 0.000000 0.332881
0.000000 0.000000 0.000000
0.000000 0.000000 0.000000
1.000000 0.756295 1.000000
1.000000 0.942200 1.000000
1.000000 0.917959 1.000000
1.000000 0.696334 1.000000
0.998210 0.285588 1.000000
0.129169 0.000000 1.000000
0.000000 0.000000 0.896585
0.000000 0.000000 0.000000
0.000000 0.000000 0.000000
1.000000 0.901231 1.000000
1.000000 1.000000 1.000000
1.000000 1.000000 1.000000
1.000000 0.794507 1.000000
1.000000 0.205558 1.000000
1.000000 0.000000 1.000000
0.000000 0.000000 1.000000
0.000000 0.000000 0.425567
0.000000 0.000000 0.000000
1.000000 1.000000 1.000000
1.000000 1.000000 1.000000
1.000000 1.000000 1.000000
1.000000 0.882207 1.000000
1.000000 0.072224 1.000000
1.000000 0.000000 1.000000
0.997114 0.000000 1.000000
0.000000 0.000000 1.000000
0.000000 0.000000 0.000000
0.151385 0.111606 0.089707
0.000000 0.000000 0.000000
0.000000 0.000000 0.000000
0.000000 0.000000 0.000000
0.000000 0.000000 0.000000
0.000000 0.000000 0.000000
0.000000 0.000000 0.168905
0.000000 0.000000 0.732549
0.273790 0.000000 1.000000
0.448437 0.311094 0.347931
0.182408 0.156840 0.213588
0.000000 0.000000 0.161782
0.000000 0.000000 0.172993
0.000000 0.000000 0.240942
0.000000 0.000000 0.372593
0.000000 0.000000 0.588148
0.178092 0.113253 0.921051
0.757040 0.502886 1.000000
0.558306 0.429003 0.373413
0.390079 0.361625 0.373950
0.240207 0.271997 0.427935
0.117240 0.190115 0.500836
0.035843 0.141472 0.571364
0.016798 0.147059 0.631470
0.087004 0.223359 0.686345
0.279476 0.382356 0.754422
0.633346 0.631525 0.867372
0.582751 0.506100 0.255291
0.496598 0.525548 0.391920
0.401863 0.501946 0.547374
0.297254 0.457255 0.672111
0.187596 0.408927 0.729830
0.083830 0.369914 0.697471
0.003014 0.348662 0.565212
0.000000 0.349115 0.336476
0.009047 0.370710 0.027923
0.674838 0.580035 0.149071
0.655605 0.686932 0.425100
0.590517 0.717545 0.679800
0.468442 0.685794 0.848615
0.284365 0.601094 0.880235
0.039385 0.468358 0.736585
0.000000 0.287994 0.392836
0.000000 0.055906 0.000000
0.000000 0.000000 0.000000
1.000000 0.685338 0.276628
1.000000 0.880985 0.697464
1.000000 0.954674 1.000000
0.836895 0.912289 1.000000
0.532813 0.755206 1.000000
0.090700 0.480299 0.981171
0.000000 0.079937 0.403670
0.000000 0.000000 0.000000
0.000000 0.000000 0.000000
1.000000 0.853423 0.926208
1.000000 1.000000 1.000000
1.000000 1.000000 1.000000
1.000000 1.000000 1.000000
1.000000 0.905375 1.000000
0.496318 0.440523 1.000000
0.000000 0.000000 0.898540
0.000000 0.000000 0.000000
0.000000 0.000000 0.000000
1.000000 1.000000 1.000000
1.000000 1.000000 1.000000
1.000000 1.000000 1.000000
1.000000 1.000000 1.000000
1.000000 1.000000 1.000000
1.000000 0.380701 1.000000
0.218648 0.000000 1.000000
0.000000 0.000000 0.550709
0.000000 0.000000 0.000000
1.000000 1.000000 1.000000
1.000000 1.000000 1.000000
1.000000 1.000000 1.000000
1.000000 1.000000 1.000000
1.000000 1.000000 1.000000
1.000000 0.329383 1.000000
1.000000 0.000000 1.000000
0.000000 0.000000 1.000000
0.000000 0.000000 0.000000
0.239855 0.193781 0.126348
0.000000 0.000000 0.000000
0.000000 0.000000 0.000000
0.000000 0.000000 0.000000
0.000000 0.000000 0.000000
0.000000 0.000000 0.000000
0.000000 0.000000 0.414365
0.372251 0.000000 1.000000
1.000000 0.254758 1.000000
0.456033 0.369476 0.356929
0.236768 0.222736 0.172336
0.086448 0.092568 0.094398
0.011944 0.002085 0.110918
0.026242 0.000000 0.222941
0.148446 0.010114 0.444750
0.403775 0.132335 0.803872
0.823564 0.341658 1.000000
1.000000 0.638679 1.000000
0.465374 0.446476 0.349101
0.341290 0.375743 0.297885
0.268132 0.313261 0.324119
0.242931 0.274108 0.400595
0.268832 0.268855 0.513346
0.355099 0.303570 0.661646
0.517109 0.379816 0.858007
0.776358 0.494653 1.000000
1.000000 0.640637 1.000000
0.380261 0.479227 0.193320
0.341263 0.493295 0.275250
0.324840 0.494860 0.399891
0.318180 0.490959 0.525026
0.314588 0.484125 0.621676
0.313486 0.472387 0.674102
0.320412 0.449270 0.679806
0.347021 0.403795 0.649533
0.411083 0.320480 0.607265
0.364382 0.519055 0.046412
0.400950 0.627396 0.263353
0.421406 0.690041 0.482735
0.403096 0.705989 0.647327
0.329487 0.669734 0.713141
0.190159 0.571267 0.649426
0.000000 0.396073 0.438672
0.000000 0.125136 0.076613
0.000000 0.000000 0.000000
0.632735 0.614168 0.131571
0.735920 0.826928 0.487484
0.773971 0.948363 0.800035
0.714396 0.969432 0.996982
0.530818 0.876591 1.000000
0.202977 0.651793 0.821294
0.000000 0.272484 0.370380
0.000000 0.000000 0.000000
0.000000 0.000000 0.000000
1.000000 0.809655 0.738359
1.000000 1.000000 1.000000
1.000000 1.000000 1.000000
1.000000 1.000000 1.000000
1.000000 1.000000 1.000000
0.621108 0.762430 1.000000
0.000000 0.127643 0.777070
0.000000 0.000000 0.000000
0.000000 0.000000 0.000000
1.000000 1.000000 1.000000
1.000000 1.000000 1.000000
1.000000 1.000000 1.000000
1.000000 1.000000 1.000000
1.000000 1.000000 1.000000
1.000000 0.948526 1.000000
0.545418 0.007572 1.000000
0.000000 0.000000 0.502803
0.000000 0.000000 0.000000
1.000000 1.000000 1.000000
1.000000 1.000000 1.000000
1.000000 1.000000 1.000000
1.000000 1.000000 1.000000
1.000000 1.000000 1.000000
1.000000 1.000000 1.000000
1.000000 0.000000 1.000000
0.133542 0.000000 1.000000
0.000000 0.000000 0.000000
0.380336 0.243259 0.204666
0.071364 0.030046 0.000000
0.000000 0.000000 0.000000
0.000000 0.000000 0.000000
0.000000 0.000000 0.000000
0.034730 0.000000 0.067879
0.397214 0.000000 0.698085
0.958495 0.073969 1.000000
1.000000 0.348222 1.000000
0.540451 0.416098 0.410633
0.329855 0.248724 0.178912
0.221836 0.128975 0.075837
0.211744 0.065043 0.096534
0.301047 0.060617 0.249370
0.497327 0.114882 0.555952
0.814285 0.222518 1.000000
1.000000 0.373702 1.000000
1.000000 0.554107 1.000000
0.467478 0.465231 0.371516
0.350226 0.360664 0.270041
0.316118 0.295445 0.267893
0.350662 0.269728 0.345186
0.445487 0.279164 0.495274
0.598333 0.314898 0.724755
0.813061 0.363573 1.000000
1.000000 0.407327 1.000000
1.000000 0.423793 1.000000
0.284425 0.458780 0.179089
0.256057 0.434662 0.206187
0.281065 0.429180 0.297758
0.335117 0.434447 0.418906
0.400001 0.438076 0.547973
0.463616 0.423175 0.676545
0.519983 0.368347 0.809447
0.569235 0.247691 0.964743
0.617624 0.030803 1.000000
0.165603 0.461749 0.000000
0.222232 0.536398 0.147589
0.292134 0.596532 0.327769
0.341139 0.626228 0.482127
0.341192 0.605058 0.573997
0.270353 0.508092 0.579950
0.112799 0.305894 0.489800
0.000000 0.000000 0.306602
0.000000 0.000000 0.046651
0.336632 0.536022 0.033248
0.474943 0.728432 0.320856
0.576092 0.860739 0.586630
0.596066 0.908982 0.765652
0.496970 0.844695 0.806243
0.247024 0.634909 0.669963
0.000000 0.242149 0.331615
0.000000 0.000000 0.000000
0.000000 0.000000 0.000000
1.000000 0.740366 0.595229
1.000000 1.000000 1.000000
1.000000 1.000000 1.000000
1.000000 1.000000 1.000000
1.000000 1.000000 1.000000
0.673421 0.865768 1.000000
0.000000 0.239931 0.638354
0.000000 0.000000 0.000000
0.000000 0.000000 0.000000
1.000000 1.000000 1.000000
1.000000 1.000000 1.000000
1.000000 1.000000 1.000000
1.000000 1.000000 1.000000
1.000000 1.000000 1.000000
1.000000 1.000000 1.000000
0.753705 0.358936 1.000000
0.000000 0.000000 0.405468
0.000000 0.000000 0.000000
1.000000 1.000000 1.000000
1.000000 1.000000 1.000000
1.000000 1.000000 1.000000
1.000000 1.000000 1.000000
1.000000 1.000000 1.000000
1.000000 1.000000 1.000000
1.000000 0.655746 1.000000
0.579376 0.000000 1.000000
0.000000 0.000000 0.000000
0.569040 0.277609 0.303823
0.247657 0.059031 0.000000
0.072642 0.000000 0.000000
0.037665 0.000000 0.000000
0.142514 0.000000 0.000000
0.393094 0.000000 0.285951
0.801426 0.050768 1.000000
1.000000 0.212154 1.000000
1.000000 0.388906 1.000000
0.710183 0.477638 0.495776
0.480490 0.280522 0.229921
0.386650 0.162677 0.112576
0.412494 0.117371 0.146190
0.547969 0.133374 0.346451
0.789139 0.194947 0.742291
1.000000 0.281851 1.000000
1.000000 0.369341 1.000000
1.000000 0.428167 1.000000
0.585393 0.521051 0.434961
0.447991 0.371214 0.294596
0.425595 0.292412 0.273306
0.492193 0.269878 0.358529
0.627893 0.284342 0.550941
0.818917 0.312027 0.864461
1.000000 0.324653 1.000000
1.000000 0.289439 1.000000
1.000000 0.169095 1.000000
0.328299 0.489650 0.214469
0.284363 0.413580 0.196478
0.324250 0.387875 0.262593
0.412108 0.389728 0.385240
0.518204 0.391831 0.550086
0.618919 0.362369 0.756037
0.696753 0.265024 1.000000
0.740319 0.058973 1.000000
0.744350 0.000000 1.000000
0.123838 0.462114 0.000000
0.175114 0.486975 0.097125
0.268696 0.529095 0.244091
0.358893 0.557627 0.392076
0.406128 0.537223 0.511735
0.376945 0.428031 0.586963
0.244000 0.185693 0.614897
0.000000 0.000000 0.605913
0.000000 0.000000 0.583630
0.208252 0.514004 0.000000
0.357060 0.667638 0.224465
0.496323 0.792985 0.447825
0.570508 0.851161 0.611157
0.530200 0.798780 0.670105
0.332100 0.587950 0.593553
0.000000 0.166276 0.363627
0.000000 0.000000 0.000000
0.000000 0.000000 0.000000
0.869092 0.717766 0.521404
1.000000 1.000000 0.872795
1.000000 1.000000 1.000000
1.000000 1.000000 1.000000
1.000000 1.000000 1.000000
0.774798 0.917945 1.000000
0.072814 0.283264 0.566209
0.000000 0.000000 0.000000
0.000000 0.000000 0.000000
1.000000 1.000000 1.000000
1.000000 1.000000 1.000000
1.000000 1.000000 1.000000
1.000000 1.000000 1.000000
1.000000 1.000000 1.000000
1.000000 1.000000 1.000000
0.987659 0.610036 1.000000
0.000000 0.000000 0.359968
0.000000 0.000000 0.000000
1.000000 1.000000 1.000000
1.000000 1.000000 1.000000
1.000000 1.000000 1.000000
1.000000 1.000000 1.000000
1.000000 1.000000 1.000000
1.000000 1.000000 1.000000
1.000000 1.000000 1.000000
1.000000 0.000000 1.000000
0.000000 0.000000 0.000000
0.753837 0.271242 0.380622
0.401822 0.059558 0.000000
0.230509 0.000000 0.000000
0.222051 0.000000 0.000000
0.364716 0.009120 0.023029
0.652888 0.126793 0.582858
1.000000 0.270256 1.000000
1.000000 0.407881 1.000000
1.000000 0.503537 1.000000
0.925381 0.537610 0.576732
0.659154 0.320685 0.299609
0.561700 0.215266 0.188733
0.605332 0.199703 0.253876
0.768476 0.247843 0.518049
1.000000 0.329025 1.000000
1.000000 0.408089 1.000000
1.000000 0.445368 1.000000
1.000000 0.396691 1.000000
0.791551 0.606559 0.511381
0.617347 0.419054 0.353366
0.589654 0.334863 0.332047
0.670942 0.324300 0.442185
0.829798 0.353169 0.691780
1.000000 0.382776 1.000000
1.000000 0.369917 1.000000
1.000000 0.266889 1.000000
1.000000 0.021483 1.000000
0.496598 0.573564 0.278978
0.421226 0.450815 0.235511
0.459767 0.410753 0.293656
0.564852 0.415651 0.433162
0.695225 0.423277 0.647019
0.815751 0.386895 0.941455
0.897406 0.255266 1.000000
0.917287 0.000000 1.000000
0.858605 0.000000 1.000000
0.236083 0.530983 0.040305
0.266923 0.509002 0.108921
0.368745 0.536643 0.238533
0.484338 0.568140 0.393878
0.562607 0.553223 0.552932
0.558574 0.437117 0.706915
0.433377 0.160545 0.860284
0.154270 0.000000 1.000000
0.000000 0.000000 1.000000
0.256871 0.568056 0.022510
0.401877 0.683529 0.202843
0.564599 0.803123 0.398021
0.677985 0.873032 0.557770
0.681100 0.834948 0.645056
0.519125 0.626057 0.636085
0.143358 0.179043 0.520305
0.000000 0.000000 0.300403
0.000000 0.000000 0.000000
0.857137 0.770901 0.519112
1.000000 1.000000 0.812891
1.000000 1.000000 1.000000
1.000000 1.000000 1.000000
1.000000 1.000000 1.000000
0.998441 1.000000 1.000000
0.328957 0.400931 0.622100
0.000000 0.000000 0.000000
0.000000 0.000000 0.000000
1.000000 1.000000 1.000000
1.000000 1.000000 1.000000
1.000000 1.000000 1.000000
1.000000 1.000000 1.000000
1.000000 1.000000 1.000000
1.000000 1.000000 1.000000
1.000000 0.913263 1.000000
0.000000 0.000000 0.445207
0.000000 0.000000 0.000000
1.000000 1.000000 1.000000
1.000000 1.000000 1.000000
1.000000 1.000000 1.000000
1.000000 1.000000 1.000000
1.000000 1.000000 1.000000
1.000000 1.000000 1.000000
1.000000 1.000000 1.000000
1.000000 0.053746 1.000000
0.000000 0.000000 0.034387
0.834259 0.155402 0.369509
0.443717 0.000000 0.000000
0.267857 0.000000 0.000000
0.277314 0.026545 0.000000
0.448834 0.183095 0.247704
0.765283 0.380581 0.942407
1.000000 0.576957 1.000000
1.000000 0.725674 1.000000
1.000000 0.775678 1.000000
1.000000 0.536368 0.595519
0.787987 0.328604 0.339866
0.679455 0.265176 0.266071
0.733054 0.309512 0.391227
0.915692 0.420535 0.745669
1.000000 0.552667 1.000000
1.000000 0.655823 1.000000
1.000000 0.675415 1.000000
1.000000 0.552351 1.000000
1.000000 0.671213 0.550364
0.792715 0.472682 0.405810
0.753045 0.410338 0.413448
0.841988 0.439570 0.575360
1.000000 0.511265 0.906868
1.000000 0.571803 1.000000
1.000000 0.563063 1.000000
1.000000 0.422416 1.000000
1.000000 0.082733 1.000000
0.725698 0.669089 0.329774
0.613349 0.523974 0.290316
0.644649 0.494460 0.367850
0.760709 0.527900 0.549448
0.908754 0.567138 0.835420
1.000000 0.550518 1.000000
1.000000 0.411880 1.000000
1.000000 0.080557 1.000000
0.979389 0.000000 1.000000
0.450995 0.636031 0.095847
0.456643 0.589190 0.157578
0.561594 0.624929 0.295569
0.697117 0.682559 0.481878
0.800598 0.696889 0.701807
0.815538 0.598222 0.953895
0.691557 0.312359 1.000000
0.384388 0.000000 1.000000
0.000000 0.000000 1.000000
0.443428 0.674955 0.077052
0.580660 0.771923 0.238161
0.762515 0.906010 0.429264
0.910420 1.000000 0.607409
0.951921 1.000000 0.742885
0.820679 0.821207 0.819219
0.456471 0.371468 0.833184
0.000000 0.000000 0.794788
0.000000 0.000000 0.727283
1.000000 0.885658 0.568224
1.000000 1.000000 0.828998
1.000000 1.000000 1.000000
1.000000 1.000000 1.000000
1.000000 1.000000 1.000000
1.000000 1.000000 1.000000
0.727263 0.693055 0.845129
0.000000 0.000000 0.370433
0.000000 0.000000 0.000000
1.000000 1.000000 1.000000
1.000000 1.000000 1.000000
1.000000 1.000000 1.000000
1.000000 1.000000 1.000000
1.000000 1.000000 1.000000
1.000000 1.000000 1.000000
1.000000 1.000000 1.000000
0.385009 0.000000 0.717733
0.000000 0.000000 0.000000
1.000000 1.000000 1.000000
1.000000 1.000000 1.000000
1.000000 1.000000 1.000000
1.000000 1.000000 1.000000
1.000000 1.000000 1.000000
1.000000 1.000000 1.000000
1.000000 1.000000 1.000000
1.000000 0.805811 1.000000
0.000000 0.000000 0.369975
0.661497 0.000000 0.182574
0.234861 0.000000 0.000000
0.056534 0.000000 0.000000
0.085629 0.040137 0.000000
0.287373 0.340595 0.460744
0.633112 0.670602 1.000000
1.000000 0.973192 1.000000
1.000000 1.000000 1.000000
1.000000 1.000000 1.000000
1.000000 0.371101 0.471796
0.740791 0.220509 0.280224
0.624043 0.247675 0.283993
0.690118 0.401105 0.507520
0.894402 0.624800 0.988460
1.000000 0.858261 1.000000
1.000000 1.000000 1.000000
1.000000 1.000000 1.000000
1.000000 0.944654 1.000000
1.000000 0.621308 0.479141
0.860178 0.457434 0.389033
0.812179 0.463210 0.464485
0.912069 0.579106 0.714901
1.000000 0.741084 1.000000
1.000000 0.880605 1.000000
1.000000 0.924624 1.000000
1.000000 0.795594 1.000000
1.000000 0.411462 1.000000
0.903633 0.691625 0.301657
0.759094 0.567498 0.305568
0.787586 0.592478 0.439722
0.918699 0.698996 0.698515
1.000000 0.814976 1.000000
1.000000 0.863840 1.000000
1.000000 0.764505 1.000000
1.000000 0.431384 1.000000
1.000000 0.000000 1.000000
0.668890 0.701764 0.102763
0.654918 0.671089 0.195340
0.768215 0.756541 0.377314
0.928530 0.882512 0.628067
1.000000 0.968889 0.940220
1.000000 0.931053 1.000000
0.980825 0.679884 1.000000
0.649034 0.121756 1.000000
0.054755 0.000000 1.000000
0.680520 0.768317 0.112243
0.816336 0.885474 0.290234
1.000000 1.000000 0.511241
1.000000 1.000000 0.739633
1.000000 1.000000 0.953023
1.000000 1.000000 1.000000
0.852932 0.791407 1.000000
0.186745 0.000000 1.000000
0.000000 0.000000 1.000000
1.000000 1.000000 0.626253
1.000000 1.000000 0.888501
1.000000 1.000000 1.000000
1.000000 1.000000 1.000000
1.000000 1.000000 1.000000
1.000000 1.000000 1.000000
1.000000 1.000000 1.000000
0.211786 0.148406 0.966098
0.000000 0.000000 0.566015
1.000000 1.000000 1.000000
1.000000 1.000000 1.000000
1.000000 1.000000 1.000000
1.000000 1.000000 1.000000
1.000000 1.000000 1.000000
1.000000 1.000000 1.000000
1.000000 1.000000 1.000000
1.000000 0.717966 1.000000
0.000000 0.000000 0.179476
1.000000 1.000000 1.000000
1.000000 1.000000 1.000000
1.000000 1.000000 1.000000
1.000000 1.000000 1.000000
1.000000 1.000000 1.000000
1.000000 1.000000 1.000000
1.000000 1.000000 1.000000
1.000000 1.000000 1.000000
0.568698 0.000000 0.958244
0.038400 0.000000 0.000000
0.000000 0.000000 0.000000
0.000000 0.000000 0.000000
0.000000 0.000000 0.000000
0.000000 0.402699 0.591369
0.110866 0.936976 1.000000
0.605883 1.000000 1.000000
1.000000 1.000000 1.000000
1.000000 1.000000 1.000000
0.720200 0.000000 0.102865
0.343024 0.000000 0.027857
0.231254 0.054870 0.159547
0.322640 0.385629 0.529673
0.561052 0.790824 1.000000
0.896473 1.000000 1.000000
1.000000 1.000000 1.000000
1.000000 1.000000 1.000000
1.000000 1.000000 1.000000
0.938725 0.319979 0.202584
0.657477 0.255483 0.217780
0.615126 0.394694 0.409775
0.739583 0.663158 0.795298
0.964877 0.981918 1.000000
1.000000 1.000000 1.000000
1.000000 1.000000 1.000000
1.000000 1.000000 1.000000
1.000000 1.000000 1.000000
0.870097 0.513415 0.107073
0.708486 0.472667 0.203581
0.748930 0.615126 0.441460
0.909501 0.858299 0.822424
1.000000 1.000000 1.000000
1.000000 1.000000 1.000000
1.000000 1.000000 1.000000
1.000000 1.000000 1.000000
1.000000 0.382366 1.000000
0.741745 0.609530 0.000000
0.724054 0.655083 0.152094
0.861242 0.850905 0.423529
1.000000 1.000000 0.782074
1.000000 1.000000 1.000000
1.000000 1.000000 1.000000
1.000000 1.000000 1.000000
0.872485 0.757828 1.000000
0.225845 0.000000 1.000000
0.832405 0.738595 0.055669
0.983489 0.933676 0.296520
1.000000 1.000000 0.591281
1.000000 1.000000 0.911644
1.000000 1.000000 1.000000
1.000000 1.000000 1.000000
1.000000 1.000000 1.000000
0.592428 0.699374 1.000000
0.000000 0.000000 1.000000
1.000000 1.000000 0.628354
1.000000 1.000000 0.936428
1.000000 1.000000 1.000000
1.000000 1.000000 1.000000
1.000000 1.000000 1.000000
1.000000 1.000000 1.000000
1.000000 1.000000 1.000000
0.822402 0.987163 1.000000
0.000000 0.000000 1.000000
1.000000 1.000000 1.000000
1.000000 1.000000 1.000000
1.000000 1.000000 1.000000
1.000000 1.000000 1.000000
1.000000 1.000000 1.000000
1.000000 1.000000 1.000000
1.000000 1.000000 1.000000
1.000000 1.000000 1.000000
0.000000 0.000000 1.000000
1.000000 1.000000 1.000000
1.000000 1.000000 1.000000
1.000000 1.000000 1.000000
1.000000 1.000000 1.000000
1.000000 1.000000 1.000000
1.000000 1.000000 1.000000
1.000000 1.000000 1.000000
1.000000 1.000000 1.000000
1.000000 0.668178 1.000000
