lrplugin/MindfulLensFilmEngine.lrplugin/profiles/luts/portra_160.cube
# Generated from ColorChecker fit
LUT_3D_SIZE 5
DOMAIN_MIN 0.0 0.0 0.0
DOMAIN_MAX 1.0 1.0 1.0
0.262727 0.032759 0.202987
0.000000 0.000000 0.094295
0.000000 0.000000 0.000000
0.000000 0.000000 0.000000
0.000000 0.000000 0.000000
0.031537 0.022052 0.171837
0.197350 0.211036 0.581024
0.261487 0.283158 0.822502
0.000000 0.184089 0.454288
0.000000 0.000000 0.000000
0.284368 0.560585 0.257344
0.388340 0.807276 0.804851
0.306432 0.742545 0.927879
0.000000 0.143727 0.045132
0.000000 0.000000 0.000000
1.000000 1.000000 1.000000
1.000000 1.000000 1.000000
1.000000 1.000000 1.000000
0.000000 0.000000 0.000000
0.000000 0.000000 0.000000
1.000000 1.000000 1.000000
1.000000 1.000000 1.000000
1.000000 1.000000 1.000000
1.000000 0.000000 1.000000
0.000000 0.000000 0.000000
0.475110 0.560950 0.238676
0.000000 0.000000 0.000000
0.000000 0.000000 0.000000
0.000000 0.000000 0.000000
0.000000 0.000000 0.000000
0.238506 0.362981 0.203879
0.249840 0.322283 0.309102
0.336118 0.307007 0.511212
0.415860 0.282008 0.675303
0.257924 0.103518 0.723279
0.485636 0.781229 0.237329
0.410367 0.833278 0.532156
0.302774 0.704250 0.687938
0.000000 0.190663 0.430456
0.000000 0.000000 0.000000
1.000000 1.000000 1.000000
1.000000 1.000000 1.000000
1.000000 1.000000 1.000000
0.000000 0.000000 0.354151
0.000000 0.000000 0.000000
1.000000 1.000000 1.000000
1.000000 1.000000 1.000000
1.000000 1.000000 1.000000
1.000000 0.000000 1.000000
0.000000 0.000000 0.000000
0.973113 1.000000 0.494796
0.000000 0.076386 0.000000
0.000000 0.000000 0.000000
0.000000 0.000000 0.000000
0.000000 0.000000 0.270957
0.603019 0.585476 0.397304
0.424424 0.260617 0.269822
0.447420 0.129244 0.343412
0.783421 0.175396 0.790245
1.000000 0.274494 1.000000
0.683198 0.807059 0.278902
0.520834 0.687408 0.405776
0.429732 0.542803 0.518628
0.322114 0.188950 0.650317
0.000000 0.000000 0.890516
1.000000 1.000000 1.000000
1.000000 1.000000 1.000000
1.000000 1.000000 1.000000
0.000000 0.000000 0.587404
0.000000 0.000000 0.000000
1.000000 1.000000 1.000000
1.000000 1.000000 1.000000
1.000000 1.000000 1.000000
1.000000 0.000000 1.000000
0.000000 0.000000 0.000000
1.000000 1.000000 0.601438
0.242854 0.181067 0.000000
0.000000 0.000000 0.000000
0.000000 0.000000 0.000000
0.000000 0.000000 0.610165
1.000000 0.805196 0.517365
0.704130 0.266709 0.354422
0.619790 0.115552 0.336324
1.000000 0.354953 0.942320
1.000000 0.879515 1.000000
0.871062 0.800745 0.282478
0.755117 0.657348 0.452110
0.764047 0.670902 0.572333
1.000000 0.676298 0.983083
1.000000 0.399806 1.000000
1.000000 1.000000 1.000000
1.000000 1.000000 1.000000
1.000000 1.000000 1.000000
0.767737 0.628676 0.968584
0.000000 0.000000 0.406532
1.000000 1.000000 1.000000
1.000000 1.000000 1.000000
1.000000 1.000000 1.000000
1.000000 1.000000 1.000000
0.000000 0.000000 0.632749
1.000000 1.000000 0.000000
0.226519 0.252984 0.000000
0.000000 0.000000 0.000000
0.000000 0.000000 0.000000
0.000000 0.248977 0.366361
1.000000 0.899700 0.000000
0.822730 0.343131 0.113940
0.628363 0.393520 0.166971
1.000000 1.000000 0.934537
1.000000 1.000000 1.000000
0.793980 0.686859 0.000000
0.899332 0.792682 0.357358
1.000000 1.000000 0.661237
1.000000 1.000000 1.000000
1.000000 1.000000 1.000000
1.000000 1.000000 1.000000
1.000000 1.000000 1.000000
1.000000 1.000000 1.000000
1.000000 1.000000 1.000000
1.000000 1.000000 1.000000
1.000000 1.000000 1.000000
1.000000 1.000000 1.000000
1.000000 1.000000 1.000000
1.000000 1.000000 1.000000
1.000000 0.485744 1.000000
