lrplugin/MindfulLensFilmEngine.lrplugin/profiles/luts/portra_400.cube
# Generated from ColorChecker fit
LUT_3D_SIZE 5
DOMAIN_MIN 0.0 0.0 0.0
DOMAIN_MAX 1.0 1.0 1.0
0.000000 0.000000 0.000000
0.023849 0.000000 0.223584
0.084609 0.000000 0.470986
0.145369 0.000000 0.718388
0.206128 0.000000 0.965789
0.000000 0.307427 0.065286
0.025256 0.302020 0.312687
0.086016 0.296613 0.560089
0.146776 0.291206 0.807490
0.207536 0.285798 1.000000
0.000000 0.637827 0.154388
0.026664 0.632420 0.401790
0.087424 0.627013 0.649192
0.148184 0.621606 0.896593
0.208944 0.616198 1.000000
0.000000 0.968227 0.243491
0.028072 0.962820 0.490893
0.088831 0.957413 0.738294
0.149591 0.952006 0.985696
0.210351 0.946598 1.000000
0.000000 1.000000 0.332594
0.029479 1.000000 0.579995
0.090239 1.000000 0.827397
0.150999 1.000000 1.000000
0.211759 1.000000 1.000000
0.184996 0.017706 0.000000
0.245755 0.012298 0.239808
0.306515 0.006891 0.487209
0.367275 0.001484 0.734611
0.428035 0.000000 0.982013
0.186403 0.348106 0.081509
0.247163 0.342698 0.328911
0.307923 0.337291 0.576312
0.368683 0.331884 0.823714
0.429443 0.326477 1.000000
0.187811 0.678506 0.170612
0.248571 0.673099 0.418013
0.309330 0.667691 0.665415
0.370090 0.662284 0.912816
0.430850 0.656877 1.000000
0.189218 1.000000 0.259714
0.249978 1.000000 0.507116
0.310738 0.998091 0.754518
0.371498 0.992684 1.000000
0.432258 0.987277 1.000000
0.190626 1.000000 0.348817
0.251386 1.000000 0.596219
0.312146 1.000000 0.843620
0.372905 1.000000 1.000000
0.433665 1.000000 1.000000
0.406902 0.058384 0.008629
0.467662 0.052977 0.256031
0.528422 0.047570 0.503433
0.589182 0.042163 0.750834
0.649942 0.036756 0.998236
0.408310 0.388784 0.097732
0.469070 0.383377 0.345134
0.529829 0.377970 0.592535
0.590589 0.372563 0.839937
0.651349 0.367156 1.000000
0.409717 0.719184 0.186835
0.470477 0.713777 0.434237
0.531237 0.708370 0.681638
0.591997 0.702963 0.929040
0.652757 0.697556 1.000000
0.411125 1.000000 0.275938
0.471885 1.000000 0.523339
0.532645 1.000000 0.770741
0.593404 1.000000 1.000000
0.654164 1.000000 1.000000
0.412532 1.000000 0.365040
0.473292 1.000000 0.612442
0.534052 1.000000 0.859844
0.594812 1.000000 1.000000
0.655572 1.000000 1.000000
0.628809 0.099063 0.024853
0.689569 0.093656 0.272254
0.750328 0.088249 0.519656
0.811088 0.082842 0.767058
0.871848 0.077434 1.000000
0.630216 0.429463 0.113956
0.690976 0.424056 0.361357
0.751736 0.418649 0.608759
0.812496 0.413242 0.856160
0.873256 0.407834 1.000000
0.631624 0.759863 0.203058
0.692384 0.754456 0.450460
0.753144 0.749049 0.697861
0.813904 0.743642 0.945263
0.874663 0.738235 1.000000
0.633031 1.000000 0.292161
0.693791 1.000000 0.539563
0.754551 1.000000 0.786964
0.815311 1.000000 1.000000
0.876071 1.000000 1.000000
0.634439 1.000000 0.381264
0.695199 1.000000 0.628665
0.755959 1.000000 0.876067
0.816719 1.000000 1.000000
0.877479 1.000000 1.000000
0.850715 0.139742 0.041076
0.911475 0.134334 0.288478
0.972235 0.128927 0.535879
1.000000 0.123520 0.783281
1.000000 0.118113 1.000000
0.852123 0.470142 0.130179
0.912883 0.464735 0.377580
0.973643 0.459327 0.624982
1.000000 0.453920 0.872384
1.000000 0.448513 1.000000
0.853530 0.800542 0.219282
0.914290 0.795135 0.466683
0.975050 0.789727 0.714085
1.000000 0.784320 0.961486
1.000000 0.778913 1.000000
0.854938 1.000000 0.308384
0.915698 1.000000 0.555786
0.976458 1.000000 0.803188
1.000000 1.000000 1.000000
1.000000 1.000000 1.000000
0.856346 1.000000 0.397487
0.917106 1.000000 0.644889
0.977865 1.000000 0.892290
1.000000 1.000000 1.000000
1.000000 1.000000 1.000000
