lrplugin/MindfulLensFilmEngine.lrplugin/profiles/luts/portra_800.cube
# Generated from ColorChecker fit
LUT_3D_SIZE 33
DOMAIN_MIN 0.0 0.0 0.0
DOMAIN_MAX 1.0 1.0 1.0
0.000052 0.000038 0.000012
0.000090 0.000067 0.000024
0.000148 0.000110 0.000047
0.000232 0.000172 0.000092
0.000344 0.000258 0.000175
0.000491 0.000371 0.000326
0.000677 0.000517 0.000585
0.000908 0.000702 0.001008
0.001193 0.000934 0.001656
0.001541 0.001220 0.002586
0.001958 0.001565 0.003821
0.002438 0.001960 0.005331
0.002957 0.002382 0.007012
0.003467 0.002788 0.008686
0.003901 0.003123 0.010128
0.004189 0.003329 0.011110
0.004275 0.003365 0.011463
0.004132 0.003216 0.011122
0.003775 0.002900 0.010148
0.003255 0.002464 0.008708
0.002647 0.001971 0.007027
0.002030 0.001483 0.005333
0.001466 0.001050 0.003807
0.000998 0.000699 0.002557
0.000640 0.000438 0.001616
0.000387 0.000258 0.000961
0.000221 0.000143 0.000538
0.000119 0.000074 0.000283
0.000060 0.000036 0.000141
0.000029 0.000017 0.000066
0.000013 0.000007 0.000029
0.000005 0.000003 0.000012
0.000002 0.000001 0.000005
0.000086 0.000064 0.000019
0.000150 0.000111 0.000039
0.000246 0.000183 0.000077
0.000383 0.000286 0.000150
0.000569 0.000428 0.000286
0.000809 0.000615 0.000531
0.001112 0.000856 0.000952
0.001485 0.001160 0.001638
0.001944 0.001541 0.002692
0.002502 0.002011 0.004201
0.003170 0.002575 0.006208
0.003941 0.003223 0.008663
0.004775 0.003913 0.011400
0.005599 0.004577 0.014131
0.006307 0.005125 0.016487
0.006785 0.005463 0.018101
0.006940 0.005521 0.018693
0.006726 0.005277 0.018158
0.006165 0.004759 0.016590
0.005336 0.004045 0.014256
0.004356 0.003237 0.011523
0.003354 0.002438 0.008761
0.002435 0.001727 0.006268
0.001666 0.001151 0.004219
0.001074 0.000721 0.002673
0.000653 0.000425 0.001594
0.000374 0.000236 0.000895
0.000202 0.000123 0.000473
0.000103 0.000060 0.000236
0.000050 0.000028 0.000110
0.000023 0.000012 0.000049
0.000010 0.000005 0.000020
0.000004 0.000002 0.000008
0.000134 0.000100 0.000030
0.000233 0.000173 0.000061
0.000382 0.000285 0.000119
0.000595 0.000447 0.000231
0.000881 0.000668 0.000440
0.001251 0.000959 0.000814
0.001712 0.001333 0.001458
0.002278 0.001806 0.002508
0.002968 0.002396 0.004119
0.003805 0.003125 0.006428
0.004806 0.004000 0.009499
0.005962 0.005003 0.013260
0.007218 0.006072 0.017458
0.008466 0.007101 0.021654
0.009550 0.007949 0.025286
0.010298 0.008473 0.027787
0.010564 0.008565 0.028729
0.010275 0.008186 0.027943
0.009455 0.007385 0.025567
0.008219 0.006279 0.022007
0.006743 0.005027 0.017822
0.005218 0.003788 0.013580
0.003808 0.002686 0.009738
0.002621 0.001791 0.006573
0.001700 0.001124 0.004176
0.001040 0.000663 0.002498
0.000600 0.000368 0.001408
0.000327 0.000192 0.000747
0.000168 0.000094 0.000373
0.000081 0.000044 0.000176
0.000037 0.000019 0.000078
0.000016 0.000008 0.000033
0.000007 0.000003 0.000013
0.000197 0.000146 0.000044
0.000341 0.000254 0.000089
0.000559 0.000419 0.000174
0.000868 0.000656 0.000336
0.001282 0.000980 0.000637
0.001813 0.001408 0.001177
0.002471 0.001957 0.002106
0.003272 0.002651 0.003619
0.004241 0.003519 0.005941
0.005411 0.004590 0.009271
0.006807 0.005876 0.013701
0.008422 0.007350 0.019134
0.010188 0.008922 0.025205
0.011958 0.010435 0.031286
0.013515 0.011683 0.036568
0.014617 0.012454 0.040229
0.015052 0.012591 0.041647
0.014706 0.012037 0.040568
0.013600 0.010861 0.037182
0.011886 0.009238 0.032067
0.009808 0.007399 0.026025
0.007636 0.005579 0.019880
0.005609 0.003958 0.014294
0.003886 0.002642 0.009677
0.002539 0.001659 0.006169
0.001565 0.000980 0.003704
0.000910 0.000545 0.002095
0.000499 0.000285 0.001117
0.000258 0.000140 0.000561
0.000126 0.000065 0.000266
0.000058 0.000028 0.000119
0.000025 0.000012 0.000050
0.000010 0.000005 0.000020
0.000271 0.000202 0.000061
0.000469 0.000352 0.000122
0.000767 0.000579 0.000239
0.001187 0.000906 0.000461
0.001749 0.001355 0.000871
0.002462 0.001948 0.001606
0.003338 0.002710 0.002869
0.004393 0.003675 0.004928
0.005657 0.004886 0.008087
0.007172 0.006383 0.012617
0.008977 0.008183 0.018651
0.011071 0.010248 0.026058
0.013378 0.012451 0.034348
0.015717 0.014571 0.042671
0.017812 0.016320 0.049927
0.019340 0.017402 0.054996
0.020015 0.017597 0.057017
0.019668 0.016826 0.055634
0.018303 0.015186 0.051089
0.016104 0.012920 0.044157
0.013383 0.010353 0.035925
0.010498 0.007810 0.027517
0.007770 0.005544 0.019846
0.005426 0.003704 0.013480
0.003574 0.002328 0.008625
0.002221 0.001377 0.005199
0.001302 0.000767 0.002954
0.000720 0.000402 0.001582
0.000375 0.000198 0.000798
0.000185 0.000092 0.000380
0.000086 0.000040 0.000171
0.000037 0.000017 0.000072
0.000015 0.000006 0.000029
0.000351 0.000263 0.000080
0.000606 0.000458 0.000159
0.000988 0.000753 0.000310
0.001524 0.001180 0.000596
0.002235 0.001766 0.001125
0.003130 0.002542 0.002071
0.004214 0.003545 0.003695
0.005500 0.004822 0.006342
0.007020 0.006431 0.010404
0.008824 0.008429 0.016233
0.010968 0.010839 0.024002
0.013466 0.013606 0.033549
0.016246 0.016561 0.044255
0.019110 0.019405 0.055029
0.021735 0.021752 0.064460
0.023728 0.023206 0.071101
0.024720 0.023472 0.073834
0.024475 0.022448 0.072176
0.022963 0.020263 0.066421
0.020380 0.017242 0.057546
0.017089 0.013820 0.046945
0.013528 0.010429 0.036066
0.010107 0.007407 0.026098
0.007124 0.004952 0.017792
0.004737 0.003116 0.011429
0.002971 0.001845 0.006920
0.001757 0.001029 0.003950
0.000980 0.000540 0.002125
0.000516 0.000267 0.001079
0.000256 0.000124 0.000516
0.000120 0.000054 0.000233
0.000053 0.000023 0.000099
0.000022 0.000009 0.000040
0.000427 0.000323 0.000099
0.000735 0.000561 0.000196
0.001194 0.000924 0.000381
0.001835 0.001448 0.000730
0.002675 0.002172 0.001375
0.003717 0.003136 0.002529
0.004958 0.004392 0.004507
0.006397 0.006003 0.007732
0.008061 0.008051 0.012680
0.010007 0.010610 0.019785
0.012308 0.013709 0.029263
0.015006 0.017277 0.040924
0.018057 0.021091 0.054022
0.021274 0.024763 0.067240
0.024319 0.027792 0.078858
0.026750 0.029669 0.087108
0.028130 0.030019 0.090610
0.028142 0.028713 0.088752
0.026698 0.025918 0.081860
0.023967 0.022053 0.071106
0.020330 0.017676 0.058175
0.016282 0.013340 0.044837
0.012305 0.009478 0.032561
0.008772 0.006339 0.022284
0.005898 0.003990 0.014376
0.003739 0.002365 0.008743
0.002235 0.001320 0.005014
0.001260 0.000694 0.002712
0.000669 0.000343 0.001384
0.000335 0.000160 0.000666
0.000158 0.000070 0.000302
0.000070 0.000029 0.000130
0.000029 0.000011 0.000052
0.000488 0.000373 0.000117
0.000837 0.000648 0.000229
0.001354 0.001068 0.000444
0.002068 0.001678 0.000849
0.002991 0.002525 0.001596
0.004113 0.003665 0.002932
0.005411 0.005165 0.005222
0.006866 0.007116 0.008955
0.008487 0.009623 0.014684
0.010331 0.012784 0.022913
0.012489 0.016637 0.033898
0.015048 0.021086 0.047428
0.018018 0.025847 0.062652
0.021270 0.030431 0.078053
0.024500 0.034209 0.091648
0.027264 0.036551 0.101382
0.029075 0.036993 0.105640
0.029538 0.035382 0.103682
0.028472 0.031930 0.095854
0.025971 0.027159 0.083482
0.022380 0.021762 0.068504
0.018200 0.016419 0.052974
0.013959 0.011664 0.038610
0.010094 0.007800 0.026530
0.006879 0.004912 0.017188
0.004417 0.002912 0.010502
0.002673 0.001626 0.006052
0.001523 0.000855 0.003291
0.000818 0.000424 0.001688
0.000413 0.000198 0.000817
0.000197 0.000087 0.000373
0.000088 0.000036 0.000161
0.000037 0.000014 0.000065
0.000524 0.000407 0.000130
0.000894 0.000707 0.000255
0.001438 0.001167 0.000492
0.002178 0.001839 0.000939
0.003116 0.002782 0.001764
0.004222 0.004068 0.003239
0.005442 0.005789 0.005768
0.006727 0.008064 0.009888
0.008058 0.011032 0.016214
0.009480 0.014819 0.025302
0.011103 0.019468 0.037440
0.013070 0.024857 0.052403
0.015485 0.030632 0.069263
0.018326 0.036189 0.086359
0.021391 0.040764 0.101506
0.024292 0.043595 0.112436
0.026535 0.044131 0.117348
0.027649 0.042197 0.115395
0.027332 0.038059 0.106922
0.025545 0.032350 0.093362
0.022526 0.025901 0.076834
0.018718 0.019528 0.059608
0.014647 0.013863 0.043601
0.010789 0.009266 0.030076
0.007479 0.005832 0.019567
0.004878 0.003457 0.012009
0.002994 0.001930 0.006954
0.001729 0.001015 0.003799
0.000939 0.000503 0.001959
0.000480 0.000235 0.000953
0.000231 0.000104 0.000437
0.000104 0.000043 0.000189
0.000044 0.000017 0.000077
0.000529 0.000419 0.000138
0.000897 0.000728 0.000270
0.001429 0.001206 0.000520
0.002141 0.001911 0.000993
0.003013 0.002914 0.001864
0.003990 0.004306 0.003423
0.004982 0.006209 0.006098
0.005894 0.008777 0.010456
0.006667 0.012190 0.017145
0.007321 0.016603 0.026755
0.007984 0.022067 0.039593
0.008864 0.028428 0.055425
0.010191 0.035249 0.073281
0.012110 0.041809 0.091417
0.014584 0.047198 0.107535
0.017355 0.050523 0.119238
0.019970 0.051146 0.124613
0.021901 0.048879 0.122742
0.022701 0.044046 0.113953
0.022140 0.037397 0.099730
0.020275 0.029905 0.082291
0.017419 0.022519 0.064030
0.014037 0.015966 0.046989
0.010611 0.010659 0.032529
0.007525 0.006702 0.021245
0.005009 0.003969 0.013092
0.003129 0.002214 0.007613
0.001836 0.001164 0.004178
0.001011 0.000577 0.002164
0.000523 0.000269 0.001058
0.000254 0.000119 0.000488
0.000116 0.000049 0.000212
0.000050 0.000019 0.000087
0.000501 0.000408 0.000140
0.000842 0.000711 0.000273
0.001327 0.001183 0.000527
0.001955 0.001888 0.001006
0.002686 0.002911 0.001892
0.003431 0.004364 0.003478
0.004057 0.006401 0.006201
0.004415 0.009220 0.010637
0.004394 0.013042 0.017444
0.003980 0.018054 0.027219
0.003309 0.024312 0.040272
0.002663 0.031628 0.056367
0.002419 0.039480 0.074522
0.002931 0.047021 0.092975
0.004393 0.053198 0.109402
0.006735 0.056992 0.121378
0.009602 0.057686 0.126957
0.012433 0.055083 0.125194
0.014629 0.049575 0.116399
0.015728 0.042028 0.102051
0.015544 0.033552 0.084382
0.014188 0.025220 0.065815
0.012006 0.017849 0.048430
0.009445 0.011895 0.033626
0.006925 0.007466 0.022032
0.004738 0.004414 0.013624
0.003030 0.002459 0.007952
0.001813 0.001291 0.004380
0.001016 0.000639 0.002278
0.000533 0.000298 0.001118
0.000262 0.000131 0.000517
0.000121 0.000054 0.000226
0.000052 0.000021 0.000093
0.000446 0.000378 0.000136
0.000741 0.000660 0.000266
0.001147 0.001104 0.000513
0.001649 0.001781 0.000982
0.002181 0.002785 0.001852
0.002621 0.004254 0.003412
0.002788 0.006375 0.006093
0.002477 0.009386 0.010460
0.001517 0.013553 0.017157
0.000000 0.019094 0.026764
0.000000 0.026070 0.039578
0.000000 0.034253 0.055363
0.000000 0.043041 0.073152
0.000000 0.051466 0.091223
0.000000 0.058343 0.107307
0.000000 0.062540 0.119042
0.000000 0.063277 0.124533
0.000210 0.060358 0.122854
0.003915 0.054239 0.114304
0.006922 0.045898 0.100313
0.008761 0.036567 0.083052
0.009296 0.027427 0.064879
0.008707 0.019367 0.047829
0.007367 0.012877 0.033279
0.005703 0.008063 0.021856
0.004070 0.004756 0.013550
0.002691 0.002643 0.007930
0.001654 0.001384 0.004381
0.000947 0.000683 0.002284
0.000506 0.000318 0.001124
0.000253 0.000140 0.000522
0.000118 0.000058 0.000229
0.000052 0.000023 0.000095
0.000373 0.000332 0.000128
0.000608 0.000583 0.000249
0.000919 0.000984 0.000482
0.001272 0.001609 0.000927
0.001579 0.002565 0.001755
0.001685 0.004007 0.003245
0.001367 0.006154 0.005807
0.000366 0.009284 0.009980
0.000000 0.013699 0.016373
0.000000 0.019646 0.025530
0.000000 0.027183 0.037721
0.000000 0.036051 0.052708
0.000000 0.045573 0.069562
0.000000 0.054684 0.086645
0.000000 0.062093 0.101814
0.000000 0.066581 0.112846
0.000000 0.067324 0.117965
0.000000 0.064139 0.116316
0.000000 0.057540 0.108192
0.000000 0.048593 0.094947
0.000835 0.038627 0.078628
0.003395 0.028902 0.061454
0.004574 0.020356 0.045337
0.004646 0.013498 0.031576
0.004017 0.008429 0.020763
0.003088 0.004957 0.012890
0.002153 0.002747 0.007556
0.001376 0.001434 0.004181
0.000812 0.000706 0.002184
0.000445 0.000328 0.001077
0.000226 0.000143 0.000501
0.000107 0.000059 0.000220
0.000048 0.000023 0.000091
0.000292 0.000279 0.000115
0.000465 0.000493 0.000225
0.000677 0.000842 0.000439
0.000880 0.001400 0.000848
0.000970 0.002283 0.001615
0.000764 0.003660 0.002999
0.000010 0.005774 0.005382
0.000000 0.008930 0.009261
0.000000 0.013458 0.015197
0.000000 0.019622 0.023679
0.000000 0.027479 0.034944
0.000000 0.036741 0.048749
0.000000 0.046683 0.064223
0.000000 0.056174 0.079846
0.000000 0.063862 0.093651
0.000000 0.068480 0.103613
0.000000 0.069191 0.108132
0.000000 0.065829 0.106458
0.000000 0.058952 0.098888
0.000000 0.049683 0.086681
0.000000 0.039402 0.071714
0.000000 0.029407 0.056008
0.000234 0.020656 0.041298
0.001692 0.013658 0.028753
0.002122 0.008503 0.018904
0.001940 0.004985 0.011737
0.001497 0.002753 0.006882
0.001022 0.001432 0.003810
0.000632 0.000703 0.001992
0.000358 0.000325 0.000983
0.000187 0.000142 0.000458
0.000091 0.000058 0.000201
0.000041 0.000023 0.000083
0.000214 0.000224 0.000100
0.000329 0.000399 0.000197
0.000452 0.000693 0.000387
0.000526 0.001178 0.000753
0.000434 0.001970 0.001444
0.000000 0.003248 0.002695
0.000000 0.005265 0.004852
0.000000 0.008340 0.008361
0.000000 0.012814 0.013721
0.000000 0.018954 0.021361
0.000000 0.026814 0.031473
0.000000 0.036091 0.043819
0.000000 0.046042 0.057594
0.000000 0.055520 0.071427
0.000000 0.063165 0.083562
0.000000 0.067720 0.092210
0.000000 0.068362 0.095984
0.000000 0.064951 0.094260
0.000000 0.058064 0.087344
0.000000 0.048835 0.076384
0.000000 0.038642 0.063056
0.000000 0.028769 0.049146
0.000000 0.020154 0.036170
0.000000 0.013288 0.025141
0.000310 0.008247 0.016505
0.000805 0.004819 0.010234
0.000825 0.002652 0.005994
0.000648 0.001375 0.003315
0.000435 0.000672 0.001732
0.000260 0.000309 0.000854
0.000141 0.000134 0.000398
0.000070 0.000055 0.000175
0.000032 0.000021 0.000072
0.000146 0.000173 0.000084
0.000214 0.000312 0.000167
0.000266 0.000551 0.000330
0.000243 0.000960 0.000649
0.000026 0.001651 0.001254
0.000000 0.002801 0.002352
0.000000 0.004658 0.004247
0.000000 0.007538 0.007330
0.000000 0.011775 0.012029
0.000000 0.017626 0.018707
0.000000 0.025137 0.027515
0.000000 0.034007 0.038220
0.000000 0.043513 0.050100
0.000000 0.052545 0.061951
0.000000 0.059802 0.072250
0.000000 0.064087 0.079469
0.000000 0.064633 0.082447
0.000000 0.061325 0.080693
0.000000 0.054732 0.074520
0.000000 0.045944 0.064951
0.000000 0.036277 0.053441
0.000000 0.026944 0.041517
0.000000 0.018828 0.030460
0.000000 0.012379 0.021108
0.000000 0.007660 0.013817
0.000000 0.004462 0.008545
0.000235 0.002447 0.004992
0.000307 0.001264 0.002755
0.000249 0.000615 0.001436
0.000165 0.000282 0.000707
0.000095 0.000122 0.000328
0.000050 0.000050 0.000144
0.000024 0.000019 0.000060
0.000093 0.000128 0.000068
0.000125 0.000235 0.000136
0.000130 0.000425 0.000272
0.000046 0.000760 0.000541
0.000000 0.001344 0.001053
0.000000 0.002342 0.001987
0.000000 0.003985 0.003599
0.000000 0.006567 0.006219
0.000000 0.010396 0.010205
0.000000 0.015706 0.015853
0.000000 0.022536 0.023272
0.000000 0.030602 0.032248
0.000000 0.039235 0.042151
0.000000 0.047420 0.051956
0.000000 0.053969 0.060385
0.000000 0.057804 0.066176
0.000000 0.058239 0.068393
0.000000 0.055186 0.066673
0.000000 0.049176 0.061322
0.000000 0.041208 0.053226
0.000000 0.032473 0.043609
0.000000 0.024067 0.033736
0.000000 0.016777 0.024647
0.000000 0.011003 0.017009
0.000000 0.006790 0.011089
0.000000 0.003943 0.006830
0.000000 0.002155 0.003975
0.000040 0.001109 0.002186
0.000098 0.000538 0.001136
0.000085 0.000246 0.000557
0.000056 0.000106 0.000258
0.000031 0.000043 0.000113
0.000016 0.000016 0.000047
0.000054 0.000092 0.000053
0.000064 0.000172 0.000107
0.000041 0.000318 0.000217
0.000000 0.000583 0.000435
0.000000 0.001060 0.000854
0.000000 0.001892 0.001618
0.000000 0.003283 0.002939
0.000000 0.005489 0.005085
0.000000 0.008779 0.008342
0.000000 0.013356 0.012945
0.000000 0.019247 0.018967
0.000000 0.026202 0.026218
0.000000 0.033636 0.034171
0.000000 0.040667 0.041983
0.000000 0.046273 0.048621
0.000000 0.049527 0.053081
0.000000 0.049850 0.054636
0.000000 0.047178 0.053034
0.000000 0.041980 0.048558
0.000000 0.035120 0.041950
0.000000 0.027626 0.034205
0.000000 0.020435 0.026330
0.000000 0.014215 0.019140
0.000000 0.009300 0.013142
0.000000 0.005724 0.008525
0.000000 0.003315 0.005225
0.000000 0.001807 0.003026
0.000000 0.000927 0.001656
0.000000 0.000448 0.000856
0.000026 0.000204 0.000418
0.000026 0.000087 0.000193
0.000017 0.000035 0.000084
0.000009 0.000013 0.000035
0.000029 0.000064 0.000039
0.000027 0.000122 0.000081
0.000000 0.000230 0.000166
0.000000 0.000434 0.000336
0.000000 0.000808 0.000664
0.000000 0.001471 0.001265
0.000000 0.002592 0.002304
0.000000 0.004383 0.003990
0.000000 0.007065 0.006543
0.000000 0.010800 0.010141
0.000000 0.015610 0.014832
0.000000 0.021285 0.020454
0.000000 0.027342 0.026584
0.000000 0.033058 0.032560
0.000000 0.037598 0.037577
0.000000 0.040211 0.040869
0.000000 0.040433 0.041895
0.000000 0.038220 0.040489
0.000000 0.033963 0.036900
0.000000 0.028371 0.031723
0.000000 0.022281 0.025733
0.000000 0.016451 0.019703
0.000000 0.011422 0.014243
0.000000 0.007457 0.009724
0.000000 0.004579 0.006272
0.000000 0.002645 0.003822
0.000000 0.001437 0.002201
0.000000 0.000735 0.001198
0.000000 0.000354 0.000616
0.000000 0.000160 0.000299
0.000006 0.000068 0.000137
0.000007 0.000028 0.000060
0.000004 0.000010 0.000024
0.000014 0.000043 0.000028
0.000006 0.000083 0.000059
0.000000 0.000162 0.000122
0.000000 0.000312 0.000249
0.000000 0.000592 0.000495
0.000000 0.001096 0.000946
0.000000 0.001955 0.001727
0.000000 0.003333 0.002991
0.000000 0.005401 0.004904
0.000000 0.008284 0.007592
0.000000 0.011996 0.011085
0.000000 0.016371 0.015253
0.000000 0.021033 0.019774
0.000000 0.025423 0.024147
0.000000 0.028897 0.027777
0.000000 0.030880 0.030102
0.000000 0.031019 0.030736
0.000000 0.029288 0.029579
0.000000 0.025993 0.026834
0.000000 0.021683 0.022956
0.000000 0.017003 0.018525
0.000000 0.012534 0.014106
0.000000 0.008687 0.010139
0.000000 0.005660 0.006881
0.000000 0.003468 0.004411
0.000000 0.001999 0.002671
0.000000 0.001084 0.001528
0.000000 0.000553 0.000827
0.000000 0.000265 0.000422
0.000000 0.000120 0.000204
0.000000 0.000051 0.000093
0.000001 0.000020 0.000040
0.000002 0.000008 0.000016
0.000006 0.000028 0.000019
0.000000 0.000055 0.000041
0.000000 0.000109 0.000085
0.000000 0.000215 0.000176
0.000000 0.000416 0.000352
0.000000 0.000780 0.000675
0.000000 0.001403 0.001233
0.000000 0.002406 0.002137
0.000000 0.003914 0.003502
0.000000 0.006015 0.005415
0.000000 0.008720 0.007893
0.000000 0.011904 0.010838
0.000000 0.015291 0.014017
0.000000 0.018473 0.017071
0.000000 0.020982 0.019578
0.000000 0.022402 0.021145
0.000000 0.022480 0.021512
0.000000 0.021202 0.020619
0.000000 0.018794 0.018625
0.000000 0.015658 0.015858
0.000000 0.012261 0.012733
0.000000 0.009025 0.009644
0.000000 0.006244 0.006892
0.000000 0.004062 0.004649
0.000000 0.002484 0.002962
0.000000 0.001429 0.001782
0.000000 0.000773 0.001013
0.000000 0.000393 0.000544
0.000000 0.000188 0.000276
0.000000 0.000085 0.000133
0.000000 0.000036 0.000060
0.000000 0.000014 0.000026
0.000000 0.000005 0.000010
0.000002 0.000017 0.000013
0.000000 0.000035 0.000027
0.000000 0.000071 0.000057
0.000000 0.000142 0.000118
0.000000 0.000279 0.000238
0.000000 0.000528 0.000457
0.000000 0.000956 0.000837
0.000000 0.001646 0.001450
0.000000 0.002684 0.002375
0.000000 0.004130 0.003669
0.000000 0.005989 0.005340
0.000000 0.008175 0.007319
0.000000 0.010496 0.009445
0.000000 0.012672 0.011475
0.000000 0.014381 0.013123
0.000000 0.015340 0.014131
0.000000 0.015378 0.014328
0.000000 0.014488 0.013682
0.000000 0.012827 0.012309
0.000000 0.010674 0.010435
0.000000 0.008347 0.008339
0.000000 0.006135 0.006283
0.000000 0.004239 0.004466
0.000000 0.002753 0.002995
0.000000 0.001680 0.001896
0.000000 0.000965 0.001133
0.000000 0.000521 0.000640
0.000000 0.000264 0.000341
0.000000 0.000126 0.000172
0.000000 0.000057 0.000082
0.000000 0.000024 0.000037
0.000000 0.000010 0.000016
0.000000 0.000004 0.000006
0.000000 0.000010 0.000008
0.000000 0.000022 0.000017
0.000000 0.000044 0.000036
0.000000 0.000090 0.000076
0.000000 0.000178 0.000153
0.000000 0.000339 0.000294
0.000000 0.000617 0.000539
0.000000 0.001066 0.000934
0.000000 0.001740 0.001528
0.000000 0.002678 0.002358
0.000000 0.003884 0.003426
0.000000 0.005299 0.004688
0.000000 0.006799 0.006038
0.000000 0.008202 0.007319
0.000000 0.009300 0.008350
0.000000 0.009910 0.008966
0.000000 0.009924 0.009063
0.000000 0.009339 0.008626
0.000000 0.008260 0.007731
0.000000 0.006865 0.006528
0.000000 0.005361 0.005193
0.000000 0.003935 0.003895
0.000000 0.002715 0.002754
0.000000 0.001760 0.001837
0.000000 0.001073 0.001156
0.000000 0.000615 0.000687
0.000000 0.000331 0.000385
0.000000 0.000168 0.000204
0.000000 0.000080 0.000102
0.000000 0.000036 0.000048
0.000000 0.000015 0.000022
0.000000 0.000006 0.000009
0.000000 0.000002 0.000004
0.000000 0.000006 0.000005
0.000000 0.000013 0.000010
0.000000 0.000026 0.000022
0.000000 0.000054 0.000046
0.000000 0.000108 0.000093
0.000000 0.000207 0.000179
0.000000 0.000377 0.000328
0.000000 0.000652 0.000569
0.000000 0.001065 0.000931
0.000000 0.001640 0.001435
0.000000 0.002377 0.002082
0.000000 0.003241 0.002845
0.000000 0.004155 0.003657
0.000000 0.005008 0.004423
0.000000 0.005672 0.005035
0.000000 0.006038 0.005393
0.000000 0.006040 0.005436
0.000000 0.005678 0.005158
0.000000 0.005016 0.004608
0.000000 0.004164 0.003876
0.000000 0.003248 0.003072
0.000000 0.002381 0.002293
0.000000 0.001640 0.001614
0.000000 0.001062 0.001071
0.000000 0.000646 0.000670
0.000000 0.000370 0.000396
0.000000 0.000199 0.000221
0.000000 0.000100 0.000116
0.000000 0.000048 0.000058
0.000000 0.000021 0.000027
0.000000 0.000009 0.000012
0.000000 0.000004 0.000005
0.000000 0.000001 0.000002
0.000000 0.000003 0.000003
0.000000 0.000007 0.000006
0.000000 0.000015 0.000013
0.000000 0.000031 0.000026
0.000000 0.000062 0.000054
0.000000 0.000119 0.000103
0.000000 0.000218 0.000190
0.000000 0.000377 0.000328
0.000000 0.000616 0.000537
0.000000 0.000948 0.000826
0.000000 0.001373 0.001198
0.000000 0.001870 0.001633
0.000000 0.002395 0.002096
0.000000 0.002884 0.002531
0.000000 0.003263 0.002874
0.000000 0.003470 0.003072
0.000000 0.003467 0.003089
0.000000 0.003256 0.002923
0.000000 0.002873 0.002603
0.000000 0.002382 0.002183
0.000000 0.001856 0.001723
0.000000 0.001359 0.001282
0.000000 0.000935 0.000898
0.000000 0.000604 0.000593
0.000000 0.000367 0.000369
0.000000 0.000210 0.000217
0.000000 0.000113 0.000120
0.000000 0.000057 0.000063
0.000000 0.000027 0.000031
0.000000 0.000012 0.000014
0.000000 0.000005 0.000006
0.000000 0.000002 0.000003
0.000000 0.000001 0.000001
0.000000 0.000002 0.000001
0.000000 0.000004 0.000003
0.000000 0.000008 0.000007
0.000000 0.000017 0.000014
0.000000 0.000034 0.000029
0.000000 0.000065 0.000056
0.000000 0.000119 0.000104
0.000000 0.000206 0.000179
0.000000 0.000336 0.000293
0.000000 0.000517 0.000450
0.000000 0.000748 0.000651
0.000000 0.001018 0.000887
0.000000 0.001303 0.001136
0.000000 0.001567 0.001369
0.000000 0.001771 0.001552
0.000000 0.001881 0.001655
0.000000 0.001877 0.001661
0.000000 0.001761 0.001568
0.000000 0.001552 0.001392
0.000000 0.001285 0.001164
0.000000 0.001000 0.000916
0.000000 0.000731 0.000679
0.000000 0.000502 0.000474
0.000000 0.000324 0.000312
0.000000 0.000197 0.000193
0.000000 0.000112 0.000113
0.000000 0.000060 0.000062
0.000000 0.000030 0.000032
0.000000 0.000014 0.000016
0.000000 0.000006 0.000007
0.000000 0.000003 0.000003
0.000000 0.000001 0.000001
0.000000 0.000000 0.000001
0.000000 0.000001 0.000001
0.000000 0.000002 0.000002
0.000000 0.000004 0.000004
0.000000 0.000009 0.000007
0.000000 0.000017 0.000015
0.000000 0.000034 0.000029
0.000000 0.000061 0.000053
0.000000 0.000106 0.000092
0.000000 0.000173 0.000151
0.000000 0.000266 0.000232
0.000000 0.000385 0.000335
0.000000 0.000523 0.000455
0.000000 0.000668 0.000582
0.000000 0.000803 0.000701
0.000000 0.000906 0.000793
0.000000 0.000962 0.000844
0.000000 0.000959 0.000845
0.000000 0.000898 0.000796
0.000000 0.000790 0.000705
0.000000 0.000654 0.000588
0.000000 0.000508 0.000461
0.000000 0.000371 0.000341
0.000000 0.000254 0.000237
0.000000 0.000164 0.000155
0.000000 0.000099 0.000096
0.000000 0.000057 0.000056
0.000000 0.000030 0.000031
