lrplugin/MindfulLensFilmEngine.lrplugin/profiles/luts/portra_400.cube
# Generated from ColorChecker fit
LUT_3D_SIZE 33
DOMAIN_MIN 0.0 0.0 0.0
DOMAIN_MAX 1.0 1.0 1.0
0.000000 0.000000 0.000000
0.000000 0.000000 0.007108
0.000000 0.000000 0.038033
0.000000 0.000000 0.068958
0.000000 0.000000 0.099884
0.001064 0.000000 0.130809
0.008659 0.000000 0.161734
0.016254 0.000000 0.192659
0.023849 0.000000 0.223584
0.031444 0.000000 0.254510
0.039039 0.000000 0.285435
0.046634 0.000000 0.316360
0.054229 0.000000 0.347285
0.061824 0.000000 0.378210
0.069419 0.000000 0.409136
0.077014 0.000000 0.440061
0.084609 0.000000 0.470986
0.092204 0.000000 0.501911
0.099799 0.000000 0.532836
0.107394 0.000000 0.563762
0.114989 0.000000 0.594687
0.122584 0.000000 0.625612
0.130179 0.000000 0.656537
0.137774 0.000000 0.687462
0.145369 0.000000 0.718388
0.152964 0.000000 0.749313
0.160559 0.000000 0.780238
0.168154 0.000000 0.811163
0.175748 0.000000 0.842088
0.183343 0.000000 0.873014
0.190938 0.000000 0.903939
0.198533 0.000000 0.934864
0.206128 0.000000 0.965789
0.000000 0.018327 0.000000
0.000000 0.017651 0.018246
0.000000 0.016975 0.049171
0.000000 0.016299 0.080096
0.000000 0.015623 0.111022
0.001240 0.014947 0.141947
0.008835 0.014272 0.172872
0.016430 0.013596 0.203797
0.024025 0.012920 0.234722
0.031620 0.012244 0.265648
0.039215 0.011568 0.296573
0.046810 0.010892 0.327498
0.054405 0.010216 0.358423
0.062000 0.009540 0.389348
0.069595 0.008864 0.420274
0.077190 0.008189 0.451199
0.084785 0.007513 0.482124
0.092380 0.006837 0.513049
0.099975 0.006161 0.543974
0.107570 0.005485 0.574899
0.115165 0.004809 0.605825
0.122760 0.004133 0.636750
0.130355 0.003457 0.667675
0.137950 0.002781 0.698600
0.145545 0.002105 0.729526
0.153140 0.001430 0.760451
0.160734 0.000754 0.791376
0.168329 0.000078 0.822301
0.175924 0.000000 0.853226
0.183519 0.000000 0.884152
0.191114 0.000000 0.915077
0.198709 0.000000 0.946002
0.206304 0.000000 0.976927
0.000000 0.059627 0.000000
0.000000 0.058951 0.029384
0.000000 0.058275 0.060309
0.000000 0.057599 0.091234
0.000000 0.056923 0.122159
0.001416 0.056247 0.153085
0.009011 0.055572 0.184010
0.016606 0.054896 0.214935
0.024201 0.054220 0.245860
0.031796 0.053544 0.276785
0.039391 0.052868 0.307711
0.046986 0.052192 0.338636
0.054581 0.051516 0.369561
0.062176 0.050840 0.400486
0.069771 0.050164 0.431411
0.077366 0.049489 0.462337
0.084961 0.048813 0.493262
0.092556 0.048137 0.524187
0.100151 0.047461 0.555112
0.107746 0.046785 0.586037
0.115341 0.046109 0.616963
0.122935 0.045433 0.647888
0.130530 0.044757 0.678813
0.138125 0.044081 0.709738
0.145720 0.043405 0.740663
0.153315 0.042730 0.771589
0.160910 0.042054 0.802514
0.168505 0.041378 0.833439
0.176100 0.040702 0.864364
0.183695 0.040026 0.895289
0.191290 0.039350 0.926215
0.198885 0.038674 0.957140
0.206480 0.037998 0.988065
0.000000 0.100927 0.009596
0.000000 0.100251 0.040522
0.000000 0.099575 0.071447
0.000000 0.098899 0.102372
0.000000 0.098223 0.133297
0.001592 0.097547 0.164222
0.009187 0.096872 0.195148
0.016782 0.096196 0.226073
0.024377 0.095520 0.256998
0.031972 0.094844 0.287923
0.039567 0.094168 0.318848
0.047162 0.093492 0.349774
0.054757 0.092816 0.380699
0.062352 0.092140 0.411624
0.069947 0.091464 0.442549
0.077542 0.090789 0.473474
0.085137 0.090113 0.504400
0.092732 0.089437 0.535325
0.100327 0.088761 0.566250
0.107921 0.088085 0.597175
0.115516 0.087409 0.628100
0.123111 0.086733 0.659026
0.130706 0.086057 0.689951
0.138301 0.085381 0.720876
0.145896 0.084706 0.751801
0.153491 0.084030 0.782726
0.161086 0.083354 0.813652
0.168681 0.082678 0.844577
0.176276 0.082002 0.875502
0.183871 0.081326 0.906427
0.191466 0.080650 0.937352
0.199061 0.079974 0.968278
0.206656 0.079298 0.999203
0.000000 0.142227 0.020734
0.000000 0.141551 0.051659
0.000000 0.140875 0.082585
0.000000 0.140199 0.113510
0.000000 0.139523 0.144435
0.001768 0.138847 0.175360
0.009363 0.138172 0.206285
0.016958 0.137496 0.237211
0.024553 0.136820 0.268136
0.032148 0.136144 0.299061
0.039743 0.135468 0.329986
0.047338 0.134792 0.360911
0.054933 0.134116 0.391837
0.062528 0.133440 0.422762
0.070123 0.132764 0.453687
0.077717 0.132089 0.484612
0.085312 0.131413 0.515537
0.092907 0.130737 0.546463
0.100502 0.130061 0.577388
0.108097 0.129385 0.608313
0.115692 0.128709 0.639238
0.123287 0.128033 0.670163
0.130882 0.127357 0.701089
0.138477 0.126681 0.732014
0.146072 0.126006 0.762939
0.153667 0.125330 0.793864
0.161262 0.124654 0.824789
0.168857 0.123978 0.855715
0.176452 0.123302 0.886640
0.184047 0.122626 0.917565
0.191642 0.121950 0.948490
0.199237 0.121274 0.979415
0.206832 0.120598 1.000000
0.000000 0.183527 0.031872
0.000000 0.182851 0.062797
0.000000 0.182175 0.093723
0.000000 0.181499 0.124648
0.000000 0.180823 0.155573
0.001944 0.180147 0.186498
0.009539 0.179472 0.217423
0.017134 0.178796 0.248349
0.024729 0.178120 0.279274
0.032324 0.177444 0.310199
0.039919 0.176768 0.341124
0.047513 0.176092 0.372049
0.055108 0.175416 0.402974
0.062703 0.174740 0.433900
0.070298 0.174064 0.464825
0.077893 0.173389 0.495750
0.085488 0.172713 0.526675
0.093083 0.172037 0.557600
0.100678 0.171361 0.588526
0.108273 0.170685 0.619451
0.115868 0.170009 0.650376
0.123463 0.169333 0.681301
0.131058 0.168657 0.712226
0.138653 0.167981 0.743152
0.146248 0.167305 0.774077
0.153843 0.166630 0.805002
0.161438 0.165954 0.835927
0.169033 0.165278 0.866852
0.176628 0.164602 0.897778
0.184223 0.163926 0.928703
0.191818 0.163250 0.959628
0.199413 0.162574 0.990553
0.207008 0.161898 1.000000
0.000000 0.224827 0.043010
0.000000 0.224151 0.073935
0.000000 0.223475 0.104860
0.000000 0.222799 0.135786
0.000000 0.222123 0.166711
0.002120 0.221447 0.197636
0.009715 0.220772 0.228561
0.017310 0.220096 0.259486
0.024904 0.219420 0.290412
0.032499 0.218744 0.321337
0.040094 0.218068 0.352262
0.047689 0.217392 0.383187
0.055284 0.216716 0.414112
0.062879 0.216040 0.445038
0.070474 0.215364 0.475963
0.078069 0.214689 0.506888
0.085664 0.214013 0.537813
0.093259 0.213337 0.568738
0.100854 0.212661 0.599664
0.108449 0.211985 0.630589
0.116044 0.211309 0.661514
0.123639 0.210633 0.692439
0.131234 0.209957 0.723364
0.138829 0.209281 0.754290
0.146424 0.208606 0.785215
0.154019 0.207930 0.816140
0.161614 0.207254 0.847065
0.169209 0.206578 0.877990
0.176804 0.205902 0.908916
0.184399 0.205226 0.939841
0.191994 0.204550 0.970766
0.199589 0.203874 1.000000
0.207184 0.203198 1.000000
0.000000 0.266127 0.054148
0.000000 0.265451 0.085073
0.000000 0.264775 0.115998
0.000000 0.264099 0.146923
0.000000 0.263423 0.177849
0.002295 0.262747 0.208774
0.009890 0.262072 0.239699
0.017485 0.261396 0.270624
0.025080 0.260720 0.301549
0.032675 0.260044 0.332475
0.040270 0.259368 0.363400
0.047865 0.258692 0.394325
0.055460 0.258016 0.425250
0.063055 0.257340 0.456175
0.070650 0.256664 0.487101
0.078245 0.255989 0.518026
0.085840 0.255313 0.548951
0.093435 0.254637 0.579876
0.101030 0.253961 0.610801
0.108625 0.253285 0.641727
0.116220 0.252609 0.672652
0.123815 0.251933 0.703577
0.131410 0.251257 0.734502
0.139005 0.250581 0.765427
0.146600 0.249906 0.796353
0.154195 0.249230 0.827278
0.161790 0.248554 0.858203
0.169385 0.247878 0.889128
0.176980 0.247202 0.920053
0.184575 0.246526 0.950979
0.192170 0.245850 0.981904
0.199765 0.245174 1.000000
0.207360 0.244498 1.000000
0.000000 0.307427 0.065286
0.000000 0.306751 0.096211
0.000000 0.306075 0.127136
0.000000 0.305399 0.158061
0.000000 0.304723 0.188986
0.002471 0.304047 0.219912
0.010066 0.303372 0.250837
0.017661 0.302696 0.281762
0.025256 0.302020 0.312687
0.032851 0.301344 0.343612
0.040446 0.300668 0.374538
0.048041 0.299992 0.405463
0.055636 0.299316 0.436388
0.063231 0.298640 0.467313
0.070826 0.297964 0.498238
0.078421 0.297289 0.529164
0.086016 0.296613 0.560089
0.093611 0.295937 0.591014
0.101206 0.295261 0.621939
0.108801 0.294585 0.652864
0.116396 0.293909 0.683790
0.123991 0.293233 0.714715
0.131586 0.292557 0.745640
0.139181 0.291881 0.776565
0.146776 0.291206 0.807490
0.154371 0.290530 0.838416
0.161966 0.289854 0.869341
0.169561 0.289178 0.900266
0.177156 0.288502 0.931191
0.184751 0.287826 0.962116
0.192346 0.287150 0.993042
0.199941 0.286474 1.000000
0.207536 0.285798 1.000000
0.000000 0.348727 0.076423
0.000000 0.348051 0.107349
0.000000 0.347375 0.138274
0.000000 0.346699 0.169199
0.000000 0.346023 0.200124
0.002647 0.345347 0.231049
0.010242 0.344672 0.261975
0.017837 0.343996 0.292900
0.025432 0.343320 0.323825
0.033027 0.342644 0.354750
0.040622 0.341968 0.385675
0.048217 0.341292 0.416601
0.055812 0.340616 0.447526
0.063407 0.339940 0.478451
0.071002 0.339264 0.509376
0.078597 0.338589 0.540301
0.086192 0.337913 0.571227
0.093787 0.337237 0.602152
0.101382 0.336561 0.633077
0.108977 0.335885 0.664002
0.116572 0.335209 0.694927
0.124167 0.334533 0.725853
0.131762 0.333857 0.756778
0.139357 0.333181 0.787703
0.146952 0.332506 0.818628
0.154547 0.331830 0.849553
0.162142 0.331154 0.880479
0.169737 0.330478 0.911404
0.177332 0.329802 0.942329
0.184927 0.329126 0.973254
0.192522 0.328450 1.000000
0.200117 0.327774 1.000000
0.207712 0.327098 1.000000
0.000000 0.390027 0.087561
0.000000 0.389351 0.118487
0.000000 0.388675 0.149412
0.000000 0.387999 0.180337
0.000000 0.387323 0.211262
0.002823 0.386647 0.242187
0.010418 0.385972 0.273113
0.018013 0.385296 0.304038
0.025608 0.384620 0.334963
0.033203 0.383944 0.365888
0.040798 0.383268 0.396813
0.048393 0.382592 0.427738
0.055988 0.381916 0.458664
0.063583 0.381240 0.489589
0.071178 0.380564 0.520514
0.078773 0.379889 0.551439
0.086368 0.379213 0.582364
0.093963 0.378537 0.613290
0.101558 0.377861 0.644215
0.109153 0.377185 0.675140
0.116748 0.376509 0.706065
0.124343 0.375833 0.736991
0.131938 0.375157 0.767916
0.139533 0.374481 0.798841
0.147128 0.373806 0.829766
0.154723 0.373130 0.860691
0.162318 0.372454 0.891617
0.169913 0.371778 0.922542
0.177508 0.371102 0.953467
0.185103 0.370426 0.984392
0.192698 0.369750 1.000000
0.200293 0.369074 1.000000
0.207888 0.368398 1.000000
0.000000 0.431327 0.098699
0.000000 0.430651 0.129624
0.000000 0.429975 0.160550
0.000000 0.429299 0.191475
0.000000 0.428623 0.222400
0.002999 0.427947 0.253325
0.010594 0.427272 0.284250
0.018189 0.426596 0.315176
0.025784 0.425920 0.346101
0.033379 0.425244 0.377026
0.040974 0.424568 0.407951
0.048569 0.423892 0.438876
0.056164 0.423216 0.469802
0.063759 0.422540 0.500727
0.071354 0.421864 0.531652
0.078949 0.421189 0.562577
0.086544 0.420513 0.593502
0.094139 0.419837 0.624428
0.101734 0.419161 0.655353
0.109329 0.418485 0.686278
0.116924 0.417809 0.717203
0.124519 0.417133 0.748128
0.132114 0.416457 0.779054
0.139709 0.415781 0.809979
0.147304 0.415106 0.840904
0.154899 0.414430 0.871829
0.162494 0.413754 0.902754
0.170089 0.413078 0.933680
0.177684 0.412402 0.964605
0.185279 0.411726 0.995530
0.192874 0.411050 1.000000
0.200469 0.410374 1.000000
0.208064 0.409698 1.000000
0.000000 0.472627 0.109837
0.000000 0.471951 0.140762
0.000000 0.471275 0.171687
0.000000 0.470599 0.202613
0.000000 0.469923 0.233538
0.003175 0.469247 0.264463
0.010770 0.468572 0.295388
0.018365 0.467896 0.326313
0.025960 0.467220 0.357239
0.033555 0.466544 0.388164
0.041150 0.465868 0.419089
0.048745 0.465192 0.450014
0.056340 0.464516 0.480939
0.063935 0.463840 0.511865
0.071530 0.463164 0.542790
0.079125 0.462489 0.573715
0.086720 0.461813 0.604640
0.094315 0.461137 0.635565
0.101910 0.460461 0.666491
0.109505 0.459785 0.697416
0.117100 0.459109 0.728341
0.124695 0.458433 0.759266
0.132290 0.457757 0.790191
0.139885 0.457081 0.821117
0.147480 0.456406 0.852042
0.155075 0.455730 0.882967
0.162670 0.455054 0.913892
0.170265 0.454378 0.944817
0.177860 0.453702 0.975743
0.185455 0.453026 1.000000
0.193050 0.452350 1.000000
0.200645 0.451674 1.000000
0.208240 0.450998 1.000000
0.000000 0.513927 0.120975
0.000000 0.513251 0.151900
0.000000 0.512575 0.182825
0.000000 0.511899 0.213750
0.000000 0.511223 0.244676
0.003351 0.510548 0.275601
0.010946 0.509872 0.306526
0.018541 0.509196 0.337451
0.026136 0.508520 0.368376
0.033731 0.507844 0.399302
0.041326 0.507168 0.430227
0.048921 0.506492 0.461152
0.056516 0.505816 0.492077
0.064111 0.505140 0.523002
0.071706 0.504465 0.553928
0.079301 0.503789 0.584853
0.086896 0.503113 0.615778
0.094491 0.502437 0.646703
0.102086 0.501761 0.677628
0.109681 0.501085 0.708554
0.117276 0.500409 0.739479
0.124871 0.499733 0.770404
0.132466 0.499057 0.801329
0.140061 0.498381 0.832254
0.147656 0.497706 0.863180
0.155251 0.497030 0.894105
0.162846 0.496354 0.925030
0.170441 0.495678 0.955955
0.178036 0.495002 0.986880
0.185631 0.494326 1.000000
0.193226 0.493650 1.000000
0.200821 0.492974 1.000000
0.208416 0.492298 1.000000
0.000000 0.555227 0.132113
0.000000 0.554551 0.163038
0.000000 0.553875 0.193963
0.000000 0.553199 0.224888
0.000000 0.552523 0.255813
0.003527 0.551848 0.286739
0.011122 0.551172 0.317664
0.018717 0.550496 0.348589
0.026312 0.549820 0.379514
0.033907 0.549144 0.410439
0.041502 0.548468 0.441365
0.049097 0.547792 0.472290
0.056692 0.547116 0.503215
0.064287 0.546440 0.534140
0.071882 0.545765 0.565066
0.079477 0.545089 0.595991
0.087072 0.544413 0.626916
0.094667 0.543737 0.657841
0.102262 0.543061 0.688766
0.109857 0.542385 0.719691
0.117452 0.541709 0.750617
0.125047 0.541033 0.781542
0.132642 0.540357 0.812467
0.140237 0.539681 0.843392
0.147832 0.539006 0.874317
0.155427 0.538330 0.905243
0.163022 0.537654 0.936168
0.170617 0.536978 0.967093
0.178212 0.536302 0.998018
0.185807 0.535626 1.000000
0.193402 0.534950 1.000000
0.200997 0.534274 1.000000
0.208592 0.533598 1.000000
0.000000 0.596527 0.143251
0.000000 0.595851 0.174176
0.000000 0.595175 0.205101
0.000000 0.594499 0.236026
0.000000 0.593823 0.266951
0.003703 0.593148 0.297877
0.011298 0.592472 0.328802
0.018893 0.591796 0.359727
0.026488 0.591120 0.390652
0.034083 0.590444 0.421577
0.041678 0.589768 0.452503
0.049273 0.589092 0.483428
0.056868 0.588416 0.514353
0.064463 0.587740 0.545278
0.072058 0.587065 0.576203
0.079653 0.586389 0.607129
0.087248 0.585713 0.638054
0.094843 0.585037 0.668979
0.102438 0.584361 0.699904
0.110033 0.583685 0.730829
0.117628 0.583009 0.761755
0.125223 0.582333 0.792680
0.132818 0.581657 0.823605
0.140413 0.580981 0.854530
0.148008 0.580306 0.885455
0.155603 0.579630 0.916381
0.163198 0.578954 0.947306
0.170793 0.578278 0.978231
0.178388 0.577602 1.000000
0.185983 0.576926 1.000000
0.193578 0.576250 1.000000
0.201173 0.575574 1.000000
0.208768 0.574898 1.000000
0.000000 0.637827 0.154388
0.000000 0.637151 0.185314
0.000000 0.636475 0.216239
0.000000 0.635799 0.247164
0.000000 0.635123 0.278089
0.003879 0.634448 0.309014
0.011474 0.633772 0.339940
0.019069 0.633096 0.370865
0.026664 0.632420 0.401790
0.034259 0.631744 0.432715
0.041854 0.631068 0.463640
0.049449 0.630392 0.494566
0.057044 0.629716 0.525491
0.064639 0.629040 0.556416
0.072234 0.628365 0.587341
0.079829 0.627689 0.618266
0.087424 0.627013 0.649192
0.095019 0.626337 0.680117
0.102614 0.625661 0.711042
0.110209 0.624985 0.741967
0.117804 0.624309 0.772892
0.125399 0.623633 0.803818
0.132994 0.622957 0.834743
0.140589 0.622281 0.865668
0.148184 0.621606 0.896593
0.155779 0.620930 0.927518
0.163374 0.620254 0.958444
0.170969 0.619578 0.989369
0.178564 0.618902 1.000000
0.186159 0.618226 1.000000
0.193754 0.617550 1.000000
0.201349 0.616874 1.000000
0.208944 0.616198 1.000000
0.000000 0.679127 0.165526
0.000000 0.678451 0.196451
0.000000 0.677775 0.227377
0.000000 0.677099 0.258302
0.000000 0.676423 0.289227
0.004055 0.675748 0.320152
0.011650 0.675072 0.351077
0.019245 0.674396 0.382003
0.026840 0.673720 0.412928
0.034435 0.673044 0.443853
0.042030 0.672368 0.474778
0.049625 0.671692 0.505703
0.057220 0.671016 0.536629
0.064815 0.670340 0.567554
0.072410 0.669665 0.598479
0.080005 0.668989 0.629404
0.087600 0.668313 0.660329
0.095195 0.667637 0.691255
0.102790 0.666961 0.722180
0.110385 0.666285 0.753105
0.117980 0.665609 0.784030
0.125575 0.664933 0.814955
0.133170 0.664257 0.845881
0.140765 0.663581 0.876806
0.148360 0.662906 0.907731
0.155955 0.662230 0.938656
0.163550 0.661554 0.969581
0.171145 0.660878 1.000000
0.178740 0.660202 1.000000
0.186335 0.659526 1.000000
0.193930 0.658850 1.000000
0.201525 0.658174 1.000000
0.209120 0.657498 1.000000
0.000000 0.720427 0.176664
0.000000 0.719751 0.207589
0.000000 0.719075 0.238514
0.000000 0.718399 0.269440
0.000000 0.717723 0.300365
0.004231 0.717048 0.331290
0.011826 0.716372 0.362215
0.019421 0.715696 0.393140
0.027016 0.715020 0.424066
0.034611 0.714344 0.454991
0.042206 0.713668 0.485916
0.049801 0.712992 0.516841
0.057396 0.712316 0.547766
0.064991 0.711640 0.578692
0.072586 0.710965 0.609617
0.080181 0.710289 0.640542
0.087776 0.709613 0.671467
0.095371 0.708937 0.702392
0.102966 0.708261 0.733318
0.110561 0.707585 0.764243
0.118156 0.706909 0.795168
0.125751 0.706233 0.826093
0.133346 0.705557 0.857018
0.140941 0.704881 0.887944
0.148536 0.704206 0.918869
0.156131 0.703530 0.949794
0.163726 0.702854 0.980719
0.171321 0.702178 1.000000
0.178916 0.701502 1.000000
0.186511 0.700826 1.000000
0.194106 0.700150 1.000000
0.201700 0.699474 1.000000
0.209295 0.698798 1.000000
0.000000 0.761727 0.187802
0.000000 0.761051 0.218727
0.000000 0.760375 0.249652
0.000000 0.759699 0.280578
0.000000 0.759023 0.311503
0.004407 0.758348 0.342428
0.012002 0.757672 0.373353
0.019597 0.756996 0.404278
0.027192 0.756320 0.435203
0.034787 0.755644 0.466129
0.042382 0.754968 0.497054
0.049977 0.754292 0.527979
0.057572 0.753616 0.558904
0.065167 0.752940 0.589830
0.072762 0.752264 0.620755
0.080357 0.751589 0.651680
0.087952 0.750913 0.682605
0.095547 0.750237 0.713530
0.103142 0.749561 0.744456
0.110737 0.748885 0.775381
0.118332 0.748209 0.806306
0.125927 0.747533 0.837231
0.133522 0.746857 0.868156
0.141117 0.746181 0.899081
0.148712 0.745506 0.930007
0.156307 0.744830 0.960932
0.163902 0.744154 0.991857
0.171497 0.743478 1.000000
0.179091 0.742802 1.000000
0.186686 0.742126 1.000000
0.194281 0.741450 1.000000
0.201876 0.740774 1.000000
0.209471 0.740098 1.000000
0.000000 0.803027 0.198940
0.000000 0.802351 0.229865
0.000000 0.801675 0.260790
0.000000 0.800999 0.291715
0.000000 0.800323 0.322641
0.004583 0.799648 0.353566
0.012178 0.798972 0.384491
0.019773 0.798296 0.415416
0.027368 0.797620 0.446341
0.034963 0.796944 0.477267
0.042558 0.796268 0.508192
0.050153 0.795592 0.539117
0.057748 0.794916 0.570042
0.065343 0.794240 0.600967
0.072938 0.793564 0.631893
0.080533 0.792889 0.662818
0.088128 0.792213 0.693743
0.095723 0.791537 0.724668
0.103318 0.790861 0.755593
0.110913 0.790185 0.786519
0.118508 0.789509 0.817444
0.126103 0.788833 0.848369
0.133698 0.788157 0.879294
0.141293 0.787481 0.910219
0.148887 0.786806 0.941145
0.156482 0.786130 0.972070
0.164077 0.785454 1.000000
0.171672 0.784778 1.000000
0.179267 0.784102 1.000000
0.186862 0.783426 1.000000
0.194457 0.782750 1.000000
0.202052 0.782074 1.000000
0.209647 0.781398 1.000000
0.000000 0.844327 0.210078
0.000000 0.843651 0.241003
0.000000 0.842975 0.271928
0.000000 0.842299 0.302853
0.000000 0.841623 0.333778
0.004759 0.840948 0.364704
0.012354 0.840272 0.395629
0.019949 0.839596 0.426554
0.027544 0.838920 0.457479
0.035139 0.838244 0.488404
0.042734 0.837568 0.519330
0.050329 0.836892 0.550255
0.057924 0.836216 0.581180
0.065519 0.835540 0.612105
0.073114 0.834865 0.643030
0.080709 0.834189 0.673956
0.088304 0.833513 0.704881
0.095899 0.832837 0.735806
0.103494 0.832161 0.766731
0.111089 0.831485 0.797656
0.118684 0.830809 0.828582
0.126278 0.830133 0.859507
0.133873 0.829457 0.890432
0.141468 0.828782 0.921357
0.149063 0.828106 0.952282
0.156658 0.827430 0.983208
0.164253 0.826754 1.000000
0.171848 0.826078 1.000000
0.179443 0.825402 1.000000
0.187038 0.824726 1.000000
0.194633 0.824050 1.000000
0.202228 0.823374 1.000000
0.209823 0.822698 1.000000
0.000000 0.885627 0.221215
0.000000 0.884951 0.252141
0.000000 0.884275 0.283066
0.000000 0.883599 0.313991
0.000000 0.882923 0.344916
0.004935 0.882248 0.375841
0.012530 0.881572 0.406767
0.020125 0.880896 0.437692
0.027720 0.880220 0.468617
0.035315 0.879544 0.499542
0.042910 0.878868 0.530467
0.050505 0.878192 0.561393
0.058100 0.877516 0.592318
0.065695 0.876840 0.623243
0.073290 0.876165 0.654168
0.080885 0.875489 0.685093
0.088480 0.874813 0.716019
0.096074 0.874137 0.746944
0.103669 0.873461 0.777869
0.111264 0.872785 0.808794
0.118859 0.872109 0.839719
0.126454 0.871433 0.870645
0.134049 0.870757 0.901570
0.141644 0.870082 0.932495
0.149239 0.869406 0.963420
0.156834 0.868730 0.994345
0.164429 0.868054 1.000000
0.172024 0.867378 1.000000
0.179619 0.866702 1.000000
0.187214 0.866026 1.000000
0.194809 0.865350 1.000000
0.202404 0.864674 1.000000
0.209999 0.863998 1.000000
0.000000 0.926927 0.232353
0.000000 0.926251 0.263278
0.000000 0.925575 0.294204
0.000000 0.924899 0.325129
0.000000 0.924223 0.356054
0.005111 0.923548 0.386979
0.012706 0.922872 0.417904
0.020301 0.922196 0.448830
0.027896 0.921520 0.479755
0.035491 0.920844 0.510680
0.043086 0.920168 0.541605
0.050681 0.919492 0.572530
0.058276 0.918816 0.603456
0.065871 0.918140 0.634381
0.073465 0.917465 0.665306
0.081060 0.916789 0.696231
0.088655 0.916113 0.727156
0.096250 0.915437 0.758082
0.103845 0.914761 0.789007
0.111440 0.914085 0.819932
0.119035 0.913409 0.850857
0.126630 0.912733 0.881782
0.134225 0.912057 0.912708
0.141820 0.911382 0.943633
0.149415 0.910706 0.974558
0.157010 0.910030 1.000000
0.164605 0.909354 1.000000
0.172200 0.908678 1.000000
0.179795 0.908002 1.000000
0.187390 0.907326 1.000000
0.194985 0.906650 1.000000
0.202580 0.905974 1.000000
0.210175 0.905298 1.000000
0.000000 0.968227 0.243491
0.000000 0.967551 0.274416
0.000000 0.966875 0.305342
0.000000 0.966199 0.336267
0.000000 0.965523 0.367192
0.005287 0.964848 0.398117
0.012882 0.964172 0.429042
0.020477 0.963496 0.459968
0.028072 0.962820 0.490893
0.035667 0.962144 0.521818
0.043261 0.961468 0.552743
0.050856 0.960792 0.583668
0.058451 0.960116 0.614594
0.066046 0.959440 0.645519
0.073641 0.958765 0.676444
0.081236 0.958089 0.707369
0.088831 0.957413 0.738294
0.096426 0.956737 0.769220
0.104021 0.956061 0.800145
0.111616 0.955385 0.831070
0.119211 0.954709 0.861995
0.126806 0.954033 0.892920
0.134401 0.953357 0.923845
0.141996 0.952682 0.954771
0.149591 0.952006 0.985696
0.157186 0.951330 1.000000
0.164781 0.950654 1.000000
0.172376 0.949978 1.000000
0.179971 0.949302 1.000000
0.187566 0.948626 1.000000
0.195161 0.947950 1.000000
0.202756 0.947274 1.000000
0.210351 0.946598 1.000000
0.000000 1.000000 0.254629
0.000000 1.000000 0.285554
0.000000 1.000000 0.316479
0.000000 1.000000 0.347405
0.000000 1.000000 0.378330
0.005463 1.000000 0.409255
0.013058 1.000000 0.440180
0.020652 1.000000 0.471105
0.028247 1.000000 0.502031
0.035842 1.000000 0.532956
0.043437 1.000000 0.563881
0.051032 1.000000 0.594806
0.058627 1.000000 0.625731
0.066222 1.000000 0.656657
0.073817 1.000000 0.687582
0.081412 0.999389 0.718507
0.089007 0.998713 0.749432
0.096602 0.998037 0.780357
0.104197 0.997361 0.811283
0.111792 0.996685 0.842208
0.119387 0.996009 0.873133
0.126982 0.995333 0.904058
0.134577 0.994657 0.934983
0.142172 0.993982 0.965909
0.149767 0.993306 0.996834
0.157362 0.992630 1.000000
0.164957 0.991954 1.000000
0.172552 0.991278 1.000000
0.180147 0.990602 1.000000
0.187742 0.989926 1.000000
0.195337 0.989250 1.000000
0.202932 0.988574 1.000000
0.210527 0.987899 1.000000
0.000000 1.000000 0.265767
0.000000 1.000000 0.296692
0.000000 1.000000 0.327617
0.000000 1.000000 0.358542
0.000000 1.000000 0.389468
0.005638 1.000000 0.420393
0.013233 1.000000 0.451318
0.020828 1.000000 0.482243
0.028423 1.000000 0.513168
0.036018 1.000000 0.544094
0.043613 1.000000 0.575019
0.051208 1.000000 0.605944
0.058803 1.000000 0.636869
0.066398 1.000000 0.667794
0.073993 1.000000 0.698720
0.081588 1.000000 0.729645
0.089183 1.000000 0.760570
0.096778 1.000000 0.791495
0.104373 1.000000 0.822420
0.111968 1.000000 0.853346
0.119563 1.000000 0.884271
0.127158 1.000000 0.915196
0.134753 1.000000 0.946121
0.142348 1.000000 0.977046
0.149943 1.000000 1.000000
0.157538 1.000000 1.000000
0.165133 1.000000 1.000000
