lrplugin/MindfulLensFilmEngine.lrplugin/profiles/luts/portra_400.cube
# Generated from ColorChecker fit
LUT_3D_SIZE 9
DOMAIN_MIN 0.0 0.0 0.0
DOMAIN_MAX 1.0 1.0 1.0
0.000000 0.000000 0.000000
0.000000 0.000000 0.099884
0.023849 0.000000 0.223584
0.054229 0.000000 0.347285
0.084609 0.000000 0.470986
0.114989 0.000000 0.594687
0.145369 0.000000 0.718388
0.175748 0.000000 0.842088
0.206128 0.000000 0.965789
0.000000 0.142227 0.020734
0.000000 0.139523 0.144435
0.024553 0.136820 0.268136
0.054933 0.134116 0.391837
0.085312 0.131413 0.515537
0.115692 0.128709 0.639238
0.146072 0.126006 0.762939
0.176452 0.123302 0.886640
0.206832 0.120598 1.000000
0.000000 0.307427 0.065286
0.000000 0.304723 0.188986
0.025256 0.302020 0.312687
0.055636 0.299316 0.436388
0.086016 0.296613 0.560089
0.116396 0.293909 0.683790
0.146776 0.291206 0.807490
0.177156 0.288502 0.931191
0.207536 0.285798 1.000000
0.000000 0.472627 0.109837
0.000000 0.469923 0.233538
0.025960 0.467220 0.357239
0.056340 0.464516 0.480939
0.086720 0.461813 0.604640
0.117100 0.459109 0.728341
0.147480 0.456406 0.852042
0.177860 0.453702 0.975743
0.208240 0.450998 1.000000
0.000000 0.637827 0.154388
0.000000 0.635123 0.278089
0.026664 0.632420 0.401790
0.057044 0.629716 0.525491
0.087424 0.627013 0.649192
0.117804 0.624309 0.772892
0.148184 0.621606 0.896593
0.178564 0.618902 1.000000
0.208944 0.616198 1.000000
0.000000 0.803027 0.198940
0.000000 0.800323 0.322641
0.027368 0.797620 0.446341
0.057748 0.794916 0.570042
0.088128 0.792213 0.693743
0.118508 0.789509 0.817444
0.148887 0.786806 0.941145
0.179267 0.784102 1.000000
0.209647 0.781398 1.000000
0.000000 0.968227 0.243491
0.000000 0.965523 0.367192
0.028072 0.962820 0.490893
0.058451 0.960116 0.614594
0.088831 0.957413 0.738294
0.119211 0.954709 0.861995
0.149591 0.952006 0.985696
0.179971 0.949302 1.000000
0.210351 0.946598 1.000000
0.000000 1.000000 0.288043
0.000000 1.000000 0.411743
0.028775 1.000000 0.535444
0.059155 1.000000 0.659145
0.089535 1.000000 0.782846
0.119915 1.000000 0.906547
0.150295 1.000000 1.000000
0.180675 1.000000 1.000000
0.211055 1.000000 1.000000
0.000000 1.000000 0.332594
0.000000 1.000000 0.456295
0.029479 1.000000 0.579995
0.059859 1.000000 0.703696
0.090239 1.000000 0.827397
0.120619 1.000000 0.951098
0.150999 1.000000 1.000000
0.181379 1.000000 1.000000
0.211759 1.000000 1.000000
0.074042 0.000000 0.000000
0.104422 0.000000 0.107995
0.134802 0.000000 0.231696
0.165182 0.000000 0.355397
0.195562 0.000000 0.479098
0.225942 0.000000 0.602799
0.256322 0.000000 0.726499
0.286702 0.000000 0.850200
0.317082 0.000000 0.973901
0.074746 0.162566 0.028846
0.105126 0.159863 0.152547
0.135506 0.157159 0.276248
0.165886 0.154456 0.399948
0.196266 0.151752 0.523649
0.226646 0.149048 0.647350
0.257026 0.146345 0.771051
0.287406 0.143641 0.894751
0.317786 0.140938 1.000000
0.075450 0.327766 0.073397
0.105830 0.325063 0.197098
0.136210 0.322359 0.320799
0.166590 0.319656 0.444500
0.196970 0.316952 0.568200
0.227349 0.314248 0.691901
0.257729 0.311545 0.815602
0.288109 0.308841 0.939303
0.318489 0.306138 1.000000
0.076154 0.492966 0.117949
0.106534 0.490263 0.241649
0.136913 0.487559 0.365350
0.167293 0.484856 0.489051
0.197673 0.482152 0.612752
0.228053 0.479448 0.736453
0.258433 0.476745 0.860153
0.288813 0.474041 0.983854
0.319193 0.471338 1.000000
0.076857 0.658166 0.162500
0.107237 0.655463 0.286201
0.137617 0.652759 0.409902
0.167997 0.650056 0.533602
0.198377 0.647352 0.657303
0.228757 0.644648 0.781004
0.259137 0.641945 0.904705
0.289517 0.639241 1.000000
0.319897 0.636538 1.000000
0.077561 0.823366 0.207051
0.107941 0.820663 0.330752
0.138321 0.817959 0.454453
0.168701 0.815256 0.578154
0.199081 0.812552 0.701855
0.229461 0.809848 0.825555
0.259841 0.807145 0.949256
0.290221 0.804441 1.000000
0.320601 0.801738 1.000000
0.078265 0.988566 0.251603
0.108645 0.985863 0.375304
0.139025 0.983159 0.499004
0.169405 0.980456 0.622705
0.199785 0.977752 0.746406
0.230165 0.975049 0.870107
0.260545 0.972345 0.993808
0.290925 0.969641 1.000000
0.321304 0.966938 1.000000
0.078969 1.000000 0.296154
0.109349 1.000000 0.419855
0.139729 1.000000 0.543556
0.170109 1.000000 0.667257
0.200488 1.000000 0.790957
0.230868 1.000000 0.914658
0.261248 1.000000 1.000000
0.291628 1.000000 1.000000
0.322008 1.000000 1.000000
0.079673 1.000000 0.340706
0.110052 1.000000 0.464406
0.140432 1.000000 0.588107
0.170812 1.000000 0.711808
0.201192 1.000000 0.835509
0.231572 1.000000 0.959210
0.261952 1.000000 1.000000
0.292332 1.000000 1.000000
0.322712 1.000000 1.000000
0.184996 0.017706 0.000000
0.215375 0.015002 0.116107
0.245755 0.012298 0.239808
0.276135 0.009595 0.363509
0.306515 0.006891 0.487209
0.336895 0.004188 0.610910
0.367275 0.001484 0.734611
0.397655 0.000000 0.858312
0.428035 0.000000 0.982013
0.185699 0.182906 0.036958
0.216079 0.180202 0.160658
0.246459 0.177498 0.284359
0.276839 0.174795 0.408060
0.307219 0.172091 0.531761
0.337599 0.169388 0.655462
0.367979 0.166684 0.779162
0.398359 0.163981 0.902863
0.428739 0.161277 1.000000
0.186403 0.348106 0.081509
0.216783 0.345402 0.205210
0.247163 0.342698 0.328911
0.277543 0.339995 0.452611
0.307923 0.337291 0.576312
0.338303 0.334588 0.700013
0.368683 0.331884 0.823714
0.399063 0.329181 0.947415
0.429443 0.326477 1.000000
0.187107 0.513306 0.126060
0.217487 0.510602 0.249761
0.247867 0.507899 0.373462
0.278247 0.505195 0.497163
0.308627 0.502491 0.620863
0.339007 0.499788 0.744564
0.369386 0.497084 0.868265
0.399766 0.494381 0.991966
0.430146 0.491677 1.000000
0.187811 0.678506 0.170612
0.218191 0.675802 0.294312
0.248571 0.673099 0.418013
0.278951 0.670395 0.541714
0.309330 0.667691 0.665415
0.339710 0.664988 0.789116
0.370090 0.662284 0.912816
0.400470 0.659581 1.000000
0.430850 0.656877 1.000000
0.188514 0.843706 0.215163
0.218894 0.841002 0.338864
0.249274 0.838298 0.462565
0.279654 0.835595 0.586265
0.310034 0.832891 0.709966
0.340414 0.830188 0.833667
0.370794 0.827484 0.957368
0.401174 0.824781 1.000000
0.431554 0.822077 1.000000
0.189218 1.000000 0.259714
0.219598 1.000000 0.383415
0.249978 1.000000 0.507116
0.280358 1.000000 0.630817
0.310738 0.998091 0.754518
0.341118 0.995388 0.878218
0.371498 0.992684 1.000000
0.401878 0.989981 1.000000
0.432258 0.987277 1.000000
0.189922 1.000000 0.304266
0.220302 1.000000 0.427967
0.250682 1.000000 0.551667
0.281062 1.000000 0.675368
0.311442 1.000000 0.799069
0.341822 1.000000 0.922770
0.372202 1.000000 1.000000
0.402582 1.000000 1.000000
0.432962 1.000000 1.000000
0.190626 1.000000 0.348817
0.221006 1.000000 0.472518
0.251386 1.000000 0.596219
0.281766 1.000000 0.719920
0.312146 1.000000 0.843620
0.342526 1.000000 0.967321
0.372905 1.000000 1.000000
0.403285 1.000000 1.000000
0.433665 1.000000 1.000000
0.295949 0.038045 0.000518
0.326329 0.035341 0.124219
0.356709 0.032638 0.247919
0.387089 0.029934 0.371620
0.417469 0.027231 0.495321
0.447849 0.024527 0.619022
0.478228 0.021824 0.742723
0.508608 0.019120 0.866423
0.538988 0.016416 0.990124
0.296653 0.203245 0.045069
0.327033 0.200541 0.168770
0.357412 0.197838 0.292471
0.387792 0.195134 0.416172
0.418172 0.192431 0.539872
0.448552 0.189727 0.663573
0.478932 0.187024 0.787274
0.509312 0.184320 0.910975
0.539692 0.181616 1.000000
0.297356 0.368445 0.089621
0.327736 0.365741 0.213321
0.358116 0.363038 0.337022
0.388496 0.360334 0.460723
0.418876 0.357631 0.584424
0.449256 0.354927 0.708125
0.479636 0.352224 0.831825
0.510016 0.349520 0.955526
0.540396 0.346816 1.000000
0.298060 0.533645 0.134172
0.328440 0.530941 0.257873
0.358820 0.528238 0.381574
0.389200 0.525534 0.505274
0.419580 0.522831 0.628975
0.449960 0.520127 0.752676
0.480340 0.517424 0.876377
0.510720 0.514720 1.000000
0.541100 0.512016 1.000000
0.298764 0.698845 0.178723
0.329144 0.696141 0.302424
0.359524 0.693438 0.426125
0.389904 0.690734 0.549826
0.420284 0.688031 0.673527
0.450664 0.685327 0.797227
0.481044 0.682624 0.920928
0.511424 0.679920 1.000000
0.541803 0.677216 1.000000
0.299468 0.864045 0.223275
0.329848 0.861341 0.346976
0.360228 0.858638 0.470676
0.390608 0.855934 0.594377
0.420988 0.853231 0.718078
0.451367 0.850527 0.841779
0.481747 0.847824 0.965479
0.512127 0.845120 1.000000
0.542507 0.842416 1.000000
0.300172 1.000000 0.267826
0.330552 1.000000 0.391527
0.360931 1.000000 0.515228
0.391311 1.000000 0.638928
0.421691 1.000000 0.762629
0.452071 1.000000 0.886330
0.482451 1.000000 1.000000
0.512831 1.000000 1.000000
0.543211 1.000000 1.000000
0.300875 1.000000 0.312377
0.331255 1.000000 0.436078
0.361635 1.000000 0.559779
0.392015 1.000000 0.683480
0.422395 1.000000 0.807181
0.452775 1.000000 0.930881
0.483155 1.000000 1.000000
0.513535 1.000000 1.000000
0.543915 1.000000 1.000000
0.301579 1.000000 0.356929
0.331959 1.000000 0.480630
0.362339 1.000000 0.604330
0.392719 1.000000 0.728031
0.423099 1.000000 0.851732
0.453479 1.000000 0.975433
0.483859 1.000000 1.000000
0.514239 1.000000 1.000000
0.544619 1.000000 1.000000
0.406902 0.058384 0.008629
0.437282 0.055681 0.132330
0.467662 0.052977 0.256031
0.498042 0.050274 0.379732
0.528422 0.047570 0.503433
0.558802 0.044866 0.627133
0.589182 0.042163 0.750834
0.619562 0.039459 0.874535
0.649942 0.036756 0.998236
0.407606 0.223584 0.053181
0.437986 0.220881 0.176882
0.468366 0.218177 0.300582
0.498746 0.215474 0.424283
0.529126 0.212770 0.547984
0.559506 0.210066 0.671685
0.589886 0.207363 0.795386
0.620265 0.204659 0.919086
0.650645 0.201956 1.000000
0.408310 0.388784 0.097732
0.438690 0.386081 0.221433
0.469070 0.383377 0.345134
0.499449 0.380674 0.468835
0.529829 0.377970 0.592535
0.560209 0.375266 0.716236
0.590589 0.372563 0.839937
0.620969 0.369859 0.963638
0.651349 0.367156 1.000000
0.409013 0.553984 0.142284
0.439393 0.551281 0.265984
0.469773 0.548577 0.389685
0.500153 0.545874 0.513386
0.530533 0.543170 0.637087
0.560913 0.540466 0.760788
0.591293 0.537763 0.884488
0.621673 0.535059 1.000000
0.652053 0.532356 1.000000
0.409717 0.719184 0.186835
0.440097 0.716481 0.310536
0.470477 0.713777 0.434237
0.500857 0.711074 0.557937
0.531237 0.708370 0.681638
0.561617 0.705666 0.805339
0.591997 0.702963 0.929040
0.622377 0.700259 1.000000
0.652757 0.697556 1.000000
0.410421 0.884384 0.231386
0.440801 0.881681 0.355087
0.471181 0.878977 0.478788
0.501561 0.876274 0.602489
0.531941 0.873570 0.726190
0.562321 0.870866 0.849890
0.592701 0.868163 0.973591
0.623081 0.865459 1.000000
0.653461 0.862756 1.000000
0.411125 1.000000 0.275938
0.441505 1.000000 0.399639
0.471885 1.000000 0.523339
0.502265 1.000000 0.647040
0.532645 1.000000 0.770741
0.563025 1.000000 0.894442
0.593404 1.000000 1.000000
0.623784 1.000000 1.000000
0.654164 1.000000 1.000000
0.411829 1.000000 0.320489
0.442209 1.000000 0.444190
0.472589 1.000000 0.567891
0.502968 1.000000 0.691592
0.533348 1.000000 0.815292
0.563728 1.000000 0.938993
0.594108 1.000000 1.000000
0.624488 1.000000 1.000000
0.654868 1.000000 1.000000
0.412532 1.000000 0.365040
0.442912 1.000000 0.488741
0.473292 1.000000 0.612442
0.503672 1.000000 0.736143
0.534052 1.000000 0.859844
0.564432 1.000000 0.983545
0.594812 1.000000 1.000000
0.625192 1.000000 1.000000
0.655572 1.000000 1.000000
0.517855 0.078724 0.016741
0.548235 0.076020 0.140442
0.578615 0.073316 0.264143
0.608995 0.070613 0.387844
0.639375 0.067909 0.511544
0.669755 0.065206 0.635245
0.700135 0.062502 0.758946
0.730515 0.059799 0.882647
0.760895 0.057095 1.000000
0.518559 0.243924 0.061293
0.548939 0.241220 0.184993
0.579319 0.238516 0.308694
0.609699 0.235813 0.432395
0.640079 0.233109 0.556096
0.670459 0.230406 0.679797
0.700839 0.227702 0.803497
0.731219 0.224999 0.927198
0.761599 0.222295 1.000000
0.519263 0.409124 0.105844
0.549643 0.406420 0.229545
0.580023 0.403717 0.353245
0.610403 0.401013 0.476946
0.640783 0.398309 0.600647
0.671163 0.395606 0.724348
0.701543 0.392902 0.848049
0.731923 0.390199 0.971749
0.762303 0.387495 1.000000
0.519967 0.574324 0.150395
0.550347 0.571620 0.274096
0.580727 0.568916 0.397797
0.611107 0.566213 0.521498
0.641487 0.563509 0.645198
0.671867 0.560806 0.768899
0.702246 0.558102 0.892600
0.732626 0.555399 1.000000
0.763006 0.552695 1.000000
0.520671 0.739524 0.194947
0.551051 0.736820 0.318647
0.581430 0.734117 0.442348
0.611810 0.731413 0.566049
0.642190 0.728709 0.689750
0.672570 0.726006 0.813451
0.702950 0.723302 0.937151
0.733330 0.720599 1.000000
0.763710 0.717895 1.000000
0.521374 0.904724 0.239498
0.551754 0.902020 0.363199
0.582134 0.899317 0.486900
0.612514 0.896613 0.610600
0.642894 0.893909 0.734301
0.673274 0.891206 0.858002
0.703654 0.888502 0.981703
0.734034 0.885799 1.000000
0.764414 0.883095 1.000000
0.522078 1.000000 0.284049
0.552458 1.000000 0.407750
0.582838 1.000000 0.531451
0.613218 1.000000 0.655152
0.643598 1.000000 0.778853
0.673978 1.000000 0.902553
0.704358 1.000000 1.000000
0.734738 1.000000 1.000000
0.765118 1.000000 1.000000
0.522782 1.000000 0.328601
0.553162 1.000000 0.452302
0.583542 1.000000 0.576002
0.613922 1.000000 0.699703
0.644302 1.000000 0.823404
0.674682 1.000000 0.947105
0.705062 1.000000 1.000000
0.735442 1.000000 1.000000
0.765821 1.000000 1.000000
0.523486 1.000000 0.373152
0.553866 1.000000 0.496853
0.584246 1.000000 0.620554
0.614626 1.000000 0.744255
0.645006 1.000000 0.867955
0.675385 1.000000 0.991656
0.705765 1.000000 1.000000
0.736145 1.000000 1.000000
0.766525 1.000000 1.000000
0.628809 0.099063 0.024853
0.659189 0.096359 0.148554
0.689569 0.093656 0.272254
0.719949 0.090952 0.395955
0.750328 0.088249 0.519656
0.780708 0.085545 0.643357
0.811088 0.082842 0.767058
0.841468 0.080138 0.890758
0.871848 0.077434 1.000000
0.629513 0.264263 0.069404
0.659892 0.261559 0.193105
0.690272 0.258856 0.316806
0.720652 0.256152 0.440507
0.751032 0.253449 0.564207
0.781412 0.250745 0.687908
0.811792 0.248042 0.811609
0.842172 0.245338 0.935310
0.872552 0.242634 1.000000
0.630216 0.429463 0.113956
0.660596 0.426759 0.237656
0.690976 0.424056 0.361357
0.721356 0.421352 0.485058
0.751736 0.418649 0.608759
0.782116 0.415945 0.732459
0.812496 0.413242 0.856160
0.842876 0.410538 0.979861
0.873256 0.407834 1.000000
0.630920 0.594663 0.158507
0.661300 0.591959 0.282208
0.691680 0.589256 0.405909
0.722060 0.586552 0.529609
0.752440 0.583849 0.653310
0.782820 0.581145 0.777011
0.813200 0.578442 0.900712
0.843580 0.575738 1.000000
0.873960 0.573034 1.000000
0.631624 0.759863 0.203058
0.662004 0.757159 0.326759
0.692384 0.754456 0.450460
0.722764 0.751752 0.574161
0.753144 0.749049 0.697861
0.783524 0.746345 0.821562
0.813904 0.743642 0.945263
0.844283 0.740938 1.000000
0.874663 0.738235 1.000000
0.632328 0.925063 0.247610
0.662708 0.922359 0.371310
0.693088 0.919656 0.495011
0.723467 0.916952 0.618712
0.753847 0.914249 0.742413
0.784227 0.911545 0.866114
0.814607 0.908842 0.989814
0.844987 0.906138 1.000000
0.875367 0.903435 1.000000
0.633031 1.000000 0.292161
0.663411 1.000000 0.415862
0.693791 1.000000 0.539563
0.724171 1.000000 0.663263
0.754551 1.000000 0.786964
0.784931 1.000000 0.910665
0.815311 1.000000 1.000000
0.845691 1.000000 1.000000
0.876071 1.000000 1.000000
0.633735 1.000000 0.336712
0.664115 1.000000 0.460413
0.694495 1.000000 0.584114
0.724875 1.000000 0.707815
0.755255 1.000000 0.831516
0.785635 1.000000 0.955216
0.816015 1.000000 1.000000
0.846395 1.000000 1.000000
0.876775 1.000000 1.000000
0.634439 1.000000 0.381264
0.664819 1.000000 0.504965
0.695199 1.000000 0.628665
0.725579 1.000000 0.752366
0.755959 1.000000 0.876067
0.786339 1.000000 0.999768
0.816719 1.000000 1.000000
0.847099 1.000000 1.000000
0.877479 1.000000 1.000000
0.739762 0.119402 0.032964
0.770142 0.116699 0.156665
0.800522 0.113995 0.280366
0.830902 0.111292 0.404067
0.861282 0.108588 0.527768
0.891662 0.105884 0.651468
0.922042 0.103181 0.775169
0.952422 0.100477 0.898870
0.982801 0.097774 1.000000
0.740466 0.284602 0.077516
0.770846 0.281899 0.201217
0.801226 0.279195 0.324917
0.831606 0.276492 0.448618
0.861986 0.273788 0.572319
0.892366 0.271084 0.696020
0.922745 0.268381 0.819721
0.953125 0.265677 0.943421
0.983505 0.262974 1.000000
0.741170 0.449802 0.122067
0.771550 0.447099 0.245768
0.801929 0.444395 0.369469
0.832309 0.441692 0.493170
0.862689 0.438988 0.616870
0.893069 0.436284 0.740571
0.923449 0.433581 0.864272
0.953829 0.430877 0.987973
0.984209 0.428174 1.000000
0.741873 0.615002 0.166619
0.772253 0.612299 0.290319
0.802633 0.609595 0.414020
0.833013 0.606892 0.537721
0.863393 0.604188 0.661422
0.893773 0.601485 0.785123
0.924153 0.598781 0.908823
0.954533 0.596077 1.000000
0.984913 0.593374 1.000000
0.742577 0.780202 0.211170
0.772957 0.777499 0.334871
0.803337 0.774795 0.458572
0.833717 0.772092 0.582272
0.864097 0.769388 0.705973
0.894477 0.766685 0.829674
0.924857 0.763981 0.953375
0.955237 0.761277 1.000000
0.985617 0.758574 1.000000
0.743281 0.945402 0.255721
0.773661 0.942699 0.379422
0.804041 0.939995 0.503123
0.834421 0.937292 0.626824
0.864801 0.934588 0.750524
0.895181 0.931885 0.874225
0.925561 0.929181 0.997926
0.955940 0.926477 1.000000
0.986320 0.923774 1.000000
0.743985 1.000000 0.300273
0.774365 1.000000 0.423974
0.804745 1.000000 0.547674
0.835124 1.000000 0.671375
0.865504 1.000000 0.795076
0.895884 1.000000 0.918777
0.926264 1.000000 1.000000
0.956644 1.000000 1.000000
0.987024 1.000000 1.000000
0.744689 1.000000 0.344824
0.775068 1.000000 0.468525
0.805448 1.000000 0.592226
0.835828 1.000000 0.715926
0.866208 1.000000 0.839627
0.896588 1.000000 0.963328
0.926968 1.000000 1.000000
0.957348 1.000000 1.000000
0.987728 1.000000 1.000000
0.745392 1.000000 0.389375
0.775772 1.000000 0.513076
0.806152 1.000000 0.636777
0.836532 1.000000 0.760478
0.866912 1.000000 0.884179
0.897292 1.000000 1.000000
0.927672 1.000000 1.000000
0.958052 1.000000 1.000000
0.988432 1.000000 1.000000
0.850715 0.139742 0.041076
0.881095 0.137038 0.164777
0.911475 0.134334 0.288478
0.941855 0.131631 0.412178
0.972235 0.128927 0.535879
1.000000 0.126224 0.659580
1.000000 0.123520 0.783281
1.000000 0.120817 0.906982
1.000000 0.118113 1.000000
0.851419 0.304942 0.085627
0.881799 0.302238 0.209328
0.912179 0.299534 0.333029
0.942559 0.296831 0.456730
0.972939 0.294127 0.580431
1.000000 0.291424 0.704131
1.000000 0.288720 0.827832
1.000000 0.286017 0.951533
1.000000 0.283313 1.000000
0.852123 0.470142 0.130179
0.882503 0.467438 0.253880
0.912883 0.464735 0.377580
0.943263 0.462031 0.501281
0.973643 0.459327 0.624982
1.000000 0.456624 0.748683
1.000000 0.453920 0.872384
1.000000 0.451217 0.996084
1.000000 0.448513 1.000000
0.852827 0.635342 0.174730
0.883207 0.632638 0.298431
0.913587 0.629935 0.422132
0.943967 0.627231 0.545833
0.974346 0.624527 0.669533
1.000000 0.621824 0.793234
1.000000 0.619120 0.916935
1.000000 0.616417 1.000000
1.000000 0.613713 1.000000
0.853530 0.800542 0.219282
0.883910 0.797838 0.342982
0.914290 0.795135 0.466683
0.944670 0.792431 0.590384
0.975050 0.789727 0.714085
1.000000 0.787024 0.837786
1.000000 0.784320 0.961486
1.000000 0.781617 1.000000
1.000000 0.778913 1.000000
0.854234 0.965742 0.263833
0.884614 0.963038 0.387534
0.914994 0.960335 0.511235
0.945374 0.957631 0.634935
0.975754 0.954927 0.758636
1.000000 0.952224 0.882337
1.000000 0.949520 1.000000
1.000000 0.946817 1.000000
1.000000 0.944113 1.000000
0.854938 1.000000 0.308384
0.885318 1.000000 0.432085
0.915698 1.000000 0.555786
0.946078 1.000000 0.679487
0.976458 1.000000 0.803188
1.000000 1.000000 0.926888
1.000000 1.000000 1.000000
1.000000 1.000000 1.000000
1.000000 1.000000 1.000000
0.855642 1.000000 0.352936
0.886022 1.000000 0.476637
0.916402 1.000000 0.600337
0.946782 1.000000 0.724038
0.977162 1.000000 0.847739
1.000000 1.000000 0.971440
1.000000 1.000000 1.000000
1.000000 1.000000 1.000000
1.000000 1.000000 1.000000
0.856346 1.000000 0.397487
0.886726 1.000000 0.521188
0.917106 1.000000 0.644889
0.947485 1.000000 0.768589
0.977865 1.000000 0.892290
1.000000 1.000000 1.000000
1.000000 1.000000 1.000000
1.000000 1.000000 1.000000
1.000000 1.000000 1.000000
