lrplugin/MindfulLensFilmEngine.lrplugin/profiles/luts/portra_160.cube
# Generated from ColorChecker fit
LUT_3D_SIZE 33
DOMAIN_MIN 0.0 0.0 0.0
DOMAIN_MAX 1.0 1.0 1.0
0.262727 0.032759 0.202987
0.206593 0.002444 0.180269
0.146911 0.000000 0.161600
0.083916 0.000000 0.146241
0.017809 0.000000 0.133470
0.000000 0.000000 0.122579
0.000000 0.000000 0.112871
0.000000 0.000000 0.103665
0.000000 0.000000 0.094295
0.000000 0.000000 0.084106
0.000000 0.000000 0.072459
0.000000 0.000000 0.058727
0.000000 0.000000 0.042300
0.000000 0.000000 0.022578
0.000000 0.000000 0.000000
0.000000 0.000000 0.000000
0.000000 0.000000 0.000000
0.000000 0.000000 0.000000
0.000000 0.000000 0.000000
0.000000 0.000000 0.000000
0.000000 0.000000 0.000000
0.000000 0.000000 0.000000
0.000000 0.000000 0.000000
0.000000 0.000000 0.000000
0.000000 0.000000 0.000000
0.000000 0.000000 0.000000
0.000000 0.000000 0.000000
0.000000 0.000000 0.000000
0.000000 0.000000 0.000000
0.000000 0.000000 0.000000
0.000000 0.000000 0.000000
0.000000 0.000000 0.000000
0.000000 0.000000 0.000000
0.259470 0.020807 0.232648
0.216646 0.000037 0.219822
0.170912 0.000000 0.211164
0.122456 0.000000 0.205904
0.071429 0.000000 0.203284
0.017948 0.000000 0.202562
0.000000 0.000000 0.203008
0.000000 0.000000 0.203908
0.000000 0.000000 0.204559
0.000000 0.000000 0.204273
0.000000 0.000000 0.202379
0.000000 0.000000 0.198214
0.000000 0.000000 0.191134
0.000000 0.000000 0.180507
0.000000 0.000000 0.165713
0.000000 0.000000 0.146149
0.000000 0.000000 0.121225
0.000000 0.000000 0.090363
0.000000 0.000000 0.053001
0.000000 0.000000 0.008591
0.000000 0.000000 0.000000
0.000000 0.000000 0.000000
0.000000 0.000000 0.000000
0.000000 0.000000 0.000000
0.000000 0.000000 0.000000
0.000000 0.000000 0.000000
0.000000 0.000000 0.000000
0.000000 0.000000 0.000000
0.000000 0.000000 0.000000
0.000000 0.000000 0.000000
0.000000 0.000000 0.000000
0.000000 0.000000 0.000000
0.000000 0.000000 0.000000
0.245637 0.010449 0.250328
0.215176 0.000000 0.247013
0.182403 0.000000 0.247954
0.147460 0.000000 0.252345
0.110447 0.000000 0.259397
0.071432 0.000000 0.268330
0.030445 0.000000 0.278384
0.000000 0.000000 0.288808
0.000000 0.000000 0.298866
0.000000 0.000000 0.307838
0.000000 0.000000 0.315015
0.000000 0.000000 0.319703
0.000000 0.000000 0.321223
0.000000 0.000000 0.318909
0.000000 0.000000 0.312108
0.000000 0.000000 0.300182
0.000000 0.000000 0.282506
0.000000 0.000000 0.258469
0.000000 0.000000 0.227476
0.000000 0.000000 0.188943
0.000000 0.000000 0.142301
0.000000 0.000000 0.086994
0.000000 0.000000 0.022482
0.000000 0.000000 0.000000
0.000000 0.000000 0.000000
0.000000 0.000000 0.000000
0.000000 0.000000 0.000000
0.000000 0.000000 0.000000
0.000000 0.000000 0.000000
0.000000 0.000000 0.000000
0.000000 0.000000 0.000000
0.000000 0.000000 0.000000
0.000000 0.000000 0.000000
0.222369 0.002266 0.256836
0.203267 0.000000 0.262618
0.182412 0.000000 0.272709
0.159895 0.000000 0.286270
0.135771 0.000000 0.302477
0.110057 0.000000 0.320519
0.082736 0.000000 0.339597
0.053751 0.000000 0.358930
0.023010 0.000000 0.377748
0.000000 0.000000 0.395294
0.000000 0.000000 0.410827
0.000000 0.000000 0.423620
0.000000 0.000000 0.432958
0.000000 0.000000 0.438141
0.000000 0.000000 0.438483
0.000000 0.000000 0.433312
0.000000 0.000000 0.421969
0.000000 0.000000 0.403809
0.000000 0.000000 0.378201
0.000000 0.000000 0.344530
0.000000 0.000000 0.302191
0.000000 0.000000 0.250595
0.000000 0.000000 0.189168
0.000000 0.000000 0.117347
0.000000 0.000000 0.034586
0.000000 0.000000 0.000000
0.000000 0.000000 0.000000
0.000000 0.000000 0.000000
0.000000 0.000000 0.000000
0.000000 0.000000 0.000000
0.000000 0.000000 0.000000
0.000000 0.000000 0.000000
0.000000 0.000000 0.000000
0.191195 0.000000 0.253292
0.182389 0.001908 0.267720
0.172348 0.004053 0.286478
0.161116 0.003719 0.308693
0.148696 0.001218 0.333506
0.135060 0.000000 0.360072
0.120140 0.000000 0.387559
0.103831 0.000000 0.415151
0.085994 0.000000 0.442044
0.066450 0.000000 0.467447
0.044988 0.000000 0.490587
0.021357 0.000000 0.510700
0.000000 0.000000 0.527039
0.000000 0.000000 0.538869
0.000000 0.000000 0.545471
0.000000 0.000000 0.546137
0.000000 0.000000 0.540175
0.000000 0.000000 0.526908
0.000000 0.000000 0.505669
0.000000 0.000000 0.475808
0.000000 0.000000 0.436688
0.000000 0.000000 0.387685
0.000000 0.000000 0.328191
0.000000 0.000000 0.257610
0.000000 0.000000 0.175360
0.000000 0.000000 0.080874
0.000000 0.000000 0.000000
0.000000 0.000000 0.000000
0.000000 0.000000 0.000000
0.000000 0.000000 0.000000
0.000000 0.000000 0.000000
0.000000 0.000000 0.000000
0.000000 0.000000 0.000000
0.154030 0.000000 0.241126
0.154399 0.007717 0.263716
0.154012 0.017494 0.290622
0.152861 0.024925 0.320939
0.150906 0.030278 0.353773
0.148065 0.033797 0.388244
0.144223 0.035696 0.423489
0.139228 0.036166 0.458654
0.132890 0.035370 0.492904
0.124985 0.033444 0.525414
0.115249 0.030498 0.555374
0.103385 0.026616 0.581989
0.089056 0.021854 0.604476
0.071892 0.016244 0.622068
0.051485 0.009788 0.634010
0.027388 0.002465 0.639561
0.000000 0.000000 0.637996
0.000000 0.000000 0.628602
0.000000 0.000000 0.610679
0.000000 0.000000 0.583542
0.000000 0.000000 0.546522
0.000000 0.000000 0.498960
0.000000 0.000000 0.440213
0.000000 0.000000 0.369652
0.000000 0.000000 0.286661
0.000000 0.000000 0.190639
0.000000 0.000000 0.080997
0.000000 0.000000 0.000000
0.000000 0.000000 0.000000
0.000000 0.000000 0.000000
0.000000 0.000000 0.000000
0.000000 0.000000 0.000000
0.000000 0.000000 0.000000
0.113176 0.000000 0.222076
0.121541 0.017475 0.252308
0.129587 0.034217 0.286811
0.137259 0.048709 0.324643
0.144467 0.061178 0.364877
0.151081 0.071826 0.406602
0.156937 0.080829 0.448916
0.161835 0.088334 0.490936
0.165536 0.094463 0.531789
0.167767 0.099313 0.570618
0.168216 0.102951 0.606579
0.166536 0.105420 0.638841
0.162344 0.106737 0.666590
0.155220 0.106889 0.689023
0.144705 0.105841 0.705352
0.130307 0.103529 0.714802
0.111496 0.099861 0.716612
0.087706 0.094723 0.710037
0.058333 0.087969 0.694342
0.022737 0.079431 0.668810
0.000000 0.068913 0.632735
0.000000 0.056190 0.585426
0.000000 0.041015 0.526206
0.000000 0.023111 0.454410
0.000000 0.002176 0.369391
0.000000 0.000000 0.270511
0.000000 0.000000 0.157149
0.000000 0.000000 0.028697
0.000000 0.000000 0.000000
0.000000 0.000000 0.000000
0.000000 0.000000 0.000000
0.000000 0.000000 0.000000
0.000000 0.000000 0.000000
0.071320 0.006767 0.198193
0.086443 0.032164 0.235513
0.101645 0.055158 0.277023
0.116822 0.075963 0.321749
0.131834 0.094765 0.368730
0.146505 0.111725 0.417019
0.160621 0.126977 0.465682
0.173933 0.140627 0.513801
0.186153 0.152758 0.560469
0.196960 0.163423 0.604795
0.205994 0.172650 0.645901
0.212859 0.180440 0.682924
0.217123 0.186769 0.715012
0.218317 0.191584 0.741331
0.215935 0.194806 0.761057
0.209434 0.196333 0.773383
0.198238 0.196031 0.777514
0.181729 0.193743 0.772668
0.159258 0.189285 0.758080
0.130134 0.182446 0.732996
0.093635 0.172988 0.696678
0.048998 0.160648 0.648399
0.000000 0.145135 0.587449
0.000000 0.126132 0.513130
0.000000 0.103297 0.424759
0.000000 0.076257 0.321666
0.000000 0.044618 0.203194
0.000000 0.007957 0.068703
0.000000 0.000000 0.000000
0.000000 0.000000 0.000000
0.000000 0.000000 0.000000
0.000000 0.000000 0.000000
0.000000 0.000000 0.000000
0.031537 0.022052 0.171837
0.052123 0.052878 0.215654
0.073144 0.081367 0.263549
0.094450 0.107692 0.314513
0.115851 0.131999 0.367551
0.137121 0.154407 0.421681
0.157999 0.175010 0.475936
0.178187 0.193873 0.529364
0.197350 0.211036 0.581024
0.215115 0.226512 0.629990
0.231076 0.240288 0.675352
0.244788 0.252324 0.716210
0.255768 0.262554 0.751682
0.263501 0.270885 0.780896
0.267432 0.277198 0.802997
0.266970 0.281346 0.817142
0.261487 0.283158 0.822502
0.250321 0.282434 0.818263
0.232771 0.278949 0.803624
0.208099 0.272451 0.777797
0.175533 0.262661 0.740011
0.134263 0.249275 0.689505
0.083442 0.231960 0.625535
0.022187 0.210360 0.547368
0.000000 0.184089 0.454288
0.000000 0.152736 0.345590
0.000000 0.115864 0.220584
0.000000 0.073008 0.078595
0.000000 0.023678 0.000000
0.000000 0.000000 0.000000
0.000000 0.000000 0.000000
0.000000 0.000000 0.000000
0.000000 0.000000 0.000000
0.000000 0.045333 0.145675
0.021982 0.080820 0.195366
0.047429 0.114002 0.248988
0.073429 0.145011 0.305499
0.099743 0.173951 0.363868
0.126098 0.200901 0.423082
0.152184 0.225911 0.482138
0.177652 0.249008 0.540050
0.202121 0.270189 0.595843
0.225169 0.289427 0.648559
0.246340 0.306668 0.697251
0.265141 0.321831 0.740987
0.281042 0.334807 0.778849
0.293477 0.345464 0.809934
0.301843 0.353641 0.833350
0.305501 0.359151 0.848222
0.303775 0.361780 0.853687
0.295952 0.361288 0.848895
0.281284 0.357409 0.833013
0.258985 0.349849 0.805219
0.228234 0.338290 0.764706
0.188171 0.322385 0.710681
0.137901 0.301760 0.642364
0.076493 0.276019 0.558991
0.002979 0.244733 0.459809
0.000000 0.207452 0.344080
0.000000 0.163697 0.211081
0.000000 0.112962 0.060102
0.000000 0.054715 0.000000
0.000000 0.000000 0.000000
0.000000 0.000000 0.000000
0.000000 0.000000 0.000000
0.000000 0.000000 0.000000
0.000000 0.077970 0.122689
0.000000 0.117308 0.177594
0.028231 0.154338 0.236251
0.057432 0.189149 0.297581
0.087127 0.221805 0.360523
0.116993 0.252343 0.424027
0.146672 0.280774 0.487058
0.175767 0.307081 0.548594
0.203848 0.331223 0.607628
0.230444 0.353130 0.663166
0.255050 0.372707 0.714228
0.277126 0.389832 0.759849
0.296092 0.404356 0.799075
0.311333 0.416104 0.830970
0.322199 0.424875 0.854609
0.328001 0.430440 0.869081
0.328015 0.432545 0.873489
0.321480 0.430909 0.866952
0.307597 0.425225 0.848599
0.285534 0.415157 0.817577
0.254419 0.400346 0.773043
0.213346 0.380403 0.714171
0.161370 0.354917 0.640148
0.097511 0.323445 0.550173
0.020753 0.285522 0.443462
0.000000 0.240654 0.319242
0.000000 0.188321 0.176756
0.000000 0.127977 0.015259
0.000000 0.059050 0.000000
0.000000 0.000000 0.000000
0.000000 0.000000 0.000000
0.000000 0.000000 0.000000
0.000000 0.000000 0.000000
0.000000 0.121437 0.106167
0.000000 0.163771 0.165592
0.019666 0.203757 0.228555
0.050517 0.241444 0.293945
0.082001 0.276855 0.360665
0.113748 0.309985 0.427631
0.145348 0.340804 0.493775
0.176359 0.369255 0.558041
0.206298 0.395255 0.619387
0.234650 0.418692 0.676786
0.260859 0.439432 0.729224
0.284336 0.457310 0.775701
0.304453 0.472137 0.815230
0.320548 0.483697 0.846840
0.331919 0.491747 0.869572
0.337831 0.496018 0.882483
0.337510 0.496214 0.884640
0.330147 0.492014 0.875127
0.314895 0.483067 0.853043
0.290872 0.469000 0.817496
0.257159 0.449410 0.767614
0.212799 0.423869 0.702533
0.156800 0.391922 0.621407
0.088134 0.353088 0.523403
0.005734 0.306859 0.407700
0.000000 0.252700 0.273492
0.000000 0.190051 0.119989
0.000000 0.118325 0.000000
0.000000 0.036906 0.000000
0.000000 0.000000 0.000000
0.000000 0.000000 0.000000
0.000000 0.000000 0.000000
0.000000 0.000000 0.000000
0.000000 0.177317 0.099708
0.000000 0.221748 0.162924
0.026239 0.263755 0.229431
0.057131 0.303348 0.298084
0.088755 0.340508 0.367753
0.120692 0.375189 0.437319
0.152484 0.407319 0.505680
0.183639 0.436802 0.571746
0.213627 0.463512 0.634441
0.241883 0.487298 0.692705
0.267804 0.507982 0.745488
0.290751 0.525360 0.791758
0.310048 0.539202 0.830494
0.324983 0.549249 0.860689
0.334808 0.555219 0.881352
0.338737 0.556802 0.891503
0.335949 0.553659 0.890179
0.325585 0.545428 0.876428
0.306750 0.531720 0.849314
0.278514 0.512117 0.807914
0.239907 0.486177 0.751318
0.189927 0.453430 0.678631
0.127531 0.413381 0.588973
0.051642 0.365507 0.481474
0.000000 0.309260 0.355282
0.000000 0.244063 0.209557
0.000000 0.169314 0.043473
0.000000 0.084386 0.000000
0.000000 0.000000 0.000000
0.000000 0.000000 0.000000
0.000000 0.000000 0.000000
0.000000 0.000000 0.000000
0.000000 0.000000 0.000000
0.000000 0.247309 0.107222
0.024798 0.292891 0.173465
0.052841 0.335940 0.242718
0.082106 0.376423 0.313804
0.112162 0.414281 0.385556
0.142541 0.449427 0.456825
0.172736 0.481749 0.526471
0.202207 0.511107 0.593373
0.230375 0.537335 0.656420
0.256626 0.560242 0.714517
0.280309 0.579608 0.766581
0.300736 0.595189 0.811546
0.317183 0.606712 0.848356
0.328889 0.613879 0.875972
0.335057 0.616365 0.893366
0.334852 0.613819 0.899528
0.327406 0.605863 0.893457
0.311809 0.592092 0.874170
0.287120 0.572076 0.840694
0.252359 0.545357 0.792075
0.206507 0.511452 0.727367
0.148514 0.469848 0.645642
0.077288 0.420011 0.545985
0.000000 0.361375 0.427494
0.000000 0.293352 0.289281
0.000000 0.215324 0.130472
0.000000 0.126648 0.000000
0.000000 0.026655 0.000000
0.000000 0.000000 0.000000
0.000000 0.000000 0.000000
0.000000 0.000000 0.000000
0.000000 0.000000 0.000000
0.000000 0.000000 0.000000
0.057233 0.333219 0.132928
0.080123 0.378963 0.201398
0.104747 0.422030 0.272566
0.130661 0.462344 0.345218
0.157383 0.499805 0.418155
0.184397 0.534286 0.490193
0.211148 0.565633 0.560159
0.237048 0.593665 0.626897
0.261469 0.618176 0.689263
0.283749 0.638932 0.746127
0.303186 0.655674 0.796373
0.319045 0.668114 0.838899
0.330554 0.675941 0.872617
0.336902 0.678814 0.896453
0.337244 0.676368 0.909347
0.330697 0.668210 0.910252
0.316342 0.653922 0.898134
0.293224 0.633057 0.871977
0.260351 0.605144 0.830774
0.216693 0.569684 0.773534
0.161187 0.526152 0.699281
0.092729 0.473996 0.607052
0.010183 0.412639 0.495896
0.000000 0.341476 0.364878
0.000000 0.259875 0.213076
0.000000 0.167179 0.039583
0.000000 0.062703 0.000000
0.000000 0.000000 0.000000
0.000000 0.000000 0.000000
0.000000 0.000000 0.000000
0.000000 0.000000 0.000000
0.000000 0.000000 0.000000
0.000000 0.000000 0.000000
0.150509 0.436967 0.181356
0.168162 0.481841 0.251219
0.187623 0.523856 0.323434
0.208400 0.562897 0.396751
0.229963 0.598822 0.469939
0.251748 0.631463 0.541779
0.273152 0.660624 0.611064
0.293536 0.686085 0.676604
0.312225 0.707598 0.737220
0.328506 0.724887 0.791750
0.341632 0.737652 0.839043
0.350817 0.745566 0.877963
0.355241 0.748274 0.907388
0.354044 0.745396 0.926210
0.346333 0.736525 0.933334
0.331176 0.721227 0.927680
0.307606 0.699043 0.908182
0.274618 0.669485 0.873785
0.231173 0.632040 0.823453
0.176191 0.586170 0.756159
0.108561 0.531307 0.670892
0.027131 0.466858 0.566655
0.000000 0.392206 0.442465
0.000000 0.306703 0.297352
0.000000 0.209679 0.130360
0.000000 0.100433 0.000000
0.000000 0.000000 0.000000
0.000000 0.000000 0.000000
0.000000 0.000000 0.000000
0.000000 0.000000 0.000000
0.000000 0.000000 0.000000
0.000000 0.000000 0.000000
0.000000 0.000000 0.000000
0.284368 0.560585 0.257344
0.295020 0.603510 0.327732
0.307516 0.643361 0.400090
0.321315 0.679980 0.473138
0.335838 0.713185 0.545608
0.350471 0.742766 0.616246
0.364564 0.768488 0.683814
0.377428 0.790087 0.747087
0.388340 0.807276 0.804851
0.396540 0.819737 0.855911
0.401231 0.827130 0.899081
0.401578 0.829086 0.933192
0.396711 0.825209 0.957087
0.385725 0.815077 0.969625
0.367676 0.798244 0.969677
0.341584 0.774233 0.956129
0.306432 0.742545 0.927879
0.261169 0.702650 0.883841
0.204704 0.653995 0.822942
0.135912 0.596000 0.744123
0.053631 0.528056 0.646339
0.000000 0.449531 0.528558
0.000000 0.359763 0.389764
0.000000 0.258066 0.228951
0.000000 0.143727 0.045132
0.000000 0.016005 0.000000
0.000000 0.000000 0.000000
0.000000 0.000000 0.000000
0.000000 0.000000 0.000000
0.000000 0.000000 0.000000
0.000000 0.000000 0.000000
0.000000 0.000000 0.000000
0.000000 0.000000 0.000000
0.465361 0.706217 0.366041
0.467194 0.746071 0.436050
0.470865 0.782598 0.507615
0.475784 0.815602 0.579422
0.481326 0.844858 0.650169
0.486826 0.870116 0.718570
0.491586 0.891099 0.783350
0.494870 0.907502 0.843251
0.495904 0.918997 0.897026
0.493880 0.925226 0.943444
0.487952 0.925805 0.981287
0.477238 0.920327 1.000000
0.460819 0.908353 1.000000
0.437740 0.889422 1.000000
0.407009 0.863044 1.000000
0.367598 0.828703 1.000000
0.318441 0.785858 0.961816
0.258438 0.733939 0.906698
0.186450 0.672351 0.833761
0.101302 0.600472 0.741913
0.001785 0.517653 0.630073
0.000000 0.423221 0.497177
0.000000 0.316473 0.342172
0.000000 0.196682 0.164023
0.000000 0.063093 0.000000
0.000000 0.000000 0.000000
0.000000 0.000000 0.000000
0.000000 0.000000 0.000000
0.000000 0.000000 0.000000
0.000000 0.000000 0.000000
0.000000 0.000000 0.000000
0.000000 0.000000 0.000000
0.000000 0.000000 0.000000
0.700429 0.876117 0.512907
0.691564 0.911732 0.581598
0.684491 0.943734 0.651398
0.678573 0.971885 0.720958
0.673134 0.995919 0.788944
0.667463 1.000000 0.854034
0.660811 1.000000 0.914921
0.652393 1.000000 0.970310
0.641389 1.000000 1.000000
0.626941 1.000000 1.000000
0.608155 1.000000 1.000000
0.584098 1.000000 1.000000
0.553806 0.999428 1.000000
0.516272 0.970106 1.000000
0.470458 0.932557 1.000000
0.415285 0.886224 1.000000
0.349640 0.830525 1.000000
0.272374 0.764849 0.947223
0.182300 0.688559 0.860742
0.078194 0.600994 0.754323
0.000000 0.501462 0.626854
0.000000 0.389249 0.477236
0.000000 0.263612 0.304382
0.000000 0.123782 0.107221
0.000000 0.000000 0.000000
0.000000 0.000000 0.000000
0.000000 0.000000 0.000000
0.000000 0.000000 0.000000
0.000000 0.000000 0.000000
0.000000 0.000000 0.000000
0.000000 0.000000 0.000000
0.000000 0.000000 0.000000
0.000000 0.000000 0.000000
0.996898 1.000000 0.703710
0.975398 1.000000 0.770109
0.955605 1.000000 0.837137
0.936832 1.000000 0.903411
0.918355 1.000000 0.967561
0.899414 1.000000 1.000000
0.879212 1.000000 1.000000
0.856916 1.000000 1.000000
0.831655 1.000000 1.000000
0.802525 1.000000 1.000000
0.768580 1.000000 1.000000
0.728843 1.000000 1.000000
0.682297 1.000000 1.000000
0.627889 1.000000 1.000000
0.564531 1.000000 1.000000
0.491097 0.948495 1.000000
0.406424 0.878200 1.000000
0.309314 0.796989 1.000000
0.198532 0.704186 0.909023
0.072806 0.599086 0.786460
0.000000 0.480959 0.641754
0.000000 0.349047 0.473772
0.000000 0.202566 0.281393
0.000000 0.040708 0.063513
0.000000 0.000000 0.000000
0.000000 0.000000 0.000000
0.000000 0.000000 0.000000
0.000000 0.000000 0.000000
0.000000 0.000000 0.000000
0.000000 0.000000 0.000000
0.000000 0.000000 0.000000
0.000000 0.000000 0.000000
0.000000 0.000000 0.000000
1.000000 1.000000 0.944530
1.000000 1.000000 1.000000
1.000000 1.000000 1.000000
1.000000 1.000000 1.000000
1.000000 1.000000 1.000000
1.000000 1.000000 1.000000
1.000000 1.000000 1.000000
1.000000 1.000000 1.000000
1.000000 1.000000 1.000000
1.000000 1.000000 1.000000
0.976359 1.000000 1.000000
0.918543 1.000000 1.000000
0.853306 1.000000 1.000000
0.779546 1.000000 1.000000
0.696126 1.000000 1.000000
0.601872 1.000000 1.000000
0.495572 0.930648 1.000000
0.375980 0.832082 1.000000
0.241811 0.720908 0.984056
0.091745 0.596381 0.843738
0.000000 0.457730 0.680152
0.000000 0.304156 0.492129
0.000000 0.134834 0.278516
0.000000 0.000000 0.038173
0.000000 0.000000 0.000000
0.000000 0.000000 0.000000
0.000000 0.000000 0.000000
0.000000 0.000000 0.000000
0.000000 0.000000 0.000000
0.000000 0.000000 0.000000
0.000000 0.000000 0.000000
0.000000 0.000000 0.000000
0.000000 0.000000 0.000000
1.000000 1.000000 1.000000
1.000000 1.000000 1.000000
1.000000 1.000000 1.000000
1.000000 1.000000 1.000000
1.000000 1.000000 1.000000
1.000000 1.000000 1.000000
1.000000 1.000000 1.000000
1.000000 1.000000 1.000000
1.000000 1.000000 1.000000
1.000000 1.000000 1.000000
1.000000 1.000000 1.000000
1.000000 1.000000 1.000000
1.000000 1.000000 1.000000
0.978586 1.000000 1.000000
0.872527 1.000000 1.000000
0.754836 1.000000 1.000000
0.624252 0.989747 1.000000
0.479480 0.871959 1.000000
0.319187 0.740513 1.000000
0.142003 0.594623 0.931884
0.000000 0.433476 0.747739
0.000000 0.256232 0.537964
0.000000 0.062026 0.301371
0.000000 0.000000 0.036788
0.000000 0.000000 0.000000
0.000000 0.000000 0.000000
0.000000 0.000000 0.000000
0.000000 0.000000 0.000000
0.000000 0.000000 0.000000
0.000000 0.000000 0.000000
0.000000 0.000000 0.000000
0.000000 0.000000 0.000000
0.000000 0.000000 0.000000
1.000000 1.000000 1.000000
1.000000 1.000000 1.000000
1.000000 1.000000 1.000000
1.000000 1.000000 1.000000
1.000000 1.000000 1.000000
1.000000 1.000000 1.000000
1.000000 1.000000 1.000000
1.000000 1.000000 1.000000
1.000000 1.000000 1.000000
1.000000 1.000000 1.000000
1.000000 1.000000 1.000000
1.000000 1.000000 1.000000
1.000000 1.000000 1.000000
1.000000 1.000000 1.000000
1.000000 1.000000 1.000000
0.957600 1.000000 1.000000
0.800017 1.000000 1.000000
0.627309 0.918566 1.000000
0.438095 0.764902 1.000000
0.230958 0.595666 1.000000
0.004444 0.410007 0.850515
0.000000 0.207041 0.617242
0.000000 0.000000 0.355890
0.000000 0.000000 0.065252
0.000000 0.000000 0.000000
0.000000 0.000000 0.000000
0.000000 0.000000 0.000000
0.000000 0.000000 0.000000
0.000000 0.000000 0.000000
0.000000 0.000000 0.000000
0.000000 0.000000 0.000000
0.000000 0.000000 0.000000
0.000000 0.000000 0.000000
1.000000 1.000000 1.000000
1.000000 1.000000 1.000000
1.000000 1.000000 1.000000
1.000000 1.000000 1.000000
1.000000 1.000000 1.000000
1.000000 1.000000 1.000000
1.000000 1.000000 1.000000
1.000000 1.000000 1.000000
1.000000 1.000000 1.000000
1.000000 1.000000 1.000000
1.000000 1.000000 1.000000
1.000000 1.000000 1.000000
1.000000 1.000000 1.000000
1.000000 1.000000 1.000000
1.000000 1.000000 1.000000
1.000000 1.000000 1.000000
1.000000 1.000000 1.000000
0.827349 0.973958 1.000000
0.606361 0.796085 1.000000
0.366376 0.601479 1.000000
0.105891 0.389246 0.994790
0.000000 0.158462 0.736237
0.000000 0.000000 0.448311
0.000000 0.000000 0.129771
0.000000 0.000000 0.000000
0.000000 0.000000 0.000000
0.000000 0.000000 0.000000
0.000000 0.000000 0.000000
0.000000 0.000000 0.000000
0.000000 0.000000 0.000000
0.000000 0.000000 0.000000
0.000000 0.000000 0.000000
0.000000 0.000000 0.000000
1.000000 1.000000 1.000000
1.000000 1.000000 1.000000
1.000000 1.000000 1.000000
1.000000 1.000000 1.000000
1.000000 1.000000 1.000000
1.000000 1.000000 1.000000
1.000000 1.000000 1.000000
1.000000 1.000000 1.000000
1.000000 1.000000 1.000000
1.000000 1.000000 1.000000
1.000000 1.000000 1.000000
1.000000 1.000000 1.000000
1.000000 1.000000 1.000000
1.000000 1.000000 1.000000
1.000000 1.000000 1.000000
1.000000 1.000000 1.000000
1.000000 1.000000 1.000000
1.000000 1.000000 1.000000
0.832194 0.836187 1.000000
0.556408 0.614140 1.000000
0.258959 0.373227 1.000000
0.000000 0.112485 0.901536
0.000000 0.000000 0.585186
0.000000 0.000000 0.236861
0.000000 0.000000 0.000000
0.000000 0.000000 0.000000
0.000000 0.000000 0.000000
0.000000 0.000000 0.000000
0.000000 0.000000 0.000000
0.000000 0.000000 0.000000
0.000000 0.000000 0.000000
0.000000 0.000000 0.000000
0.000000 0.000000 0.000000
1.000000 1.000000 1.000000
1.000000 1.000000 1.000000
1.000000 1.000000 1.000000
1.000000 1.000000 1.000000
1.000000 1.000000 1.000000
1.000000 1.000000 1.000000
1.000000 1.000000 1.000000
1.000000 1.000000 1.000000
1.000000 1.000000 1.000000
1.000000 1.000000 1.000000
1.000000 1.000000 1.000000
1.000000 1.000000 1.000000
1.000000 1.000000 1.000000
1.000000 1.000000 1.000000
1.000000 1.000000 1.000000
1.000000 1.000000 1.000000
1.000000 1.000000 1.000000
1.000000 1.000000 1.000000
1.000000 0.887444 1.000000
0.809592 0.635840 1.000000
0.472129 0.364097 1.000000
0.110164 0.071210 1.000000
0.000000 0.000000 0.773376
0.000000 0.000000 0.393346
0.000000 0.000000 0.000000
0.000000 0.000000 0.000000
0.000000 0.000000 0.000000
0.000000 0.000000 0.000000
0.000000 0.000000 0.000000
0.000000 0.000000 0.000000
0.000000 0.000000 0.000000
0.000000 0.000000 0.000000
0.000000 0.000000 0.000000
1.000000 1.000000 1.000000
1.000000 1.000000 1.000000
1.000000 1.000000 1.000000
1.000000 1.000000 1.000000
1.000000 1.000000 1.000000
1.000000 1.000000 1.000000
1.000000 1.000000 1.000000
1.000000 1.000000 1.000000
1.000000 1.000000 1.000000
1.000000 1.000000 1.000000
1.000000 1.000000 1.000000
1.000000 1.000000 1.000000
1.000000 1.000000 1.000000
1.000000 1.000000 1.000000
1.000000 1.000000 1.000000
1.000000 1.000000 1.000000
1.000000 1.000000 1.000000
1.000000 1.000000 1.000000
1.000000 0.952201 1.000000
1.000000 0.668882 1.000000
0.754266 0.364113 1.000000
0.347886 0.036851 1.000000
0.000000 0.000000 1.000000
0.000000 0.000000 0.606364
0.000000 0.000000 0.156548
0.000000 0.000000 0.000000
0.000000 0.000000 0.000000
