lrplugin/MindfulLensFilmEngine.lrplugin/profiles/luts/procolor.cube
# Generated from ColorChecker fit
LUT_3D_SIZE 5
DOMAIN_MIN 0.0 0.0 0.0
DOMAIN_MAX 1.0 1.0 1.0
0.000000 0.000000 0.000000
0.000000 0.000000 0.238759
0.000000 0.000000 0.722677
0.000000 0.000000 1.000000
0.000000 0.000000 0.940893
0.000000 0.008965 0.000000
0.039819 0.202952 0.144005
0.121950 0.291038 0.515648
0.000000 0.030092 0.507029
0.000000 0.000000 0.000000
0.000000 0.430921 0.000000
0.156819 0.637889 0.468945
0.000000 0.447600 0.516444
0.000000 0.000000 0.000000
0.000000 0.000000 0.000000
0.095006 0.732344 0.065108
0.000000 0.560782 0.684070
0.000000 0.000000 0.101022
0.000000 0.000000 0.000000
0.000000 0.000000 0.000000
0.267387 0.249675 0.000000
0.000000 0.000000 0.047690
0.000000 0.000000 0.000000
0.000000 0.000000 0.000000
0.000000 0.000000 0.000000
0.571705 0.406437 0.531259
0.233806 0.044906 0.255255
0.212685 0.000000 0.317321
0.476415 0.000000 0.905906
0.722175 0.000000 1.000000
0.297152 0.411000 0.226332
0.280751 0.298967 0.295842
0.410504 0.280923 0.437571
0.668024 0.197909 0.866210
0.764031 0.000000 1.000000
0.326857 0.680758 0.305057
0.401455 0.685179 0.620601
0.291537 0.515259 0.624366
0.000000 0.013318 0.557290
0.000000 0.000000 0.337014
0.712405 1.000000 0.210109
0.447338 0.833275 0.577672
0.000000 0.060878 0.131314
0.000000 0.000000 0.000000
0.000000 0.000000 0.000000
1.000000 0.935908 0.000000
0.155250 0.033741 0.000000
0.000000 0.000000 0.000000
0.000000 0.000000 0.000000
0.000000 0.000000 0.000000
1.000000 0.662300 0.553397
0.477453 0.149836 0.114497
0.339570 0.000000 0.000000
0.782324 0.000000 0.576931
1.000000 0.000000 1.000000
0.702550 0.646380 0.272764
0.485003 0.357643 0.270590
0.522735 0.245285 0.322223
1.000000 0.234519 1.000000
1.000000 0.000000 1.000000
0.738971 0.856784 0.163141
0.653466 0.732107 0.492455
0.521545 0.538502 0.577852
0.553997 0.202462 1.000000
0.690720 0.000000 1.000000
1.000000 1.000000 0.000000
0.950555 1.000000 0.005883
0.103553 0.390022 0.000000
0.000000 0.000000 0.000000
0.000000 0.000000 0.000000
1.000000 1.000000 0.000000
1.000000 0.717245 0.000000
0.000000 0.000000 0.000000
0.000000 0.000000 0.000000
0.000000 0.000000 0.000000
0.810835 0.198681 0.230741
0.670100 0.148334 0.336610
0.784612 0.329074 0.337224
1.000000 0.749003 1.000000
1.000000 1.000000 1.000000
0.839349 0.604981 0.141804
0.981164 0.696720 0.761157
1.000000 0.929728 1.000000
1.000000 1.000000 1.000000
1.000000 1.000000 1.000000
1.000000 1.000000 0.000000
1.000000 1.000000 0.950200
1.000000 1.000000 1.000000
1.000000 1.000000 1.000000
1.000000 1.000000 1.000000
1.000000 1.000000 0.000000
1.000000 1.000000 0.007178
1.000000 1.000000 0.486378
1.000000 1.000000 1.000000
0.591926 0.000000 1.000000
1.000000 1.000000 0.000000
1.000000 1.000000 0.000000
1.000000 1.000000 0.000000
0.000000 0.000000 0.000000
0.000000 0.000000 0.000000
0.000000 0.000000 0.018048
0.098280 0.000000 1.000000
1.000000 0.994888 1.000000
1.000000 1.000000 1.000000
1.000000 1.000000 1.000000
0.000000 0.000000 0.460992
1.000000 1.000000 1.000000
1.000000 1.000000 1.000000
1.000000 1.000000 1.000000
1.000000 1.000000 1.000000
0.930457 0.923398 0.401030
1.000000 1.000000 1.000000
1.000000 1.000000 1.000000
1.000000 1.000000 1.000000
1.000000 1.000000 1.000000
1.000000 1.000000 0.000000
1.000000 1.000000 1.000000
1.000000 1.000000 1.000000
1.000000 1.000000 1.000000
1.000000 1.000000 1.000000
1.000000 1.000000 0.000000
1.000000 1.000000 0.000000
1.000000 1.000000 0.000000
1.000000 1.000000 0.973274
1.000000 1.000000 1.000000
