lrplugin/MindfulLensFilmEngine.lrplugin/profiles/luts/procolor.cube
# Generated from ColorChecker fit
LUT_3D_SIZE 33
DOMAIN_MIN 0.0 0.0 0.0
DOMAIN_MAX 1.0 1.0 1.0
0.000000 0.000000 0.000000
0.000000 0.000000 0.000000
0.000000 0.000000 0.010610
0.000000 0.000000 0.039105
0.000000 0.000000 0.071281
0.000000 0.000000 0.107296
0.000000 0.000000 0.147228
0.000000 0.000000 0.191075
0.000000 0.000000 0.238759
0.000000 0.000000 0.290119
0.000000 0.000000 0.344918
0.000000 0.000000 0.402840
0.000000 0.000000 0.463489
0.000000 0.000000 0.526390
0.000000 0.000000 0.590990
0.000000 0.000000 0.656656
0.000000 0.000000 0.722677
0.000000 0.000000 0.788262
0.000000 0.000000 0.852543
0.000000 0.000000 0.914572
0.000000 0.000000 0.973321
0.000000 0.000000 1.000000
0.000000 0.000000 1.000000
0.000000 0.000000 1.000000
0.000000 0.000000 1.000000
0.000000 0.000000 1.000000
0.000000 0.000000 1.000000
0.000000 0.000000 1.000000
0.000000 0.000000 1.000000
0.000000 0.000000 1.000000
0.000000 0.000000 1.000000
0.000000 0.000000 1.000000
0.000000 0.000000 0.940893
0.000000 0.000000 0.000000
0.000000 0.000000 0.000000
0.000000 0.000000 0.000000
0.000000 0.000000 0.000000
0.000000 0.000000 0.012560
0.000000 0.000000 0.052238
0.000000 0.000000 0.095226
0.000000 0.000000 0.141530
0.000000 0.000000 0.191077
0.000000 0.000000 0.243714
0.000000 0.000000 0.299209
0.000000 0.000000 0.357253
0.000000 0.000000 0.417457
0.000000 0.000000 0.479351
0.000000 0.000000 0.542390
0.000000 0.000000 0.605946
0.000000 0.000000 0.669316
0.000000 0.000000 0.731714
0.000000 0.000000 0.792279
0.000000 0.000000 0.850069
0.000000 0.000000 0.904062
0.000000 0.000000 0.953160
0.000000 0.000000 0.996184
0.000000 0.000000 1.000000
0.000000 0.000000 1.000000
0.000000 0.000000 1.000000
0.000000 0.000000 1.000000
0.000000 0.000000 1.000000
0.000000 0.000000 1.000000
0.000000 0.000000 1.000000
0.000000 0.000000 0.954234
0.000000 0.000000 0.876534
0.000000 0.000000 0.776632
0.000000 0.000000 0.000000
0.000000 0.000000 0.000000
0.000000 0.000000 0.000000
0.000000 0.000000 0.000000
0.000000 0.000000 0.000000
0.000000 0.000000 0.008810
0.000000 0.000000 0.054789
0.000000 0.000000 0.103456
0.000000 0.000000 0.154744
0.000000 0.000000 0.208506
0.000000 0.000000 0.264518
0.000000 0.000000 0.322475
0.000000 0.000000 0.381996
0.000000 0.000000 0.442617
0.000000 0.000000 0.503799
0.000000 0.000000 0.564921
0.000000 0.000000 0.625286
0.000000 0.000000 0.684116
0.000000 0.000000 0.740553
0.000000 0.000000 0.793664
0.000000 0.000000 0.842434
0.000000 0.000000 0.885770
0.000000 0.000000 0.922499
0.000000 0.000000 0.951370
0.000000 0.000000 0.971054
0.000000 0.000000 0.980141
0.000000 0.000000 0.977144
0.000000 0.000000 0.960496
0.000000 0.000000 0.928552
0.000000 0.000000 0.879586
0.000000 0.000000 0.811795
0.000000 0.000000 0.723296
0.000000 0.000000 0.612129
0.000000 0.000000 0.000000
0.000000 0.000000 0.000000
0.000000 0.000000 0.000000
0.000000 0.000000 0.000000
0.000000 0.000000 0.000000
0.000000 0.000000 0.000000
0.000000 0.000000 0.025474
0.000000 0.000000 0.076388
0.000000 0.000000 0.129271
0.000000 0.000000 0.183984
0.000000 0.000000 0.240308
0.000000 0.000000 0.297947
0.000000 0.000000 0.356523
0.000000 0.000000 0.415582
0.000000 0.000000 0.474588
0.000000 0.000000 0.532929
0.000000 0.000000 0.589913
0.000000 0.000000 0.644768
0.000000 0.000000 0.696645
0.000000 0.000000 0.744615
0.000000 0.000000 0.787669
0.000000 0.000000 0.824721
0.000000 0.000000 0.854606
0.000000 0.000000 0.876078
0.000000 0.000000 0.887815
0.000000 0.000000 0.888413
0.000000 0.000000 0.876391
0.000000 0.000000 0.850189
0.000000 0.000000 0.808168
0.000000 0.000000 0.748609
0.000000 0.000000 0.669715
0.000000 0.000000 0.569610
0.000000 0.000000 0.446339
0.000000 0.000000 0.000000
0.000000 0.000000 0.000000
0.000000 0.000000 0.000000
0.000000 0.000000 0.000000
0.000000 0.000000 0.000000
0.000000 0.000000 0.000000
0.000000 0.000000 0.006784
0.000000 0.000000 0.059804
0.000000 0.000000 0.114114
0.000000 0.000000 0.169581
0.000000 0.000000 0.225992
0.000000 0.006770 0.283057
0.000000 0.019576 0.340405
0.002399 0.031307 0.397588
0.009575 0.041447 0.454077
0.013657 0.049410 0.509266
0.014011 0.054534 0.562470
0.009934 0.056084 0.612923
0.000658 0.053250 0.659781
0.000000 0.045148 0.702124
0.000000 0.030820 0.738948
0.000000 0.009233 0.769174
0.000000 0.000000 0.791642
0.000000 0.000000 0.805114
0.000000 0.000000 0.808273
0.000000 0.000000 0.799722
0.000000 0.000000 0.777988
0.000000 0.000000 0.741515
0.000000 0.000000 0.688672
0.000000 0.000000 0.617745
0.000000 0.000000 0.526945
0.000000 0.000000 0.414402
0.000000 0.000000 0.278166
0.000000 0.000000 0.000000
0.000000 0.000000 0.000000
0.000000 0.000000 0.000000
0.000000 0.000000 0.000000
0.000000 0.000000 0.000000
0.000000 0.000000 0.000000
0.000000 0.000000 0.000000
0.000000 0.006881 0.053136
0.000000 0.022629 0.108681
0.000000 0.038286 0.164681
0.000000 0.053634 0.220929
0.013801 0.068384 0.277142
0.027000 0.082170 0.332955
0.037782 0.094555 0.387926
0.045648 0.105024 0.441534
0.050030 0.112992 0.493177
0.050297 0.117797 0.542178
0.045751 0.118704 0.587777
0.035627 0.114902 0.629138
0.019093 0.105510 0.665344
0.000000 0.089568 0.695400
0.000000 0.066045 0.718232
0.000000 0.033835 0.732688
0.000000 0.000000 0.737535
0.000000 0.000000 0.731464
0.000000 0.000000 0.713083
0.000000 0.000000 0.680925
0.000000 0.000000 0.633442
0.000000 0.000000 0.569008
0.000000 0.000000 0.485916
0.000000 0.000000 0.382384
0.000000 0.000000 0.256547
0.000000 0.000000 0.106463
0.000000 0.000000 0.000000
0.000000 0.000000 0.000000
0.000000 0.000000 0.000000
0.000000 0.000000 0.000000
0.000000 0.009099 0.000000
0.000000 0.027548 0.000000
0.000000 0.045750 0.000000
0.000000 0.063710 0.055760
0.000000 0.081361 0.112326
0.009843 0.098562 0.168615
0.028313 0.115096 0.224428
0.044727 0.130673 0.279487
0.058719 0.144929 0.333435
0.069860 0.157425 0.385835
0.077652 0.167650 0.436173
0.081532 0.175015 0.483855
0.080872 0.178861 0.528207
0.074976 0.178452 0.568478
0.063083 0.172980 0.603837
0.044366 0.161560 0.633375
0.017931 0.143236 0.656102
0.000000 0.116975 0.670951
0.000000 0.081673 0.676777
0.000000 0.036149 0.672352
0.000000 0.000000 0.656373
0.000000 0.000000 0.627457
0.000000 0.000000 0.584142
0.000000 0.000000 0.524886
0.000000 0.000000 0.448069
0.000000 0.000000 0.351992
0.000000 0.000000 0.234878
0.000000 0.000000 0.094869
0.000000 0.000000 0.000000
0.000000 0.000000 0.000000
0.000000 0.000000 0.000000
0.000000 0.016608 0.000000
0.000000 0.039306 0.000000
0.000000 0.061128 0.000000
0.000000 0.082230 0.000000
0.000000 0.102691 0.008732
0.000000 0.122520 0.067002
0.015104 0.141649 0.124350
0.036835 0.159935 0.180662
0.056323 0.177164 0.235744
0.073274 0.193046 0.289325
0.087326 0.207216 0.341055
0.098052 0.219236 0.390503
0.104958 0.228595 0.437160
0.107485 0.234706 0.480440
0.105008 0.236908 0.519675
0.096833 0.234467 0.554121
0.082204 0.226574 0.582952
0.060295 0.212346 0.605266
0.030218 0.190825 0.620080
0.000000 0.160980 0.626334
0.000000 0.121707 0.622887
0.000000 0.071825 0.608520
0.000000 0.010081 0.581935
0.000000 0.000000 0.541755
0.000000 0.000000 0.486525
0.000000 0.000000 0.414710
0.000000 0.000000 0.324695
0.000000 0.000000 0.214790
0.000000 0.000000 0.083221
0.000000 0.000000 0.000000
0.000000 0.000000 0.000000
0.000000 0.008965 0.000000
0.000000 0.038156 0.000000
0.000000 0.065512 0.000000
0.000000 0.091338 0.000000
0.000000 0.115864 0.000000
0.000000 0.139243 0.000000
0.000000 0.161559 0.026549
0.014711 0.182818 0.086136
0.039819 0.202952 0.144005
0.062387 0.221821 0.200050
0.082189 0.239209 0.254083
0.098933 0.254827 0.305839
0.112262 0.268310 0.354973
0.121752 0.279222 0.401063
0.126911 0.287051 0.443606
0.127185 0.291210 0.482021
0.121950 0.291038 0.515648
0.110519 0.285803 0.543747
0.092136 0.274694 0.565502
0.065980 0.256830 0.580014
0.031165 0.231253 0.586309
0.000000 0.196933 0.583330
0.000000 0.152765 0.569946
0.000000 0.097569 0.544943
0.000000 0.030092 0.507029
0.000000 0.000000 0.454835
0.000000 0.000000 0.386910
0.000000 0.000000 0.301726
0.000000 0.000000 0.197677
0.000000 0.000000 0.073076
0.000000 0.000000 0.000000
0.000000 0.000000 0.000000
0.000000 0.000000 0.000000
0.000000 0.053955 0.000000
0.000000 0.086835 0.000000
0.000000 0.117423 0.000000
0.000000 0.146022 0.000000
0.000000 0.172864 0.000000
0.000000 0.198103 0.000000
0.008826 0.221821 0.051735
0.037572 0.244025 0.112383
0.063368 0.264649 0.170490
0.086059 0.283551 0.225955
0.105421 0.300517 0.278597
0.121166 0.315258 0.328157
0.132940 0.327410 0.374297
0.140322 0.336535 0.416601
0.142826 0.342123 0.454572
0.139897 0.343587 0.487637
0.130918 0.340267 0.515140
0.115202 0.331429 0.536350
0.091999 0.316265 0.550455
0.060491 0.293893 0.556564
0.019794 0.263357 0.553708
0.000000 0.223624 0.540840
0.000000 0.173592 0.516830
0.000000 0.112080 0.480474
0.000000 0.037837 0.430486
0.000000 0.000000 0.365502
0.000000 0.000000 0.284080
0.000000 0.000000 0.184696
0.000000 0.000000 0.065751
0.000000 0.000000 0.000000
0.000000 0.000000 0.000000
0.000000 0.000000 0.000000
0.000000 0.000000 0.000000
0.000000 0.102221 0.000000
0.000000 0.138455 0.000000
0.000000 0.171906 0.000000
0.000000 0.202880 0.000000
0.000000 0.231605 0.000000
0.000000 0.258238 0.018672
0.030255 0.282862 0.083483
0.059573 0.305482 0.144914
0.085333 0.326034 0.202952
0.107382 0.344377 0.257501
0.125502 0.360295 0.308387
0.139407 0.373500 0.355357
0.148745 0.383629 0.398081
0.153100 0.390244 0.436148
0.151989 0.392835 0.469067
0.144860 0.390816 0.496272
0.131099 0.383527 0.517114
0.110023 0.370235 0.530867
0.080885 0.350131 0.536727
0.042871 0.322334 0.533809
0.000000 0.285888 0.521150
0.000000 0.239761 0.497709
0.000000 0.182850 0.462363
0.000000 0.113977 0.413915
0.000000 0.031887 0.351084
0.000000 0.000000 0.272514
0.000000 0.000000 0.176767
0.000000 0.000000 0.062328
0.000000 0.000000 0.000000
0.000000 0.000000 0.000000
0.000000 0.000000 0.000000
0.000000 0.000000 0.000000
0.000000 0.000000 0.000000
0.000000 0.153335 0.000000
0.000000 0.192543 0.000000
0.000000 0.228445 0.000000
0.000000 0.261348 0.000000
0.000000 0.291480 0.000000
0.017881 0.318998 0.054754
0.051158 0.343984 0.120934
0.080314 0.366447 0.182848
0.105265 0.386320 0.240486
0.125861 0.403463 0.293759
0.141887 0.417662 0.342502
0.153061 0.428628 0.386466
0.159035 0.435998 0.425328
0.159394 0.439335 0.458683
0.153660 0.438128 0.486047
0.141285 0.431793 0.506860
0.121656 0.419670 0.520480
0.094096 0.401026 0.526187
0.057859 0.375052 0.523184
0.012135 0.340867 0.510591
0.000000 0.297516 0.487452
0.000000 0.243968 0.452733
0.000000 0.179120 0.405318
0.000000 0.101792 0.344014
0.000000 0.010732 0.267548
0.000000 0.000000 0.174571
0.000000 0.000000 0.063650
0.000000 0.000000 0.000000
0.000000 0.000000 0.000000
0.000000 0.000000 0.000000
0.000000 0.000000 0.000000
0.000000 0.000000 0.000000
0.000000 0.000000 0.000000
0.000000 0.206789 0.000000
0.000000 0.248545 0.000000
0.000000 0.286441 0.000000
0.000000 0.320782 0.000000
0.000318 0.351798 0.023410
0.038137 0.379646 0.095924
0.071159 0.404409 0.163179
0.099369 0.426094 0.225250
0.122689 0.444637 0.282135
0.140970 0.459896 0.333752
0.154003 0.471659 0.379939
0.161506 0.479636 0.420458
0.163137 0.483466 0.454989
0.158484 0.482711 0.483134
0.147071 0.476861 0.504418
0.128353 0.465332 0.518284
0.101723 0.447464 0.524097
0.066505 0.422524 0.521146
0.021956 0.389705 0.508637
0.000000 0.348125 0.485698
0.000000 0.296829 0.451381
0.000000 0.234788 0.404655
0.000000 0.160897 0.344413
0.000000 0.073978 0.269468
0.000000 0.000000 0.178554
0.000000 0.000000 0.070325
0.000000 0.000000 0.000000
0.000000 0.000000 0.000000
0.000000 0.000000 0.000000
0.000000 0.000000 0.000000
0.000000 0.000000 0.000000
0.000000 0.000000 0.000000
0.000000 0.000000 0.000000
0.000000 0.261991 0.000000
0.000000 0.305825 0.000000
0.000000 0.345211 0.000000
0.000000 0.380455 0.000000
0.020375 0.411787 0.067022
0.057877 0.439365 0.141244
0.089850 0.463271 0.209255
0.116284 0.483514 0.271136
0.137101 0.500029 0.326892
0.152159 0.512676 0.376446
0.161248 0.521241 0.419645
0.164094 0.525435 0.456255
0.160355 0.524898 0.485963
0.149623 0.519193 0.508379
0.131425 0.507809 0.523032
0.105221 0.490162 0.529373
0.070405 0.465593 0.526773
0.026306 0.433369 0.514527
0.000000 0.392684 0.491847
0.000000 0.342657 0.457870
0.000000 0.282331 0.411651
0.000000 0.210678 0.352168
0.000000 0.126595 0.278319
0.000000 0.028902 0.188924
0.000000 0.000000 0.082722
0.000000 0.000000 0.000000
0.000000 0.000000 0.000000
0.000000 0.000000 0.000000
0.000000 0.000000 0.000000
0.000000 0.000000 0.000000
0.000000 0.000000 0.000000
0.000000 0.000000 0.000000
0.000000 0.000000 0.000000
0.000000 0.318266 0.000000
0.000000 0.363661 0.000000
0.000000 0.403989 0.000000
0.000000 0.439556 0.031129
0.040333 0.470591 0.114106
0.076717 0.497254 0.189723
0.106800 0.519626 0.258148
0.130576 0.537717 0.319469
0.147971 0.551462 0.373696
0.158846 0.560721 0.420760
0.162995 0.565281 0.460513
0.160145 0.564854 0.492728
0.149960 0.559078 0.517099
0.132034 0.547518 0.533241
0.105897 0.529663 0.540691
0.071014 0.504930 0.538905
0.026780 0.472659 0.527263
0.000000 0.432119 0.505062
0.000000 0.382502 0.471525
0.000000 0.322929 0.425792
0.000000 0.252443 0.366926
0.000000 0.170016 0.293911
0.000000 0.074545 0.205652
0.000000 0.000000 0.100974
0.000000 0.000000 0.000000
0.000000 0.000000 0.000000
0.000000 0.000000 0.000000
0.000000 0.000000 0.000000
0.000000 0.000000 0.000000
0.000000 0.000000 0.000000
0.000000 0.000000 0.000000
0.000000 0.000000 0.000000
0.000000 0.000000 0.000000
0.000000 0.374856 0.000000
0.000000 0.421252 0.000000
0.000000 0.461929 0.000000
0.018245 0.497192 0.078590
0.059830 0.527273 0.163642
0.094243 0.552329 0.240318
0.121546 0.572445 0.308792
0.141735 0.587629 0.369159
0.154740 0.597816 0.421435
0.160424 0.602867 0.465557
0.158585 0.602570 0.501384
0.148955 0.596637 0.528696
0.131198 0.584706 0.547192
0.104914 0.566342 0.556494
0.069636 0.541035 0.556145
0.024831 0.508201 0.545608
0.000000 0.467183 0.524269
0.000000 0.417247 0.491433
0.000000 0.357588 0.446326
0.000000 0.287325 0.388098
0.000000 0.205504 0.315817
0.000000 0.111095 0.228473
0.000000 0.002996 0.124977
0.000000 0.000000 0.004162
0.000000 0.000000 0.000000
0.000000 0.000000 0.000000
0.000000 0.000000 0.000000
0.000000 0.000000 0.000000
0.000000 0.000000 0.000000
0.000000 0.000000 0.000000
0.000000 0.000000 0.000000
0.000000 0.000000 0.000000
0.000000 0.000000 0.000000
0.000000 0.430921 0.000000
0.000000 0.477711 0.000000
0.000000 0.518098 0.031283
0.038906 0.552387 0.127762
0.078473 0.580809 0.214559
0.110015 0.603524 0.291935
0.133599 0.620615 0.360070
0.149222 0.632092 0.419066
0.156819 0.637889 0.468945
0.156256 0.637868 0.509652
0.147334 0.631816 0.541050
0.129788 0.619447 0.562925
0.103287 0.600399 0.574985
0.067432 0.574237 0.576857
0.021760 0.540451 0.568091
0.000000 0.498458 0.548156
0.000000 0.447600 0.516444
0.000000 0.387145 0.472267
0.000000 0.316287 0.414858
0.000000 0.234147 0.343371
0.000000 0.139769 0.256882
0.000000 0.032125 0.154389
0.000000 0.000000 0.034807
0.000000 0.000000 0.000000
0.000000 0.000000 0.000000
0.000000 0.000000 0.000000
0.000000 0.000000 0.000000
0.000000 0.000000 0.000000
0.000000 0.000000 0.000000
0.000000 0.000000 0.000000
0.000000 0.000000 0.000000
0.000000 0.000000 0.000000
0.000000 0.000000 0.000000
0.000000 0.485537 0.000000
0.000000 0.532071 0.000000
0.013514 0.571483 0.078594
0.059204 0.604081 0.177544
0.095842 0.630098 0.265733
0.123565 0.649690 0.343427
0.142441 0.662943 0.410813
0.152471 0.669866 0.467998
0.153594 0.670395 0.515012
0.145678 0.664392 0.551805
0.128529 0.651644 0.578247
0.101884 0.631864 0.594132
0.065415 0.604691 0.599172
0.018728 0.569691 0.593001
0.000000 0.526354 0.575176
0.000000 0.474097 0.545172
0.000000 0.412263 0.502388
0.000000 0.340121 0.446141
0.000000 0.256863 0.375672
0.000000 0.161611 0.290141
0.000000 0.053411 0.188631
0.000000 0.000000 0.070143
0.000000 0.000000 0.000000
0.000000 0.000000 0.000000
0.000000 0.000000 0.000000
0.000000 0.000000 0.000000
0.000000 0.000000 0.000000
0.000000 0.000000 0.000000
0.000000 0.000000 0.000000
0.000000 0.000000 0.000000
0.000000 0.000000 0.000000
0.000000 0.000000 0.000000
0.000000 0.000000 0.000000
0.000000 0.537699 0.000000
0.000000 0.583279 0.012414
0.036003 0.620988 0.125710
0.078739 0.651135 0.226785
0.111491 0.673951 0.315990
0.134396 0.689595 0.393597
0.147527 0.698152 0.459799
0.150888 0.699631 0.514711
0.144421 0.693969 0.558368
0.127999 0.681027 0.590726
0.101429 0.660594 0.611664
0.064452 0.632383 0.620979
0.016744 0.596034 0.618392
0.000000 0.551111 0.603542
0.000000 0.497106 0.575993
0.000000 0.433437 0.535227
0.000000 0.359445 0.480648
0.000000 0.274400 0.411580
0.000000 0.177496 0.327271
0.000000 0.067855 0.226887
0.000000 0.000000 0.109517
0.000000 0.000000 0.000000
0.000000 0.000000 0.000000
0.000000 0.000000 0.000000
0.000000 0.000000 0.000000
0.000000 0.000000 0.000000
0.000000 0.000000 0.000000
0.000000 0.000000 0.000000
0.000000 0.000000 0.000000
0.000000 0.000000 0.000000
0.000000 0.000000 0.000000
0.000000 0.000000 0.000000
0.000000 0.000000 0.000000
0.000000 0.586318 0.000000
0.008292 0.630201 0.055258
0.058272 0.665434 0.171453
0.097086 0.692322 0.274282
0.124942 0.711099 0.364103
0.141983 0.721923 0.441195
0.148283 0.724880 0.505756
0.143851 0.719980 0.557908
0.128630 0.707158 0.597693
0.102498 0.686278 0.625074
0.065265 0.657128 0.639934
0.016675 0.619420 0.642078
0.000000 0.572796 0.631234
0.000000 0.516821 0.607047
0.000000 0.450986 0.569086
0.000000 0.374709 0.516840
0.000000 0.287333 0.449721
0.000000 0.188126 0.367058
0.000000 0.076285 0.268106
0.000000 0.000000 0.152037
0.000000 0.000000 0.017945
0.000000 0.000000 0.000000
0.000000 0.000000 0.000000
0.000000 0.000000 0.000000
0.000000 0.000000 0.000000
0.000000 0.000000 0.000000
0.000000 0.000000 0.000000
0.000000 0.000000 0.000000
0.000000 0.000000 0.000000
0.000000 0.000000 0.000000
0.000000 0.000000 0.000000
0.000000 0.000000 0.000000
0.000000 0.000000 0.000000
0.000000 0.630220 0.000000
0.033858 0.671621 0.095860
0.079914 0.703557 0.214589
0.113788 0.726335 0.318779
0.135694 0.740189 0.408793
0.145774 0.745278 0.484918
0.144108 0.741686 0.547358
0.130708 0.729425 0.596242
0.105521 0.708430 0.631617
0.068427 0.678566 0.653453
0.019240 0.639620 0.661640
0.000000 0.591306 0.655990
0.000000 0.533265 0.636234
0.000000 0.465062 0.602028
0.000000 0.386189 0.552944
0.000000 0.296065 0.488480
0.000000 0.194031 0.408051
0.000000 0.079359 0.310996
0.000000 0.000000 0.196574
0.000000 0.000000 0.063964
0.000000 0.000000 0.000000
0.000000 0.000000 0.000000
0.000000 0.000000 0.000000
0.000000 0.000000 0.000000
0.000000 0.000000 0.000000
0.000000 0.000000 0.000000
0.000000 0.000000 0.000000
0.000000 0.000000 0.000000
0.000000 0.000000 0.000000
0.000000 0.000000 0.000000
0.000000 0.000000 0.000000
0.000000 0.000000 0.000000
0.000000 0.000000 0.000000
0.004773 0.668153 0.000000
0.059392 0.706239 0.132959
0.100496 0.734014 0.253834
0.128364 0.751785 0.358968
0.143213 0.759787 0.448730
0.145188 0.758177 0.523413
0.134373 0.747043 0.583230
0.110783 0.726395 0.628313
0.074368 0.696169 0.658717
0.025011 0.656230 0.674419
0.000000 0.606364 0.675314
0.000000 0.546288 0.661221
0.000000 0.475642 0.631879
0.000000 0.393991 0.586947
0.000000 0.300828 0.526007
0.000000 0.195571 0.448561
0.000000 0.077564 0.354032
0.000000 0.000000 0.241764
0.000000 0.000000 0.111022
0.000000 0.000000 0.000000
0.000000 0.000000 0.000000
0.000000 0.000000 0.000000
0.000000 0.000000 0.000000
0.000000 0.000000 0.000000
0.000000 0.000000 0.000000
0.000000 0.000000 0.000000
0.000000 0.000000 0.000000
0.000000 0.000000 0.000000
0.000000 0.000000 0.000000
0.000000 0.000000 0.000000
0.000000 0.000000 0.000000
0.000000 0.000000 0.000000
0.000000 0.000000 0.000000
0.034792 0.698779 0.025206
0.084479 0.732672 0.165243
0.119555 0.755376 0.287852
0.140303 0.767198 0.393490
0.146940 0.768373 0.482532
0.139617 0.759059 0.555276
0.118420 0.739343 0.611942
0.083368 0.709236 0.652669
0.034414 0.668676 0.677519
0.000000 0.617525 0.686473
0.000000 0.555572 0.679435
0.000000 0.482533 0.656229
0.000000 0.398048 0.616600
0.000000 0.301684 0.560215
0.000000 0.192932 0.486662
0.000000 0.071213 0.395448
0.000000 0.000000 0.286003
0.000000 0.000000 0.157678
0.000000 0.000000 0.009745
0.000000 0.000000 0.000000
0.000000 0.000000 0.000000
0.000000 0.000000 0.000000
0.000000 0.000000 0.000000
0.000000 0.000000 0.000000
0.000000 0.000000 0.000000
0.000000 0.000000 0.000000
0.000000 0.000000 0.000000
0.000000 0.000000 0.000000
0.000000 0.000000 0.000000
0.000000 0.000000 0.000000
0.000000 0.000000 0.000000
0.000000 0.000000 0.000000
0.000000 0.000000 0.000000
0.065009 0.720677 0.048741
0.108680 0.749455 0.191346
0.136603 0.766133 0.315256
0.149065 0.771019 0.420934
0.146288 0.764347 0.508764
0.128424 0.746277 0.579049
0.095564 0.716895 0.632015
0.047730 0.676213 0.667808
0.000000 0.624168 0.686496
0.000000 0.560624 0.688067
0.000000 0.485371 0.672431
0.000000 0.398122 0.639418
0.000000 0.298521 0.588780
0.000000 0.186132 0.520191
0.000000 0.060450 0.433243
0.000000 0.000000 0.327452
0.000000 0.000000 0.202254
0.000000 0.000000 0.057006
0.000000 0.000000 0.000000
0.000000 0.000000 0.000000
0.000000 0.000000 0.000000
0.000000 0.000000 0.000000
0.000000 0.000000 0.000000
0.000000 0.000000 0.000000
0.000000 0.000000 0.000000
0.000000 0.000000 0.000000
0.000000 0.000000 0.000000
0.000000 0.000000 0.000000
0.000000 0.000000 0.000000
0.000000 0.000000 0.000000
0.000000 0.000000 0.000000
0.000000 0.000000 0.000000
0.000000 0.000000 0.000000
0.095006 0.732344 0.065108
0.131525 0.755040 0.209851
0.151121 0.764692 0.334605
0.154085 0.761609 0.439839
0.140640 0.746025 0.525941
0.110946 0.718102 0.593223
0.065092 0.677924 0.641917
0.003106 0.625505 0.672174
0.000000 0.560782 0.684070
0.000000 0.483619 0.677599
0.000000 0.393805 0.652676
0.000000 0.291057 0.609140
0.000000 0.175014 0.546748
0.000000 0.045246 0.465179
0.000000 0.000000 0.364034
0.000000 0.000000 0.242835
0.000000 0.000000 0.101022
0.000000 0.000000 0.000000
0.000000 0.000000 0.000000
0.000000 0.000000 0.000000
0.000000 0.000000 0.000000
0.000000 0.000000 0.000000
0.000000 0.000000 0.000000
0.000000 0.000000 0.000000
0.000000 0.000000 0.000000
0.000000 0.000000 0.000000
0.000000 0.000000 0.000000
0.000000 0.000000 0.000000
0.000000 0.000000 0.000000
0.000000 0.000000 0.000000
0.000000 0.000000 0.000000
0.000000 0.000000 0.000000
0.000000 0.000000 0.000000
0.124334 0.732194 0.072861
0.152517 0.747794 0.219291
0.162564 0.749375 0.344409
0.154767 0.737246 0.448688
0.129355 0.711641 0.532525
0.086488 0.672721 0.596238
0.026262 0.620574 0.640063
0.000000 0.555210 0.664161
0.000000 0.476570 0.668611
0.000000 0.384515 0.653415
0.000000 0.278838 0.618496
0.000000 0.159253 0.563697
0.000000 0.025401 0.488781
0.000000 0.000000 0.393436
0.000000 0.000000 0.277268
0.000000 0.000000 0.139804
0.000000 0.000000 0.000000
0.000000 0.000000 0.000000
0.000000 0.000000 0.000000
0.000000 0.000000 0.000000
0.000000 0.000000 0.000000
0.000000 0.000000 0.000000
0.000000 0.000000 0.000000
0.000000 0.000000 0.000000
0.000000 0.000000 0.000000
0.000000 0.000000 0.000000
0.000000 0.000000 0.000000
0.000000 0.000000 0.000000
0.000000 0.000000 0.000000
0.000000 0.000000 0.000000
0.000000 0.000000 0.000000
0.000000 0.000000 0.000000
0.000000 0.000000 0.000000
0.152517 0.718560 0.070502
0.171132 0.726006 0.218145
0.170357 0.718424 0.343123
0.150489 0.696126 0.445916
0.111760 0.659344 0.526928
0.054332 0.608241 0.586480
0.000000 0.542904 0.624819
0.000000 0.463344 0.642109
0.000000 0.369501 0.638438
0.000000 0.261239 0.613813
0.000000 0.138348 0.568162
0.000000 0.000545 0.501336
0.000000 0.000000 0.413106
0.000000 0.000000 0.303164
0.000000 0.000000 0.171123
0.000000 0.000000 0.016516
0.000000 0.000000 0.000000
0.000000 0.000000 0.000000
0.000000 0.000000 0.000000
0.000000 0.000000 0.000000
0.000000 0.000000 0.000000
0.000000 0.000000 0.000000
0.000000 0.000000 0.000000
0.000000 0.000000 0.000000
0.000000 0.000000 0.000000
0.000000 0.000000 0.000000
0.000000 0.000000 0.000000
