lrplugin/MindfulLensFilmEngine.lrplugin/profiles/luts/procolor.cube
# Generated from ColorChecker fit
LUT_3D_SIZE 9
DOMAIN_MIN 0.0 0.0 0.0
DOMAIN_MAX 1.0 1.0 1.0
0.000000 0.000000 0.000000
0.000000 0.000000 0.071281
0.000000 0.000000 0.238759
0.000000 0.000000 0.463489
0.000000 0.000000 0.722677
0.000000 0.000000 0.973321
0.000000 0.000000 1.000000
0.000000 0.000000 1.000000
0.000000 0.000000 0.940893
0.000000 0.000000 0.000000
0.000000 0.000000 0.000000
0.000000 0.000000 0.114114
0.000000 0.019576 0.340405
0.014011 0.054534 0.562470
0.000000 0.030820 0.738948
0.000000 0.000000 0.808273
0.000000 0.000000 0.688672
0.000000 0.000000 0.278166
0.000000 0.008965 0.000000
0.000000 0.115864 0.000000
0.039819 0.202952 0.144005
0.112262 0.268310 0.354973
0.121950 0.291038 0.515648
0.031165 0.231253 0.586309
0.000000 0.030092 0.507029
0.000000 0.000000 0.197677
0.000000 0.000000 0.000000
0.000000 0.206789 0.000000
0.000318 0.351798 0.023410
0.122689 0.444637 0.282135
0.163137 0.483466 0.454989
0.101723 0.447464 0.524097
0.000000 0.296829 0.451381
0.000000 0.000000 0.178554
0.000000 0.000000 0.000000
0.000000 0.000000 0.000000
0.000000 0.430921 0.000000
0.078473 0.580809 0.214559
0.156819 0.637889 0.468945
0.103287 0.600399 0.574985
0.000000 0.447600 0.516444
0.000000 0.139769 0.256882
0.000000 0.000000 0.000000
0.000000 0.000000 0.000000
0.000000 0.000000 0.000000
0.000000 0.630220 0.000000
0.135694 0.740189 0.408793
0.105521 0.708430 0.631617
0.000000 0.533265 0.636234
0.000000 0.194031 0.408051
0.000000 0.000000 0.000000
0.000000 0.000000 0.000000
0.000000 0.000000 0.000000
0.000000 0.000000 0.000000
0.095006 0.732344 0.065108
0.140640 0.746025 0.525941
0.000000 0.560782 0.684070
0.000000 0.175014 0.546748
0.000000 0.000000 0.101022
0.000000 0.000000 0.000000
0.000000 0.000000 0.000000
0.000000 0.000000 0.000000
0.000000 0.000000 0.000000
0.203404 0.643745 0.029204
0.054813 0.493203 0.472569
0.000000 0.078260 0.526962
0.000000 0.000000 0.201276
0.000000 0.000000 0.000000
0.000000 0.000000 0.000000
0.000000 0.000000 0.000000
0.000000 0.000000 0.000000
0.000000 0.000000 0.000000
0.267387 0.249675 0.000000
0.000000 0.000000 0.141982
0.000000 0.000000 0.047690
0.000000 0.000000 0.000000
0.000000 0.000000 0.000000
0.000000 0.000000 0.000000
0.000000 0.000000 0.000000
0.000000 0.000000 0.000000
0.000000 0.000000 0.000000
0.260586 0.145396 0.318254
0.154595 0.030160 0.276208
0.093288 0.000000 0.289246
0.084593 0.000000 0.383006
0.119508 0.000000 0.562920
0.172097 0.000000 0.814213
0.199498 0.000000 1.000000
0.141915 0.000000 1.000000
0.000000 0.000000 1.000000
0.138408 0.163261 0.084024
0.129522 0.120389 0.136970
0.146335 0.103746 0.208428
0.197623 0.116594 0.325676
0.275229 0.143212 0.495787
0.354065 0.148899 0.705626
0.392114 0.079971 0.921854
0.330426 0.000000 1.000000
0.093122 0.000000 1.000000
0.072309 0.248221 0.009960
0.146396 0.272204 0.155423
0.217197 0.299775 0.275442
0.294331 0.334274 0.398935
0.370489 0.360061 0.534615
0.421430 0.342514 0.670989
0.405982 0.228032 0.776358
0.266042 0.000000 0.798815
0.000000 0.000000 0.666250
0.072211 0.400239 0.053935
0.202630 0.474000 0.283532
0.290774 0.520427 0.436344
0.347108 0.542942 0.542931
0.365169 0.525985 0.613646
0.321563 0.435013 0.638635
0.175963 0.216504 0.587839
0.000000 0.000000 0.410995
0.000000 0.000000 0.037630
0.140873 0.598071 0.160561
0.288474 0.692965 0.459999
0.344806 0.721326 0.623930
0.321184 0.686654 0.684551
0.211989 0.573469 0.653856
0.000000 0.347311 0.523632
0.000000 0.000000 0.265462
0.000000 0.000000 0.000000
0.000000 0.000000 0.000000
0.273896 0.799273 0.261188
0.387017 0.875087 0.610268
0.349874 0.836889 0.757732
0.174629 0.688258 0.737419
0.000000 0.413796 0.562963
0.000000 0.000000 0.227791
0.000000 0.000000 0.000000
0.000000 0.000000 0.000000
0.000000 0.000000 0.000000
0.459718 0.940198 0.273905
0.474187 0.945151 0.646520
0.269396 0.780332 0.744025
0.000000 0.449404 0.601902
0.000000 0.000000 0.235423
0.000000 0.000000 0.000000
0.000000 0.000000 0.000000
0.000000 0.000000 0.000000
0.000000 0.000000 0.000000
0.679617 0.935996 0.103542
0.518753 0.806737 0.467673
0.059629 0.443669 0.475819
0.000000 0.000000 0.165100
0.000000 0.000000 0.000000
0.000000 0.000000 0.000000
0.000000 0.000000 0.000000
0.000000 0.000000 0.000000
0.000000 0.000000 0.000000
0.907708 0.680614 0.000000
0.482320 0.342225 0.000000
0.000000 0.000000 0.000000
0.000000 0.000000 0.000000
0.000000 0.000000 0.000000
0.000000 0.000000 0.000000
0.000000 0.000000 0.000000
0.000000 0.000000 0.000000
0.000000 0.000000 0.000000
0.571705 0.406437 0.531259
0.371744 0.198787 0.375405
0.233806 0.044906 0.255255
0.179294 0.000000 0.224674
0.212685 0.000000 0.317321
0.321520 0.000000 0.546650
0.476415 0.000000 0.905906
0.631049 0.000000 1.000000
0.722175 0.000000 1.000000
0.404096 0.377248 0.304294
0.301248 0.240965 0.253672
0.243248 0.145527 0.207574
0.252350 0.099455 0.221506
0.333872 0.092289 0.330767
0.476206 0.094588 0.550449
0.650810 0.057931 0.875442
0.812214 0.000000 1.000000
0.898013 0.000000 1.000000
0.297152 0.411000 0.226332
0.280115 0.345163 0.278107
0.280751 0.298967 0.295842
0.322159 0.281013 0.336684
0.410504 0.280923 0.437571
0.535024 0.269335 0.615237
0.668024 0.197909 0.866210
0.764878 0.000000 1.000000
0.764031 0.000000 1.000000
0.268063 0.516352 0.247597
0.313026 0.508469 0.393027
0.338484 0.490745 0.458469
0.368381 0.471861 0.502709
0.409730 0.441519 0.564327
0.452614 0.370438 0.661697
0.470184 0.210356 0.792988
0.418662 0.000000 0.936160
0.237337 0.000000 1.000000
0.326857 0.680758 0.305057
0.397499 0.706769 0.529489
0.401455 0.685179 0.620601
0.363514 0.624749 0.638820
0.291537 0.515259 0.624366
0.176453 0.327509 0.597253
0.000000 0.013318 0.557290
0.000000 0.000000 0.484078
0.000000 0.000000 0.337014
0.476403 0.870468 0.322413
0.523892 0.894748 0.605288
0.447510 0.825385 0.694127
0.272896 0.671222 0.650997
0.008753 0.422120 0.517759
0.000000 0.048958 0.316067
0.000000 0.000000 0.047369
0.000000 0.000000 0.000000
0.000000 0.000000 0.000000
0.712405 1.000000 0.210109
0.675400 1.000000 0.524958
0.447338 0.833275 0.577672
0.054702 0.521626 0.431957
0.000000 0.060878 0.131314
0.000000 0.000000 0.000000
0.000000 0.000000 0.000000
0.000000 0.000000 0.000000
0.000000 0.000000 0.000000
1.000000 1.000000 0.000000
0.828061 0.952458 0.179773
0.364463 0.609558 0.156601
0.000000 0.065100 0.000000
0.000000 0.000000 0.000000
0.000000 0.000000 0.000000
0.000000 0.000000 0.000000
0.000000 0.000000 0.000000
0.000000 0.000000 0.000000
1.000000 0.935908 0.000000
0.950747 0.625543 0.000000
0.155250 0.033741 0.000000
0.000000 0.000000 0.000000
0.000000 0.000000 0.000000
0.000000 0.000000 0.000000
0.000000 0.000000 0.000000
0.000000 0.000000 0.000000
0.000000 0.000000 0.000000
0.829536 0.587249 0.603925
0.556621 0.314005 0.390101
0.349202 0.100361 0.177980
0.242161 0.000000 0.049653
0.253450 0.000000 0.067007
0.384091 0.000000 0.271721
0.618172 0.000000 0.685269
0.922853 0.000000 1.000000
1.000000 0.000000 1.000000
0.636846 0.538280 0.386142
0.459146 0.331916 0.286887
0.331580 0.173666 0.163548
0.289877 0.077314 0.099855
0.352834 0.037661 0.159335
0.522319 0.030526 0.385308
0.783267 0.012748 0.800889
1.000000 0.000000 1.000000
1.000000 0.000000 1.000000
0.504994 0.541831 0.301018
0.414038 0.406010 0.313138
0.347852 0.298540 0.268001
0.343009 0.233283 0.250979
0.419154 0.205121 0.327239
0.579001 0.189953 0.541741
0.808333 0.144699 0.919241
1.000000 0.007297 1.000000
1.000000 0.000000 1.000000
0.458438 0.615257 0.291133
0.433245 0.542074 0.405524
0.397454 0.469199 0.422102
0.388485 0.410574 0.427880
0.426829 0.361161 0.489665
0.516046 0.296940 0.654057
0.642765 0.174910 0.947452
0.776684 0.000000 1.000000
0.870570 0.000000 1.000000
0.514475 0.754708 0.285803
0.521553 0.724690 0.487454
0.472662 0.658658 0.543353
0.406070 0.570634 0.542151
0.343114 0.455660 0.552298
0.288198 0.289796 0.622033
0.228800 0.030122 0.779391
0.135463 0.000000 1.000000
0.000000 0.000000 1.000000
0.683240 0.935131 0.201086
0.676588 0.917237 0.469078
0.558594 0.818727 0.535993
0.368372 0.653705 0.492125
0.128104 0.417292 0.407561
0.000000 0.085628 0.332182
0.000000 0.000000 0.295665
0.000000 0.000000 0.307479
0.000000 0.000000 0.356888
0.967709 1.000000 0.000000
0.888814 1.000000 0.247282
0.633202 0.880016 0.291002
0.240833 0.578827 0.162870
0.000000 0.153528 0.000000
0.000000 0.000000 0.000000
0.000000 0.000000 0.000000
0.000000 0.000000 0.000000
0.000000 0.000000 0.000000
1.000000 1.000000 0.000000
1.000000 1.000000 0.000000
0.667282 0.751930 0.000000
0.000000 0.243839 0.000000
0.000000 0.000000 0.000000
0.000000 0.000000 0.000000
0.000000 0.000000 0.000000
0.000000 0.000000 0.000000
0.000000 0.000000 0.000000
1.000000 1.000000 0.000000
1.000000 0.870221 0.000000
0.624464 0.322673 0.000000
0.000000 0.000000 0.000000
0.000000 0.000000 0.000000
0.000000 0.000000 0.000000
0.000000 0.000000 0.000000
0.000000 0.000000 0.000000
0.000000 0.000000 0.000000
1.000000 0.662300 0.553397
0.717306 0.377024 0.357408
0.477453 0.149836 0.114497
0.341064 0.000000 0.000000
0.339570 0.000000 0.000000
0.487467 0.000000 0.106397
0.782324 0.000000 0.576931
1.000000 0.000000 1.000000
1.000000 0.000000 1.000000
0.829108 0.636424 0.357513
0.625563 0.410048 0.284526
0.463571 0.231714 0.144223
0.392340 0.120464 0.048561
0.444144 0.076362 0.089296
0.634327 0.080488 0.337972
0.961304 0.094941 0.845933
1.000000 0.062839 1.000000
1.000000 0.000000 1.000000
0.702550 0.646380 0.272764
0.584776 0.487153 0.319226
0.485003 0.357643 0.270590
0.453282 0.276973 0.240458
0.522735 0.245285 0.322223
0.709552 0.243741 0.589071
1.000000 0.234519 1.000000
1.000000 0.160818 1.000000
1.000000 0.000000 1.000000
0.664316 0.718218 0.234083
0.614163 0.622821 0.390530
0.548453 0.530537 0.416717
0.518085 0.460570 0.427883
0.557027 0.413141 0.519062
0.682315 0.369491 0.765082
0.894056 0.291880 1.000000
1.000000 0.123587 1.000000
1.000000 0.000000 1.000000
0.738971 0.856784 0.163141
0.725777 0.810330 0.414202
0.653466 0.732107 0.492455
0.573784 0.641396 0.514781
0.521545 0.538502 0.577852
0.514632 0.404743 0.758137
0.553997 0.202462 1.000000
0.623663 0.000000 1.000000
0.690720 0.000000 1.000000
0.943920 1.000000 0.000000
0.924512 1.000000 0.292744
0.792426 0.922859 0.394400
0.600253 0.768392 0.391837
0.383653 0.558739 0.383369
0.161356 0.275301 0.447104
0.000000 0.000000 0.640944
0.000000 0.000000 1.000000
0.000000 0.000000 1.000000
1.000000 1.000000 0.000000
1.000000 1.000000 0.000000
0.950555 1.000000 0.005883
0.570204 0.769293 0.000000
0.103553 0.390022 0.000000
0.000000 0.000000 0.000000
0.000000 0.000000 0.000000
0.000000 0.000000 0.000000
0.000000 0.000000 0.000000
1.000000 1.000000 0.000000
1.000000 1.000000 0.000000
1.000000 1.000000 0.000000
0.449189 0.550634 0.000000
0.000000 0.000000 0.000000
0.000000 0.000000 0.000000
0.000000 0.000000 0.000000
0.000000 0.000000 0.000000
0.000000 0.000000 0.000000
1.000000 1.000000 0.000000
1.000000 1.000000 0.000000
1.000000 0.717245 0.000000
0.195598 0.000000 0.000000
0.000000 0.000000 0.000000
0.000000 0.000000 0.000000
0.000000 0.000000 0.000000
0.000000 0.000000 0.000000
0.000000 0.000000 0.000000
1.000000 0.567197 0.412701
0.811015 0.350191 0.330315
0.605669 0.182418 0.137762
0.493010 0.088101 0.000000
0.517944 0.072482 0.000000
0.708447 0.121824 0.183530
1.000000 0.203405 0.733707
1.000000 0.265526 1.000000
1.000000 0.237504 1.000000
0.922468 0.622886 0.262230
0.771979 0.453309 0.310377
0.640598 0.324357 0.233354
0.591011 0.260334 0.171346
0.668969 0.266563 0.244334
0.903294 0.329385 0.552091
1.000000 0.416161 1.000000
1.000000 0.475269 1.000000
1.000000 0.436109 1.000000
0.845672 0.691450 0.196192
0.778076 0.582137 0.370957
0.707847 0.496562 0.398165
0.698515 0.459111 0.419641
0.796677 0.475186 0.557006
1.000000 0.531208 0.911673
1.000000 0.594619 1.000000
1.000000 0.613877 1.000000
1.000000 0.518460 1.000000
0.855814 0.807636 0.141871
0.855792 0.759853 0.433433
0.821390 0.710644 0.547665
0.816985 0.684474 0.628034
0.890021 0.686825 0.797801
1.000000 0.704199 1.000000
1.000000 0.704116 1.000000
1.000000 0.635116 1.000000
1.000000 0.426758 1.000000
0.984730 0.984986 0.013292
1.000000 0.988433 0.405919
0.988039 0.957010 0.584061
0.940724 0.915261 0.692824
0.930794 0.868749 0.857110
0.989611 0.804057 1.000000
1.000000 0.688785 1.000000
1.000000 0.471553 1.000000
1.000000 0.081999 1.000000
1.000000 1.000000 0.000000
1.000000 1.000000 0.183272
1.000000 1.000000 0.396299
1.000000 1.000000 0.497049
0.893628 0.967027 0.612063
0.749916 0.765283 0.847676
0.641015 0.471557 1.000000
0.565268 0.034549 1.000000
0.504091 0.000000 1.000000
1.000000 1.000000 0.000000
1.000000 1.000000 0.000000
1.000000 1.000000 0.000000
1.000000 1.000000 0.000000
0.745993 0.906521 0.000000
0.306890 0.501172 0.016166
0.000000 0.000000 0.267171
0.000000 0.000000 0.747104
0.000000 0.000000 1.000000
1.000000 1.000000 0.000000
1.000000 1.000000 0.000000
1.000000 1.000000 0.000000
1.000000 1.000000 0.000000
0.448198 0.590894 0.000000
0.000000 0.000000 0.000000
0.000000 0.000000 0.000000
0.000000 0.000000 0.000000
0.000000 0.000000 0.000000
1.000000 1.000000 0.000000
1.000000 1.000000 0.000000
1.000000 1.000000 0.000000
1.000000 0.727314 0.000000
0.000000 0.000000 0.000000
0.000000 0.000000 0.000000
0.000000 0.000000 0.000000
0.000000 0.000000 0.000000
0.000000 0.000000 0.000000
0.810835 0.198681 0.230741
0.744102 0.156991 0.377693
0.670100 0.148334 0.336610
0.664142 0.202193 0.274265
0.784612 0.329074 0.337224
1.000000 0.520497 0.651849
1.000000 0.749003 1.000000
1.000000 0.968153 1.000000
1.000000 1.000000 1.000000
0.807652 0.410005 0.159998
0.819013 0.400780 0.444110
0.813175 0.417419 0.530575
0.866299 0.489488 0.587807
1.000000 0.627570 0.764013
1.000000 0.823266 1.000000
1.000000 1.000000 1.000000
1.000000 1.000000 1.000000
1.000000 1.000000 1.000000
0.839349 0.604981 0.141804
0.928822 0.645642 0.558802
0.981164 0.696720 0.761157
1.000000 0.787861 0.918925
1.000000 0.929728 1.000000
1.000000 1.000000 1.000000
1.000000 1.000000 1.000000
1.000000 1.000000 1.000000
1.000000 1.000000 1.000000
0.952188 0.827049 0.095798
1.000000 0.923449 0.635499
1.000000 1.000000 0.936179
1.000000 1.000000 1.000000
1.000000 1.000000 1.000000
1.000000 1.000000 1.000000
1.000000 1.000000 1.000000
1.000000 1.000000 1.000000
1.000000 1.000000 1.000000
1.000000 1.000000 0.000000
1.000000 1.000000 0.574671
1.000000 1.000000 0.950200
1.000000 1.000000 1.000000
1.000000 1.000000 1.000000
1.000000 1.000000 1.000000
1.000000 1.000000 1.000000
1.000000 1.000000 1.000000
1.000000 1.000000 1.000000
1.000000 1.000000 0.000000
1.000000 1.000000 0.263525
1.000000 1.000000 0.684520
1.000000 1.000000 0.970557
1.000000 1.000000 1.000000
1.000000 1.000000 1.000000
1.000000 1.000000 1.000000
1.000000 1.000000 1.000000
1.000000 0.801698 1.000000
1.000000 1.000000 0.000000
1.000000 1.000000 0.000000
1.000000 1.000000 0.007178
1.000000 1.000000 0.258498
1.000000 1.000000 0.486378
1.000000 1.000000 0.827019
1.000000 1.000000 1.000000
0.862582 0.620643 1.000000
0.591926 0.000000 1.000000
1.000000 1.000000 0.000000
1.000000 1.000000 0.000000
1.000000 1.000000 0.000000
1.000000 1.000000 0.000000
1.000000 1.000000 0.000000
0.961235 1.000000 0.000000
0.212597 0.443288 0.000000
0.000000 0.000000 0.149692
0.000000 0.000000 1.000000
1.000000 1.000000 0.000000
1.000000 1.000000 0.000000
1.000000 1.000000 0.000000
1.000000 1.000000 0.000000
1.000000 1.000000 0.000000
0.209604 0.315199 0.000000
0.000000 0.000000 0.000000
0.000000 0.000000 0.000000
0.000000 0.000000 0.000000
0.128731 0.000000 0.072302
0.372057 0.000000 0.584290
0.556129 0.000000 0.815754
0.769740 0.280081 0.961693
1.000000 0.661215 1.000000
1.000000 1.000000 1.000000
1.000000 1.000000 1.000000
1.000000 1.000000 1.000000
1.000000 1.000000 1.000000
0.324518 0.000000 0.126400
0.636421 0.152682 0.781272
0.880952 0.437863 1.000000
1.000000 0.761630 1.000000
1.000000 1.000000 1.000000
1.000000 1.000000 1.000000
1.000000 1.000000 1.000000
1.000000 1.000000 1.000000
1.000000 1.000000 1.000000
0.537707 0.276048 0.195984
0.921034 0.593486 0.989105
1.000000 0.900676 1.000000
1.000000 1.000000 1.000000
1.000000 1.000000 1.000000
1.000000 1.000000 1.000000
1.000000 1.000000 1.000000
1.000000 1.000000 1.000000
1.000000 1.000000 1.000000
0.821827 0.681133 0.193046
1.000000 1.000000 1.000000
1.000000 1.000000 1.000000
1.000000 1.000000 1.000000
1.000000 1.000000 1.000000
1.000000 1.000000 1.000000
1.000000 1.000000 1.000000
1.000000 1.000000 1.000000
1.000000 1.000000 1.000000
1.000000 1.000000 0.016316
1.000000 1.000000 1.000000
1.000000 1.000000 1.000000
1.000000 1.000000 1.000000
1.000000 1.000000 1.000000
1.000000 1.000000 1.000000
1.000000 1.000000 1.000000
1.000000 1.000000 1.000000
1.000000 1.000000 1.000000
1.000000 1.000000 0.000000
1.000000 1.000000 0.672250
1.000000 1.000000 1.000000
1.000000 1.000000 1.000000
1.000000 1.000000 1.000000
1.000000 1.000000 1.000000
1.000000 1.000000 1.000000
1.000000 1.000000 1.000000
1.000000 1.000000 1.000000
1.000000 1.000000 0.000000
1.000000 1.000000 0.000000
1.000000 1.000000 0.616729
1.000000 1.000000 1.000000
1.000000 1.000000 1.000000
1.000000 1.000000 1.000000
1.000000 1.000000 1.000000
1.000000 1.000000 1.000000
1.000000 1.000000 1.000000
1.000000 1.000000 0.000000
1.000000 1.000000 0.000000
1.000000 1.000000 0.000000
1.000000 1.000000 0.000000
1.000000 1.000000 0.079023
1.000000 1.000000 0.584663
1.000000 1.000000 1.000000
1.000000 1.000000 1.000000
1.000000 0.910286 1.000000
1.000000 1.000000 0.000000
1.000000 1.000000 0.000000
1.000000 1.000000 0.000000
1.000000 1.000000 0.000000
1.000000 1.000000 0.000000
1.000000 1.000000 0.000000
1.000000 1.000000 0.000000
0.138751 0.429685 0.000000
0.000000 0.000000 0.289012
0.000000 0.000000 0.018048
0.000000 0.000000 1.000000
0.098280 0.000000 1.000000
0.674221 0.221004 1.000000
1.000000 0.994888 1.000000
1.000000 1.000000 1.000000
1.000000 1.000000 1.000000
1.000000 1.000000 1.000000
1.000000 1.000000 1.000000
0.000000 0.000000 0.252898
0.043095 0.000000 1.000000
0.692715 0.273786 1.000000
1.000000 0.991600 1.000000
1.000000 1.000000 1.000000
1.000000 1.000000 1.000000
1.000000 1.000000 1.000000
1.000000 1.000000 1.000000
1.000000 1.000000 1.000000
0.000000 0.000000 0.460992
0.587871 0.302625 1.000000
1.000000 1.000000 1.000000
1.000000 1.000000 1.000000
1.000000 1.000000 1.000000
1.000000 1.000000 1.000000
1.000000 1.000000 1.000000
1.000000 1.000000 1.000000
1.000000 1.000000 1.000000
0.282261 0.235699 0.546675
1.000000 1.000000 1.000000
1.000000 1.000000 1.000000
1.000000 1.000000 1.000000
1.000000 1.000000 1.000000
1.000000 1.000000 1.000000
1.000000 1.000000 1.000000
1.000000 1.000000 1.000000
1.000000 1.000000 1.000000
0.930457 0.923398 0.401030
1.000000 1.000000 1.000000
1.000000 1.000000 1.000000
1.000000 1.000000 1.000000
1.000000 1.000000 1.000000
1.000000 1.000000 1.000000
1.000000 1.000000 1.000000
1.000000 1.000000 1.000000
1.000000 1.000000 1.000000
1.000000 1.000000 0.000000
1.000000 1.000000 1.000000
1.000000 1.000000 1.000000
1.000000 1.000000 1.000000
1.000000 1.000000 1.000000
1.000000 1.000000 1.000000
1.000000 1.000000 1.000000
1.000000 1.000000 1.000000
1.000000 1.000000 1.000000
1.000000 1.000000 0.000000
1.000000 1.000000 0.639626
1.000000 1.000000 1.000000
1.000000 1.000000 1.000000
1.000000 1.000000 1.000000
1.000000 1.000000 1.000000
1.000000 1.000000 1.000000
1.000000 1.000000 1.000000
1.000000 1.000000 1.000000
1.000000 1.000000 0.000000
1.000000 1.000000 0.000000
1.000000 1.000000 0.263471
1.000000 1.000000 1.000000
1.000000 1.000000 1.000000
1.000000 1.000000 1.000000
1.000000 1.000000 1.000000
1.000000 1.000000 1.000000
1.000000 1.000000 1.000000
1.000000 1.000000 0.000000
1.000000 1.000000 0.000000
1.000000 1.000000 0.000000
1.000000 1.000000 0.000000
1.000000 1.000000 0.000000
1.000000 1.000000 0.000000
1.000000 1.000000 0.973274
1.000000 1.000000 1.000000
1.000000 1.000000 1.000000
