lrplugin/MindfulLensFilmEngine.lrplugin/profiles/luts/redscale_ultra_cc.cube
# Generated from ColorChecker fit
LUT_3D_SIZE 9
DOMAIN_MIN 0.0 0.0 0.0
DOMAIN_MAX 1.0 1.0 1.0
0.000000 0.000000 0.000000
0.000000 0.000000 0.000000
0.000000 0.000000 0.086560
0.000000 0.000000 0.248910
0.000000 0.000000 0.296834
0.000000 0.000000 0.162297
0.000000 0.000000 0.000000
0.000000 0.000000 0.000000
0.000000 0.000000 0.000000
0.000000 0.000000 0.000000
0.000000 0.000000 0.000000
0.000000 0.000000 0.000000
0.000000 0.000000 0.000000
0.000000 0.000000 0.125642
0.000000 0.000000 0.086959
0.000000 0.000000 0.000000
0.000000 0.000000 0.000000
0.000000 0.000000 0.000000
0.000000 0.000000 0.000000
0.000000 0.000000 0.000000
0.000000 0.000000 0.000000
0.000000 0.000000 0.000000
0.000000 0.000000 0.000000
0.000000 0.000000 0.000000
0.000000 0.000000 0.000000
0.000000 0.000000 0.000000
0.000000 0.000000 0.000000
0.000000 0.000000 0.000000
0.000000 0.000000 0.000000
0.000000 0.000000 0.000000
0.000000 0.000000 0.000000
0.000000 0.000000 0.000000
0.000000 0.000000 0.000000
0.000000 0.000000 0.000000
0.000000 0.000000 0.000000
0.000000 0.000000 0.000000
0.000000 0.000000 0.000000
0.000000 0.000000 0.000000
0.000000 0.000000 0.000000
0.000000 0.000000 0.000000
0.000000 0.000000 0.000000
0.000000 0.000000 0.000000
0.000000 0.000000 0.000000
0.000000 0.000000 0.000000
0.000000 0.000000 0.000000
0.000000 0.000000 0.000000
0.000000 0.000000 0.000000
0.000000 0.000000 0.000000
0.000000 0.000000 0.000000
0.000000 0.000000 0.000000
0.000000 0.000000 0.000000
0.000000 0.000000 0.000000
0.000000 0.000000 0.000000
0.000000 0.000000 0.000000
0.000000 0.000000 0.000000
0.000000 0.000000 0.000000
0.000000 0.000000 0.000000
0.000000 0.000000 0.000000
0.000000 0.000000 0.000000
0.000000 0.000000 0.000000
0.000000 0.000000 0.000000
0.000000 0.000000 0.000000
0.000000 0.000000 0.000000
0.000000 0.000000 0.000000
0.000000 0.000000 0.000000
0.000000 0.000000 0.000000
0.000000 0.000000 0.000000
0.000000 0.000000 0.000000
0.000000 0.000000 0.434542
0.000000 0.000000 1.000000
0.000000 0.000000 1.000000
0.000000 0.000000 1.000000
0.000000 0.000000 0.000000
0.000000 0.000000 0.000000
0.000000 0.000000 0.000000
0.000000 0.000000 0.000000
0.000000 0.000000 1.000000
0.000000 0.000000 1.000000
0.000000 0.000000 1.000000
0.000000 0.000000 1.000000
0.000000 0.000000 1.000000
0.088426 0.071554 0.000000
0.000000 0.000000 0.150512
0.000000 0.000000 0.317164
0.000000 0.000000 0.445686
0.000000 0.000000 0.492004
0.000000 0.000000 0.395048
0.000000 0.000000 0.076751
0.000000 0.000000 0.000000
0.000000 0.000000 0.000000
0.000000 0.000000 0.000000
0.000000 0.000000 0.000000
0.000000 0.000000 0.101931
0.000000 0.000000 0.332226
0.000000 0.000000 0.482620
0.000000 0.000000 0.484182
0.000000 0.000000 0.250983
0.000000 0.000000 0.000000
0.000000 0.000000 0.000000
0.000000 0.000000 0.000000
0.000000 0.000000 0.000000
0.000000 0.000000 0.000000
0.000000 0.000000 0.052079
0.000000 0.000000 0.286415
0.000000 0.000000 0.370944
0.000000 0.000000 0.211880
0.000000 0.000000 0.000000
0.000000 0.000000 0.000000
0.000000 0.000000 0.000000
0.000000 0.000000 0.000000
0.000000 0.000000 0.000000
0.000000 0.000000 0.000000
0.000000 0.000000 0.000000
0.000000 0.000000 0.131478
0.000000 0.000000 0.057289
0.000000 0.000000 0.000000
0.000000 0.000000 0.000000
0.000000 0.000000 0.000000
0.000000 0.000000 0.000000
0.000000 0.000000 0.000000
0.000000 0.000000 0.000000
0.000000 0.000000 0.000000
0.000000 0.000000 0.000000
0.000000 0.000000 0.000000
0.000000 0.000000 0.000000
0.000000 0.000000 0.000000
0.000000 0.000000 0.000000
0.000000 0.000000 0.000000
0.000000 0.000000 0.000000
0.000000 0.000000 0.000000
0.000000 0.000000 0.000000
0.000000 0.000000 0.000000
0.000000 0.000000 0.104269
0.000000 0.000000 0.000000
0.000000 0.000000 0.000000
0.000000 0.000000 0.000000
0.000000 0.000000 0.000000
0.000000 0.000000 0.000000
0.000000 0.000000 0.000000
0.000000 0.000000 0.000000
0.000000 0.000000 0.350821
0.000000 0.000000 0.812768
0.000000 0.000000 0.899406
0.000000 0.000000 0.451512
0.000000 0.000000 0.000000
0.000000 0.000000 0.000000
0.000000 0.000000 0.000000
0.000000 0.000000 0.000000
0.000000 0.000000 0.586943
0.000000 0.000000 1.000000
0.000000 0.000000 1.000000
0.000000 0.000000 1.000000
0.000000 0.000000 1.000000
0.000000 0.000000 0.000000
0.000000 0.000000 0.000000
0.000000 0.000000 0.000000
0.000000 0.000000 1.000000
0.000000 0.000000 1.000000
0.000000 0.000000 1.000000
0.000000 0.000000 1.000000
0.000000 0.000000 1.000000
0.000000 0.000000 1.000000
0.314747 0.372785 0.223843
0.199742 0.230290 0.308819
0.077426 0.067708 0.394911
0.000000 0.000000 0.462005
0.000000 0.000000 0.472995
0.000000 0.000000 0.373774
0.000000 0.000000 0.093242
0.000000 0.000000 0.000000
0.000000 0.000000 0.000000
0.062878 0.032479 0.000000
0.078222 0.046189 0.125475
0.082747 0.057362 0.309267
0.082878 0.050153 0.482730
0.049944 0.000000 0.600894
0.000000 0.000000 0.601793
0.000000 0.000000 0.406467
0.000000 0.000000 0.000000
0.000000 0.000000 0.000000
0.000000 0.000000 0.000000
0.000000 0.000000 0.000000
0.000000 0.000000 0.110539
0.000000 0.066093 0.360630
0.012860 0.112604 0.560814
0.000000 0.000000 0.641265
0.000000 0.000000 0.515159
0.000000 0.000000 0.078678
0.000000 0.000000 0.000000
0.000000 0.000000 0.000000
0.000000 0.000000 0.000000
0.000000 0.000000 0.000000
0.000000 0.000000 0.113788
0.000000 0.051938 0.392544
0.000000 0.021293 0.553682
0.000000 0.000000 0.502518
0.000000 0.000000 0.127373
0.000000 0.000000 0.000000
0.000000 0.000000 0.000000
0.000000 0.000000 0.000000
0.000000 0.000000 0.000000
0.000000 0.000000 0.000000
0.000000 0.000000 0.198117
0.000000 0.000000 0.462785
0.000000 0.000000 0.513991
0.000000 0.000000 0.232195
0.000000 0.000000 0.000000
0.000000 0.000000 0.000000
0.000000 0.000000 0.000000
0.000000 0.000000 0.000000
0.000000 0.000000 0.000000
0.000000 0.000000 0.141813
0.000000 0.000000 0.554560
0.000000 0.000000 0.757270
0.000000 0.000000 0.622541
0.000000 0.000000 0.005976
0.000000 0.000000 0.000000
0.000000 0.000000 0.000000
0.000000 0.000000 0.000000
0.000000 0.000000 0.000000
0.000000 0.000000 0.450161
0.000000 0.000000 1.000000
0.000000 0.000000 1.000000
0.000000 0.000000 1.000000
0.000000 0.000000 1.000000
0.000000 0.000000 0.000000
0.000000 0.000000 0.000000
0.000000 0.000000 0.000000
0.000000 0.000000 0.419245
0.000000 0.000000 1.000000
0.000000 0.000000 1.000000
0.000000 0.128199 1.000000
0.000000 0.000000 1.000000
0.000000 0.000000 1.000000
0.000000 0.000000 0.000000
0.000000 0.000000 0.000000
0.000000 0.000000 0.697645
0.000000 0.000000 1.000000
0.000000 0.000000 1.000000
0.000000 0.309260 1.000000
0.000000 1.000000 1.000000
0.000000 1.000000 1.000000
0.000000 0.704964 1.000000
0.454482 0.527430 0.359307
0.297208 0.341466 0.352020
0.157291 0.159036 0.351892
0.062476 0.000000 0.345779
0.005411 0.000000 0.303537
0.000000 0.000000 0.178025
0.000000 0.000000 0.000000
0.000000 0.000000 0.000000
0.000000 0.000000 0.000000
0.285959 0.306781 0.187180
0.256023 0.264508 0.267590
0.235628 0.238167 0.370193
0.242239 0.219174 0.473981
0.258219 0.156774 0.540950
0.230839 0.000000 0.516100
0.072270 0.000000 0.327434
0.000000 0.000000 0.000000
0.000000 0.000000 0.000000
0.078211 0.153086 0.013333
0.134668 0.193953 0.137512
0.192679 0.265031 0.303501
0.259423 0.350150 0.482431
0.306985 0.390971 0.628437
0.272351 0.286988 0.678660
0.057413 0.000000 0.553241
0.000000 0.000000 0.155326
0.000000 0.000000 0.000000
0.000000 0.000000 0.000000
0.000000 0.040344 0.000000
0.000000 0.180229 0.133544
0.107881 0.342727 0.374563
0.169629 0.461915 0.591139
0.110174 0.429703 0.712550
0.000000 0.095832 0.651078
0.000000 0.000000 0.302010
0.000000 0.000000 0.000000
0.000000 0.000000 0.000000
0.000000 0.000000 0.000000
0.000000 0.000000 0.000000
0.000000 0.199746 0.216056
0.000000 0.402506 0.516440
0.000000 0.449148 0.726863
0.000000 0.181830 0.751747
0.000000 0.000000 0.478516
0.000000 0.000000 0.000000
0.000000 0.000000 0.000000
0.000000 0.000000 0.000000
0.000000 0.000000 0.000000
0.000000 0.000000 0.134838
0.000000 0.277824 0.553973
0.000000 0.440463 0.892937
0.000000 0.278719 1.000000
0.000000 0.000000 0.899597
0.000000 0.000000 0.309425
0.000000 0.000000 0.000000
0.000000 0.000000 0.000000
0.000000 0.000000 0.000000
0.000000 0.000000 0.321081
0.000000 0.185132 0.915618
0.000000 0.530968 1.000000
0.000000 0.543877 1.000000
0.000000 0.008681 1.000000
0.000000 0.000000 1.000000
0.000000 0.000000 0.000000
0.000000 0.000000 0.000000
0.000000 0.000000 0.234231
0.000000 0.000000 1.000000
0.000000 0.253874 1.000000
0.000000 0.880165 1.000000
0.000000 1.000000 1.000000
0.000000 0.891213 1.000000
0.000000 0.000000 1.000000
0.000000 0.000000 0.000000
0.000000 0.000000 0.516848
0.000000 0.000000 1.000000
0.000000 0.000000 1.000000
0.000000 0.645676 1.000000
0.000000 1.000000 1.000000
0.000000 1.000000 1.000000
0.000000 1.000000 1.000000
0.000000 1.000000 1.000000
0.520474 0.543700 0.393537
0.314956 0.311880 0.310270
0.145745 0.099425 0.234086
0.051621 0.000000 0.158804
0.036272 0.000000 0.061245
0.068283 0.000000 0.000000
0.081148 0.000000 0.000000
0.000000 0.000000 0.000000
0.000000 0.000000 0.000000
0.405828 0.407162 0.287031
0.323335 0.305277 0.296926
0.265023 0.230003 0.327440
0.259392 0.180017 0.364531
0.299848 0.111824 0.377160
0.344695 0.000000 0.317292
0.317144 0.000000 0.119896
0.105307 0.000000 0.000000
0.000000 0.000000 0.000000
0.293536 0.381333 0.216148
0.292813 0.349905 0.270256
0.303974 0.354216 0.363104
0.345238 0.385355 0.472789
0.399725 0.392244 0.560412
0.415460 0.281638 0.570077
0.305373 0.000000 0.428891
0.000000 0.000000 0.046967
0.000000 0.000000 0.000000
0.102130 0.340719 0.104555
0.165996 0.350329 0.175633
0.229273 0.406685 0.308157
0.299900 0.493289 0.472363
0.350715 0.551480 0.621492
0.319462 0.480428 0.691786
0.108787 0.137133 0.602493
0.000000 0.000000 0.255863
0.000000 0.000000 0.000000
0.000000 0.192008 0.000000
0.000000 0.243296 0.020677
0.038698 0.354214 0.191926
0.145227 0.500682 0.414286
0.198736 0.616453 0.633138
0.126688 0.593110 0.776864
0.000000 0.280071 0.756851
0.000000 0.000000 0.467488
0.000000 0.000000 0.000000
0.000000 0.000000 0.000000
0.000000 0.000000 0.000000
0.000000 0.195789 0.105981
0.000000 0.436577 0.411836
0.020814 0.646263 0.730336
0.000000 0.708845 0.982003
0.000000 0.466158 1.000000
0.000000 0.000000 0.881946
0.000000 0.000000 0.286284
0.000000 0.000000 0.000000
0.000000 0.000000 0.000000
0.000000 0.000000 0.204141
0.000000 0.362200 0.640537
0.000000 0.732194 1.000000
0.000000 0.948975 1.000000
0.000000 0.846792 1.000000
0.000000 0.217723 1.000000
0.000000 0.000000 1.000000
0.000000 0.000000 0.000000
0.000000 0.000000 0.203694
0.000000 0.000000 0.702473
0.000000 0.370957 1.000000
0.050767 0.997711 1.000000
0.134182 1.000000 1.000000
0.000000 1.000000 1.000000
0.000000 1.000000 1.000000
0.000000 0.000000 1.000000
0.000000 0.000000 0.621509
0.000000 0.000000 1.000000
0.000000 0.000000 1.000000
0.000000 0.588436 1.000000
0.568222 1.000000 1.000000
0.876308 1.000000 1.000000
0.734377 1.000000 1.000000
0.000000 1.000000 1.000000
0.000000 1.000000 1.000000
0.546574 0.456792 0.354755
0.303138 0.201704 0.227613
0.109236 0.000000 0.101353
0.014688 0.000000 0.000000
0.034216 0.000000 0.000000
0.147447 0.000000 0.000000
0.298910 0.000000 0.000000
0.398037 0.000000 0.000000
0.319163 0.000000 0.000000
0.455693 0.367311 0.283860
0.329664 0.227160 0.254282
0.236734 0.116510 0.237627
0.216444 0.041296 0.226817
0.273233 0.000000 0.197780
0.376445 0.000000 0.109445
0.460329 0.000000 0.000000
0.424035 0.000000 0.000000
0.131616 0.000000 0.000000
0.408687 0.430891 0.285139
0.358502 0.347273 0.299157
0.324811 0.297131 0.342722
0.336870 0.278815 0.400898
0.388838 0.248506 0.441749
0.439777 0.120219 0.416346
0.413653 0.000000 0.258761
0.199335 0.000000 0.000000
0.000000 0.000000 0.000000
0.320979 0.516059 0.267612
0.329148 0.460629 0.292963
0.337030 0.444528 0.369072
0.363599 0.458523 0.473139
0.392734 0.451209 0.565371
0.373214 0.329016 0.588976
0.218724 0.000000 0.470166
0.000000 0.000000 0.118158
0.000000 0.000000 0.000000
0.139099 0.523524 0.202544
0.212200 0.497993 0.228673
0.268059 0.519526 0.331353
0.315370 0.571302 0.479925
0.327729 0.594334 0.626736
0.243635 0.487467 0.707132
0.000000 0.107377 0.639465
0.000000 0.000000 0.325091
0.000000 0.000000 0.000000
0.000000 0.386177 0.123446
0.009364 0.422315 0.161502
0.143675 0.515131 0.306489
0.242029 0.640218 0.519887
0.267739 0.731005 0.746180
0.149024 0.678750 0.912857
0.000000 0.332548 0.930407
0.000000 0.000000 0.692326
0.000000 0.000000 0.075112
0.000000 0.069089 0.126076
0.000000 0.228725 0.208916
0.020759 0.456531 0.433651
0.224526 0.720517 0.753901
0.317785 0.946524 1.000000
0.218472 1.000000 1.000000
0.000000 0.777139 1.000000
0.000000 0.022595 1.000000
0.000000 0.000000 0.974808
0.000000 0.000000 0.368439
0.000000 0.000000 0.550627
0.000000 0.401096 0.914257
0.374920 0.899626 1.000000
0.613994 1.000000 1.000000
0.612176 1.000000 1.000000
0.242023 1.000000 1.000000
0.000000 1.000000 1.000000
0.000000 0.000000 1.000000
0.000000 0.000000 1.000000
0.000000 0.000000 1.000000
0.162391 0.438377 1.000000
0.836374 1.000000 1.000000
1.000000 1.000000 1.000000
1.000000 1.000000 1.000000
1.000000 1.000000 1.000000
0.462969 1.000000 1.000000
0.000000 1.000000 1.000000
0.587645 0.328889 0.285069
0.332914 0.098096 0.161975
0.135225 0.000000 0.027439
0.055434 0.000000 0.000000
0.119302 0.000000 0.000000
0.317493 0.000000 0.000000
0.605574 0.000000 0.000000
0.904014 0.000000 0.000000
1.000000 0.000000 0.000000
0.489771 0.247902 0.216528
0.345525 0.115808 0.194339
0.237578 0.008313 0.171254
0.216506 0.000000 0.147160
0.297786 0.000000 0.104949
0.461802 0.000000 0.010517
0.653837 0.000000 0.000000
0.784081 0.000000 0.000000
0.727624 0.000000 0.000000
0.477236 0.360925 0.255924
0.401606 0.270199 0.275653
0.341358 0.202895 0.309613
0.336788 0.164622 0.349833
0.393090 0.118823 0.371345
0.480367 0.000000 0.332182
0.533620 0.000000 0.173384
0.452756 0.000000 0.000000
0.102586 0.000000 0.000000
0.462354 0.530507 0.297628
0.437540 0.453876 0.321991
0.407018 0.401369 0.380300
0.400802 0.371011 0.456723
0.413807 0.318660 0.518428
0.405850 0.158004 0.515591
0.301654 0.000000 0.381390
0.000000 0.000000 0.032005
0.000000 0.000000 0.000000
0.388547 0.651377 0.298257
0.420817 0.591626 0.311679
0.426118 0.558581 0.383346
0.424179 0.542682 0.489563
0.399635 0.492202 0.589641
0.302021 0.313245 0.625893
0.045777 0.000000 0.523636
0.000000 0.000000 0.191192
0.000000 0.000000 0.000000
0.230340 0.650446 0.276675
0.350035 0.640419 0.285286
0.421323 0.661559 0.381025
0.453654 0.696721 0.532337
0.421380 0.686593 0.690671
0.263754 0.529696 0.790482
0.000000 0.082382 0.749224
0.000000 0.000000 0.467358
0.000000 0.000000 0.000000
0.000000 0.486808 0.313991
0.254894 0.589405 0.345628
0.446406 0.729511 0.497860
0.567069 0.882394 0.731273
0.580953 0.981159 0.989456
0.417030 0.916741 1.000000
0.000000 0.537907 1.000000
0.000000 0.000000 1.000000
0.000000 0.000000 0.546777
0.000000 0.151737 0.553563
0.196205 0.459918 0.657768
0.586246 0.813828 0.920622
0.873372 1.000000 1.000000
1.000000 1.000000 1.000000
0.918937 1.000000 1.000000
0.479661 1.000000 1.000000
0.000000 0.662432 1.000000
0.000000 0.000000 1.000000
0.000000 0.000000 1.000000
0.265882 0.305470 1.000000
0.956826 0.998081 1.000000
1.000000 1.000000 1.000000
1.000000 1.000000 1.000000
1.000000 1.000000 1.000000
1.000000 1.000000 1.000000
0.727924 1.000000 1.000000
0.000000 1.000000 1.000000
0.719558 0.249158 0.240470
0.496456 0.115198 0.185165
0.332182 0.001353 0.099973
0.298630 0.000000 0.000000
0.432598 0.000000 0.000000
0.735789 0.000000 0.000000
1.000000 0.000000 0.000000
1.000000 0.000000 0.000000
1.000000 0.000000 0.000000
0.583286 0.136595 0.137784
0.462444 0.083854 0.185665
0.375379 0.043020 0.212707
0.383702 0.034547 0.225763
0.513931 0.036721 0.214691
0.757486 0.000000 0.152351
1.000000 0.000000 0.000000
1.000000 0.000000 0.000000
1.000000 0.000000 0.000000
0.573762 0.257588 0.178007
0.513003 0.229809 0.265066
0.460794 0.207608 0.344918
0.468468 0.203853 0.416557
0.552260 0.189248 0.461980
0.693306 0.092327 0.446185
0.837647 0.000000 0.317178
0.896229 0.000000 0.005964
0.744898 0.000000 0.000000
0.600191 0.468707 0.240862
0.581405 0.439690 0.324796
0.545772 0.411801 0.419741
0.534341 0.390324 0.516830
0.553066 0.338377 0.590199
0.572801 0.176910 0.596988
0.529307 0.000000 0.477338
0.323245 0.000000 0.154397
0.000000 0.000000 0.000000
0.602882 0.658703 0.268319
0.632032 0.632306 0.328531
0.618762 0.604466 0.422558
0.593841 0.572884 0.533671
0.552939 0.493092 0.628145
0.456631 0.278456 0.655259
0.230394 0.000000 0.547295
0.000000 0.000000 0.219538
0.000000 0.000000 0.000000
0.553255 0.748507 0.264592
0.660370 0.758646 0.302194
0.699321 0.766651 0.400998
0.690593 0.762639 0.536414
0.619575 0.694558 0.666857
0.436561 0.468187 0.733746
0.056745 0.000000 0.661501
0.000000 0.000000 0.357549
0.000000 0.000000 0.000000
0.453830 0.691233 0.296145
0.693012 0.801882 0.333953
0.838110 0.911587 0.464934
0.899329 1.000000 0.656640
0.851776 1.000000 0.859623
0.635462 0.849506 1.000000
0.155300 0.359065 1.000000
0.000000 0.000000 0.786834
0.000000 0.000000 0.200539
0.338239 0.472177 0.491685
0.787657 0.777369 0.574222
1.000000 1.000000 0.786489
1.000000 1.000000 1.000000
1.000000 1.000000 1.000000
1.000000 1.000000 1.000000
0.704107 1.000000 1.000000
0.000000 0.300370 1.000000
0.000000 0.000000 1.000000
0.271217 0.108815 1.000000
1.000000 0.732640 1.000000
1.000000 1.000000 1.000000
1.000000 1.000000 1.000000
1.000000 1.000000 1.000000
1.000000 1.000000 1.000000
1.000000 1.000000 1.000000
0.938238 1.000000 1.000000
0.000000 0.517928 1.000000
1.000000 0.333751 0.290832
0.906943 0.394138 0.382879
0.829585 0.459307 0.420468
0.890052 0.564559 0.425280
1.000000 0.703026 0.401998
1.000000 0.825673 0.338308
1.000000 0.841297 0.204899
1.000000 0.616528 0.000000
1.000000 0.000000 0.000000
0.832475 0.148034 0.114258
0.792956 0.270920 0.310709
0.778969 0.385228 0.460256
0.863166 0.518673 0.576717
1.000000 0.656804 0.656915
1.000000 0.742999 0.680675
1.000000 0.678471 0.610827
1.000000 0.322267 0.393204
1.000000 0.000000 0.000000
0.793856 0.234016 0.114775
0.804583 0.364216 0.346602
0.811308 0.474358 0.543663
0.876400 0.584571 0.711914
1.000000 0.672818 0.840317
1.000000 0.674894 0.900838
1.000000 0.484428 0.848446
1.000000 0.000000 0.621112
1.000000 0.000000 0.139813
0.829433 0.442289 0.157458
0.871988 0.554676 0.377340
0.880834 0.637403 0.579176
0.908058 0.703015 0.761064
0.970651 0.721891 0.904105
1.000000 0.622240 0.972404
1.000000 0.290105 0.913069
1.000000 0.000000 0.656211
0.686133 0.000000 0.114946
0.876406 0.655623 0.169628
0.956443 0.755128 0.351948
0.972889 0.817252 0.537529
0.967551 0.846954 0.716608
0.947137 0.807027 0.862425
0.883260 0.618098 0.931225
0.712434 0.158623 0.862255
0.336078 0.000000 0.577766
0.000000 0.000000 0.000000
0.903083 0.788972 0.140854
1.000000 0.910584 0.281702
1.000000 0.988973 0.451702
1.000000 1.000000 0.633232
1.000000 0.963412 0.791670
0.842594 0.727711 0.875400
0.485882 0.185284 0.815809
0.000000 0.000000 0.527287
0.000000 0.000000 0.000000
0.908877 0.789469 0.122949
1.000000 0.998237 0.240122
1.000000 1.000000 0.416923
1.000000 1.000000 0.627870
1.000000 1.000000 0.830479
1.000000 1.000000 0.965275
0.558598 0.497571 0.955784
0.000000 0.000000 0.708534
0.000000 0.000000 0.113060
0.924309 0.636433 0.229974
1.000000 1.000000 0.362975
1.000000 1.000000 0.590665
1.000000 1.000000 0.879700
1.000000 1.000000 1.000000
1.000000 1.000000 1.000000
1.000000 1.000000 1.000000
0.109438 0.240293 1.000000
0.000000 0.000000 0.888218
1.000000 0.341359 0.638237
1.000000 1.000000 0.848275
1.000000 1.000000 1.000000
1.000000 1.000000 1.000000
1.000000 1.000000 1.000000
1.000000 1.000000 1.000000
1.000000 1.000000 1.000000
1.000000 1.000000 1.000000
0.000000 0.170748 1.000000
