lrplugin/MindfulLensFilmEngine.lrplugin/profiles/luts/redscale_ultra.cube
# Generated from ColorChecker fit
LUT_3D_SIZE 9
DOMAIN_MIN 0.0 0.0 0.0
DOMAIN_MAX 1.0 1.0 1.0
0.000000 0.000000 0.000000
0.000000 0.000000 0.000000
0.000000 0.000000 0.086468
0.000000 0.000000 0.248880
0.000000 0.000000 0.296912
0.000000 0.000000 0.162508
0.000000 0.000000 0.000000
0.000000 0.000000 0.000000
0.000000 0.000000 0.000000
0.000000 0.000000 0.000000
0.000000 0.000000 0.000000
0.000000 0.000000 0.000000
0.000000 0.000000 0.000000
0.000000 0.000000 0.125551
0.000000 0.000000 0.086916
0.000000 0.000000 0.000000
0.000000 0.000000 0.000000
0.000000 0.000000 0.000000
0.000000 0.000000 0.000000
0.000000 0.000000 0.000000
0.000000 0.000000 0.000000
0.000000 0.000000 0.000000
0.000000 0.000000 0.000000
0.000000 0.000000 0.000000
0.000000 0.000000 0.000000
0.000000 0.000000 0.000000
0.000000 0.000000 0.000000
0.000000 0.000000 0.000000
0.000000 0.000000 0.000000
0.000000 0.000000 0.000000
0.000000 0.000000 0.000000
0.000000 0.000000 0.000000
0.000000 0.000000 0.000000
0.000000 0.000000 0.000000
0.000000 0.000000 0.000000
0.000000 0.000000 0.000000
0.000000 0.000000 0.000000
0.000000 0.000000 0.000000
0.000000 0.000000 0.000000
0.000000 0.000000 0.000000
0.000000 0.000000 0.000000
0.000000 0.000000 0.000000
0.000000 0.000000 0.000000
0.000000 0.000000 0.000000
0.000000 0.000000 0.000000
0.000000 0.000000 0.000000
0.000000 0.000000 0.000000
0.000000 0.000000 0.000000
0.000000 0.000000 0.000000
0.000000 0.000000 0.000000
0.000000 0.000000 0.000000
0.000000 0.000000 0.000000
0.000000 0.000000 0.000000
0.000000 0.000000 0.000000
0.000000 0.000000 0.000000
0.000000 0.000000 0.000000
0.000000 0.000000 0.000000
0.000000 0.000000 0.000000
0.000000 0.000000 0.000000
0.000000 0.000000 0.000000
0.000000 0.000000 0.000000
0.000000 0.000000 0.000000
0.000000 0.000000 0.000000
0.000000 0.000000 0.000000
0.000000 0.000000 0.000000
0.000000 0.000000 0.000000
0.000000 0.000000 0.000000
0.000000 0.000000 0.000000
0.000000 0.000000 0.433204
0.000000 0.000000 1.000000
0.000000 0.000000 1.000000
0.000000 0.000000 1.000000
0.000000 0.000000 0.000000
0.000000 0.000000 0.000000
0.000000 0.000000 0.000000
0.000000 0.000000 0.000000
0.000000 0.000000 1.000000
0.000000 0.000000 1.000000
0.000000 0.000000 1.000000
0.000000 0.000000 1.000000
0.000000 0.000000 1.000000
0.088362 0.071562 0.000000
0.000000 0.000000 0.150487
0.000000 0.000000 0.317128
0.000000 0.000000 0.445708
0.000000 0.000000 0.492127
0.000000 0.000000 0.395300
0.000000 0.000000 0.077155
0.000000 0.000000 0.000000
0.000000 0.000000 0.000000
0.000000 0.000000 0.000000
0.000000 0.000000 0.000000
0.000000 0.000000 0.101835
0.000000 0.000000 0.332156
0.000000 0.000000 0.482602
0.000000 0.000000 0.484223
0.000000 0.000000 0.251086
0.000000 0.000000 0.000000
0.000000 0.000000 0.000000
0.000000 0.000000 0.000000
0.000000 0.000000 0.000000
0.000000 0.000000 0.000000
0.000000 0.000000 0.051956
0.000000 0.000000 0.286294
0.000000 0.000000 0.370815
0.000000 0.000000 0.211725
0.000000 0.000000 0.000000
0.000000 0.000000 0.000000
0.000000 0.000000 0.000000
0.000000 0.000000 0.000000
0.000000 0.000000 0.000000
0.000000 0.000000 0.000000
0.000000 0.000000 0.000000
0.000000 0.000000 0.131200
0.000000 0.000000 0.056897
0.000000 0.000000 0.000000
0.000000 0.000000 0.000000
0.000000 0.000000 0.000000
0.000000 0.000000 0.000000
0.000000 0.000000 0.000000
0.000000 0.000000 0.000000
0.000000 0.000000 0.000000
0.000000 0.000000 0.000000
0.000000 0.000000 0.000000
0.000000 0.000000 0.000000
0.000000 0.000000 0.000000
0.000000 0.000000 0.000000
0.000000 0.000000 0.000000
0.000000 0.000000 0.000000
0.000000 0.000000 0.000000
0.000000 0.000000 0.000000
0.000000 0.000000 0.000000
0.000000 0.000000 0.103374
0.000000 0.000000 0.000000
0.000000 0.000000 0.000000
0.000000 0.000000 0.000000
0.000000 0.000000 0.000000
0.000000 0.000000 0.000000
0.000000 0.000000 0.000000
0.000000 0.000000 0.000000
0.000000 0.000000 0.350011
0.000000 0.000000 0.811557
0.000000 0.000000 0.897701
0.000000 0.000000 0.449225
0.000000 0.000000 0.000000
0.000000 0.000000 0.000000
0.000000 0.000000 0.000000
0.000000 0.000000 0.000000
0.000000 0.000000 0.586256
0.000000 0.000000 1.000000
0.000000 0.000000 1.000000
0.000000 0.000000 1.000000
0.000000 0.000000 1.000000
0.000000 0.000000 0.000000
0.000000 0.000000 0.000000
0.000000 0.000000 0.000000
0.000000 0.000000 1.000000
0.000000 0.000000 1.000000
0.000000 0.000000 1.000000
0.000000 0.000000 1.000000
0.000000 0.000000 1.000000
0.000000 0.000000 1.000000
0.314750 0.372909 0.223960
0.199691 0.230345 0.308831
0.077394 0.067757 0.394913
0.000000 0.000000 0.462059
0.000000 0.000000 0.473139
0.000000 0.000000 0.374034
0.000000 0.000000 0.093643
0.000000 0.000000 0.000000
0.000000 0.000000 0.000000
0.062945 0.032472 0.000000
0.078196 0.046130 0.125448
0.082695 0.057303 0.309219
0.082849 0.050123 0.482710
0.049975 0.000000 0.600926
0.000000 0.000000 0.601888
0.000000 0.000000 0.406631
0.000000 0.000000 0.000000
0.000000 0.000000 0.000000
0.000000 0.000000 0.000000
0.000000 0.000000 0.000000
0.000000 0.000000 0.110472
0.000000 0.065998 0.360569
0.012824 0.112516 0.560768
0.000000 0.000000 0.641229
0.000000 0.000000 0.515124
0.000000 0.000000 0.078640
0.000000 0.000000 0.000000
0.000000 0.000000 0.000000
0.000000 0.000000 0.000000
0.000000 0.000000 0.000000
0.000000 0.000000 0.113703
0.000000 0.051810 0.392436
0.000000 0.021082 0.553533
0.000000 0.000000 0.502302
0.000000 0.000000 0.127069
0.000000 0.000000 0.000000
0.000000 0.000000 0.000000
0.000000 0.000000 0.000000
0.000000 0.000000 0.000000
0.000000 0.000000 0.000000
0.000000 0.000000 0.197948
0.000000 0.000000 0.462520
0.000000 0.000000 0.513589
0.000000 0.000000 0.231618
0.000000 0.000000 0.000000
0.000000 0.000000 0.000000
0.000000 0.000000 0.000000
0.000000 0.000000 0.000000
0.000000 0.000000 0.000000
0.000000 0.000000 0.141566
0.000000 0.000000 0.554156
0.000000 0.000000 0.756654
0.000000 0.000000 0.621660
0.000000 0.000000 0.004788
0.000000 0.000000 0.000000
0.000000 0.000000 0.000000
0.000000 0.000000 0.000000
0.000000 0.000000 0.000000
0.000000 0.000000 0.449796
0.000000 0.000000 1.000000
0.000000 0.000000 1.000000
0.000000 0.000000 1.000000
0.000000 0.000000 1.000000
0.000000 0.000000 0.000000
0.000000 0.000000 0.000000
0.000000 0.000000 0.000000
0.000000 0.000000 0.418939
0.000000 0.000000 1.000000
0.000000 0.000000 1.000000
0.000000 0.127773 1.000000
0.000000 0.000000 1.000000
0.000000 0.000000 1.000000
0.000000 0.000000 0.000000
0.000000 0.000000 0.000000
0.000000 0.000000 0.697422
0.000000 0.000000 1.000000
0.000000 0.000000 1.000000
0.000000 0.309559 1.000000
0.000000 1.000000 1.000000
0.000000 1.000000 1.000000
0.000000 0.702839 1.000000
0.454509 0.527602 0.359423
0.297209 0.341580 0.352046
0.157320 0.159142 0.351911
0.062575 0.000000 0.345839
0.005620 0.000000 0.303670
0.000000 0.000000 0.178253
0.000000 0.000000 0.000000
0.000000 0.000000 0.000000
0.000000 0.000000 0.000000
0.286021 0.306837 0.187260
0.256024 0.264522 0.267584
0.235620 0.238180 0.370172
0.242256 0.219213 0.473987
0.258290 0.156850 0.541002
0.230992 0.000000 0.516208
0.072547 0.000000 0.327608
0.000000 0.000000 0.000000
0.000000 0.000000 0.000000
0.078324 0.153068 0.013405
0.134695 0.193908 0.137499
0.192670 0.264993 0.303468
0.259410 0.350136 0.482409
0.306986 0.390979 0.628438
0.272382 0.286990 0.678679
0.057496 0.000000 0.553275
0.000000 0.000000 0.155382
0.000000 0.000000 0.000000
0.000000 0.000000 0.000000
0.000000 0.040278 0.000000
0.000000 0.180174 0.133514
0.107883 0.342694 0.374529
0.169618 0.461890 0.591100
0.110155 0.429643 0.712494
0.000000 0.095663 0.650989
0.000000 0.000000 0.301878
0.000000 0.000000 0.000000
0.000000 0.000000 0.000000
0.000000 0.000000 0.000000
0.000000 0.000000 0.000000
0.000000 0.199726 0.216010
0.000000 0.402478 0.516360
0.000000 0.449057 0.726726
0.000000 0.181584 0.751526
0.000000 0.000000 0.478190
0.000000 0.000000 0.000000
0.000000 0.000000 0.000000
0.000000 0.000000 0.000000
0.000000 0.000000 0.000000
0.000000 0.000000 0.134765
0.000000 0.277826 0.553832
0.000000 0.440370 0.892695
0.000000 0.278425 1.000000
0.000000 0.000000 0.899042
0.000000 0.000000 0.308678
0.000000 0.000000 0.000000
0.000000 0.000000 0.000000
0.000000 0.000000 0.000000
0.000000 0.000000 0.320949
0.000000 0.185208 0.915375
0.000000 0.530911 1.000000
0.000000 0.543570 1.000000
0.000000 0.007955 1.000000
0.000000 0.000000 1.000000
0.000000 0.000000 0.000000
0.000000 0.000000 0.000000
0.000000 0.000000 0.234128
0.000000 0.000000 1.000000
0.000000 0.254087 1.000000
0.000000 0.880199 1.000000
0.000000 1.000000 1.000000
0.000000 0.890448 1.000000
0.000000 0.000000 1.000000
0.000000 0.000000 0.000000
0.000000 0.000000 0.516822
0.000000 0.000000 1.000000
0.000000 0.000000 1.000000
0.000000 0.646115 1.000000
0.000000 1.000000 1.000000
0.000000 1.000000 1.000000
0.000000 1.000000 1.000000
0.000000 1.000000 1.000000
0.520494 0.543861 0.393629
0.314978 0.311996 0.310291
0.145798 0.099523 0.234099
0.051728 0.000000 0.158845
0.036455 0.000000 0.061334
0.068577 0.000000 0.000000
0.081604 0.000000 0.000000
0.000000 0.000000 0.000000
0.000000 0.000000 0.000000
0.405864 0.407228 0.287095
0.323342 0.305313 0.296922
0.265033 0.230032 0.327426
0.259424 0.180057 0.364537
0.299915 0.111889 0.377199
0.344818 0.000000 0.317370
0.317357 0.000000 0.120022
0.105669 0.000000 0.000000
0.000000 0.000000 0.000000
0.293599 0.381340 0.216205
0.292826 0.349895 0.270248
0.303971 0.354208 0.363085
0.345236 0.385363 0.472784
0.399734 0.392271 0.560426
0.415491 0.281674 0.570107
0.305444 0.000000 0.428938
0.000000 0.000000 0.047042
0.000000 0.000000 0.000000
0.102239 0.340700 0.104622
0.166033 0.350301 0.175636
0.229281 0.406665 0.308146
0.299898 0.493288 0.472357
0.350710 0.551492 0.621491
0.319457 0.480431 0.691780
0.108790 0.137084 0.602472
0.000000 0.000000 0.255830
0.000000 0.000000 0.000000
0.000000 0.191997 0.000000
0.000000 0.243276 0.020696
0.038741 0.354203 0.191923
0.145251 0.500687 0.414278
0.198749 0.616464 0.633118
0.126686 0.593095 0.776815
0.000000 0.279974 0.756755
0.000000 0.000000 0.467338
0.000000 0.000000 0.000000
0.000000 0.000000 0.000000
0.000000 0.000000 0.000000
0.000000 0.195813 0.105977
0.000000 0.436608 0.411808
0.020864 0.646286 0.730273
0.000000 0.708822 0.981883
0.000000 0.466019 1.000000
0.000000 0.000000 0.881644
0.000000 0.000000 0.285885
0.000000 0.000000 0.000000
0.000000 0.000000 0.000000
0.000000 0.000000 0.204113
0.000000 0.362284 0.640457
0.000000 0.732249 1.000000
0.000000 0.948956 1.000000
0.000000 0.846621 1.000000
0.000000 0.217286 1.000000
0.000000 0.000000 1.000000
0.000000 0.000000 0.000000
0.000000 0.000000 0.203700
0.000000 0.000000 0.702380
0.000000 0.371142 1.000000
0.050935 0.997834 1.000000
0.134285 1.000000 1.000000
0.000000 1.000000 1.000000
0.000000 1.000000 1.000000
0.000000 0.000000 1.000000
0.000000 0.000000 0.621641
0.000000 0.000000 1.000000
0.000000 0.000000 1.000000
0.000000 0.588795 1.000000
0.568467 1.000000 1.000000
0.876448 1.000000 1.000000
0.734403 1.000000 1.000000
0.000000 1.000000 1.000000
0.000000 1.000000 1.000000
0.546571 0.456902 0.354809
0.303161 0.201784 0.227615
0.109287 0.000000 0.101346
0.014765 0.000000 0.000000
0.034322 0.000000 0.000000
0.147598 0.000000 0.000000
0.299145 0.000000 0.000000
0.398426 0.000000 0.000000
0.319818 0.000000 0.000000
0.455694 0.367348 0.283892
0.329665 0.227182 0.254266
0.236744 0.116516 0.237603
0.216460 0.041290 0.226802
0.273254 0.000000 0.197776
0.376479 0.000000 0.109451
0.460399 0.000000 0.000000
0.424193 0.000000 0.000000
0.131950 0.000000 0.000000
0.408701 0.430888 0.285167
0.358499 0.347267 0.299140
0.324805 0.297121 0.342701
0.336863 0.278803 0.400886
0.388827 0.248497 0.441745
0.439762 0.120214 0.416345
0.413648 0.000000 0.258762
0.199376 0.000000 0.000000
0.000000 0.000000 0.000000
0.321017 0.516039 0.267650
0.329151 0.460613 0.292957
0.337024 0.444517 0.369062
0.363592 0.458517 0.473139
0.392722 0.451210 0.565376
0.373195 0.329016 0.588976
0.218703 0.000000 0.470156
0.000000 0.000000 0.118146
0.000000 0.000000 0.000000
0.139180 0.523512 0.202599
0.212223 0.497982 0.228680
0.268064 0.519521 0.331354
0.315373 0.571306 0.479932
0.327732 0.594344 0.626743
0.243632 0.487470 0.707125
0.000000 0.107345 0.639434
0.000000 0.000000 0.325039
0.000000 0.000000 0.000000
0.000000 0.386202 0.123522
0.009422 0.422327 0.161519
0.143698 0.515140 0.306489
0.242045 0.640232 0.519884
0.267756 0.731018 0.746166
0.149039 0.678747 0.912816
0.000000 0.332491 0.930325
0.000000 0.000000 0.692199
0.000000 0.000000 0.074959
0.000000 0.069197 0.126167
0.000000 0.228790 0.208927
0.020809 0.456573 0.433627
0.224552 0.720547 0.753854
0.317806 0.946540 1.000000
0.218490 1.000000 1.000000
0.000000 0.777045 1.000000
0.000000 0.022356 1.000000
0.000000 0.000000 0.974489
0.000000 0.000000 0.368532
0.000000 0.000000 0.550605
0.000000 0.401206 0.914169
0.374952 0.899693 1.000000
0.614001 1.000000 1.000000
0.612168 1.000000 1.000000
0.242001 1.000000 1.000000
0.000000 1.000000 1.000000
0.000000 0.000000 1.000000
0.000000 0.000000 1.000000
0.000000 0.000000 1.000000
0.162538 0.438615 1.000000
0.836409 1.000000 1.000000
1.000000 1.000000 1.000000
1.000000 1.000000 1.000000
1.000000 1.000000 1.000000
0.462821 1.000000 1.000000
0.000000 1.000000 1.000000
0.587620 0.328929 0.285087
0.332932 0.098128 0.161959
0.135257 0.000000 0.027409
0.055451 0.000000 0.000000
0.119283 0.000000 0.000000
0.317433 0.000000 0.000000
0.605495 0.000000 0.000000
0.903973 0.000000 0.000000
1.000000 0.000000 0.000000
0.489741 0.247892 0.216529
0.345520 0.115805 0.194310
0.237579 0.008284 0.171216
0.216486 0.000000 0.147112
0.297724 0.000000 0.104882
0.461687 0.000000 0.010419
0.653681 0.000000 0.000000
0.783926 0.000000 0.000000
0.727551 0.000000 0.000000
0.477211 0.360895 0.255922
0.401593 0.270187 0.275624
0.341349 0.202872 0.309582
0.336764 0.164576 0.349801
0.393031 0.118753 0.371300
0.480260 0.000000 0.332113
0.533469 0.000000 0.173288
0.452592 0.000000 0.000000
0.102471 0.000000 0.000000
0.462342 0.530473 0.297633
0.437526 0.453865 0.321972
0.407010 0.401359 0.380284
0.400789 0.370991 0.456712
0.413774 0.318628 0.518413
0.405785 0.157962 0.515559
0.301555 0.000000 0.381335
0.000000 0.000000 0.031941
0.000000 0.000000 0.000000
0.388557 0.651352 0.298276
0.420806 0.591620 0.311671
0.426109 0.558579 0.383341
0.424175 0.542678 0.489569
0.399628 0.492194 0.589648
0.302002 0.313233 0.625888
0.045744 0.000000 0.523613
0.000000 0.000000 0.191160
0.000000 0.000000 0.000000
0.230386 0.650446 0.276709
0.350027 0.640420 0.285283
0.421306 0.661557 0.381020
0.453645 0.696717 0.532341
0.421382 0.686588 0.690678
0.263763 0.529688 0.790478
0.000000 0.082361 0.749203
0.000000 0.000000 0.467327
0.000000 0.000000 0.000000
0.000000 0.486860 0.314035
0.254894 0.589426 0.345615
0.446368 0.729508 0.497832
0.567031 0.882377 0.731244
0.580930 0.981133 0.989422
0.417028 0.916705 1.000000
0.000000 0.537850 1.000000
0.000000 0.000000 1.000000
0.000000 0.000000 0.546704
0.000000 0.151887 0.553603
0.196219 0.459986 0.657719
0.586175 0.813835 0.920532
0.873274 1.000000 1.000000
1.000000 1.000000 1.000000
0.918866 1.000000 1.000000
0.479621 1.000000 1.000000
0.000000 0.662234 1.000000
0.000000 0.000000 1.000000
0.000000 0.000000 1.000000
0.265927 0.305638 1.000000
0.956711 0.998132 1.000000
1.000000 1.000000 1.000000
1.000000 1.000000 1.000000
1.000000 1.000000 1.000000
1.000000 1.000000 1.000000
0.727776 1.000000 1.000000
0.000000 1.000000 1.000000
0.719528 0.249141 0.240473
0.496477 0.115204 0.185153
0.332191 0.001308 0.099938
0.298566 0.000000 0.000000
0.432413 0.000000 0.000000
0.735454 0.000000 0.000000
1.000000 0.000000 0.000000
1.000000 0.000000 0.000000
1.000000 0.000000 0.000000
0.583245 0.136547 0.137771
0.462444 0.083845 0.185640
0.375369 0.042980 0.212667
0.383630 0.034438 0.225689
0.513750 0.036532 0.214556
0.757165 0.000000 0.152132
1.000000 0.000000 0.000000
1.000000 0.000000 0.000000
1.000000 0.000000 0.000000
0.573723 0.257538 0.177989
0.512998 0.229808 0.265039
0.460789 0.207594 0.344886
0.468420 0.203792 0.416506
0.552127 0.189128 0.461885
0.693060 0.092155 0.446026
0.837279 0.000000 0.316945
0.895758 0.000000 0.005673
0.744383 0.000000 0.000000
0.600160 0.468666 0.240848
0.581400 0.439701 0.324774
0.545776 0.411813 0.419723
0.534325 0.390308 0.516807
0.552997 0.338324 0.590151
0.572654 0.176825 0.596895
0.529071 0.000000 0.477194
0.322936 0.000000 0.154216
0.000000 0.000000 0.000000
0.602863 0.658673 0.268313
0.632022 0.632323 0.328516
0.618766 0.604489 0.422552
0.593845 0.572893 0.533670
0.552923 0.493081 0.628135
0.456575 0.278431 0.655225
0.230291 0.000000 0.547231
0.000000 0.000000 0.219459
0.000000 0.000000 0.000000
0.553250 0.748492 0.264596
0.660345 0.758658 0.302179
0.699303 0.766664 0.400991
0.690588 0.762642 0.536419
0.619577 0.694551 0.666865
0.436561 0.468178 0.733745
0.056739 0.000000 0.661489
0.000000 0.000000 0.357540
0.000000 0.000000 0.000000
0.453846 0.691242 0.296153
0.692958 0.801884 0.333923
0.838041 0.911570 0.464903
0.899273 1.000000 0.656619
0.851743 1.000000 0.859610
0.635455 0.849464 1.000000
0.155325 0.359039 1.000000
0.000000 0.000000 0.786843
0.000000 0.000000 0.200613
0.338286 0.472235 0.491685
0.787562 0.777366 0.574153
1.000000 1.000000 0.786399
1.000000 1.000000 1.000000
1.000000 1.000000 1.000000
1.000000 1.000000 1.000000
0.704067 1.000000 1.000000
0.000000 0.300274 1.000000
0.000000 0.000000 1.000000
0.271317 0.108972 1.000000
1.000000 0.732659 1.000000
1.000000 1.000000 1.000000
1.000000 1.000000 1.000000
1.000000 1.000000 1.000000
1.000000 1.000000 1.000000
1.000000 1.000000 1.000000
0.938109 1.000000 1.000000
0.000000 0.517670 1.000000
1.000000 0.333730 0.290869
0.906992 0.394182 0.382917
0.829580 0.459298 0.420471
0.889898 0.564423 0.425197
1.000000 0.702729 0.401778
1.000000 0.825217 0.337909
1.000000 0.840717 0.204297
1.000000 0.615885 0.000000
1.000000 0.000000 0.000000
0.832459 0.147994 0.114274
0.792987 0.270960 0.310728
0.778961 0.385239 0.460250
0.863034 0.518587 0.576644
1.000000 0.656587 0.656729
1.000000 0.742652 0.680338
1.000000 0.678023 0.610318
1.000000 0.321769 0.392529
1.000000 0.000000 0.000000
0.793842 0.233986 0.114779
0.804616 0.364277 0.346613
0.811321 0.474411 0.543660
0.876325 0.584554 0.711865
1.000000 0.672703 0.840182
1.000000 0.674682 0.900584
1.000000 0.484143 0.848056
1.000000 0.000000 0.620596
1.000000 0.000000 0.139217
0.829427 0.442276 0.157458
0.872027 0.554758 0.377347
0.880873 0.637493 0.579182
0.908045 0.703061 0.761044
0.970533 0.721869 0.904027
1.000000 0.622154 0.972241
1.000000 0.289977 0.912808
1.000000 0.000000 0.655865
0.685407 0.000000 0.114563
0.876408 0.655623 0.169629
0.956477 0.755215 0.351954
0.972937 0.817354 0.537542
0.967579 0.847031 0.716612
0.947109 0.807064 0.862398
0.883143 0.618100 0.931146
0.712211 0.158615 0.862116
0.335753 0.000000 0.577584
0.000000 0.000000 0.000000
0.903087 0.788974 0.140856
1.000000 0.910654 0.281700
1.000000 0.989054 0.451711
1.000000 1.000000 0.633245
1.000000 0.963455 0.791673
0.842575 0.727745 0.875381
0.485820 0.185334 0.815766
0.000000 0.000000 0.527241
0.000000 0.000000 0.000000
0.908877 0.789469 0.122948
1.000000 0.998266 0.240099
1.000000 1.000000 0.416905
1.000000 1.000000 0.627862
1.000000 1.000000 0.830478
1.000000 1.000000 0.965275
0.558609 0.497603 0.955790
0.000000 0.000000 0.708574
0.000000 0.000000 0.113190
0.924298 0.636435 0.229960
1.000000 1.000000 0.362909
1.000000 1.000000 0.590588
1.000000 1.000000 0.879629
1.000000 1.000000 1.000000
1.000000 1.000000 1.000000
1.000000 1.000000 1.000000
0.109487 0.240311 1.000000
0.000000 0.000000 0.888393
1.000000 0.341389 0.638189
1.000000 1.000000 0.848132
1.000000 1.000000 1.000000
1.000000 1.000000 1.000000
1.000000 1.000000 1.000000
1.000000 1.000000 1.000000
1.000000 1.000000 1.000000
1.000000 1.000000 1.000000
0.000000 0.170714 1.000000
