lrplugin/MindfulLensFilmEngine.lrplugin/profiles/luts/redscale_ultra_cc.cube
# Generated from ColorChecker fit
LUT_3D_SIZE 5
DOMAIN_MIN 0.0 0.0 0.0
DOMAIN_MAX 1.0 1.0 1.0
0.000000 0.000000 0.000000
0.000000 0.000000 0.086560
0.000000 0.000000 0.296834
0.000000 0.000000 0.000000
0.000000 0.000000 0.000000
0.000000 0.000000 0.000000
0.000000 0.000000 0.000000
0.000000 0.000000 0.000000
0.000000 0.000000 0.000000
0.000000 0.000000 0.000000
0.000000 0.000000 0.000000
0.000000 0.000000 0.000000
0.000000 0.000000 0.000000
0.000000 0.000000 0.000000
0.000000 0.000000 0.000000
0.000000 0.000000 0.000000
0.000000 0.000000 0.000000
0.000000 0.000000 0.000000
0.000000 0.000000 0.000000
0.000000 0.000000 0.000000
0.000000 0.000000 0.000000
0.000000 0.000000 0.000000
0.000000 0.000000 1.000000
0.000000 0.000000 1.000000
0.000000 0.000000 1.000000
0.314747 0.372785 0.223843
0.077426 0.067708 0.394911
0.000000 0.000000 0.472995
0.000000 0.000000 0.093242
0.000000 0.000000 0.000000
0.000000 0.000000 0.000000
0.000000 0.000000 0.110539
0.012860 0.112604 0.560814
0.000000 0.000000 0.515159
0.000000 0.000000 0.000000
0.000000 0.000000 0.000000
0.000000 0.000000 0.000000
0.000000 0.000000 0.198117
0.000000 0.000000 0.513991
0.000000 0.000000 0.000000
0.000000 0.000000 0.000000
0.000000 0.000000 0.000000
0.000000 0.000000 0.450161
0.000000 0.000000 1.000000
0.000000 0.000000 1.000000
0.000000 0.000000 0.000000
0.000000 0.000000 0.697645
0.000000 0.000000 1.000000
0.000000 1.000000 1.000000
0.000000 0.704964 1.000000
0.520474 0.543700 0.393537
0.145745 0.099425 0.234086
0.036272 0.000000 0.061245
0.081148 0.000000 0.000000
0.000000 0.000000 0.000000
0.293536 0.381333 0.216148
0.303974 0.354216 0.363104
0.399725 0.392244 0.560412
0.305373 0.000000 0.428891
0.000000 0.000000 0.000000
0.000000 0.192008 0.000000
0.038698 0.354214 0.191926
0.198736 0.616453 0.633138
0.000000 0.280071 0.756851
0.000000 0.000000 0.000000
0.000000 0.000000 0.000000
0.000000 0.000000 0.204141
0.000000 0.732194 1.000000
0.000000 0.846792 1.000000
0.000000 0.000000 1.000000
0.000000 0.000000 0.621509
0.000000 0.000000 1.000000
0.568222 1.000000 1.000000
0.734377 1.000000 1.000000
0.000000 1.000000 1.000000
0.587645 0.328889 0.285069
0.135225 0.000000 0.027439
0.119302 0.000000 0.000000
0.605574 0.000000 0.000000
1.000000 0.000000 0.000000
0.477236 0.360925 0.255924
0.341358 0.202895 0.309613
0.393090 0.118823 0.371345
0.533620 0.000000 0.173384
0.102586 0.000000 0.000000
0.388547 0.651377 0.298257
0.426118 0.558581 0.383346
0.399635 0.492202 0.589641
0.045777 0.000000 0.523636
0.000000 0.000000 0.000000
0.000000 0.486808 0.313991
0.446406 0.729511 0.497860
0.580953 0.981159 0.989456
0.000000 0.537907 1.000000
0.000000 0.000000 0.546777
0.000000 0.000000 1.000000
0.956826 0.998081 1.000000
1.000000 1.000000 1.000000
1.000000 1.000000 1.000000
0.000000 1.000000 1.000000
1.000000 0.333751 0.290832
0.829585 0.459307 0.420468
1.000000 0.703026 0.401998
1.000000 0.841297 0.204899
1.000000 0.000000 0.000000
0.793856 0.234016 0.114775
0.811308 0.474358 0.543663
1.000000 0.672818 0.840317
1.000000 0.484428 0.848446
1.000000 0.000000 0.139813
0.876406 0.655623 0.169628
0.972889 0.817252 0.537529
0.947137 0.807027 0.862425
0.712434 0.158623 0.862255
0.000000 0.000000 0.000000
0.908877 0.789469 0.122949
1.000000 1.000000 0.416923
1.000000 1.000000 0.830479
0.558598 0.497571 0.955784
0.000000 0.000000 0.113060
1.000000 0.341359 0.638237
1.000000 1.000000 1.000000
1.000000 1.000000 1.000000
1.000000 1.000000 1.000000
0.000000 0.170748 1.000000
