lrplugin/MindfulLensFilmEngine.lrplugin/profiles/luts/redscale_ultra.cube
# Generated from ColorChecker fit
LUT_3D_SIZE 5
DOMAIN_MIN 0.0 0.0 0.0
DOMAIN_MAX 1.0 1.0 1.0
0.000000 0.000000 0.000000
0.000000 0.000000 0.086468
0.000000 0.000000 0.296912
0.000000 0.000000 0.000000
0.000000 0.000000 0.000000
0.000000 0.000000 0.000000
0.000000 0.000000 0.000000
0.000000 0.000000 0.000000
0.000000 0.000000 0.000000
0.000000 0.000000 0.000000
0.000000 0.000000 0.000000
0.000000 0.000000 0.000000
0.000000 0.000000 0.000000
0.000000 0.000000 0.000000
0.000000 0.000000 0.000000
0.000000 0.000000 0.000000
0.000000 0.000000 0.000000
0.000000 0.000000 0.000000
0.000000 0.000000 0.000000
0.000000 0.000000 0.000000
0.000000 0.000000 0.000000
0.000000 0.000000 0.000000
0.000000 0.000000 1.000000
0.000000 0.000000 1.000000
0.000000 0.000000 1.000000
0.314750 0.372909 0.223960
0.077394 0.067757 0.394913
0.000000 0.000000 0.473139
0.000000 0.000000 0.093643
0.000000 0.000000 0.000000
0.000000 0.000000 0.000000
0.000000 0.000000 0.110472
0.012824 0.112516 0.560768
0.000000 0.000000 0.515124
0.000000 0.000000 0.000000
0.000000 0.000000 0.000000
0.000000 0.000000 0.000000
0.000000 0.000000 0.197948
0.000000 0.000000 0.513589
0.000000 0.000000 0.000000
0.000000 0.000000 0.000000
0.000000 0.000000 0.000000
0.000000 0.000000 0.449796
0.000000 0.000000 1.000000
0.000000 0.000000 1.000000
0.000000 0.000000 0.000000
0.000000 0.000000 0.697422
0.000000 0.000000 1.000000
0.000000 1.000000 1.000000
0.000000 0.702839 1.000000
0.520494 0.543861 0.393629
0.145798 0.099523 0.234099
0.036455 0.000000 0.061334
0.081604 0.000000 0.000000
0.000000 0.000000 0.000000
0.293599 0.381340 0.216205
0.303971 0.354208 0.363085
0.399734 0.392271 0.560426
0.305444 0.000000 0.428938
0.000000 0.000000 0.000000
0.000000 0.191997 0.000000
0.038741 0.354203 0.191923
0.198749 0.616464 0.633118
0.000000 0.279974 0.756755
0.000000 0.000000 0.000000
0.000000 0.000000 0.000000
0.000000 0.000000 0.204113
0.000000 0.732249 1.000000
0.000000 0.846621 1.000000
0.000000 0.000000 1.000000
0.000000 0.000000 0.621641
0.000000 0.000000 1.000000
0.568467 1.000000 1.000000
0.734403 1.000000 1.000000
0.000000 1.000000 1.000000
0.587620 0.328929 0.285087
0.135257 0.000000 0.027409
0.119283 0.000000 0.000000
0.605495 0.000000 0.000000
1.000000 0.000000 0.000000
0.477211 0.360895 0.255922
0.341349 0.202872 0.309582
0.393031 0.118753 0.371300
0.533469 0.000000 0.173288
0.102471 0.000000 0.000000
0.388557 0.651352 0.298276
0.426109 0.558579 0.383341
0.399628 0.492194 0.589648
0.045744 0.000000 0.523613
0.000000 0.000000 0.000000
0.000000 0.486860 0.314035
0.446368 0.729508 0.497832
0.580930 0.981133 0.989422
0.000000 0.537850 1.000000
0.000000 0.000000 0.546704
0.000000 0.000000 1.000000
0.956711 0.998132 1.000000
1.000000 1.000000 1.000000
1.000000 1.000000 1.000000
0.000000 1.000000 1.000000
1.000000 0.333730 0.290869
0.829580 0.459298 0.420471
1.000000 0.702729 0.401778
1.000000 0.840717 0.204297
1.000000 0.000000 0.000000
0.793842 0.233986 0.114779
0.811321 0.474411 0.543660
1.000000 0.672703 0.840182
1.000000 0.484143 0.848056
1.000000 0.000000 0.139217
0.876408 0.655623 0.169629
0.972937 0.817354 0.537542
0.947109 0.807064 0.862398
0.712211 0.158615 0.862116
0.000000 0.000000 0.000000
0.908877 0.789469 0.122948
1.000000 1.000000 0.416905
1.000000 1.000000 0.830478
0.558609 0.497603 0.955790
0.000000 0.000000 0.113190
1.000000 0.341389 0.638189
1.000000 1.000000 1.000000
1.000000 1.000000 1.000000
1.000000 1.000000 1.000000
0.000000 0.170714 1.000000
