lrplugin/MindfulLensFilmEngine.lrplugin/profiles/luts/senova_light.cube
# Generated from ColorChecker fit
LUT_3D_SIZE 33
DOMAIN_MIN 0.0 0.0 0.0
DOMAIN_MAX 1.0 1.0 1.0
0.141846 0.059060 0.379972
0.077240 0.002025 0.361509
0.019483 0.000000 0.351040
0.000000 0.000000 0.347802
0.000000 0.000000 0.351023
0.000000 0.000000 0.359920
0.000000 0.000000 0.373697
0.000000 0.000000 0.391550
0.000000 0.000000 0.412662
0.000000 0.000000 0.436205
0.000000 0.000000 0.461340
0.000000 0.000000 0.487219
0.000000 0.000000 0.512980
0.000000 0.000000 0.537751
0.000000 0.000000 0.560650
0.000000 0.000000 0.580783
0.000000 0.000000 0.597246
0.000000 0.000000 0.609122
0.000000 0.000000 0.615485
0.000000 0.000000 0.615396
0.000000 0.000000 0.607908
0.000000 0.000000 0.592060
0.000000 0.000000 0.566881
0.000000 0.000000 0.531390
0.000000 0.000000 0.484593
0.000000 0.000000 0.425486
0.000000 0.000000 0.353055
0.000000 0.000000 0.266273
0.000000 0.000000 0.164103
0.000000 0.000000 0.045498
0.000000 0.000000 0.000000
0.000000 0.000000 0.000000
0.000000 0.000000 0.000000
0.217863 0.135008 0.488700
0.157095 0.087845 0.466376
0.102911 0.044921 0.451922
0.055424 0.006534 0.444562
0.014620 0.000000 0.443505
0.000000 0.000000 0.447951
0.000000 0.000000 0.457087
0.000000 0.000000 0.470093
0.000000 0.000000 0.486133
0.000000 0.000000 0.504363
0.000000 0.000000 0.523928
0.000000 0.000000 0.543961
0.000000 0.000000 0.563584
0.000000 0.000000 0.581909
0.000000 0.000000 0.598035
0.000000 0.000000 0.611051
0.000000 0.000000 0.620037
0.000000 0.000000 0.624059
0.000000 0.000000 0.622174
0.000000 0.000000 0.613425
0.000000 0.000000 0.596849
0.000000 0.000000 0.571466
0.000000 0.000000 0.536291
0.000000 0.000000 0.490323
0.000000 0.000000 0.432553
0.000000 0.000000 0.361959
0.000000 0.000000 0.277510
0.000000 0.000000 0.178162
0.000000 0.000000 0.062862
0.000000 0.000000 0.000000
0.000000 0.000000 0.000000
0.000000 0.000000 0.000000
0.000000 0.000000 0.000000
0.279261 0.197315 0.585911
0.222312 0.159847 0.559949
0.171654 0.126291 0.541734
0.127366 0.096902 0.530469
0.089400 0.071787 0.525348
0.057578 0.050903 0.525554
0.031598 0.034059 0.530257
0.011029 0.020914 0.538619
0.000000 0.010980 0.549788
0.000000 0.003619 0.562903
0.000000 0.000000 0.577092
0.000000 0.000000 0.591469
0.000000 0.000000 0.605141
0.000000 0.000000 0.617202
0.000000 0.000000 0.626735
0.000000 0.000000 0.632812
0.000000 0.000000 0.634494
0.000000 0.000000 0.630831
0.000000 0.000000 0.620863
0.000000 0.000000 0.603617
0.000000 0.000000 0.578111
0.000000 0.000000 0.543350
0.000000 0.000000 0.498330
0.000000 0.000000 0.442034
0.000000 0.000000 0.373436
0.000000 0.000000 0.291497
0.000000 0.000000 0.195169
0.000000 0.000000 0.083390
0.000000 0.000000 0.000000
0.000000 0.000000 0.000000
0.000000 0.000000 0.000000
0.000000 0.000000 0.000000
0.000000 0.000000 0.000000
0.326332 0.246288 0.671475
0.273203 0.218347 0.642132
0.226044 0.193950 0.620407
0.184898 0.173310 0.605488
0.149683 0.156490 0.596550
0.120189 0.143404 0.592758
0.096080 0.133818 0.593268
0.076889 0.127349 0.597222
0.062026 0.123464 0.603753
0.050769 0.121482 0.611981
0.042272 0.120572 0.621018
0.035561 0.119757 0.629962
0.029533 0.117906 0.637902
0.022959 0.113745 0.643914
0.014482 0.105846 0.647066
0.002618 0.092635 0.646411
0.000000 0.072389 0.640993
0.000000 0.043234 0.629847
0.000000 0.003149 0.611995
0.000000 0.000000 0.586446
0.000000 0.000000 0.552201
0.000000 0.000000 0.508249
0.000000 0.000000 0.453568
0.000000 0.000000 0.387125
0.000000 0.000000 0.307876
0.000000 0.000000 0.214766
0.000000 0.000000 0.106728
0.000000 0.000000 0.000000
0.000000 0.000000 0.000000
0.000000 0.000000 0.000000
0.000000 0.000000 0.000000
0.000000 0.000000 0.000000
0.000000 0.000000 0.000000
0.359562 0.282465 0.745423
0.310275 0.263887 0.712988
0.266606 0.248446 0.688039
0.228565 0.236311 0.669746
0.196036 0.227504 0.657268
0.168775 0.221896 0.649754
0.146412 0.219208 0.646341
0.128447 0.219013 0.646156
0.114254 0.220737 0.648312
0.103080 0.223655 0.651915
0.094043 0.226893 0.656058
0.086136 0.229429 0.659822
0.078222 0.230092 0.662280
0.069038 0.227561 0.662491
0.057194 0.220368 0.659504
0.041170 0.206894 0.652357
0.019322 0.185373 0.640077
0.000000 0.153888 0.621681
0.000000 0.110375 0.596173
0.000000 0.052621 0.562547
0.000000 0.000000 0.519786
0.000000 0.000000 0.466862
0.000000 0.000000 0.402737
0.000000 0.000000 0.326359
0.000000 0.000000 0.236667
0.000000 0.000000 0.132591
0.000000 0.000000 0.013045
0.000000 0.000000 0.000000
0.000000 0.000000 0.000000
0.000000 0.000000 0.000000
0.000000 0.000000 0.000000
0.000000 0.000000 0.000000
0.000000 0.000000 0.000000
0.379634 0.306613 0.807948
0.334230 0.297239 0.772741
0.294063 0.290556 0.744885
0.259110 0.286691 0.723532
0.229221 0.285621 0.707825
0.204118 0.287174 0.696895
0.183396 0.291028 0.689862
0.166523 0.296714 0.685835
0.152838 0.303612 0.683914
0.141555 0.310956 0.683184
0.131758 0.317829 0.682721
0.122405 0.323164 0.681592
0.112326 0.325748 0.678850
0.100224 0.324217 0.673538
0.084675 0.317059 0.664688
0.064126 0.302612 0.651321
0.036898 0.279066 0.632447
0.001184 0.244462 0.607065
0.000000 0.196693 0.574163
0.000000 0.133501 0.532718
0.000000 0.052480 0.481696
0.000000 0.000000 0.420051
0.000000 0.000000 0.346728
0.000000 0.000000 0.260659
0.000000 0.000000 0.160766
0.000000 0.000000 0.045960
0.000000 0.000000 0.000000
0.000000 0.000000 0.000000
0.000000 0.000000 0.000000
0.000000 0.000000 0.000000
0.000000 0.000000 0.000000
0.000000 0.000000 0.000000
0.000000 0.000000 0.000000
0.387427 0.319728 0.859405
0.345967 0.319405 0.821778
0.309334 0.321290 0.791363
0.277472 0.325463 0.767295
0.250196 0.331860 0.748700
0.227195 0.340264 0.734692
0.208031 0.350311 0.724374
0.192136 0.361488 0.716839
0.178817 0.373133 0.711167
0.167253 0.384436 0.706428
0.156495 0.394436 0.701681
0.145466 0.402024 0.695976
0.132963 0.405943 0.688347
0.117655 0.404786 0.677823
0.098084 0.396997 0.663417
0.072664 0.380872 0.644133
0.039681 0.354558 0.618965
0.000000 0.316053 0.586894
0.000000 0.263204 0.546892
0.000000 0.193712 0.497918
0.000000 0.105128 0.438920
0.000000 0.000000 0.368837
0.000000 0.000000 0.286596
0.000000 0.000000 0.191112
0.000000 0.000000 0.081290
0.000000 0.000000 0.000000
0.000000 0.000000 0.000000
0.000000 0.000000 0.000000
0.000000 0.000000 0.000000
0.000000 0.000000 0.000000
0.000000 0.000000 0.000000
0.000000 0.000000 0.000000
0.000000 0.000000 0.000000
0.384015 0.323035 0.900310
0.346579 0.331619 0.860647
0.313533 0.341885 0.828054
0.284784 0.353871 0.801648
0.260116 0.367469 0.780539
0.239182 0.382421 0.763823
0.221510 0.398317 0.750586
0.206500 0.414603 0.739904
0.193425 0.430572 0.730841
0.181427 0.445372 0.722450
0.169527 0.457997 0.713772
0.156612 0.467297 0.703839
0.141446 0.471971 0.691671
0.122665 0.470568 0.676276
0.098774 0.461490 0.656653
0.068156 0.442989 0.631788
0.029062 0.413169 0.600658
0.000000 0.369983 0.562227
0.000000 0.311238 0.515448
0.000000 0.234590 0.459266
0.000000 0.137547 0.392611
0.000000 0.017466 0.314405
0.000000 0.000000 0.223557
0.000000 0.000000 0.118965
0.000000 0.000000 0.000000
0.000000 0.000000 0.000000
0.000000 0.000000 0.000000
0.000000 0.000000 0.000000
0.000000 0.000000 0.000000
0.000000 0.000000 0.000000
0.000000 0.000000 0.000000
0.000000 0.000000 0.000000
0.000000 0.000000 0.000000
0.370668 0.317991 0.931341
0.337358 0.335341 0.890058
0.307970 0.353808 0.855698
0.282377 0.373388 0.827363
0.260330 0.393929 0.804145
0.241448 0.415129 0.785122
0.225224 0.436538 0.769366
0.211025 0.457555 0.755933
0.198089 0.477432 0.743870
0.185528 0.495271 0.732214
0.172324 0.510027 0.719989
0.157333 0.520505 0.706210
0.139285 0.525359 0.689879
0.116781 0.523096 0.669988
0.088294 0.512076 0.645518
0.052171 0.490506 0.615440
0.006630 0.456447 0.578711
0.000000 0.407810 0.534279
0.000000 0.342357 0.481082
0.000000 0.257702 0.418045
0.000000 0.151309 0.344083
0.000000 0.020494 0.258100
0.000000 0.000000 0.158987
0.000000 0.000000 0.045628
0.000000 0.000000 0.000000
0.000000 0.000000 0.000000
0.000000 0.000000 0.000000
0.000000 0.000000 0.000000
0.000000 0.000000 0.000000
0.000000 0.000000 0.000000
0.000000 0.000000 0.000000
0.000000 0.000000 0.000000
0.000000 0.000000 0.000000
0.348853 0.306282 0.953337
0.319790 0.332262 0.910881
0.294151 0.358756 0.875199
0.271778 0.385717 0.845375
0.252384 0.412948 0.820484
0.235558 0.440104 0.799590
0.220758 0.466692 0.781743
0.207316 0.492069 0.765985
0.194438 0.515443 0.751346
0.181199 0.535873 0.736845
0.166551 0.552270 0.721490
0.149314 0.563395 0.704277
0.128185 0.567861 0.684193
0.101729 0.564131 0.660212
0.068388 0.550520 0.631298
0.026474 0.525194 0.596404
0.000000 0.486170 0.554472
0.000000 0.431316 0.504432
0.000000 0.358350 0.445205
0.000000 0.264844 0.375699
0.000000 0.148217 0.294811
0.000000 0.005743 0.201428
0.000000 0.000000 0.094427
0.000000 0.000000 0.000000
0.000000 0.000000 0.000000
0.000000 0.000000 0.000000
0.000000 0.000000 0.000000
0.000000 0.000000 0.000000
0.000000 0.000000 0.000000
0.000000 0.000000 0.000000
0.000000 0.000000 0.000000
0.000000 0.000000 0.000000
0.000000 0.000000 0.000000
0.320233 0.289821 0.967299
0.295558 0.324304 0.924149
0.273780 0.358656 0.887620
0.254708 0.392790 0.856780
0.238022 0.426463 0.830686
0.223275 0.459290 0.808384
0.209894 0.490732 0.788909
0.197176 0.520103 0.771285
0.184291 0.546568 0.754525
0.170284 0.569144 0.737630
0.154070 0.586698 0.719592
0.134437 0.597947 0.699391
0.110046 0.601462 0.675994
0.079431 0.595662 0.648361
0.040998 0.578819 0.615437
0.000000 0.549056 0.576159
0.000000 0.504347 0.529451
0.000000 0.442515 0.474227
0.000000 0.361237 0.409390
0.000000 0.258040 0.333831
0.000000 0.130302 0.246431
0.000000 0.000000 0.146059
0.000000 0.000000 0.031575
0.000000 0.000000 0.000000
0.000000 0.000000 0.000000
0.000000 0.000000 0.000000
0.000000 0.000000 0.000000
0.000000 0.000000 0.000000
0.000000 0.000000 0.000000
0.000000 0.000000 0.000000
0.000000 0.000000 0.000000
0.000000 0.000000 0.000000
0.000000 0.000000 0.000000
0.286666 0.270754 0.974388
0.266538 0.313615 0.931055
0.248753 0.355665 0.894188
0.233085 0.396768 0.862835
0.219180 0.436644 0.836039
0.206557 0.474859 0.812827
0.194610 0.510834 0.792218
0.182601 0.543840 0.773218
0.169667 0.572998 0.754823
0.154819 0.597282 0.736018
0.136937 0.615514 0.715777
0.114778 0.626370 0.693063
0.086966 0.628377 0.666828
0.052003 0.619911 0.636011
0.008261 0.599200 0.599544
0.000000 0.564325 0.556344
0.000000 0.513215 0.505319
0.000000 0.443651 0.445367
0.000000 0.353268 0.375372
0.000000 0.239547 0.294209
0.000000 0.099824 0.200741
0.000000 0.000000 0.093822
0.000000 0.000000 0.000000
0.000000 0.000000 0.000000
0.000000 0.000000 0.000000
0.000000 0.000000 0.000000
0.000000 0.000000 0.000000
0.000000 0.000000 0.000000
0.000000 0.000000 0.000000
0.000000 0.000000 0.000000
0.000000 0.000000 0.000000
0.000000 0.000000 0.000000
0.000000 0.000000 0.000000
0.250207 0.251455 0.975929
0.234807 0.302578 0.932957
0.221165 0.352167 0.896289
0.209023 0.400045 0.864961
0.197992 0.445886 0.837994
0.187558 0.489216 0.814401
0.177079 0.529410 0.793183
0.165785 0.565697 0.773329
0.152779 0.597154 0.753818
0.137037 0.622712 0.733618
0.117408 0.641150 0.711687
0.092610 0.651102 0.686968
0.061239 0.651049 0.658398
0.021759 0.639326 0.624900
0.000000 0.614118 0.585386
0.000000 0.573461 0.538759
0.000000 0.515241 0.483909
0.000000 0.437198 0.419715
0.000000 0.336920 0.345046
0.000000 0.211848 0.258759
0.000000 0.059274 0.159702
0.000000 0.000000 0.046710
0.000000 0.000000 0.000000
0.000000 0.000000 0.000000
0.000000 0.000000 0.000000
0.000000 0.000000 0.000000
0.000000 0.000000 0.000000
0.000000 0.000000 0.000000
0.000000 0.000000 0.000000
0.000000 0.000000 0.000000
0.000000 0.000000 0.000000
0.000000 0.000000 0.000000
0.000000 0.000000 0.000000
0.213105 0.234527 0.973407
0.202633 0.293801 0.931370
0.193307 0.350779 0.895474
0.184833 0.405241 0.864736
0.176789 0.456818 0.838164
0.168627 0.504993 0.814750
0.159671 0.549097 0.793480
0.149118 0.588316 0.773327
0.136037 0.621685 0.753250
0.119369 0.648091 0.732203
0.097929 0.666269 0.709123
0.070404 0.674810 0.682941
0.035352 0.672153 0.652573
0.000000 0.656589 0.616926
0.000000 0.626258 0.574896
0.000000 0.579155 0.525367
0.000000 0.513123 0.467214
0.000000 0.425857 0.399297
0.000000 0.314904 0.320470
0.000000 0.177659 0.229573
0.000000 0.011373 0.125435
0.000000 0.000000 0.006874
0.000000 0.000000 0.000000
0.000000 0.000000 0.000000
0.000000 0.000000 0.000000
0.000000 0.000000 0.000000
0.000000 0.000000 0.000000
0.000000 0.000000 0.000000
0.000000 0.000000 0.000000
0.000000 0.000000 0.000000
0.000000 0.000000 0.000000
0.000000 0.000000 0.000000
0.000000 0.000000 0.000000
0.177806 0.222804 0.968469
0.172484 0.290123 0.927973
0.167664 0.354345 0.893451
0.163020 0.415207 0.863905
0.158096 0.472296 0.838322
0.152310 0.525052 0.815681
0.144952 0.572764 0.794949
0.135186 0.614574 0.775080
0.122045 0.649473 0.755021
0.104439 0.676304 0.733704
0.081148 0.693763 0.710052
0.050823 0.700393 0.682977
0.011992 0.694592 0.651379
0.000000 0.674606 0.614149
0.000000 0.638536 0.570164
0.000000 0.584329 0.518292
0.000000 0.509787 0.457389
0.000000 0.412562 0.386302
0.000000 0.290156 0.303865
0.000000 0.139924 0.208900
0.000000 0.000000 0.100221
0.000000 0.000000 0.000000
0.000000 0.000000 0.000000
0.000000 0.000000 0.000000
0.000000 0.000000 0.000000
0.000000 0.000000 0.000000
0.000000 0.000000 0.000000
0.000000 0.000000 0.000000
0.000000 0.000000 0.000000
0.000000 0.000000 0.000000
0.000000 0.000000 0.000000
0.000000 0.000000 0.000000
0.000000 0.000000 0.000000
0.146954 0.219350 0.962923
0.147020 0.294614 0.924606
0.146918 0.365940 0.892094
0.146286 0.433023 0.864369
0.144635 0.495407 0.840405
0.141348 0.552487 0.819161
0.135684 0.603510 0.799587
0.126769 0.647573 0.780621
0.113606 0.683626 0.761192
0.095069 0.710468 0.740216
0.069904 0.726751 0.716599
0.036730 0.730977 0.689235
0.000000 0.721498 0.657008
0.000000 0.696519 0.618790
0.000000 0.654095 0.573444
0.000000 0.592132 0.519818
0.000000 0.508389 0.456753
0.000000 0.400474 0.383078
0.000000 0.265845 0.297609
0.000000 0.101815 0.199154
0.000000 0.000000 0.086506
0.000000 0.000000 0.000000
0.000000 0.000000 0.000000
0.000000 0.000000 0.000000
0.000000 0.000000 0.000000
0.000000 0.000000 0.000000
0.000000 0.000000 0.000000
0.000000 0.000000 0.000000
0.000000 0.000000 0.000000
0.000000 0.000000 0.000000
0.000000 0.000000 0.000000
0.000000 0.000000 0.000000
0.000000 0.000000 0.000000
0.123386 0.227456 0.958739
0.129101 0.310571 0.923271
0.133947 0.388869 0.893435
0.137529 0.462000 0.868196
0.139323 0.529466 0.846509
0.138680 0.590618 0.827318
0.134823 0.644660 0.809555
0.126846 0.690647 0.792141
0.113717 0.727484 0.773989
0.094275 0.753928 0.753997
0.067235 0.768586 0.731053
0.031180 0.769918 0.704036
0.000000 0.756234 0.671811
0.000000 0.725694 0.633234
0.000000 0.676310 0.587151
0.000000 0.605946 0.532393
0.000000 0.512315 0.467784
0.000000 0.392984 0.392135
0.000000 0.245369 0.304246
0.000000 0.066736 0.202907
0.000000 0.000000 0.086896
0.000000 0.000000 0.000000
0.000000 0.000000 0.000000
0.000000 0.000000 0.000000
0.000000 0.000000 0.000000
0.000000 0.000000 0.000000
0.000000 0.000000 0.000000
0.000000 0.000000 0.000000
0.000000 0.000000 0.000000
0.000000 0.000000 0.000000
0.000000 0.000000 0.000000
0.000000 0.000000 0.000000
0.000000 0.000000 0.000000
0.110136 0.250645 0.958049
0.121780 0.341524 0.926132
0.131825 0.426666 0.899670
0.139842 0.505678 0.877611
0.145275 0.578019 0.858893
0.147439 0.642997 0.842442
0.145524 0.699774 0.827175
0.138589 0.747359 0.811995
0.125570 0.784616 0.795797
0.105272 0.810257 0.777462
0.076374 0.822848 0.755862
0.037427 0.820804 0.729859
0.000000 0.802392 0.698300
0.000000 0.765729 0.660025
0.000000 0.708784 0.613862
0.000000 0.629378 0.558625
0.000000 0.525181 0.493122
0.000000 0.393715 0.416145
0.000000 0.232354 0.326480
0.000000 0.038321 0.222896
0.000000 0.000000 0.104157
0.000000 0.000000 0.000000
0.000000 0.000000 0.000000
0.000000 0.000000 0.000000
0.000000 0.000000 0.000000
0.000000 0.000000 0.000000
0.000000 0.000000 0.000000
0.000000 0.000000 0.000000
0.000000 0.000000 0.000000
0.000000 0.000000 0.000000
0.000000 0.000000 0.000000
0.000000 0.000000 0.000000
0.000000 0.000000 0.000000
0.110435 0.292669 0.963145
0.128307 0.391229 0.935513
0.143822 0.483093 0.913155
0.156517 0.567826 0.895003
0.165800 0.644841 0.879977
0.170954 0.713406 0.866987
0.171135 0.772637 0.854931
0.165368 0.821501 0.842698
0.152555 0.858820 0.829162
0.131467 0.883261 0.813191
0.100750 0.893347 0.793638
0.058920 0.887450 0.769347
0.004369 0.863794 0.739151
0.000000 0.820453 0.701869
0.000000 0.755352 0.656314
0.000000 0.666269 0.601284
0.000000 0.550831 0.535568
0.000000 0.406517 0.457943
0.000000 0.230657 0.367174
0.000000 0.020431 0.262019
0.000000 0.000000 0.141219
0.000000 0.000000 0.003510
0.000000 0.000000 0.000000
0.000000 0.000000 0.000000
0.000000 0.000000 0.000000
0.000000 0.000000 0.000000
0.000000 0.000000 0.000000
0.000000 0.000000 0.000000
0.000000 0.000000 0.000000
0.000000 0.000000 0.000000
0.000000 0.000000 0.000000
0.000000 0.000000 0.000000
0.000000 0.000000 0.000000
0.127708 0.357511 0.976481
0.152129 0.463675 0.953899
0.173404 0.562145 0.936408
0.191037 0.652442 0.922921
0.204403 0.733938 0.912342
0.212751 0.805854 0.903564
0.215202 0.867266 0.895469
0.210749 0.917097 0.886926
0.198258 0.954124 0.876795
0.176467 0.976973 0.863925
0.143988 0.984123 0.847153
0.099304 0.973902 0.825306
0.040772 0.944491 0.797198
0.000000 0.893922 0.761634
0.000000 0.820076 0.717408
0.000000 0.720687 0.663301
0.000000 0.593340 0.598086
0.000000 0.435470 0.520521
0.000000 0.244364 0.429357
0.000000 0.017159 0.323332
0.000000 0.000000 0.201172
0.000000 0.000000 0.061595
0.000000 0.000000 0.000000
0.000000 0.000000 0.000000
0.000000 0.000000 0.000000
0.000000 0.000000 0.000000
0.000000 0.000000 0.000000
0.000000 0.000000 0.000000
0.000000 0.000000 0.000000
0.000000 0.000000 0.000000
0.000000 0.000000 0.000000
0.000000 0.000000 0.000000
0.000000 0.000000 0.000000
0.165577 0.449380 1.000000
0.196886 0.563077 0.983940
0.224232 0.668044 0.972108
0.247085 0.763756 0.964077
0.264787 0.849543 0.958733
0.276552 0.924583 0.954950
0.281467 0.987907 0.951594
0.278492 1.000000 0.947519
0.266458 1.000000 0.941566
0.244072 1.000000 0.932566
0.209909 1.000000 0.919341
0.162419 1.000000 0.900700
0.099926 1.000000 0.875440
0.020624 0.990424 0.842350
0.000000 0.907249 0.800204
0.000000 0.796932 0.747770
0.000000 0.657013 0.683800
0.000000 0.484885 0.607039
0.000000 0.277791 0.516217
0.000000 0.032827 0.410057
0.000000 0.000000 0.287268
0.000000 0.000000 0.146550
0.000000 0.000000 0.000000
0.000000 0.000000 0.000000
0.000000 0.000000 0.000000
0.000000 0.000000 0.000000
0.000000 0.000000 0.000000
0.000000 0.000000 0.000000
0.000000 0.000000 0.000000
0.000000 0.000000 0.000000
0.000000 0.000000 0.000000
0.000000 0.000000 0.000000
0.000000 0.000000 0.000000
0.227861 0.572717 1.000000
0.266417 0.693884 1.000000
0.300164 0.805242 1.000000
0.328539 0.906226 1.000000
0.350848 0.996120 1.000000
0.366273 1.000000 1.000000
0.373866 1.000000 1.000000
0.372554 1.000000 1.000000
0.361135 1.000000 1.000000
0.338278 1.000000 1.000000
0.302529 1.000000 1.000000
0.252303 1.000000 0.998657
0.185887 1.000000 0.977036
0.101445 1.000000 0.947206
0.000000 1.000000 0.907926
0.000000 0.899530 0.857944
0.000000 0.746383 0.795997
0.000000 0.559301 0.720812
0.000000 0.335484 0.631103
0.000000 0.071985 0.525575
0.000000 0.000000 0.402921
0.000000 0.000000 0.261822
0.000000 0.000000 0.100950
0.000000 0.000000 0.000000
0.000000 0.000000 0.000000
0.000000 0.000000 0.000000
0.000000 0.000000 0.000000
0.000000 0.000000 0.000000
0.000000 0.000000 0.000000
0.000000 0.000000 0.000000
0.000000 0.000000 0.000000
0.000000 0.000000 0.000000
0.000000 0.000000 0.000000
0.318572 0.732194 1.000000
0.364755 0.860771 1.000000
0.405254 0.978422 1.000000
0.439471 1.000000 1.000000
0.466680 1.000000 1.000000
0.486028 1.000000 1.000000
0.496534 1.000000 1.000000
0.497089 1.000000 1.000000
0.486459 1.000000 1.000000
0.463280 1.000000 1.000000
0.426062 1.000000 1.000000
0.373187 1.000000 1.000000
0.302909 1.000000 1.000000
0.213356 1.000000 1.000000
0.102528 1.000000 1.000000
0.000000 1.000000 0.997240
0.000000 0.866213 0.938125
0.000000 0.663488 0.865321
0.000000 0.422219 0.777527
0.000000 0.139415 0.673429
0.000000 0.000000 0.551704
0.000000 0.000000 0.411016
0.000000 0.000000 0.250019
0.000000 0.000000 0.067357
0.000000 0.000000 0.000000
0.000000 0.000000 0.000000
0.000000 0.000000 0.000000
0.000000 0.000000 0.000000
0.000000 0.000000 0.000000
0.000000 0.000000 0.000000
0.000000 0.000000 0.000000
0.000000 0.000000 0.000000
0.000000 0.000000 0.000000
0.441922 0.932710 1.000000
0.496131 1.000000 1.000000
0.543752 1.000000 1.000000
0.584152 1.000000 1.000000
0.616573 1.000000 1.000000
0.640126 1.000000 1.000000
0.653798 1.000000 1.000000
0.656446 1.000000 1.000000
0.646801 1.000000 1.000000
0.623466 1.000000 1.000000
0.584916 1.000000 1.000000
0.529501 1.000000 1.000000
0.455439 1.000000 1.000000
0.360826 1.000000 1.000000
0.243627 1.000000 1.000000
0.101680 1.000000 1.000000
0.000000 1.000000 1.000000
0.000000 0.802444 1.000000
0.000000 0.542999 0.959162
0.000000 0.240128 0.857325
0.000000 0.000000 0.737355
0.000000 0.000000 0.597902
0.000000 0.000000 0.437600
0.000000 0.000000 0.255078
0.000000 0.000000 0.048948
0.000000 0.000000 0.000000
0.000000 0.000000 0.000000
0.000000 0.000000 0.000000
0.000000 0.000000 0.000000
0.000000 0.000000 0.000000
0.000000 0.000000 0.000000
0.000000 0.000000 0.000000
0.000000 0.000000 0.000000
0.602315 1.000000 1.000000
0.664969 1.000000 1.000000
0.720102 1.000000 1.000000
0.767047 1.000000 1.000000
0.805011 1.000000 1.000000
0.833073 1.000000 1.000000
0.850185 1.000000 1.000000
0.855170 1.000000 1.000000
0.846725 1.000000 1.000000
0.823420 1.000000 1.000000
0.783696 1.000000 1.000000
0.725868 1.000000 1.000000
0.648123 1.000000 1.000000
0.548520 1.000000 1.000000
0.424991 1.000000 1.000000
0.275341 1.000000 1.000000
0.097247 1.000000 1.000000
0.000000 0.981399 1.000000
0.000000 0.703059 1.000000
0.000000 0.379363 1.000000
0.000000 0.007083 0.963773
0.000000 0.000000 0.826408
0.000000 0.000000 0.667654
0.000000 0.000000 0.486119
0.000000 0.000000 0.280401
0.000000 0.000000 0.049086
0.000000 0.000000 0.000000
0.000000 0.000000 0.000000
0.000000 0.000000 0.000000
0.000000 0.000000 0.000000
0.000000 0.000000 0.000000
0.000000 0.000000 0.000000
0.000000 0.000000 0.000000
0.804353 1.000000 1.000000
0.875892 1.000000 1.000000
0.938947 1.000000 1.000000
0.992817 1.000000 1.000000
1.000000 1.000000 1.000000
1.000000 1.000000 1.000000
1.000000 1.000000 1.000000
1.000000 1.000000 1.000000
1.000000 1.000000 1.000000
1.000000 1.000000 1.000000
1.000000 1.000000 1.000000
0.967111 1.000000 1.000000
0.885800 1.000000 1.000000
0.781297 1.000000 1.000000
0.651499 1.000000 1.000000
0.494177 1.000000 1.000000
0.306975 1.000000 1.000000
0.087408 1.000000 1.000000
0.000000 0.907864 1.000000
0.000000 0.562591 1.000000
0.000000 0.166722 1.000000
0.000000 0.000000 1.000000
0.000000 0.000000 0.944303
0.000000 0.000000 0.764636
0.000000 0.000000 0.560205
0.000000 0.000000 0.329582
0.000000 0.000000 0.071324
0.000000 0.000000 0.000000
0.000000 0.000000 0.000000
0.000000 0.000000 0.000000
0.000000 0.000000 0.000000
0.000000 0.000000 0.000000
0.000000 0.000000 0.000000
1.000000 1.000000 1.000000
1.000000 1.000000 1.000000
1.000000 1.000000 1.000000
1.000000 1.000000 1.000000
1.000000 1.000000 1.000000
1.000000 1.000000 1.000000
1.000000 1.000000 1.000000
1.000000 1.000000 1.000000
1.000000 1.000000 1.000000
1.000000 1.000000 1.000000
1.000000 1.000000 1.000000
1.000000 1.000000 1.000000
1.000000 1.000000 1.000000
1.000000 1.000000 1.000000
0.928227 1.000000 1.000000
0.763285 1.000000 1.000000
0.566997 1.000000 1.000000
0.336845 1.000000 1.000000
0.070183 1.000000 1.000000
0.000000 0.795512 1.000000
0.000000 0.375267 1.000000
0.000000 0.000000 1.000000
0.000000 0.000000 1.000000
0.000000 0.000000 1.000000
0.000000 0.000000 0.892711
0.000000 0.000000 0.663683
0.000000 0.000000 0.406403
