lrplugin/MindfulLensFilmEngine.lrplugin/profiles/luts/senova_light.cube
# Generated from ColorChecker fit
LUT_3D_SIZE 5
DOMAIN_MIN 0.0 0.0 0.0
DOMAIN_MAX 1.0 1.0 1.0
0.141846 0.059060 0.379972
0.000000 0.000000 0.412662
0.000000 0.000000 0.597246
0.000000 0.000000 0.484593
0.000000 0.000000 0.000000
0.370668 0.317991 0.931341
0.198089 0.477432 0.743870
0.006630 0.456447 0.578711
0.000000 0.000000 0.000000
0.000000 0.000000 0.000000
0.123386 0.227456 0.958739
0.113717 0.727484 0.773989
0.000000 0.512315 0.467784
0.000000 0.000000 0.000000
0.000000 0.000000 0.000000
0.602315 1.000000 1.000000
0.846725 1.000000 1.000000
0.097247 1.000000 1.000000
0.000000 0.000000 0.280401
0.000000 0.000000 0.000000
1.000000 1.000000 1.000000
1.000000 1.000000 1.000000
1.000000 1.000000 1.000000
0.000000 0.000000 1.000000
0.000000 0.000000 1.000000
0.182057 0.168470 0.000000
0.000000 0.000000 0.000000
0.088771 0.000000 0.201798
0.725071 0.000000 0.823912
0.826151 0.000000 1.000000
0.426641 0.428497 0.460135
0.245218 0.324644 0.335583
0.422258 0.405844 0.572112
0.467684 0.139482 0.724314
0.000000 0.000000 0.301629
0.161933 0.290708 0.568371
0.229627 0.644013 0.513136
0.205499 0.644628 0.677991
0.000000 0.000000 0.547686
0.000000 0.000000 0.000000
0.633653 1.000000 0.764205
1.000000 1.000000 1.000000
0.847188 1.000000 1.000000
0.000000 0.000000 1.000000
0.000000 0.000000 0.208565
1.000000 1.000000 1.000000
1.000000 1.000000 1.000000
1.000000 1.000000 1.000000
1.000000 1.000000 1.000000
0.000000 0.000000 1.000000
0.614472 0.713645 0.000000
0.000000 0.000000 0.000000
0.249734 0.000000 0.067221
1.000000 0.000000 0.927202
1.000000 0.318368 1.000000
0.740871 0.838298 0.412123
0.352191 0.271786 0.186203
0.569097 0.230456 0.471881
1.000000 0.451679 0.897309
1.000000 0.062849 1.000000
0.316390 0.467743 0.385222
0.269482 0.486674 0.251323
0.355497 0.490075 0.490804
0.204385 0.038225 0.661977
0.000000 0.000000 0.278006
0.630157 1.000000 0.306412
1.000000 1.000000 0.603442
1.000000 1.000000 1.000000
0.079341 0.064723 1.000000
0.000000 0.000000 0.729138
1.000000 1.000000 1.000000
1.000000 1.000000 1.000000
1.000000 1.000000 1.000000
1.000000 1.000000 1.000000
0.000000 0.000000 1.000000
1.000000 1.000000 0.000000
0.273168 0.000000 0.000000
0.402912 0.000000 0.143267
1.000000 0.000000 0.999898
1.000000 1.000000 1.000000
1.000000 1.000000 0.537100
0.657566 0.410830 0.301210
0.754346 0.193433 0.539179
1.000000 0.823357 0.952725
1.000000 1.000000 1.000000
0.723921 0.827477 0.470499
0.539088 0.495564 0.305441
0.581702 0.459931 0.478799
0.740423 0.550846 0.622449
0.381920 0.000000 0.323117
0.896241 1.000000 0.263226
1.000000 1.000000 0.500800
1.000000 1.000000 0.927163
0.792408 0.759547 1.000000
0.000000 0.000000 0.549246
1.000000 1.000000 1.000000
1.000000 1.000000 1.000000
1.000000 1.000000 1.000000
1.000000 1.000000 1.000000
0.404608 0.000000 1.000000
1.000000 1.000000 0.000000
0.162563 0.000000 0.000000
0.127100 0.000000 0.000000
1.000000 0.000000 0.408101
1.000000 1.000000 1.000000
1.000000 1.000000 0.000000
0.738743 0.359759 0.000000
0.724050 0.083941 0.195839
1.000000 1.000000 0.568077
1.000000 1.000000 0.693592
0.960534 0.964840 0.046076
0.783098 0.436792 0.153048
0.797409 0.491486 0.375220
1.000000 1.000000 0.418029
1.000000 1.000000 0.000000
1.000000 1.000000 0.167933
1.000000 1.000000 0.605348
1.000000 1.000000 1.000000
1.000000 1.000000 1.000000
0.330330 0.881946 0.224913
1.000000 1.000000 1.000000
1.000000 1.000000 1.000000
1.000000 1.000000 1.000000
1.000000 1.000000 1.000000
1.000000 1.000000 1.000000
