lrplugin/MindfulLensFilmEngine.lrplugin/profiles/luts/senova_light.cube
# Generated from ColorChecker fit
LUT_3D_SIZE 9
DOMAIN_MIN 0.0 0.0 0.0
DOMAIN_MAX 1.0 1.0 1.0
0.141846 0.059060 0.379972
0.000000 0.000000 0.351023
0.000000 0.000000 0.412662
0.000000 0.000000 0.512980
0.000000 0.000000 0.597246
0.000000 0.000000 0.607908
0.000000 0.000000 0.484593
0.000000 0.000000 0.164103
0.000000 0.000000 0.000000
0.359562 0.282465 0.745423
0.196036 0.227504 0.657268
0.114254 0.220737 0.648312
0.078222 0.230092 0.662280
0.019322 0.185373 0.640077
0.000000 0.000000 0.519786
0.000000 0.000000 0.236667
0.000000 0.000000 0.000000
0.000000 0.000000 0.000000
0.370668 0.317991 0.931341
0.260330 0.393929 0.804145
0.198089 0.477432 0.743870
0.139285 0.525359 0.689879
0.006630 0.456447 0.578711
0.000000 0.151309 0.344083
0.000000 0.000000 0.000000
0.000000 0.000000 0.000000
0.000000 0.000000 0.000000
0.250207 0.251455 0.975929
0.197992 0.445886 0.837994
0.152779 0.597154 0.753818
0.061239 0.651049 0.658398
0.000000 0.515241 0.483909
0.000000 0.059274 0.159702
0.000000 0.000000 0.000000
0.000000 0.000000 0.000000
0.000000 0.000000 0.000000
0.123386 0.227456 0.958739
0.139323 0.529466 0.846509
0.113717 0.727484 0.773989
0.000000 0.756234 0.671811
0.000000 0.512315 0.467784
0.000000 0.000000 0.086896
0.000000 0.000000 0.000000
0.000000 0.000000 0.000000
0.000000 0.000000 0.000000
0.165577 0.449380 1.000000
0.264787 0.849543 0.958733
0.266458 1.000000 0.941566
0.099926 1.000000 0.875440
0.000000 0.657013 0.683800
0.000000 0.000000 0.287268
0.000000 0.000000 0.000000
0.000000 0.000000 0.000000
0.000000 0.000000 0.000000
0.602315 1.000000 1.000000
0.805011 1.000000 1.000000
0.846725 1.000000 1.000000
0.648123 1.000000 1.000000
0.097247 1.000000 1.000000
0.000000 0.007083 0.963773
0.000000 0.000000 0.280401
0.000000 0.000000 0.000000
0.000000 0.000000 0.000000
1.000000 1.000000 1.000000
1.000000 1.000000 1.000000
1.000000 1.000000 1.000000
1.000000 1.000000 1.000000
1.000000 1.000000 1.000000
0.004847 0.963047 1.000000
0.000000 0.000000 1.000000
0.000000 0.000000 0.659040
0.000000 0.000000 0.000000
1.000000 1.000000 1.000000
1.000000 1.000000 1.000000
1.000000 1.000000 1.000000
1.000000 1.000000 1.000000
1.000000 1.000000 1.000000
1.000000 1.000000 1.000000
0.000000 0.000000 1.000000
0.000000 0.000000 1.000000
0.000000 0.000000 1.000000
0.122512 0.063601 0.000000
0.000000 0.000000 0.000000
0.000000 0.000000 0.000000
0.000000 0.000000 0.177469
0.000000 0.000000 0.396559
0.135208 0.000000 0.599122
0.192292 0.000000 0.729383
0.013153 0.000000 0.728742
0.000000 0.000000 0.535780
0.361067 0.305075 0.397644
0.186952 0.176486 0.311386
0.131048 0.125880 0.347784
0.173530 0.138058 0.455163
0.261949 0.159699 0.579023
0.311232 0.099359 0.662047
0.203680 0.000000 0.644091
0.000000 0.000000 0.462193
0.000000 0.000000 0.050567
0.386412 0.349397 0.659987
0.274000 0.362520 0.544963
0.244753 0.412810 0.540492
0.270180 0.474002 0.590533
0.289163 0.481706 0.636225
0.207961 0.333409 0.615881
0.000000 0.000000 0.464996
0.000000 0.000000 0.116241
0.000000 0.000000 0.000000
0.276304 0.287145 0.759685
0.232369 0.431898 0.643754
0.229105 0.562904 0.625386
0.229353 0.642829 0.644178
0.163327 0.596216 0.636900
0.000000 0.309483 0.537502
0.000000 0.000000 0.277114
0.000000 0.000000 0.000000
0.000000 0.000000 0.000000
0.158663 0.267681 0.774264
0.195074 0.535472 0.693425
0.222212 0.728503 0.696275
0.194249 0.798370 0.718042
0.032732 0.658550 0.691134
0.000000 0.184391 0.545136
0.000000 0.000000 0.206812
0.000000 0.000000 0.000000
0.000000 0.000000 0.000000
0.211574 0.499151 0.822601
0.345291 0.882878 0.820994
0.412341 1.000000 0.888313
0.358229 1.000000 0.955423
0.095835 0.882811 0.950365
0.000000 0.173727 0.798361
0.000000 0.000000 0.421807
0.000000 0.000000 0.000000
0.000000 0.000000 0.000000
0.663284 1.000000 1.000000
0.916360 1.000000 1.000000
1.000000 1.000000 1.000000
0.964822 1.000000 1.000000
0.601255 1.000000 1.000000
0.000000 0.551868 1.000000
0.000000 0.000000 1.000000
0.000000 0.000000 0.421782
0.000000 0.000000 0.000000
1.000000 1.000000 1.000000
1.000000 1.000000 1.000000
1.000000 1.000000 1.000000
1.000000 1.000000 1.000000
1.000000 1.000000 1.000000
0.870663 1.000000 1.000000
0.000000 0.000000 1.000000
0.000000 0.000000 1.000000
0.000000 0.000000 0.748243
1.000000 1.000000 1.000000
1.000000 1.000000 1.000000
1.000000 1.000000 1.000000
1.000000 1.000000 1.000000
1.000000 1.000000 1.000000
1.000000 1.000000 1.000000
1.000000 1.000000 1.000000
0.000000 0.000000 1.000000
0.000000 0.000000 1.000000
0.182057 0.168470 0.000000
0.000000 0.000000 0.000000
0.000000 0.000000 0.000000
0.000000 0.000000 0.000000
0.088771 0.000000 0.201798
0.407003 0.000000 0.524052
0.725071 0.000000 0.823912
0.917490 0.000000 1.000000
0.826151 0.000000 1.000000
0.414516 0.403228 0.172585
0.198137 0.165452 0.060334
0.128297 0.033863 0.102430
0.201340 0.010136 0.251797
0.380986 0.057825 0.458533
0.598333 0.102359 0.669918
0.751850 0.031044 0.830406
0.707385 0.000000 0.881633
0.298161 0.000000 0.762409
0.426641 0.428497 0.460135
0.280882 0.343978 0.326649
0.245218 0.324644 0.335583
0.307326 0.361105 0.435492
0.422258 0.405844 0.572112
0.512443 0.373224 0.688356
0.467684 0.139482 0.724314
0.145160 0.000000 0.617256
0.000000 0.000000 0.301629
0.298903 0.339616 0.566897
0.232378 0.400595 0.439592
0.232055 0.475660 0.441892
0.276943 0.544351 0.517986
0.313427 0.548085 0.609245
0.255267 0.390154 0.654217
0.000000 0.000000 0.588627
0.000000 0.000000 0.345381
0.000000 0.000000 0.000000
0.161933 0.290708 0.568371
0.188350 0.490917 0.482803
0.229627 0.644013 0.513136
0.256104 0.718467 0.599197
0.205499 0.644628 0.677991
0.000000 0.314721 0.683700
0.000000 0.000000 0.547686
0.000000 0.000000 0.198486
0.000000 0.000000 0.000000
0.196530 0.494679 0.581407
0.334689 0.829339 0.581271
0.428916 1.000000 0.682447
0.440884 1.000000 0.820397
0.299642 0.914338 0.927761
0.000000 0.367278 0.934357
0.000000 0.000000 0.767179
0.000000 0.000000 0.350403
0.000000 0.000000 0.000000
0.633653 1.000000 0.764205
0.907448 1.000000 0.901336
1.000000 1.000000 1.000000
1.000000 1.000000 1.000000
0.847188 1.000000 1.000000
0.267822 0.826965 1.000000
0.000000 0.000000 1.000000
0.000000 0.000000 1.000000
0.000000 0.000000 0.208565
1.000000 1.000000 1.000000
1.000000 1.000000 1.000000
1.000000 1.000000 1.000000
1.000000 1.000000 1.000000
1.000000 1.000000 1.000000
1.000000 1.000000 1.000000
0.024343 0.141786 1.000000
0.000000 0.000000 1.000000
0.000000 0.000000 1.000000
1.000000 1.000000 1.000000
1.000000 1.000000 1.000000
1.000000 1.000000 1.000000
1.000000 1.000000 1.000000
1.000000 1.000000 1.000000
1.000000 1.000000 1.000000
1.000000 1.000000 1.000000
0.000000 0.000000 1.000000
0.000000 0.000000 1.000000
0.348420 0.389687 0.000000
0.000000 0.000000 0.000000
0.000000 0.000000 0.000000
0.000000 0.000000 0.000000
0.165820 0.000000 0.085369
0.596539 0.000000 0.471084
1.000000 0.000000 0.872549
1.000000 0.000000 1.000000
1.000000 0.000000 1.000000
0.558302 0.602202 0.098193
0.278525 0.230379 0.000000
0.165475 0.000000 0.000000
0.231666 0.000000 0.128072
0.456989 0.000000 0.370477
0.788709 0.066033 0.651249
1.000000 0.162510 0.919443
1.000000 0.103311 1.000000
1.000000 0.000000 1.000000
0.540202 0.589827 0.379195
0.340365 0.383537 0.212596
0.269412 0.268867 0.208515
0.331191 0.253299 0.320108
0.496924 0.306192 0.497706
0.705208 0.358783 0.688820
0.862016 0.304182 0.838140
0.840697 0.000000 0.887532
0.481975 0.000000 0.776040
0.377302 0.452661 0.464439
0.267859 0.406470 0.308366
0.242009 0.400613 0.302169
0.294931 0.431505 0.394638
0.389180 0.457436 0.531740
0.454685 0.398574 0.656622
0.388751 0.136963 0.709606
0.056059 0.000000 0.628194
0.000000 0.000000 0.347066
0.202948 0.349586 0.427397
0.199446 0.459549 0.316960
0.226796 0.548462 0.342872
0.271510 0.601670 0.449556
0.287473 0.566396 0.578614
0.195948 0.351739 0.668827
0.000000 0.000000 0.656153
0.000000 0.000000 0.473730
0.000000 0.000000 0.051872
0.200650 0.498271 0.382892
0.323729 0.761933 0.361344
0.417470 0.933060 0.461729
0.459717 0.985930 0.624105
0.395687 0.856697 0.785710
0.137974 0.443392 0.880960
0.000000 0.000000 0.841447
0.000000 0.000000 0.595944
0.000000 0.000000 0.070401
0.604081 1.000000 0.487099
0.879475 1.000000 0.605831
1.000000 1.000000 0.831193
1.000000 1.000000 1.000000
0.967864 1.000000 1.000000
0.539899 0.957433 1.000000
0.000000 0.000000 1.000000
0.000000 0.000000 1.000000
0.000000 0.000000 0.623948
1.000000 1.000000 0.937542
1.000000 1.000000 1.000000
1.000000 1.000000 1.000000
1.000000 1.000000 1.000000
1.000000 1.000000 1.000000
1.000000 1.000000 1.000000
0.588050 0.617367 1.000000
0.000000 0.000000 1.000000
0.000000 0.000000 1.000000
1.000000 1.000000 1.000000
1.000000 1.000000 1.000000
1.000000 1.000000 1.000000
1.000000 1.000000 1.000000
1.000000 1.000000 1.000000
1.000000 1.000000 1.000000
1.000000 1.000000 1.000000
0.382584 0.000000 1.000000
0.000000 0.000000 1.000000
0.614472 0.713645 0.000000
0.178240 0.010469 0.000000
0.000000 0.000000 0.000000
0.000000 0.000000 0.000000
0.249734 0.000000 0.067221
0.749386 0.000000 0.476148
1.000000 0.000000 0.927202
1.000000 0.055721 1.000000
1.000000 0.318368 1.000000
0.795749 0.897651 0.149958
0.441979 0.377618 0.000000
0.266985 0.015425 0.000000
0.299452 0.000000 0.107418
0.535440 0.000000 0.354265
0.938382 0.039527 0.661433
1.000000 0.281713 0.982573
1.000000 0.477629 1.000000
1.000000 0.472083 1.000000
0.740871 0.838298 0.412123
0.476763 0.496808 0.213737
0.352191 0.271786 0.186203
0.387172 0.187591 0.287274
0.569097 0.230456 0.471881
0.852733 0.348490 0.692130
1.000000 0.451679 0.897309
1.000000 0.411886 1.000000
1.000000 0.062849 1.000000
0.535731 0.640448 0.466728
0.373580 0.474389 0.280470
0.304275 0.373328 0.252596
0.339165 0.350555 0.336492
0.456973 0.381233 0.482724
0.603798 0.402406 0.639036
0.693115 0.312989 0.750348
0.605774 0.000000 0.758760
0.190001 0.000000 0.603550
0.316390 0.467743 0.385222
0.273583 0.475495 0.245758
0.269482 0.486674 0.251323
0.306768 0.503502 0.350938
0.355497 0.490075 0.490804
0.353101 0.372366 0.614298
0.204385 0.038225 0.661977
0.000000 0.000000 0.571576
0.000000 0.000000 0.278006
0.269070 0.542613 0.280400
0.368086 0.724043 0.230538
0.444219 0.837231 0.311463
0.491483 0.873329 0.467830
0.471265 0.785366 0.641476
0.312329 0.488247 0.771414
0.000000 0.000000 0.793835
0.000000 0.000000 0.642108
0.000000 0.000000 0.246779
0.630157 1.000000 0.306412
0.898569 1.000000 0.397098
1.000000 1.000000 0.603442
1.000000 1.000000 0.865736
1.000000 1.000000 1.000000
0.743332 1.000000 1.000000
0.079341 0.064723 1.000000
0.000000 0.000000 1.000000
0.000000 0.000000 0.729138
1.000000 1.000000 0.658753
1.000000 1.000000 0.949075
1.000000 1.000000 1.000000
1.000000 1.000000 1.000000
1.000000 1.000000 1.000000
1.000000 1.000000 1.000000
1.000000 1.000000 1.000000
0.000000 0.000000 1.000000
0.000000 0.000000 1.000000
1.000000 1.000000 1.000000
1.000000 1.000000 1.000000
1.000000 1.000000 1.000000
1.000000 1.000000 1.000000
1.000000 1.000000 1.000000
1.000000 1.000000 1.000000
1.000000 1.000000 1.000000
1.000000 0.347724 1.000000
0.000000 0.000000 1.000000
0.938008 1.000000 0.000000
0.419442 0.230850 0.000000
0.116754 0.000000 0.000000
0.083464 0.000000 0.000000
0.340469 0.000000 0.114843
0.876042 0.000000 0.522712
1.000000 0.000000 0.987321
1.000000 0.384519 1.000000
1.000000 1.000000 1.000000
1.000000 1.000000 0.250913
0.667288 0.583896 0.053144
0.422158 0.093482 0.034205
0.404568 0.000000 0.160810
0.626749 0.000000 0.396852
1.000000 0.042364 0.703402
1.000000 0.418874 1.000000
1.000000 0.856936 1.000000
1.000000 1.000000 1.000000
1.000000 1.000000 0.501412
0.679320 0.669775 0.288547
0.493339 0.330087 0.243103
0.485592 0.171366 0.327428
0.659641 0.196717 0.501052
0.986421 0.371126 0.720681
1.000000 0.621452 0.940198
1.000000 0.836433 1.000000
1.000000 0.866680 1.000000
0.763346 0.887522 0.535724
0.549239 0.599596 0.333845
0.429092 0.399749 0.287091
0.430422 0.318142 0.353447
0.548123 0.346816 0.488076
0.744464 0.439686 0.643319
0.949089 0.512544 0.768694
1.000000 0.443059 0.810899
0.938644 0.070774 0.713810
0.501869 0.638981 0.423268
0.420910 0.543254 0.266598
0.378373 0.473850 0.251871
0.393109 0.449862 0.332707
0.451341 0.452262 0.459904
0.506671 0.423898 0.581437
0.480076 0.269492 0.642461
0.259907 0.000000 0.585307
0.000000 0.000000 0.349486
0.411852 0.630763 0.274817
0.488362 0.729427 0.205718
0.540306 0.782558 0.264494
0.577866 0.798182 0.400400
0.578601 0.746202 0.559867
0.487442 0.558397 0.686507
0.216698 0.128422 0.721109
0.000000 0.000000 0.601640
0.000000 0.000000 0.263244
0.732396 1.000000 0.242490
0.995786 1.000000 0.311466
1.000000 1.000000 0.493361
1.000000 1.000000 0.733065
1.000000 1.000000 0.972647
0.951340 1.000000 1.000000
0.428613 0.384244 1.000000
0.000000 0.000000 1.000000
0.000000 0.000000 0.672327
1.000000 1.000000 0.519760
1.000000 1.000000 0.785453
1.000000 1.000000 1.000000
1.000000 1.000000 1.000000
1.000000 1.000000 1.000000
1.000000 1.000000 1.000000
1.000000 1.000000 1.000000
0.123285 0.000000 1.000000
0.000000 0.000000 1.000000
1.000000 1.000000 1.000000
1.000000 1.000000 1.000000
1.000000 1.000000 1.000000
1.000000 1.000000 1.000000
1.000000 1.000000 1.000000
1.000000 1.000000 1.000000
1.000000 1.000000 1.000000
1.000000 1.000000 1.000000
0.000000 0.000000 1.000000
1.000000 1.000000 0.000000
0.650936 0.444396 0.000000
0.273168 0.000000 0.000000
0.178138 0.000000 0.000000
0.402912 0.000000 0.143267
0.951933 0.000000 0.541789
1.000000 0.000000 0.999898
1.000000 0.712229 1.000000
1.000000 1.000000 1.000000
1.000000 1.000000 0.271631
0.898170 0.796319 0.096112
0.585250 0.183333 0.084050
0.511812 0.000000 0.206760
0.706256 0.000000 0.432731
1.000000 0.064443 0.727632
1.000000 0.574590 1.000000
1.000000 1.000000 1.000000
1.000000 1.000000 1.000000
1.000000 1.000000 0.537100
0.902206 0.858801 0.343044
0.657566 0.410830 0.301210
0.601702 0.182380 0.378547
0.754346 0.193433 0.539179
1.000000 0.425848 0.744411
1.000000 0.823357 0.952725
1.000000 1.000000 1.000000
1.000000 1.000000 1.000000
1.000000 1.000000 0.580925
0.759459 0.747711 0.393970
0.591622 0.456192 0.347116
0.554407 0.321284 0.402945
0.658876 0.351900 0.521217
0.883469 0.518831 0.658872
1.000000 0.754741 0.770026
1.000000 0.954175 0.805974
1.000000 0.973551 0.715189
0.723921 0.827477 0.470499
0.616505 0.637705 0.324424
0.539088 0.495564 0.305441
0.526689 0.437025 0.371767
0.581702 0.459931 0.478799
0.673898 0.524005 0.579109
0.740423 0.550846 0.622449
0.685798 0.423926 0.555750
0.381920 0.000000 0.323117
0.603987 0.736158 0.314568
0.670087 0.762221 0.251291
0.701800 0.763875 0.301211
0.725477 0.766021 0.418180
0.734844 0.755434 0.553229
0.691005 0.680770 0.654567
0.522437 0.452557 0.667579
0.124993 0.000000 0.534831
0.000000 0.000000 0.196064
0.896241 1.000000 0.263226
1.000000 1.000000 0.332805
1.000000 1.000000 0.500800
1.000000 1.000000 0.716698
1.000000 1.000000 0.927163
1.000000 1.000000 1.000000
0.792408 0.759547 1.000000
0.038701 0.000000 0.950293
0.000000 0.000000 0.549246
1.000000 1.000000 0.507917
1.000000 1.000000 0.768552
1.000000 1.000000 1.000000
1.000000 1.000000 1.000000
1.000000 1.000000 1.000000
1.000000 1.000000 1.000000
1.000000 1.000000 1.000000
0.754550 0.393760 1.000000
0.000000 0.000000 1.000000
1.000000 1.000000 1.000000
1.000000 1.000000 1.000000
1.000000 1.000000 1.000000
1.000000 1.000000 1.000000
1.000000 1.000000 1.000000
1.000000 1.000000 1.000000
1.000000 1.000000 1.000000
1.000000 1.000000 1.000000
0.404608 0.000000 1.000000
1.000000 1.000000 0.000000
0.770916 0.559327 0.000000
0.330551 0.000000 0.000000
0.178125 0.000000 0.000000
0.366875 0.000000 0.015065
0.917412 0.000000 0.411932
1.000000 0.000000 0.859466
1.000000 1.000000 1.000000
1.000000 1.000000 1.000000
1.000000 1.000000 0.030226
1.000000 0.932366 0.000000
0.675449 0.213157 0.000000
0.550911 0.000000 0.111325
0.714226 0.000000 0.343939
1.000000 0.066038 0.632139
1.000000 0.719835 0.943369
1.000000 1.000000 1.000000
1.000000 1.000000 1.000000
1.000000 1.000000 0.356764
1.000000 0.990622 0.230786
0.774511 0.451450 0.230066
0.675682 0.168770 0.326150
0.803934 0.179438 0.487761
1.000000 0.482187 0.680802
1.000000 1.000000 0.868351
1.000000 1.000000 1.000000
1.000000 1.000000 1.000000
1.000000 1.000000 0.459373
0.933792 0.854728 0.333867
0.731958 0.489352 0.321672
0.661751 0.317372 0.389967
0.750404 0.364576 0.503110
0.992525 0.618628 0.622639
1.000000 1.000000 0.707268
1.000000 1.000000 0.712888
1.000000 1.000000 0.592571
0.912012 0.967787 0.403420
0.800374 0.704099 0.311721
0.702172 0.507769 0.320498
0.668595 0.431640 0.392564
0.718207 0.490431 0.487915
0.836948 0.660738 0.563720
0.978133 0.881033 0.574329
1.000000 1.000000 0.471270
0.977974 1.000000 0.203248
0.785392 0.802611 0.295622
0.863721 0.776935 0.279205
0.889701 0.746391 0.349541
0.905853 0.752752 0.465081
0.922074 0.799670 0.581453
0.915636 0.852673 0.651462
0.831186 0.839164 0.625094
0.580748 0.648424 0.449510
0.043718 0.131609 0.069051
1.000000 1.000000 0.284049
1.000000 1.000000 0.392527
1.000000 1.000000 0.573151
1.000000 1.000000 0.780005
1.000000 1.000000 0.964353
1.000000 1.000000 1.000000
1.000000 1.000000 1.000000
0.587537 0.603514 0.852656
0.000000 0.000000 0.403169
1.000000 1.000000 0.558118
1.000000 1.000000 0.849247
1.000000 1.000000 1.000000
1.000000 1.000000 1.000000
1.000000 1.000000 1.000000
1.000000 1.000000 1.000000
1.000000 1.000000 1.000000
1.000000 1.000000 1.000000
0.000000 0.000000 1.000000
1.000000 1.000000 1.000000
1.000000 1.000000 1.000000
1.000000 1.000000 1.000000
1.000000 1.000000 1.000000
1.000000 1.000000 1.000000
1.000000 1.000000 1.000000
1.000000 1.000000 1.000000
1.000000 1.000000 1.000000
1.000000 0.721205 1.000000
1.000000 1.000000 0.000000
0.642500 0.454243 0.000000
0.162563 0.000000 0.000000
0.000000 0.000000 0.000000
0.127100 0.000000 0.000000
0.677760 0.000000 0.000000
1.000000 0.000000 0.408101
1.000000 1.000000 0.860532
1.000000 1.000000 1.000000
1.000000 1.000000 0.000000
0.976166 0.879891 0.000000
0.576868 0.081509 0.000000
0.416518 0.000000 0.000000
0.555854 0.000000 0.000000
1.000000 0.000000 0.262481
1.000000 0.795958 0.567426
1.000000 1.000000 0.844111
1.000000 1.000000 1.000000
1.000000 1.000000 0.000000
1.000000 0.962352 0.000000
0.738743 0.359759 0.000000
0.612639 0.049045 0.003297
0.724050 0.083941 0.195839
1.000000 0.480052 0.394873
1.000000 1.000000 0.568077
1.000000 1.000000 0.680305
1.000000 1.000000 0.693592
1.000000 1.000000 0.000000
0.966719 0.827018 0.000000
0.755121 0.416298 0.047303
0.668016 0.234175 0.167038
0.748808 0.323312 0.302260
1.000000 0.688246 0.419105
1.000000 1.000000 0.480884
1.000000 1.000000 0.448087
1.000000 1.000000 0.278382
0.960534 0.964840 0.046076
0.877449 0.658066 0.068516
0.783098 0.436792 0.153048
0.744840 0.370734 0.267086
0.797409 0.491486 0.375220
0.942914 0.792518 0.439218
1.000000 1.000000 0.418029
1.000000 1.000000 0.267777
1.000000 1.000000 0.000000
0.860914 0.744308 0.061489
0.984649 0.698456 0.148951
1.000000 0.665691 0.284956
1.000000 0.704661 0.432553
1.000000 0.835892 0.551968
1.000000 1.000000 0.600605
1.000000 1.000000 0.533046
0.991945 1.000000 0.301050
0.657182 1.000000 0.000000
1.000000 1.000000 0.167933
1.000000 1.000000 0.369586
1.000000 1.000000 0.605348
1.000000 1.000000 0.833902
1.000000 1.000000 1.000000
1.000000 1.000000 1.000000
1.000000 1.000000 1.000000
1.000000 1.000000 0.750926
0.330330 0.881946 0.224913
1.000000 1.000000 0.552800
1.000000 1.000000 0.925955
1.000000 1.000000 1.000000
1.000000 1.000000 1.000000
1.000000 1.000000 1.000000
1.000000 1.000000 1.000000
1.000000 1.000000 1.000000
1.000000 1.000000 1.000000
0.826358 1.000000 1.000000
1.000000 1.000000 1.000000
1.000000 1.000000 1.000000
1.000000 1.000000 1.000000
1.000000 1.000000 1.000000
1.000000 1.000000 1.000000
1.000000 1.000000 1.000000
1.000000 1.000000 1.000000
1.000000 1.000000 1.000000
1.000000 1.000000 1.000000
