lrplugin/MindfulLensFilmEngine.lrplugin/profiles/luts/solara_100_cc.cube
# Generated from ColorChecker fit
LUT_3D_SIZE 33
DOMAIN_MIN 0.0 0.0 0.0
DOMAIN_MAX 1.0 1.0 1.0
0.028860 0.000000 0.027705
0.018250 0.000000 0.040531
0.000326 0.000000 0.054744
0.000000 0.000000 0.070167
0.000000 0.000000 0.086618
0.000000 0.000000 0.103915
0.000000 0.000000 0.121868
0.000000 0.000000 0.140286
0.000000 0.000000 0.158974
0.000000 0.000000 0.177733
0.000000 0.000000 0.196360
0.000000 0.000000 0.214650
0.000000 0.000000 0.232393
0.000000 0.000000 0.249375
0.000000 0.000000 0.265379
0.000000 0.000000 0.280186
0.000000 0.000000 0.293570
0.000000 0.000000 0.305304
0.000000 0.000000 0.315157
0.000000 0.000000 0.322893
0.000000 0.000000 0.328274
0.000000 0.000000 0.331058
0.000000 0.000000 0.330999
0.000000 0.000000 0.327847
0.000000 0.000000 0.321349
0.000000 0.000000 0.311248
0.000000 0.000000 0.297285
0.000000 0.000000 0.279194
0.000000 0.000000 0.256710
0.000000 0.000000 0.229559
0.000000 0.000000 0.197468
0.000000 0.000000 0.160158
0.000000 0.000000 0.117348
0.000000 0.000000 0.038374
0.000000 0.000000 0.054118
0.000000 0.000000 0.071463
0.000000 0.000000 0.090212
0.000000 0.000000 0.110163
0.000000 0.000000 0.131111
0.000000 0.000000 0.152848
0.000000 0.000000 0.175163
0.000000 0.000000 0.197839
0.000000 0.000000 0.220658
0.000000 0.000000 0.243396
0.000000 0.000000 0.265828
0.000000 0.000000 0.287723
0.000000 0.000000 0.308847
0.000000 0.000000 0.328964
0.000000 0.000000 0.347832
0.000000 0.000000 0.365207
0.000000 0.000000 0.380841
0.000000 0.000000 0.394481
0.000000 0.000000 0.405874
0.000000 0.000000 0.414759
0.000000 0.000000 0.420874
0.000000 0.000000 0.423953
0.000000 0.000000 0.423726
0.000000 0.000000 0.419919
0.000000 0.000000 0.412256
0.000000 0.000000 0.400456
0.000000 0.000000 0.384234
0.000000 0.000000 0.363303
0.000000 0.000000 0.337371
0.000000 0.000000 0.306144
0.000000 0.000000 0.269321
0.000000 0.000000 0.226601
0.000000 0.000000 0.045113
0.000000 0.000000 0.063715
0.000000 0.000000 0.084121
0.000000 0.000000 0.106114
0.000000 0.000000 0.129470
0.000000 0.000000 0.153967
0.000000 0.000000 0.179374
0.000000 0.000000 0.205460
0.000000 0.000000 0.231989
0.000000 0.000000 0.258720
0.000000 0.000000 0.285412
0.000000 0.000000 0.311818
0.000000 0.000000 0.337686
0.000000 0.000000 0.362763
0.000000 0.000000 0.386791
0.000000 0.000000 0.409510
0.000000 0.000000 0.430653
0.000000 0.000000 0.449954
0.000000 0.000000 0.467139
0.000000 0.000000 0.481933
0.000000 0.000000 0.494057
0.000000 0.000000 0.503227
0.000000 0.000000 0.509158
0.000000 0.000000 0.511559
0.000000 0.000000 0.510136
0.000000 0.000000 0.504592
0.000000 0.000000 0.494625
0.000000 0.000000 0.479932
0.000000 0.000000 0.460204
0.000000 0.000000 0.435129
0.000000 0.000000 0.404391
0.000000 0.000000 0.367672
0.000000 0.000000 0.324648
0.000000 0.000000 0.047663
0.000000 0.000000 0.069082
0.000000 0.000000 0.092498
0.000000 0.000000 0.117672
0.000000 0.000000 0.144363
0.000000 0.000000 0.172324
0.000000 0.000000 0.201307
0.000000 0.000000 0.231059
0.000000 0.000000 0.261325
0.000000 0.000000 0.291843
0.000000 0.000000 0.322352
0.000000 0.000000 0.352583
0.000000 0.000000 0.382265
0.000000 0.000000 0.411126
0.000000 0.000000 0.438886
0.000000 0.000000 0.465263
0.000000 0.000000 0.489974
0.000000 0.000000 0.512729
0.000000 0.000000 0.533235
0.000000 0.000000 0.551197
0.000000 0.000000 0.566315
0.000000 0.000000 0.578286
0.000000 0.000000 0.586802
0.000000 0.000000 0.591554
0.000000 0.000000 0.592227
0.000000 0.000000 0.588503
0.000000 0.000000 0.580061
0.000000 0.000000 0.566576
0.000000 0.000000 0.547720
0.000000 0.000000 0.523160
0.000000 0.000000 0.492560
0.000000 0.000000 0.455581
0.000000 0.000000 0.411881
0.000000 0.000000 0.045816
0.000000 0.000000 0.070033
0.000000 0.000000 0.096428
0.000000 0.000000 0.124743
0.000000 0.000000 0.154715
0.000000 0.000000 0.186078
0.000000 0.000000 0.218563
0.000000 0.000000 0.251897
0.000000 0.000000 0.285804
0.000000 0.000000 0.320004
0.000000 0.000000 0.354212
0.000000 0.000000 0.388141
0.000000 0.000000 0.421500
0.000000 0.000000 0.453994
0.000000 0.000000 0.485326
0.000000 0.000000 0.515193
0.000000 0.000000 0.543289
0.000000 0.000000 0.569306
0.000000 0.000000 0.592931
0.000000 0.000000 0.613847
0.000000 0.000000 0.631735
0.000000 0.000000 0.646270
0.000000 0.000000 0.657127
0.000000 0.000000 0.663972
0.000000 0.000000 0.666473
0.000000 0.000000 0.664292
0.000000 0.000000 0.657086
0.000000 0.000000 0.644510
0.000000 0.000000 0.626215
0.000000 0.000000 0.601849
0.000000 0.000000 0.571055
0.000000 0.000000 0.533474
0.000000 0.000000 0.488743
0.000000 0.000000 0.039422
0.000000 0.000000 0.066438
0.000000 0.000000 0.095802
0.000000 0.000000 0.127235
0.000000 0.000000 0.160456
0.000000 0.000000 0.195179
0.000000 0.000000 0.231113
0.000000 0.000000 0.267965
0.000000 0.000000 0.305438
0.000000 0.000000 0.343233
0.000000 0.000000 0.381044
0.000000 0.000000 0.418564
0.000000 0.000000 0.455481
0.000000 0.000000 0.491481
0.000000 0.000000 0.526245
0.000000 0.000000 0.559451
0.000000 0.000000 0.590772
0.000000 0.000000 0.619880
0.000000 0.000000 0.646440
0.000000 0.000000 0.670118
0.000000 0.000000 0.690571
0.000000 0.000000 0.707457
0.000000 0.000000 0.720427
0.000000 0.000000 0.729131
0.000000 0.000000 0.733213
0.000000 0.000000 0.732316
0.000000 0.000000 0.726077
0.000000 0.000000 0.714130
0.000000 0.000000 0.696107
0.000000 0.000000 0.671634
0.000000 0.000000 0.640335
0.000000 0.000000 0.601830
0.000000 0.000000 0.555735
0.000000 0.000000 0.028385
0.000000 0.000000 0.058219
0.000000 0.000000 0.090561
0.000000 0.000000 0.125113
0.000000 0.000000 0.161572
0.000000 0.000000 0.199632
0.000000 0.000000 0.238981
0.000000 0.000000 0.279307
0.000000 0.000000 0.320293
0.000000 0.000000 0.361617
0.000000 0.000000 0.402955
0.000000 0.000000 0.443979
0.000000 0.000000 0.484358
0.000000 0.000000 0.523755
0.000000 0.000000 0.561832
0.000000 0.000000 0.598246
0.000000 0.000000 0.632651
0.000000 0.000000 0.664698
0.000000 0.000000 0.694033
0.000000 0.000000 0.720298
0.000000 0.000000 0.743133
0.000000 0.000000 0.762175
0.000000 0.000000 0.777054
0.000000 0.000000 0.787400
0.000000 0.000000 0.792837
0.000000 0.000000 0.792986
0.000000 0.000000 0.787466
0.000000 0.000000 0.775890
0.000000 0.000000 0.757868
0.000000 0.000000 0.733008
0.000000 0.000000 0.700912
0.000000 0.000000 0.661181
0.047946 0.000000 0.613409
0.000000 0.000000 0.012660
0.000000 0.000000 0.045354
0.000000 0.000000 0.080706
0.000000 0.000000 0.118396
0.000000 0.000000 0.158102
0.000000 0.000000 0.199496
0.000000 0.000000 0.242248
0.000000 0.000000 0.286025
0.000000 0.000000 0.330488
0.000000 0.000000 0.375297
0.000000 0.000000 0.420107
0.000000 0.000000 0.464568
0.000000 0.000000 0.508330
0.000000 0.000000 0.551036
0.000000 0.000000 0.592327
0.000000 0.000000 0.631841
0.000000 0.000000 0.669210
0.000000 0.000000 0.704065
0.000000 0.000000 0.736031
0.000000 0.000000 0.764732
0.000000 0.000000 0.789786
0.000000 0.000000 0.810809
0.000000 0.000000 0.827413
0.000000 0.000000 0.839205
0.000000 0.000000 0.845790
0.000000 0.000000 0.846769
0.000000 0.000000 0.841740
0.000000 0.000000 0.830296
0.000000 0.000000 0.812026
0.000000 0.000000 0.786519
0.018872 0.000000 0.753355
0.091864 0.000000 0.712116
0.175861 0.000000 0.662375
0.000000 0.000000 0.000000
0.000000 0.000000 0.027877
0.000000 0.000000 0.066288
0.000000 0.000000 0.107156
0.000000 0.000000 0.150138
0.000000 0.000000 0.194885
0.000000 0.000000 0.241048
0.000000 0.000000 0.288272
0.000000 0.000000 0.336199
0.000000 0.000000 0.384468
0.000000 0.000000 0.432713
0.000000 0.000000 0.480566
0.000000 0.000000 0.527655
0.000000 0.000000 0.573602
0.000000 0.000000 0.618029
0.000000 0.000000 0.660553
0.000000 0.000000 0.700786
0.000000 0.000000 0.738338
0.000000 0.000000 0.772815
0.000000 0.000000 0.803819
0.000000 0.000000 0.830949
0.000000 0.000000 0.853800
0.000000 0.000000 0.871963
0.000000 0.000000 0.885026
0.000000 0.000000 0.892573
0.000000 0.000000 0.894185
0.000000 0.000000 0.889440
0.000000 0.000000 0.877909
0.011049 0.000000 0.859163
0.066111 0.000000 0.832768
0.129900 0.000000 0.798286
0.203186 0.000000 0.755277
0.286762 0.000000 0.703295
0.000000 0.000000 0.000000
0.000000 0.000000 0.005874
0.000000 0.000000 0.047416
0.000000 0.000000 0.091522
0.000000 0.000000 0.137828
0.000000 0.000000 0.185968
0.000000 0.000000 0.235569
0.000000 0.000000 0.286258
0.000000 0.000000 0.337655
0.000000 0.000000 0.389380
0.000000 0.000000 0.441046
0.000000 0.000000 0.492264
0.000000 0.000000 0.542642
0.000000 0.000000 0.591784
0.000000 0.000000 0.639289
0.000000 0.000000 0.684754
0.000000 0.000000 0.727771
0.000000 0.000000 0.767930
0.000000 0.000000 0.804816
0.000000 0.000000 0.838011
0.000000 0.000000 0.867094
0.000000 0.000000 0.891639
0.000000 0.000000 0.911218
0.000000 0.000000 0.925397
0.000000 0.000000 0.933741
0.000000 0.000000 0.935810
0.016723 0.000000 0.931160
0.058417 0.000000 0.919345
0.106792 0.000000 0.899913
0.162529 0.000000 0.872411
0.226332 0.000000 0.836381
0.298930 0.000000 0.791361
0.381079 0.000000 0.736887
0.000000 0.000000 0.000000
0.000000 0.000000 0.000000
0.000000 0.000000 0.024250
0.000000 0.000000 0.071675
0.000000 0.000000 0.121376
0.000000 0.000000 0.172967
0.000000 0.000000 0.226055
0.000000 0.000000 0.280245
0.000000 0.000000 0.335140
0.000000 0.000000 0.390336
0.000000 0.000000 0.445428
0.000000 0.000000 0.500007
0.000000 0.000000 0.553658
0.000000 0.000000 0.605967
0.000000 0.000000 0.656512
0.000000 0.000000 0.704869
0.000000 0.000000 0.750611
0.000000 0.000000 0.793307
0.000000 0.000000 0.832521
0.000000 0.000000 0.867817
0.000000 0.000000 0.898750
0.000000 0.000000 0.924877
0.000000 0.000000 0.945747
0.000746 0.000000 0.960907
0.028845 0.000000 0.969902
0.061248 0.000000 0.972271
0.098520 0.000000 0.967551
0.141251 0.000000 0.955273
0.190055 0.000000 0.934968
0.245573 0.010202 0.906160
0.308469 0.028038 0.868372
0.379433 0.049458 0.821121
0.459180 0.074997 0.763922
0.000000 0.000000 0.000000
0.000000 0.000000 0.000000
0.000000 0.000000 0.000000
0.000000 0.000000 0.047852
0.000000 0.000000 0.101038
0.000000 0.000000 0.156159
0.000000 0.000000 0.212802
0.000000 0.000000 0.270553
0.000000 0.000000 0.328991
0.000000 0.000000 0.387696
0.000000 0.000000 0.446239
0.000000 0.000000 0.504193
0.000000 0.000000 0.561122
0.000000 0.000000 0.616591
0.000000 0.000000 0.670158
0.000000 0.000000 0.721380
0.000000 0.000000 0.769808
0.000000 0.000000 0.814991
0.000000 0.000000 0.856473
0.000000 0.009634 0.893797
0.000000 0.022652 0.926499
0.017182 0.034486 0.954114
0.041072 0.045417 0.976172
0.067777 0.055747 0.992200
0.097771 0.065793 1.000000
0.131555 0.075894 1.000000
0.169652 0.086405 0.999317
0.212614 0.097703 0.986420
0.261014 0.110182 0.965073
0.315452 0.124254 0.934780
0.376553 0.140351 0.895044
0.444967 0.158923 0.845361
0.521369 0.180440 0.785227
0.000000 0.000000 0.000000
0.000000 0.000000 0.000000
0.000000 0.000000 0.000000
0.000000 0.000000 0.020344
0.000000 0.000000 0.077126
0.000000 0.000000 0.135877
0.000000 0.000000 0.196165
0.000000 0.000000 0.257553
0.000000 0.000000 0.319603
0.000000 0.000000 0.381872
0.000000 0.000000 0.443913
0.000000 0.000000 0.505277
0.000000 0.000000 0.565508
0.000000 0.000000 0.624151
0.000000 0.000000 0.680744
0.000000 0.000000 0.734822
0.000000 0.020453 0.785917
0.000000 0.045190 0.833557
0.003852 0.067700 0.877268
0.025211 0.088144 0.916569
0.047769 0.106701 0.950978
0.071884 0.123570 0.980009
0.097942 0.138969 1.000000
0.126352 0.153134 1.000000
0.157549 0.166321 1.000000
0.191994 0.178802 1.000000
0.230170 0.190870 1.000000
0.272587 0.202838 1.000000
0.319781 0.215034 0.991027
0.372311 0.227808 0.959091
0.430762 0.241528 0.917237
0.495743 0.256580 0.864943
0.567890 0.273369 0.801683
0.000000 0.000000 0.000000
0.000000 0.000000 0.000000
0.000000 0.000000 0.000000
0.000000 0.000000 0.000000
0.000000 0.000000 0.050006
0.000000 0.000000 0.112507
0.000000 0.000000 0.176548
0.000000 0.000000 0.241673
0.000000 0.000000 0.307422
0.000000 0.000000 0.373333
0.000000 0.000000 0.438938
0.000000 0.000000 0.503767
0.000000 0.000000 0.567345
0.000000 0.000000 0.629196
0.000000 0.001598 0.688837
0.000000 0.038245 0.745784
0.000000 0.072180 0.799548
0.020390 0.103464 0.849637
0.044006 0.132175 0.895556
0.068156 0.158410 0.936804
0.093134 0.182286 0.972879
0.119260 0.203936 1.000000
0.146880 0.223515 1.000000
0.176362 0.241195 1.000000
0.208102 0.257166 1.000000
0.242519 0.271639 1.000000
0.280059 0.284842 1.000000
0.321190 0.297023 1.000000
0.366409 0.308448 1.000000
0.416234 0.319401 0.979967
0.471210 0.330188 0.935847
0.531908 0.341129 0.880782
0.598922 0.352567 0.814225
0.000000 0.000000 0.000000
0.000000 0.000000 0.000000
0.000000 0.000000 0.000000
0.000000 0.000000 0.000000
0.000000 0.000000 0.020098
0.000000 0.000000 0.086489
0.000000 0.000000 0.154413
0.000000 0.000000 0.223394
0.000000 0.000000 0.292951
0.000000 0.000000 0.362600
0.000000 0.000000 0.431856
0.000000 0.000000 0.500226
0.000000 0.000000 0.567216
0.000000 0.000000 0.632329
0.000000 0.028819 0.695062
0.000000 0.072541 0.754911
0.025562 0.113301 0.811366
0.051886 0.151094 0.863915
0.078156 0.185935 0.912042
0.104604 0.217857 0.955227
0.131483 0.246912 0.992946
0.159073 0.273172 1.000000
0.187680 0.296724 1.000000
0.217633 0.317679 1.000000
0.249287 0.336163 1.000000
0.283022 0.352321 1.000000
0.319242 0.366319 1.000000
0.358378 0.378341 1.000000
0.400884 0.388587 1.000000
0.447240 0.397280 0.998337
0.497951 0.404659 0.951822
0.553547 0.410982 0.893847
0.614583 0.416528 0.823843
0.000000 0.000000 0.000000
0.000000 0.000000 0.000000
0.000000 0.000000 0.000000
0.000000 0.000000 0.000000
0.000000 0.000000 0.000000
0.000000 0.000000 0.058320
0.000000 0.000000 0.130277
0.000000 0.000000 0.203252
0.000000 0.000000 0.276745
0.000000 0.000000 0.350251
0.000000 0.000000 0.423263
0.000000 0.000000 0.495271
0.000000 0.000000 0.565759
0.000000 0.000000 0.634208
0.000000 0.042131 0.700097
0.019073 0.093040 0.762901
0.048524 0.140702 0.822089
0.077413 0.185049 0.877130
0.105905 0.226031 0.927486
0.134190 0.263617 0.972618
0.162482 0.297796 1.000000
0.191023 0.328575 1.000000
0.220075 0.355978 1.000000
0.249930 0.380051 1.000000
0.280902 0.400857 1.000000
0.313331 0.418477 1.000000
0.347582 0.433013 1.000000
0.384044 0.444584 1.000000
0.423133 0.453327 1.000000
0.465289 0.459401 1.000000
0.510976 0.462981 0.966167
0.560684 0.464262 0.905162
0.614928 0.463456 0.831582
0.000000 0.000000 0.000000
0.000000 0.000000 0.000000
0.000000 0.000000 0.000000
0.000000 0.000000 0.000000
0.000000 0.000000 0.000000
0.000000 0.000000 0.028549
0.000000 0.000000 0.104709
0.000000 0.000000 0.181838
0.000000 0.000000 0.259415
0.000000 0.000000 0.336916
0.000000 0.000000 0.413813
0.000000 0.000000 0.489575
0.000000 0.000000 0.563665
0.000000 0.000000 0.635546
0.000459 0.037966 0.704676
0.033425 0.096256 0.770508
0.065398 0.150981 0.832492
0.096479 0.202008 0.890076
0.126792 0.249225 0.942703
0.156486 0.292535 0.989812
0.185737 0.331865 1.000000
0.214745 0.367155 1.000000
0.243734 0.398369 1.000000
0.272954 0.425486 1.000000
0.302680 0.448506 1.000000
0.333212 0.467446 1.000000
0.364875 0.482345 1.000000
0.398019 0.493256 1.000000
0.433019 0.500255 1.000000
0.470275 0.503434 1.000000
0.510211 0.502906 0.979940
0.553277 0.498801 0.915806
0.599949 0.491268 0.838540
0.000000 0.000000 0.000000
0.000000 0.000000 0.000000
0.000000 0.000000 0.000000
0.000000 0.000000 0.000000
0.000000 0.000000 0.000000
0.000000 0.000000 0.000000
0.000000 0.000000 0.078334
0.000000 0.000000 0.159797
0.000000 0.000000 0.241628
0.000000 0.000000 0.323282
0.000000 0.000000 0.404211
0.000000 0.000000 0.483863
0.000000 0.000000 0.561683
0.000000 0.000000 0.637111
0.005923 0.012469 0.709585
0.041416 0.078417 0.778539
0.075598 0.140447 0.843403
0.108529 0.198364 0.903603
0.140294 0.251991 0.958561
0.171002 0.301168 1.000000
0.200789 0.345756 1.000000
0.229814 0.385634 1.000000
0.258262 0.420699 1.000000
0.286343 0.450868 1.000000
0.314292 0.476077 1.000000
0.342369 0.496279 1.000000
0.370859 0.511447 1.000000
0.400072 0.521573 1.000000
0.430342 0.526667 1.000000
0.462030 0.526758 1.000000
0.495521 0.521895 0.994252
0.531225 0.512144 0.926912
0.569576 0.497591 0.845871
0.000000 0.000000 0.000000
0.000000 0.000000 0.000000
0.000000 0.000000 0.000000
0.000000 0.000000 0.000000
0.000000 0.000000 0.000000
0.000000 0.000000 0.000000
0.000000 0.000000 0.051831
0.000000 0.000000 0.137828
0.000000 0.000000 0.224102
0.000000 0.000000 0.310088
0.000000 0.000000 0.395217
0.000000 0.000000 0.478917
0.000000 0.000000 0.560612
0.000000 0.000000 0.639723
0.004600 0.000000 0.715667
0.042365 0.035459 0.787857
0.078474 0.105120 0.855703
0.112947 0.170219 0.918612
0.145827 0.230514 0.975984
0.177186 0.285782 1.000000
0.207117 0.335819 1.000000
0.235742 0.380442 1.000000
0.263204 0.419483 1.000000
0.289674 0.452794 1.000000
0.315347 0.480249 1.000000
0.340442 0.501735 1.000000
0.365206 0.517163 1.000000
0.389906 0.526460 1.000000
0.414840 0.529572 1.000000
0.440326 0.526465 1.000000
0.466710 0.517122 1.000000
0.494361 0.501547 0.939668
0.523675 0.479762 0.854784
0.000000 0.000000 0.000000
0.000000 0.000000 0.000000
0.000000 0.000000 0.000000
0.000000 0.000000 0.000000
0.000000 0.000000 0.000000
0.000000 0.000000 0.000000
0.000000 0.000000 0.025934
0.000000 0.000000 0.116686
0.000000 0.000000 0.207613
0.000000 0.000000 0.298130
0.000000 0.000000 0.387647
0.000000 0.000000 0.475572
0.000000 0.000000 0.561310
0.000000 0.000000 0.644259
0.000000 0.000000 0.723818
0.035528 0.000000 0.799379
0.073314 0.040730 0.870331
0.109050 0.113385 0.936061
0.142743 0.180688 0.995950
0.174420 0.242354 1.000000
0.204139 0.298116 1.000000
0.231977 0.347723 1.000000
0.258041 0.390945 1.000000
0.282461 0.427573 1.000000
0.305390 0.457411 1.000000
0.327010 0.480288 1.000000
0.347526 0.496048 1.000000
0.367167 0.504554 1.000000
0.386188 0.505690 1.000000
0.404869 0.499356 1.000000
0.423516 0.485472 1.000000
0.442458 0.463978 0.955316
0.462051 0.434830 0.866539
0.000000 0.000000 0.000000
0.000000 0.000000 0.000000
0.000000 0.000000 0.000000
0.000000 0.000000 0.000000
0.000000 0.000000 0.000000
0.000000 0.000000 0.000000
0.000000 0.000000 0.001432
0.000000 0.000000 0.097180
0.000000 0.000000 0.192989
0.000000 0.000000 0.288256
0.000000 0.000000 0.382370
0.000000 0.000000 0.474718
0.000000 0.000000 0.564685
0.000000 0.000000 0.651650
0.000000 0.000000 0.734989
0.020095 0.000000 0.814075
0.059341 0.000000 0.888278
0.096098 0.023387 0.956962
0.130330 0.098122 1.000000
0.162028 0.166575 1.000000
0.191207 0.228416 1.000000
0.217907 0.283330 1.000000
0.242193 0.331023 1.000000
0.264154 0.371221 1.000000
0.283906 0.403666 1.000000
0.301589 0.428122 1.000000
0.317368 0.444368 1.000000
0.331433 0.452205 1.000000
0.343998 0.451451 1.000000
0.355305 0.441944 1.000000
0.365618 0.423539 1.000000
0.375226 0.396112 0.975152
0.384447 0.359557 0.882455
0.000000 0.000000 0.000000
0.000000 0.000000 0.000000
0.000000 0.000000 0.000000
0.000000 0.000000 0.000000
0.000000 0.000000 0.000000
0.000000 0.000000 0.000000
0.000000 0.000000 0.000000
0.000000 0.000000 0.080171
0.000000 0.000000 0.181114
0.000000 0.000000 0.281370
0.000000 0.000000 0.380310
0.000000 0.000000 0.477300
0.000000 0.000000 0.571704
0.000000 0.000000 0.662880
0.000000 0.000000 0.750186
0.000000 0.000000 0.832972
0.035719 0.000000 0.910589
0.073283 0.000000 0.982382
0.107817 0.000000 1.000000
0.139269 0.053845 1.000000
0.167615 0.122202 1.000000
0.192855 0.182828 1.000000
0.215014 0.235363 1.000000
0.234142 0.279469 1.000000
0.250315 0.314825 1.000000
0.263631 0.341130 1.000000
0.274217 0.358100 1.000000
0.282222 0.365470 1.000000
0.287821 0.362997 1.000000
0.291215 0.350453 1.000000
0.292629 0.327631 1.000000
0.292312 0.294340 1.000000
0.290540 0.250412 0.903904
0.000000 0.000000 0.000000
0.000000 0.000000 0.000000
0.000000 0.000000 0.000000
0.000000 0.000000 0.000000
0.000000 0.000000 0.000000
0.000000 0.000000 0.000000
0.000000 0.000000 0.000000
0.000000 0.000000 0.066578
0.000000 0.000000 0.172926
0.000000 0.000000 0.278432
0.000000 0.000000 0.382446
0.000000 0.000000 0.484316
0.000000 0.000000 0.583384
0.000000 0.000000 0.678989
0.000000 0.000000 0.770467
0.000000 0.000000 0.857150
0.001547 0.000000 0.938367
0.039739 0.000000 1.000000
0.074366 0.000000 1.000000
0.105338 0.000000 1.000000
0.132590 0.000000 1.000000
0.156082 0.041494 1.000000
0.175799 0.099325 1.000000
0.191752 0.147759 1.000000
0.203974 0.186412 1.000000
0.212527 0.214918 1.000000
0.217496 0.232931 1.000000
0.218990 0.240122 1.000000
0.217145 0.236181 1.000000
0.212120 0.220819 1.000000
0.204102 0.193764 1.000000
0.193299 0.154762 1.000000
0.179948 0.103579 0.932310
0.000000 0.000000 0.000000
0.000000 0.000000 0.000000
0.000000 0.000000 0.000000
0.000000 0.000000 0.000000
0.000000 0.000000 0.000000
0.000000 0.000000 0.000000
0.000000 0.000000 0.000000
0.000000 0.000000 0.057374
0.000000 0.000000 0.169417
0.000000 0.000000 0.280453
0.000000 0.000000 0.389812
0.000000 0.000000 0.496820
0.000000 0.000000 0.600801
0.000000 0.000000 0.701072
0.000000 0.000000 0.796949
0.000000 0.000000 0.887744
0.000000 0.000000 0.972765
0.000000 0.000000 1.000000
0.029081 0.000000 1.000000
0.059371 0.000000 1.000000
0.085300 0.000000 1.000000
0.106788 0.000000 1.000000
0.123779 0.000000 1.000000
0.136245 0.000000 1.000000
0.144181 0.013660 1.000000
0.147606 0.044804 1.000000
0.146565 0.064261 1.000000
0.141129 0.071640 1.000000
0.131393 0.066567 1.000000
0.117477 0.048688 1.000000
0.099526 0.017667 1.000000
0.077710 0.000000 1.000000
0.052225 0.000000 0.969154
0.000000 0.000000 0.000000
0.000000 0.000000 0.000000
0.000000 0.000000 0.000000
0.000000 0.000000 0.000000
0.000000 0.000000 0.000000
0.000000 0.000000 0.000000
0.000000 0.000000 0.000000
0.000000 0.000000 0.053584
0.000000 0.000000 0.171633
0.000000 0.000000 0.288500
0.000000 0.000000 0.403494
0.000000 0.000000 0.515921
0.000000 0.000000 0.625082
0.000000 0.000000 0.730277
0.000000 0.000000 0.830800
0.000000 0.000000 0.925943
0.000000 0.000000 1.000000
0.000000 0.000000 1.000000
0.000000 0.000000 1.000000
0.000438 0.000000 1.000000
0.024847 0.000000 1.000000
0.044107 0.000000 1.000000
0.058122 0.000000 1.000000
0.066824 0.000000 1.000000
0.070167 0.000000 1.000000
0.068131 0.000000 1.000000
0.060722 0.000000 1.000000
0.047969 0.000000 1.000000
0.029928 0.000000 1.000000
0.006679 0.000000 1.000000
0.000000 0.000000 1.000000
0.000000 0.000000 1.000000
0.000000 0.000000 1.000000
0.000000 0.000000 0.000000
0.000000 0.000000 0.000000
0.000000 0.000000 0.000000
0.000000 0.000000 0.000000
0.000000 0.000000 0.000000
0.000000 0.000000 0.000000
0.000000 0.000000 0.000000
0.000000 0.000000 0.056290
0.000000 0.000000 0.180678
0.000000 0.000000 0.303697
0.000000 0.000000 0.424635
0.000000 0.000000 0.542779
0.000000 0.000000 0.657410
0.000000 0.000000 0.767807
0.000000 0.000000 0.873243
0.000000 0.000000 0.972990
0.000000 0.000000 1.000000
0.000000 0.000000 1.000000
0.000000 0.000000 1.000000
0.000000 0.000000 1.000000
0.000000 0.000000 1.000000
0.000000 0.000000 1.000000
0.000000 0.000000 1.000000
0.000000 0.000000 1.000000
0.000000 0.000000 1.000000
0.000000 0.000000 1.000000
0.000000 0.000000 1.000000
0.000000 0.000000 1.000000
0.000000 0.000000 1.000000
0.000000 0.000000 1.000000
0.000000 0.000000 1.000000
0.000000 0.000000 1.000000
0.000000 0.000000 1.000000
0.000000 0.000000 0.000000
0.000000 0.000000 0.000000
0.000000 0.000000 0.000000
0.000000 0.000000 0.000000
0.000000 0.000000 0.000000
0.000000 0.000000 0.000000
0.000000 0.000000 0.000000
0.000000 0.000000 0.066628
0.000000 0.000000 0.197706
0.000000 0.000000 0.327218
0.000000 0.000000 0.454432
0.000000 0.000000 0.578613
0.000000 0.000000 0.699023
0.000000 0.000000 0.814919
0.000000 0.000000 0.925557
0.000000 0.000000 1.000000
0.000000 0.000000 1.000000
0.000000 0.000000 1.000000
0.000000 0.000000 1.000000
0.000000 0.000000 1.000000
0.000000 0.000000 1.000000
0.000000 0.000000 1.000000
0.000000 0.000000 1.000000
0.000000 0.000000 1.000000
0.000000 0.000000 1.000000
0.000000 0.000000 1.000000
0.000000 0.000000 1.000000
