lrplugin/MindfulLensFilmEngine.lrplugin/profiles/luts/solara_100_cc.cube
# Generated from ColorChecker fit
LUT_3D_SIZE 9
DOMAIN_MIN 0.0 0.0 0.0
DOMAIN_MAX 1.0 1.0 1.0
0.028860 0.000000 0.027705
0.000000 0.000000 0.086618
0.000000 0.000000 0.158974
0.000000 0.000000 0.232393
0.000000 0.000000 0.293570
0.000000 0.000000 0.328274
0.000000 0.000000 0.321349
0.000000 0.000000 0.256710
0.000000 0.000000 0.117348
0.000000 0.000000 0.045816
0.000000 0.000000 0.154715
0.000000 0.000000 0.285804
0.000000 0.000000 0.421500
0.000000 0.000000 0.543289
0.000000 0.000000 0.631735
0.000000 0.000000 0.666473
0.000000 0.000000 0.626215
0.000000 0.000000 0.488743
0.000000 0.000000 0.000000
0.000000 0.000000 0.150138
0.000000 0.000000 0.336199
0.000000 0.000000 0.527655
0.000000 0.000000 0.700786
0.000000 0.000000 0.830949
0.000000 0.000000 0.892573
0.011049 0.000000 0.859163
0.286762 0.000000 0.703295
0.000000 0.000000 0.000000
0.000000 0.000000 0.077126
0.000000 0.000000 0.319603
0.000000 0.000000 0.565508
0.000000 0.020453 0.785917
0.047769 0.106701 0.950978
0.157549 0.166321 1.000000
0.319781 0.215034 0.991027
0.567890 0.273369 0.801683
0.000000 0.000000 0.000000
0.000000 0.000000 0.000000
0.000000 0.000000 0.259415
0.000000 0.000000 0.563665
0.065398 0.150981 0.832492
0.185737 0.331865 1.000000
0.302680 0.448506 1.000000
0.433019 0.500255 1.000000
0.599949 0.491268 0.838540
0.000000 0.000000 0.000000
0.000000 0.000000 0.000000
0.000000 0.000000 0.192989
0.000000 0.000000 0.564685
0.059341 0.000000 0.888278
0.191207 0.228416 1.000000
0.283906 0.403666 1.000000
0.343998 0.451451 1.000000
0.384447 0.359557 0.882455
0.000000 0.000000 0.000000
0.000000 0.000000 0.000000
0.000000 0.000000 0.171633
0.000000 0.000000 0.625082
0.000000 0.000000 1.000000
0.024847 0.000000 1.000000
0.070167 0.000000 1.000000
0.029928 0.000000 1.000000
0.000000 0.000000 1.000000
0.000000 0.000000 0.000000
0.000000 0.000000 0.000000
0.000000 0.000000 0.260610
0.000000 0.000000 0.815324
0.000000 0.000000 1.000000
0.000000 0.000000 1.000000
0.000000 0.000000 1.000000
0.000000 0.000000 1.000000
0.000000 0.000000 1.000000
0.000000 0.000000 0.000000
0.000000 0.000000 0.000000
0.000000 0.000000 0.539137
0.000000 0.000000 1.000000
0.000000 0.000000 1.000000
0.000000 0.000000 1.000000
0.000000 0.000000 1.000000
0.000000 0.000000 1.000000
0.000000 0.000000 1.000000
0.315883 0.281786 0.071167
0.253773 0.376242 0.079374
0.118840 0.324840 0.108475
0.000000 0.168593 0.151411
0.000000 0.000000 0.200194
0.000000 0.000000 0.245915
0.000000 0.000000 0.278732
0.000000 0.000000 0.287884
0.000000 0.000000 0.261679
0.095404 0.000000 0.118299
0.098176 0.061966 0.170790
0.059046 0.093659 0.251056
0.000000 0.054954 0.346832
0.000000 0.000000 0.444926
0.000000 0.000000 0.531218
0.000000 0.000000 0.590663
0.000000 0.000000 0.607292
0.108678 0.004505 0.564208
0.000000 0.000000 0.099799
0.010053 0.000000 0.195434
0.043171 0.075417 0.322972
0.060916 0.125975 0.464942
0.072250 0.145077 0.602943
0.092534 0.150609 0.717652
0.143534 0.165267 0.788816
0.253417 0.216553 0.795259
0.456752 0.336778 0.714878
0.000000 0.000000 0.011329
0.000000 0.000000 0.154174
0.052581 0.158635 0.330297
0.134083 0.291268 0.517019
0.205734 0.393347 0.690733
0.272666 0.466389 0.826909
0.346411 0.516718 0.900088
0.444906 0.555465 0.883888
0.592488 0.598571 0.750998
0.000000 0.000000 0.000000
0.000000 0.000000 0.061833
0.052620 0.157866 0.293059
0.183917 0.386479 0.528297
0.294975 0.576853 0.738735
0.380695 0.714134 0.894634
0.442378 0.788275 0.965331
0.487728 0.794039 0.919236
0.530853 0.730993 0.723831
0.000000 0.000000 0.000000
0.000000 0.000000 0.000000
0.000000 0.000000 0.245243
0.168004 0.173288 0.537967
0.305829 0.478366 0.791344
0.390749 0.697709 0.970429
0.413834 0.804898 1.000000
0.372555 0.778324 0.961315
0.270790 0.601186 0.698597
0.000000 0.000000 0.000000
0.000000 0.000000 0.000000
0.000000 0.000000 0.234784
0.027907 0.000000 0.599171
0.188131 0.000000 0.906909
0.260934 0.147013 1.000000
0.227155 0.317577 1.000000
0.074033 0.280406 1.000000
0.000000 0.002328 0.754467
0.000000 0.000000 0.000000
0.000000 0.000000 0.000000
0.000000 0.000000 0.323577
0.000000 0.000000 0.779008
0.000000 0.000000 1.000000
0.000000 0.000000 1.000000
0.000000 0.000000 1.000000
0.000000 0.000000 1.000000
0.000000 0.000000 0.984569
0.000000 0.000000 0.000000
0.000000 0.000000 0.000000
0.000000 0.000000 0.587467
0.000000 0.000000 1.000000
0.000000 0.000000 1.000000
0.000000 0.000000 1.000000
0.000000 0.000000 1.000000
0.000000 0.000000 1.000000
0.000000 0.000000 1.000000
0.561866 0.553181 0.114049
0.493723 0.642144 0.069583
0.381347 0.618244 0.053463
0.238672 0.517905 0.063947
0.086032 0.382359 0.098370
0.000000 0.257646 0.153138
0.000000 0.194614 0.223732
0.000000 0.248919 0.304707
0.006616 0.481023 0.389692
0.326046 0.200518 0.180900
0.300076 0.279533 0.176170
0.258766 0.293692 0.204802
0.205819 0.263049 0.259847
0.151339 0.212466 0.333432
0.111831 0.171613 0.416758
0.110203 0.174965 0.500099
0.175768 0.261809 0.572803
0.344238 0.476236 0.623293
0.192110 0.148425 0.190349
0.196575 0.214032 0.224086
0.207646 0.254204 0.293445
0.218793 0.272625 0.386272
0.229890 0.277784 0.489487
0.247209 0.282981 0.589085
0.283429 0.306321 0.670133
0.357628 0.370720 0.716772
0.495289 0.503899 0.712220
0.122319 0.234514 0.134687
0.153753 0.304348 0.210826
0.206790 0.379580 0.322095
0.264669 0.447522 0.451132
0.317030 0.500295 0.579651
0.359916 0.534826 0.688440
0.395774 0.552850 0.757360
0.433451 0.560913 0.765347
0.488197 0.570364 0.690410
0.062909 0.222433 0.020162
0.126116 0.335221 0.147845
0.218976 0.475652 0.307410
0.314493 0.614667 0.476291
0.392079 0.728017 0.630993
0.437543 0.796258 0.747099
0.443101 0.804755 0.799263
0.407369 0.743682 0.761215
0.335365 0.608019 0.605756
0.000000 0.000000 0.000000
0.052148 0.017424 0.060549
0.190956 0.274285 0.280004
0.323291 0.527018 0.497567
0.418331 0.735001 0.684539
0.451655 0.862421 0.811293
0.405246 0.878272 0.847278
0.267489 0.756357 0.761017
0.033171 0.475285 0.520107
0.000000 0.000000 0.000000
0.000000 0.000000 0.000000
0.053459 0.000000 0.284444
0.230061 0.000000 0.564734
0.343056 0.221333 0.795266
0.357791 0.454494 0.941205
0.246019 0.515673 0.966795
0.000000 0.362302 0.835351
0.000000 0.000000 0.509264
0.000000 0.000000 0.000000
0.000000 0.000000 0.000000
0.000000 0.000000 0.379251
0.000000 0.000000 0.741520
0.097498 0.000000 1.000000
0.095468 0.000000 1.000000
0.000000 0.000000 1.000000
0.000000 0.000000 1.000000
0.000000 0.000000 0.662983
0.000000 0.000000 0.000000
0.000000 0.000000 0.116158
0.000000 0.000000 0.636902
0.000000 0.000000 1.000000
0.000000 0.000000 1.000000
0.000000 0.000000 1.000000
0.000000 0.000000 1.000000
0.000000 0.000000 1.000000
0.000000 0.000000 1.000000
0.780462 0.765780 0.165239
0.688504 0.836271 0.071695
0.585676 0.829186 0.013949
0.476821 0.776362 0.000000
0.373188 0.714442 0.019237
0.292426 0.684877 0.086649
0.258587 0.733927 0.198615
0.302127 0.912659 0.355008
0.459900 1.000000 0.554778
0.524940 0.381441 0.241303
0.453431 0.399628 0.184105
0.397919 0.385436 0.165853
0.353015 0.354330 0.184918
0.319736 0.326584 0.238747
0.305500 0.327279 0.323858
0.324128 0.386302 0.435845
0.395842 0.538351 0.569376
0.547269 0.822929 0.718192
0.389038 0.358962 0.270394
0.331112 0.329032 0.248140
0.309099 0.303334 0.265227
0.307381 0.280960 0.314819
0.316743 0.265813 0.389155
0.334372 0.266604 0.479549
0.363856 0.296851 0.576387
0.415187 0.374878 0.669130
0.504760 0.523820 0.746314
0.332455 0.527234 0.241434
0.289514 0.474469 0.257930
0.295455 0.453956 0.311406
0.324430 0.448419 0.389821
0.356991 0.445390 0.480208
0.380093 0.437208 0.568673
0.387095 0.421020 0.640396
0.377755 0.398781 0.679632
0.358237 0.377254 0.669711
0.298862 0.641183 0.157298
0.280580 0.611956 0.221554
0.317202 0.634415 0.317677
0.372646 0.674913 0.428418
0.417235 0.704611 0.535604
0.427691 0.699478 0.620134
0.387141 0.640291 0.661984
0.285114 0.512633 0.640200
0.117540 0.306898 0.532905
0.215906 0.381770 0.034818
0.240228 0.443546 0.161051
0.318527 0.567855 0.311282
0.404489 0.704678 0.463058
0.458205 0.808807 0.592997
0.446166 0.839839 0.676793
0.341268 0.762180 0.689215
0.122807 0.545044 0.604104
0.000000 0.162452 0.394374
0.000000 0.000000 0.000000
0.088353 0.000000 0.112411
0.227596 0.000000 0.333419
0.356394 0.207987 0.540143
0.424607 0.449342 0.703996
0.388495 0.570746 0.795465
0.210722 0.520236 0.784111
0.000000 0.250654 0.638570
0.000000 0.000000 0.326550
0.000000 0.000000 0.000000
0.000000 0.000000 0.125580
0.000000 0.000000 0.439238
0.148771 0.000000 0.720031
0.245122 0.000000 0.934163
0.191630 0.000000 1.000000
0.000000 0.000000 1.000000
0.000000 0.000000 0.824779
0.000000 0.000000 0.415819
0.000000 0.000000 0.000000
0.000000 0.000000 0.264457
0.000000 0.000000 0.697846
0.000000 0.000000 1.000000
0.000000 0.000000 1.000000
0.000000 0.000000 1.000000
0.000000 0.000000 1.000000
0.000000 0.000000 1.000000
0.000000 0.000000 0.762521
0.977767 0.941104 0.226434
0.855097 1.000000 0.092973
0.759687 1.000000 0.002761
0.687297 1.000000 0.000000
0.640084 1.000000 0.000000
0.626611 1.000000 0.075962
0.661843 1.000000 0.238459
0.767145 1.000000 0.479431
0.970287 1.000000 0.803145
0.699016 0.495570 0.300006
0.576058 0.460922 0.200654
0.505200 0.428664 0.145834
0.471969 0.409675 0.139234
0.468292 0.419638 0.183621
0.492499 0.479045 0.280833
0.549323 0.613197 0.431781
0.649900 0.852202 0.636454
0.811767 1.000000 0.893911
0.557557 0.477643 0.339232
0.432313 0.360038 0.272459
0.377061 0.278622 0.248744
0.367094 0.227901 0.266571
0.384108 0.207189 0.323498
0.416203 0.220608 0.416158
0.457880 0.277086 0.540257
0.510042 0.390362 0.690574
0.579996 0.578980 0.860964
0.510522 0.707494 0.329665
0.389267 0.539860 0.299144
0.348944 0.433624 0.307454
0.354617 0.366924 0.347873
0.377750 0.322701 0.412753
0.396212 0.288707 0.493520
0.394272 0.257501 0.580672
0.362601 0.226449 0.663784
0.298275 0.197726 0.731503
0.499022 0.931328 0.270810
0.396297 0.767684 0.285420
0.378499 0.682061 0.331882
0.400459 0.636225 0.398265
0.423410 0.596748 0.471715
0.414988 0.535011 0.538452
0.349231 0.427202 0.583768
0.206581 0.254317 0.592030
0.000000 0.002158 0.546680
0.448138 0.821385 0.176126
0.386759 0.736842 0.249954
0.407352 0.738356 0.345898
0.454517 0.771322 0.446823
0.479254 0.785941 0.534667
0.438969 0.737223 0.590443
0.297468 0.584984 0.594238
0.024960 0.293851 0.525213
0.000000 0.000000 0.361601
0.266929 0.000000 0.073030
0.277982 0.066701 0.225367
0.361103 0.242969 0.387331
0.450660 0.433766 0.536580
0.487423 0.572922 0.649848
0.418566 0.599077 0.702939
0.197664 0.455676 0.670734
0.000000 0.090975 0.527188
0.000000 0.000000 0.245328
0.000000 0.000000 0.002890
0.000000 0.000000 0.258233
0.149325 0.000000 0.507960
0.306734 0.000000 0.724523
0.374034 0.000000 0.879449
0.288168 0.000000 0.943336
0.000000 0.000000 0.885859
0.000000 0.000000 0.675765
0.000000 0.000000 0.280876
0.000000 0.000000 0.021030
0.000000 0.000000 0.409081
0.000000 0.000000 0.773521
0.000000 0.000000 1.000000
0.049179 0.000000 1.000000
0.000000 0.000000 1.000000
0.000000 0.000000 1.000000
0.000000 0.000000 1.000000
0.000000 0.000000 0.565215
1.000000 1.000000 0.292147
1.000000 1.000000 0.133491
0.923689 1.000000 0.025536
0.901288 1.000000 0.000000
0.928792 1.000000 0.017667
1.000000 1.000000 0.143408
1.000000 1.000000 0.371159
1.000000 1.000000 0.711432
1.000000 1.000000 1.000000
0.847649 0.550444 0.350320
0.678213 0.492057 0.224694
0.601752 0.473124 0.149183
0.594705 0.499933 0.132798
0.639913 0.583581 0.183621
0.726617 0.739970 0.308811
0.850462 0.989813 0.514600
1.000000 1.000000 0.806292
1.000000 1.000000 1.000000
0.697874 0.508054 0.388974
0.511271 0.331737 0.294716
0.433507 0.225862 0.247233
0.430790 0.180344 0.250329
0.475726 0.189911 0.306881
0.547327 0.254094 0.418841
0.631008 0.377234 0.587235
0.718582 0.568481 0.812160
0.808269 0.841791 1.000000
0.657565 0.774926 0.390291
0.464938 0.521253 0.330942
0.390066 0.360421 0.312276
0.388922 0.265976 0.332889
0.423884 0.216271 0.390452
0.463731 0.194471 0.481709
0.483646 0.188545 0.602480
0.465212 0.191271 0.747657
0.396417 0.200236 0.911206
0.665267 1.000000 0.350405
0.486030 0.819182 0.334715
0.426513 0.656471 0.350861
0.432460 0.557588 0.392231
0.456015 0.484517 0.451291
0.455728 0.404049 0.519578
0.396548 0.287784 0.587706
0.249828 0.112130 0.645359
0.000000 0.000000 0.681299
0.643499 1.000000 0.279406
0.505336 0.910134 0.321330
0.481910 0.819716 0.383488
0.508734 0.781979 0.454062
0.527722 0.742536 0.520312
0.487190 0.651809 0.568568
0.341856 0.465026 0.584237
0.052843 0.142224 0.551797
0.000000 0.000000 0.454804
0.498756 0.436126 0.201338
0.437621 0.404753 0.320037
0.479294 0.481892 0.444613
0.549053 0.591977 0.558045
0.578582 0.664251 0.642382
0.505966 0.632765 0.678752
0.275692 0.436377 0.647352
0.000000 0.018753 0.527456
0.000000 0.000000 0.297412
0.121506 0.000000 0.154202
0.181626 0.000000 0.374041
0.325674 0.000000 0.582648
0.468697 0.000000 0.757794
0.532148 0.000000 0.876324
0.443880 0.000000 0.914157
0.138148 0.000000 0.846285
0.000000 0.000000 0.646776
0.000000 0.000000 0.288769
0.000000 0.000000 0.189949
0.000000 0.000000 0.540501
0.000000 0.000000 0.859957
0.166924 0.000000 1.000000
0.295947 0.000000 1.000000
0.216729 0.000000 1.000000
0.000000 0.000000 1.000000
0.000000 0.000000 0.998149
0.000000 0.000000 0.522474
1.000000 1.000000 0.349704
1.000000 1.000000 0.186139
1.000000 1.000000 0.080728
1.000000 1.000000 0.053004
1.000000 1.000000 0.121577
1.000000 1.000000 0.304130
1.000000 1.000000 0.617421
1.000000 1.000000 1.000000
1.000000 1.000000 1.000000
0.962656 0.543580 0.378371
0.762595 0.511654 0.247912
0.701156 0.558538 0.173153
0.745690 0.685931 0.168423
0.869948 0.900342 0.247125
1.000000 1.000000 0.421736
1.000000 1.000000 0.703805
1.000000 1.000000 1.000000
1.000000 1.000000 1.000000
0.802641 0.443753 0.404544
0.571519 0.258793 0.305397
0.492856 0.180819 0.256744
0.523769 0.195159 0.267706
0.627779 0.291951 0.346482
0.774811 0.466139 0.500339
0.941188 0.717475 0.735624
1.000000 1.000000 1.000000
1.000000 1.000000 1.000000
0.767068 0.719131 0.407034
0.520897 0.429358 0.342611
0.434073 0.266158 0.320721
0.453480 0.198490 0.345281
0.532410 0.200119 0.419279
0.630552 0.249621 0.544781
0.714003 0.330377 0.722923
0.755257 0.430576 0.953917
0.733214 0.543215 1.000000
0.791917 1.000000 0.378606
0.554981 0.773203 0.357525
0.477329 0.585502 0.368263
0.495617 0.487962 0.409529
0.552903 0.437980 0.479107
0.598646 0.397758 0.573854
0.588709 0.334307 0.689701
0.485357 0.219447 0.821654
0.257258 0.029803 0.963791
0.797145 1.000000 0.325978
0.601997 0.966218 0.362063
0.559123 0.835833 0.416498
0.594948 0.781652 0.482787
0.642297 0.744699 0.553506
0.640400 0.670808 0.620306
0.534887 0.510618 0.673912
0.277792 0.219578 0.704123
0.000000 0.000000 0.699812
0.686681 0.714296 0.269826
0.574145 0.610326 0.382106
0.599925 0.640168 0.496514
0.680214 0.723668 0.601347
0.737607 0.785480 0.683974
0.701100 0.755066 0.730841
0.506093 0.566697 0.727466
0.094388 0.159449 0.658441
0.000000 0.000000 0.507432
0.348430 0.000000 0.244777
0.367602 0.000000 0.457488
0.504183 0.000000 0.653350
0.664135 0.000000 0.815454
0.759820 0.151557 0.925964
0.710004 0.262861 0.966117
0.439856 0.135964 0.916225
0.000000 0.000000 0.755675
0.000000 0.000000 0.462926
0.000000 0.000000 0.299414
0.000000 0.000000 0.641997
0.160319 0.000000 0.946001
0.443402 0.000000 1.000000
0.613901 0.000000 1.000000
0.580349 0.000000 1.000000
0.257683 0.000000 1.000000
0.000000 0.000000 1.000000
0.000000 0.000000 0.656523
1.000000 1.000000 0.379242
1.000000 1.000000 0.236620
1.000000 1.000000 0.159602
1.000000 1.000000 0.173041
1.000000 1.000000 0.300868
1.000000 1.000000 0.566084
1.000000 1.000000 0.990765
1.000000 1.000000 1.000000
1.000000 1.000000 1.000000
1.000000 0.462466 0.363095
0.824348 0.528304 0.254809
0.809438 0.714601 0.207808
0.941830 1.000000 0.241739
1.000000 1.000000 0.375325
1.000000 1.000000 0.626362
1.000000 1.000000 1.000000
1.000000 1.000000 1.000000
1.000000 1.000000 1.000000
0.856952 0.268276 0.363678
0.609035 0.145844 0.287804
0.561965 0.169235 0.266142
0.663774 0.319191 0.313132
0.868895 0.581259 0.442291
1.000000 0.945795 0.666207
1.000000 1.000000 0.996545
1.000000 1.000000 1.000000
1.000000 1.000000 1.000000
0.824960 0.519691 0.356431
0.553956 0.264855 0.316250
0.488659 0.172620 0.320454
0.566869 0.207355 0.378277
0.732788 0.338237 0.498027
0.937019 0.539253 0.687089
1.000000 0.789195 0.951919
1.000000 1.000000 1.000000
1.000000 1.000000 1.000000
0.865737 0.936753 0.330749
0.600797 0.626473 0.334748
0.539477 0.486982 0.370551
0.609344 0.466280 0.442185
0.744368 0.517173 0.552752
0.884920 0.597277 0.704431
0.977777 0.669014 0.898470
0.976114 0.699614 1.000000
0.839511 0.661116 1.000000
0.896673 1.000000 0.289979
0.675222 0.897865 0.351852
0.648353 0.800582 0.430192
0.733403 0.805319 0.523823
0.854109 0.848512 0.630638
0.940612 0.871405 0.747610
0.929456 0.820050 0.870781
0.763586 0.645306 0.995270
0.392350 0.302841 1.000000
0.819136 0.778156 0.251427
0.686867 0.672234 0.390071
0.733195 0.727717 0.527094
0.865224 0.859862 0.656111
0.996461 0.988735 0.769812
1.000000 1.000000 0.859959
0.942598 0.940969 0.917391
0.616524 0.628500 0.932019
0.007709 0.041099 0.892828
0.518466 0.000000 0.246349
0.529345 0.000000 0.485870
0.695886 0.000000 0.702926
0.914962 0.191328 0.885926
1.000000 0.520356 1.000000
1.000000 0.704301 1.000000
0.952169 0.656471 1.000000
0.478164 0.294988 1.000000
0.000000 0.000000 0.819587
0.000000 0.000000 0.319958
0.080242 0.000000 0.689666
0.422283 0.000000 1.000000
0.776746 0.000000 1.000000
1.000000 0.000000 1.000000
1.000000 0.000000 1.000000
0.877110 0.000000 1.000000
0.275720 0.000000 1.000000
0.000000 0.000000 0.982404
1.000000 1.000000 0.353716
1.000000 1.000000 0.263449
1.000000 1.000000 0.246237
1.000000 1.000000 0.332254
1.000000 1.000000 0.550748
1.000000 1.000000 0.930039
1.000000 1.000000 1.000000
1.000000 1.000000 1.000000
1.000000 1.000000 1.000000
1.000000 0.284567 0.276246
0.851055 0.540576 0.222702
0.925066 0.960986 0.236027
1.000000 1.000000 0.341189
1.000000 1.000000 0.562227
1.000000 1.000000 0.922258
1.000000 1.000000 1.000000
1.000000 1.000000 1.000000
1.000000 1.000000 1.000000
0.838345 0.000000 0.236928
0.612238 0.000000 0.218052
0.640140 0.206826 0.257104
0.860992 0.589258 0.373847
1.000000 1.000000 0.587113
1.000000 1.000000 0.914813
1.000000 1.000000 1.000000
1.000000 1.000000 1.000000
1.000000 1.000000 1.000000
0.809614 0.146156 0.207832
0.553368 0.018402 0.226774
0.553963 0.091568 0.291950
0.740110 0.325435 0.417916
1.000000 0.684593 0.618299
1.000000 1.000000 0.905801
1.000000 1.000000 1.000000
1.000000 1.000000 1.000000
1.000000 1.000000 1.000000
0.865931 0.568967 0.174982
0.613568 0.365693 0.240098
0.613929 0.368717 0.337000
0.785496 0.521449 0.475038
1.000000 0.772109 0.662631
1.000000 1.000000 0.907276
1.000000 1.000000 1.000000
1.000000 1.000000 1.000000
1.000000 1.000000 1.000000
0.922125 0.860917 0.138356
0.715937 0.687821 0.263208
0.751409 0.717813 0.402645
0.936790 0.877934 0.560807
1.000000 1.000000 0.740911
1.000000 1.000000 0.945245
1.000000 1.000000 1.000000
1.000000 1.000000 1.000000
1.000000 1.000000 1.000000
0.876997 0.585395 0.111887
0.767548 0.569268 0.315243
0.881746 0.744431 0.513228
1.000000 1.000000 0.704776
1.000000 1.000000 0.887896
1.000000 1.000000 1.000000
1.000000 1.000000 1.000000
1.000000 1.000000 1.000000
1.000000 1.000000 1.000000
0.613325 0.000000 0.123464
0.659449 0.000000 0.429297
0.904258 0.000000 0.707049
1.000000 0.505015 0.950448
1.000000 0.994162 1.000000
1.000000 1.000000 1.000000
1.000000 1.000000 1.000000
1.000000 1.000000 1.000000
0.709655 0.744266 1.000000
0.000000 0.000000 0.214927
0.266663 0.000000 0.652417
0.702241 0.000000 1.000000
1.000000 0.000000 1.000000
1.000000 0.000000 1.000000
1.000000 0.251078 1.000000
1.000000 0.550656 1.000000
1.000000 0.429887 1.000000
0.409171 0.000000 1.000000
