lrplugin/MindfulLensFilmEngine.lrplugin/profiles/luts/solara_100_cc.cube
# Generated from ColorChecker fit
LUT_3D_SIZE 5
DOMAIN_MIN 0.0 0.0 0.0
DOMAIN_MAX 1.0 1.0 1.0
0.028860 0.000000 0.027705
0.000000 0.000000 0.158974
0.000000 0.000000 0.293570
0.000000 0.000000 0.321349
0.000000 0.000000 0.117348
0.000000 0.000000 0.000000
0.000000 0.000000 0.336199
0.000000 0.000000 0.700786
0.000000 0.000000 0.892573
0.286762 0.000000 0.703295
0.000000 0.000000 0.000000
0.000000 0.000000 0.259415
0.065398 0.150981 0.832492
0.302680 0.448506 1.000000
0.599949 0.491268 0.838540
0.000000 0.000000 0.000000
0.000000 0.000000 0.171633
0.000000 0.000000 1.000000
0.070167 0.000000 1.000000
0.000000 0.000000 1.000000
0.000000 0.000000 0.000000
0.000000 0.000000 0.539137
0.000000 0.000000 1.000000
0.000000 0.000000 1.000000
0.000000 0.000000 1.000000
0.561866 0.553181 0.114049
0.381347 0.618244 0.053463
0.086032 0.382359 0.098370
0.000000 0.194614 0.223732
0.006616 0.481023 0.389692
0.192110 0.148425 0.190349
0.207646 0.254204 0.293445
0.229890 0.277784 0.489487
0.283429 0.306321 0.670133
0.495289 0.503899 0.712220
0.062909 0.222433 0.020162
0.218976 0.475652 0.307410
0.392079 0.728017 0.630993
0.443101 0.804755 0.799263
0.335365 0.608019 0.605756
0.000000 0.000000 0.000000
0.053459 0.000000 0.284444
0.343056 0.221333 0.795266
0.246019 0.515673 0.966795
0.000000 0.000000 0.509264
0.000000 0.000000 0.000000
0.000000 0.000000 0.636902
0.000000 0.000000 1.000000
0.000000 0.000000 1.000000
0.000000 0.000000 1.000000
0.977767 0.941104 0.226434
0.759687 1.000000 0.002761
0.640084 1.000000 0.000000
0.661843 1.000000 0.238459
0.970287 1.000000 0.803145
0.557557 0.477643 0.339232
0.377061 0.278622 0.248744
0.384108 0.207189 0.323498
0.457880 0.277086 0.540257
0.579996 0.578980 0.860964
0.499022 0.931328 0.270810
0.378499 0.682061 0.331882
0.423410 0.596748 0.471715
0.349231 0.427202 0.583768
0.000000 0.002158 0.546680
0.266929 0.000000 0.073030
0.361103 0.242969 0.387331
0.487423 0.572922 0.649848
0.197664 0.455676 0.670734
0.000000 0.000000 0.245328
0.000000 0.000000 0.021030
0.000000 0.000000 0.773521
0.049179 0.000000 1.000000
0.000000 0.000000 1.000000
0.000000 0.000000 0.565215
1.000000 1.000000 0.349704
1.000000 1.000000 0.080728
1.000000 1.000000 0.121577
1.000000 1.000000 0.617421
1.000000 1.000000 1.000000
0.802641 0.443753 0.404544
0.492856 0.180819 0.256744
0.627779 0.291951 0.346482
0.941188 0.717475 0.735624
1.000000 1.000000 1.000000
0.791917 1.000000 0.378606
0.477329 0.585502 0.368263
0.552903 0.437980 0.479107
0.588709 0.334307 0.689701
0.257258 0.029803 0.963791
0.686681 0.714296 0.269826
0.599925 0.640168 0.496514
0.737607 0.785480 0.683974
0.506093 0.566697 0.727466
0.000000 0.000000 0.507432
0.000000 0.000000 0.299414
0.160319 0.000000 0.946001
0.613901 0.000000 1.000000
0.257683 0.000000 1.000000
0.000000 0.000000 0.656523
1.000000 1.000000 0.353716
1.000000 1.000000 0.246237
1.000000 1.000000 0.550748
1.000000 1.000000 1.000000
1.000000 1.000000 1.000000
0.838345 0.000000 0.236928
0.640140 0.206826 0.257104
1.000000 1.000000 0.587113
1.000000 1.000000 1.000000
1.000000 1.000000 1.000000
0.865931 0.568967 0.174982
0.613929 0.368717 0.337000
1.000000 0.772109 0.662631
1.000000 1.000000 1.000000
1.000000 1.000000 1.000000
0.876997 0.585395 0.111887
0.881746 0.744431 0.513228
1.000000 1.000000 0.887896
1.000000 1.000000 1.000000
1.000000 1.000000 1.000000
0.000000 0.000000 0.214927
0.702241 0.000000 1.000000
1.000000 0.000000 1.000000
1.000000 0.550656 1.000000
0.409171 0.000000 1.000000
