lrplugin/MindfulLensFilmEngine.lrplugin/profiles/luts/sony_classic_negative.cube
# Generated from ColorChecker fit
LUT_3D_SIZE 9
DOMAIN_MIN 0.0 0.0 0.0
DOMAIN_MAX 1.0 1.0 1.0
0.025996 0.000000 0.005632
0.000000 0.000000 0.101790
0.000000 0.000000 0.309080
0.000000 0.000000 0.602620
0.000000 0.000000 0.950922
0.000000 0.080506 1.000000
0.000000 0.264196 1.000000
0.000000 0.342841 1.000000
0.000000 0.158850 1.000000
0.250315 0.221044 0.000000
0.126795 0.219374 0.051029
0.017826 0.235734 0.325296
0.000000 0.319909 0.648349
0.000000 0.477038 0.973838
0.000000 0.667623 1.000000
0.000000 0.807522 1.000000
0.000000 0.767952 1.000000
0.000000 0.375488 1.000000
0.346208 0.361883 0.000000
0.250768 0.448948 0.000000
0.176457 0.548088 0.255121
0.130378 0.693253 0.625958
0.087940 0.873754 0.946192
0.000000 1.000000 1.000000
0.000000 1.000000 1.000000
0.000000 0.850737 0.892056
0.000000 0.172841 0.265628
0.432397 0.436067 0.000000
0.346511 0.605273 0.000000
0.279727 0.769906 0.103128
0.238478 0.948085 0.539870
0.197503 1.000000 0.872254
0.099841 1.000000 1.000000
0.000000 1.000000 0.886623
0.000000 0.596181 0.383428
0.000000 0.000000 0.000000
0.674226 0.477873 0.000000
0.579846 0.718148 0.000000
0.493936 0.926510 0.000000
0.422261 1.000000 0.406459
0.338890 1.000000 0.768248
0.186192 1.000000 0.873672
0.000000 0.816948 0.618580
0.000000 0.007220 0.000000
0.000000 0.000000 0.000000
1.000000 0.519524 0.000000
1.000000 0.815318 0.000000
1.000000 1.000000 0.000000
0.895132 1.000000 0.254053
0.725983 1.000000 0.662351
0.466263 0.940401 0.744241
0.025976 0.304611 0.380711
0.000000 0.000000 0.000000
0.000000 0.000000 0.000000
1.000000 0.591192 0.000000
1.000000 0.922478 0.000000
1.000000 1.000000 0.000000
1.000000 1.000000 0.122935
1.000000 1.000000 0.594693
1.000000 0.543989 0.669287
0.571704 0.000000 0.212844
0.000000 0.000000 0.000000
0.000000 0.000000 0.000000
1.000000 0.721001 0.000000
1.000000 1.000000 0.000000
1.000000 1.000000 0.000000
1.000000 1.000000 0.065340
1.000000 0.796148 0.617357
1.000000 0.000000 0.700742
1.000000 0.000000 0.166760
0.568861 0.000000 0.000000
0.000000 0.000000 0.000000
1.000000 0.935021 0.000000
1.000000 1.000000 0.000000
1.000000 1.000000 0.000000
1.000000 1.000000 0.145458
1.000000 0.454241 0.794382
1.000000 0.000000 0.902492
1.000000 0.000000 0.306191
1.000000 0.000000 0.000000
0.333916 0.000000 0.000000
0.117386 0.058005 0.234192
0.000000 0.000000 0.170591
0.000000 0.000000 0.223705
0.000000 0.000000 0.380700
0.000000 0.000000 0.622135
0.000000 0.000000 0.921964
0.000000 0.000000 1.000000
0.000000 0.038141 1.000000
0.000000 0.000000 1.000000
0.305880 0.308190 0.168895
0.194948 0.211842 0.194639
0.122209 0.145098 0.316750
0.092532 0.158704 0.507533
0.079093 0.258762 0.732685
0.023368 0.406736 0.951297
0.000000 0.519445 1.000000
0.000000 0.469069 1.000000
0.000000 0.083146 1.000000
0.350826 0.434182 0.000000
0.263224 0.420850 0.128732
0.217063 0.434832 0.335239
0.216545 0.511042 0.574496
0.234175 0.639751 0.797338
0.210758 0.766589 0.947993
0.055407 0.792546 0.964085
0.000000 0.573968 0.776629
0.000000 0.000000 0.310035
0.374060 0.486858 0.000000
0.293980 0.555305 0.000000
0.249987 0.638085 0.281874
0.245612 0.754279 0.584139
0.252690 0.878328 0.818491
0.211358 0.940029 0.914296
0.030058 0.824539 0.794315
0.000000 0.372373 0.374703
0.000000 0.000000 0.000000
0.544044 0.515045 0.000000
0.456157 0.659556 0.000000
0.390398 0.794729 0.171306
0.349628 0.923811 0.550961
0.305013 1.000000 0.810492
0.196021 0.953496 0.864404
0.000000 0.637388 0.620594
0.000000 0.000000 0.000000
0.000000 0.000000 0.000000
1.000000 0.565516 0.000000
0.965317 0.775902 0.000000
0.854337 0.942585 0.030143
0.745114 1.000000 0.501419
0.608144 1.000000 0.799647
0.382225 0.831378 0.824468
0.000000 0.251004 0.468920
0.000000 0.000000 0.000000
0.000000 0.000000 0.000000
1.000000 0.682997 0.000000
1.000000 0.944589 0.000000
1.000000 1.000000 0.000000
1.000000 1.000000 0.473921
1.000000 1.000000 0.824211
1.000000 0.596015 0.832595
0.426742 0.000000 0.377247
0.000000 0.000000 0.000000
0.000000 0.000000 0.000000
1.000000 0.910161 0.000000
1.000000 1.000000 0.000000
1.000000 1.000000 0.000000
1.000000 1.000000 0.518829
1.000000 0.996111 0.934395
1.000000 0.267695 0.938842
1.000000 0.000000 0.395482
0.350596 0.000000 0.000000
0.000000 0.000000 0.000000
1.000000 1.000000 0.000000
1.000000 1.000000 0.000000
1.000000 1.000000 0.000000
1.000000 1.000000 0.698459
1.000000 0.945378 1.000000
1.000000 0.000000 1.000000
1.000000 0.000000 0.585486
1.000000 0.000000 0.000000
0.028359 0.000000 0.000000
0.236482 0.136594 0.368686
0.081223 0.000000 0.178420
0.000000 0.000000 0.111241
0.000000 0.000000 0.166362
0.000000 0.000000 0.336391
0.000000 0.000000 0.607328
0.000000 0.000000 0.958568
0.000000 0.000000 1.000000
0.000000 0.000000 1.000000
0.404298 0.404196 0.359188
0.284769 0.220093 0.252784
0.224506 0.072301 0.251376
0.225477 0.012528 0.339315
0.257955 0.047838 0.494345
0.260514 0.140657 0.687606
0.140030 0.208768 0.883628
0.000000 0.125312 1.000000
0.000000 0.000000 1.000000
0.410782 0.524671 0.262616
0.313415 0.414167 0.252601
0.275236 0.341351 0.328777
0.297543 0.342099 0.460633
0.349939 0.407644 0.611052
0.370329 0.484579 0.736309
0.264919 0.474855 0.786075
0.000000 0.235781 0.703413
0.000000 0.000000 0.424780
0.380889 0.563446 0.080099
0.292595 0.530663 0.178848
0.254807 0.526254 0.344270
0.268152 0.570263 0.530991
0.301565 0.638090 0.687033
0.292280 0.660497 0.753809
0.145834 0.523602 0.666127
0.000000 0.068883 0.352188
0.000000 0.000000 0.000000
0.486197 0.583900 0.000000
0.394365 0.628482 0.044457
0.335752 0.681433 0.310634
0.310318 0.746964 0.563018
0.286324 0.784644 0.734767
0.200338 0.709401 0.752432
0.000000 0.391523 0.535959
0.000000 0.000000 0.000000
0.000000 0.000000 0.000000
0.944907 0.647357 0.000000
0.837404 0.764473 0.000000
0.737231 0.859260 0.252604
0.643676 0.920098 0.581295
0.524332 0.890724 0.778682
0.315096 0.670234 0.756455
0.000000 0.113083 0.419696
0.000000 0.000000 0.000000
0.000000 0.000000 0.000000
1.000000 0.813095 0.000000
1.000000 0.993435 0.000000
1.000000 1.000000 0.206866
1.000000 1.000000 0.622357
1.000000 0.997697 0.855163
0.903771 0.579884 0.802109
0.302349 0.000000 0.353418
0.000000 0.000000 0.000000
0.000000 0.000000 0.000000
1.000000 1.000000 0.000000
1.000000 1.000000 0.000000
1.000000 1.000000 0.222060
1.000000 1.000000 0.734693
1.000000 1.000000 1.000000
1.000000 0.473191 0.937581
1.000000 0.000000 0.385160
0.158504 0.000000 0.000000
0.000000 0.000000 0.000000
1.000000 1.000000 0.000000
1.000000 1.000000 0.000000
1.000000 1.000000 0.358781
1.000000 1.000000 0.978746
1.000000 1.000000 1.000000
1.000000 0.382944 1.000000
1.000000 0.000000 0.574907
1.000000 0.000000 0.000000
0.000000 0.000000 0.000000
0.392986 0.203973 0.421362
0.215516 0.000000 0.153978
0.110622 0.000000 0.016842
0.078040 0.000000 0.021217
0.085809 0.000000 0.171755
0.070269 0.000000 0.466506
0.000000 0.000000 0.896909
0.000000 0.000000 1.000000
0.000000 0.000000 1.000000
0.556747 0.500807 0.447638
0.414703 0.253318 0.253387
0.350434 0.043980 0.173550
0.363006 0.000000 0.204524
0.419787 0.000000 0.336102
0.456448 0.000000 0.551469
0.376965 0.000000 0.827204
0.053615 0.000000 1.000000
0.000000 0.000000 1.000000
0.538734 0.625858 0.405816
0.421268 0.438855 0.293640
0.378170 0.295048 0.279328
0.407838 0.231275 0.344417
0.476969 0.239730 0.463835
0.520566 0.267969 0.605907
0.441934 0.218906 0.732349
0.112681 0.000000 0.798272
0.000000 0.000000 0.752181
0.467020 0.659105 0.295154
0.363760 0.542070 0.273842
0.322859 0.462582 0.333131
0.342043 0.441649 0.439697
0.387342 0.455633 0.553605
0.393088 0.436257 0.628317
0.261916 0.270603 0.610689
0.000000 0.000000 0.440968
0.000000 0.000000 0.052797
0.516297 0.678477 0.126860
0.417352 0.636412 0.205050
0.360151 0.615556 0.345865
0.341752 0.621083 0.501118
0.327514 0.613524 0.616014
0.251101 0.508771 0.629152
0.014477 0.178073 0.472525
0.000000 0.000000 0.071518
0.000000 0.000000 0.000000
0.907885 0.759851 0.000000
0.803840 0.793282 0.110276
0.712322 0.820893 0.340389
0.629717 0.832023 0.551390
0.520717 0.771374 0.673619
0.318315 0.539004 0.630816
0.000000 0.000000 0.340109
0.000000 0.000000 0.000000
0.000000 0.000000 0.000000
1.000000 0.977055 0.000000
1.000000 1.000000 0.024485
1.000000 1.000000 0.351518
1.000000 1.000000 0.625172
1.000000 0.985101 0.760931
0.865064 0.578397 0.667666
0.260714 0.000000 0.247648
0.000000 0.000000 0.000000
0.000000 0.000000 0.000000
1.000000 1.000000 0.000000
1.000000 1.000000 0.000000
1.000000 1.000000 0.426017
1.000000 1.000000 0.769082
1.000000 1.000000 0.924411
1.000000 0.676341 0.786016
1.000000 0.000000 0.241302
0.063519 0.000000 0.000000
0.000000 0.000000 0.000000
1.000000 1.000000 0.000000
1.000000 1.000000 0.079482
1.000000 1.000000 0.622608
1.000000 1.000000 1.000000
1.000000 1.000000 1.000000
1.000000 0.880175 1.000000
1.000000 0.000000 0.379185
1.000000 0.000000 0.000000
0.000000 0.000000 0.000000
0.567231 0.233480 0.408701
0.357320 0.000000 0.130199
0.239256 0.000000 0.000000
0.209871 0.000000 0.011106
0.234301 0.000000 0.210523
0.245985 0.000000 0.598246
0.146664 0.000000 1.000000
0.000000 0.000000 1.000000
0.000000 0.000000 1.000000
0.745039 0.572125 0.449945
0.573835 0.303065 0.228602
0.496347 0.069131 0.131880
0.508740 0.000000 0.168223
0.575479 0.000000 0.339471
0.629333 0.000000 0.640857
0.571374 0.000000 1.000000
0.270977 0.000000 1.000000
0.000000 0.000000 1.000000
0.717973 0.712611 0.442053
0.577344 0.487229 0.283225
0.523698 0.305684 0.234723
0.552529 0.205776 0.290131
0.627633 0.180662 0.436425
0.681111 0.178860 0.653977
0.613363 0.104246 0.916551
0.293096 0.000000 1.000000
0.000000 0.000000 1.000000
0.617221 0.749467 0.382410
0.499514 0.582602 0.291299
0.453453 0.457594 0.295508
0.473862 0.396409 0.373757
0.523868 0.376375 0.498162
0.534901 0.330176 0.634231
0.406692 0.145855 0.740865
0.007278 0.000000 0.770361
0.000000 0.000000 0.668408
0.620593 0.775173 0.280350
0.518635 0.677188 0.262009
0.464382 0.608386 0.323267
0.451987 0.574905 0.427984
0.443909 0.538237 0.533411
0.370907 0.415237 0.590195
0.132043 0.078114 0.542376
0.000000 0.000000 0.327387
0.000000 0.000000 0.000000
0.952524 0.880160 0.157165
0.859620 0.856938 0.216493
0.781875 0.839537 0.338988
0.712774 0.818260 0.473645
0.614104 0.738769 0.562855
0.415956 0.502086 0.542402
0.016722 0.000000 0.341463
0.000000 0.000000 0.000000
0.000000 0.000000 0.000000
1.000000 1.000000 0.046098
1.000000 1.000000 0.187843
1.000000 1.000000 0.375609
1.000000 1.000000 0.543529
1.000000 1.000000 0.619130
0.943498 0.656716 0.523336
0.334658 0.000000 0.170460
0.000000 0.000000 0.000000
0.000000 0.000000 0.000000
1.000000 1.000000 0.000000
1.000000 1.000000 0.221105
1.000000 1.000000 0.478025
1.000000 1.000000 0.682377
1.000000 1.000000 0.746828
1.000000 0.943069 0.577435
1.000000 0.000000 0.073653
0.107211 0.000000 0.000000
0.000000 0.000000 0.000000
1.000000 1.000000 0.053056
1.000000 1.000000 0.373276
1.000000 1.000000 0.703082
1.000000 1.000000 0.946886
1.000000 1.000000 1.000000
1.000000 1.000000 0.761091
1.000000 0.000000 0.107281
1.000000 0.000000 0.000000
0.000000 0.000000 0.000000
0.710190 0.180810 0.351418
0.464879 0.000000 0.144254
0.328118 0.000000 0.084032
0.293838 0.000000 0.206106
0.324271 0.000000 0.539226
0.349955 0.000000 1.000000
0.269727 0.000000 1.000000
0.000000 0.000000 1.000000
0.000000 0.000000 1.000000
0.921626 0.574611 0.386044
0.721883 0.343243 0.214818
0.629233 0.139108 0.179208
0.636938 0.016801 0.299708
0.706560 0.000000 0.590203
0.767965 0.012841 1.000000
0.719324 0.017169 1.000000
0.427108 0.000000 1.000000
0.000000 0.000000 1.000000
0.902427 0.742155 0.390482
0.742840 0.533960 0.256963
0.680285 0.365377 0.247022
0.707353 0.275168 0.366291
0.784939 0.257452 0.613792
0.842238 0.261711 0.981944
0.776751 0.192780 1.000000
0.454280 0.000000 1.000000
0.000000 0.000000 1.000000
0.786899 0.792522 0.360242
0.662533 0.627699 0.266048
0.616535 0.504174 0.282681
0.640825 0.444876 0.400909
0.695629 0.428095 0.604894
0.709472 0.387477 0.872193
0.579186 0.212029 1.000000
0.169902 0.000000 1.000000
0.000000 0.000000 1.000000
0.755968 0.832745 0.302785
0.662369 0.727014 0.249383
0.619868 0.653575 0.293342
0.619718 0.619526 0.410570
0.621472 0.587325 0.570366
0.552988 0.474786 0.735424
0.310426 0.155082 0.861830
0.000000 0.000000 0.899065
0.000000 0.000000 0.790004
1.000000 0.967804 0.237530
0.970377 0.932407 0.226233
0.918793 0.909606 0.298120
0.873017 0.890667 0.414236
0.791933 0.822215 0.529018
0.602729 0.606232 0.590296
0.200896 0.100059 0.539296
0.000000 0.000000 0.310637
0.000000 0.000000 0.000000
1.000000 1.000000 0.195846
1.000000 1.000000 0.227817
1.000000 1.000000 0.328082
1.000000 1.000000 0.442822
1.000000 1.000000 0.511612
1.000000 0.862359 0.467421
0.527641 0.123026 0.236612
0.000000 0.000000 0.000000
0.000000 0.000000 0.000000
1.000000 1.000000 0.221056
1.000000 1.000000 0.297306
1.000000 1.000000 0.426246
1.000000 1.000000 0.539194
1.000000 1.000000 0.560864
1.000000 1.000000 0.409362
1.000000 0.297999 0.000000
0.301787 0.000000 0.000000
0.000000 0.000000 0.000000
1.000000 1.000000 0.368437
1.000000 1.000000 0.489826
1.000000 1.000000 0.647587
1.000000 1.000000 0.758176
1.000000 1.000000 0.731446
1.000000 1.000000 0.470639
1.000000 0.696944 0.000000
1.000000 0.000000 0.000000
0.000000 0.000000 0.000000
0.743471 0.000000 0.274462
0.467068 0.000000 0.237544
0.313353 0.000000 0.357099
0.273356 0.000000 0.680528
0.306404 0.000000 1.000000
0.340133 0.000000 1.000000
0.270478 0.042808 1.000000
0.000000 0.061335 1.000000
0.000000 0.000000 1.000000
1.000000 0.447085 0.280105
0.789203 0.330116 0.252657
0.686718 0.227623 0.372612
0.692494 0.195163 0.672509
0.765194 0.243649 1.000000
0.831780 0.339356 1.000000
0.787519 0.403916 1.000000
0.495980 0.314319 1.000000
0.000000 0.000000 1.000000
1.000000 0.654075 0.274491
0.849590 0.536080 0.254697
0.787035 0.448605 0.372523
0.818684 0.431375 0.645647
0.902528 0.479473 1.000000
0.964861 0.543339 1.000000
0.900280 0.528774 1.000000
0.571685 0.296937 1.000000
0.000000 0.000000 1.000000
0.902096 0.728621 0.251258
0.786129 0.635156 0.237150
0.752685 0.577564 0.350166
0.790783 0.579737 0.593121
0.857744 0.620928 0.962226
0.879193 0.635743 1.000000
0.749057 0.514153 1.000000
0.329566 0.101483 1.000000
0.000000 0.000000 1.000000
0.849943 0.792307 0.215994
0.783343 0.744450 0.205453
0.768670 0.727128 0.310826
0.794272 0.748401 0.520068
0.816802 0.771688 0.814524
0.761213 0.715767 1.000000
0.520765 0.454772 1.000000
0.000000 0.000000 1.000000
0.000000 0.000000 1.000000
1.000000 0.964663 0.186243
1.000000 0.979016 0.176997
1.000000 1.000000 0.271744
1.000000 1.000000 0.443574
1.000000 1.000000 0.658972
0.843982 0.880555 0.877816
0.448944 0.443300 1.000000
0.000000 0.000000 1.000000
0.000000 0.000000 1.000000
1.000000 1.000000 0.191501
1.000000 1.000000 0.181128
1.000000 1.000000 0.262111
1.000000 1.000000 0.392680
1.000000 1.000000 0.524457
1.000000 1.000000 0.602458
0.813755 0.570356 0.565093
0.000000 0.000000 0.344165
0.000000 0.000000 0.000000
1.000000 1.000000 0.273218
1.000000 1.000000 0.259143
1.000000 1.000000 0.323075
1.000000 1.000000 0.408382
1.000000 1.000000 0.451824
1.000000 1.000000 0.383554
1.000000 0.924507 0.127121
0.630089 0.000000 0.000000
0.000000 0.000000 0.000000
1.000000 1.000000 0.484798
1.000000 1.000000 0.464294
1.000000 1.000000 0.507736
1.000000 1.000000 0.543628
1.000000 1.000000 0.493869
1.000000 1.000000 0.273749
1.000000 1.000000 0.000000
1.000000 0.000000 0.000000
0.159488 0.000000 0.000000
0.559316 0.000000 0.207015
0.263400 0.000000 0.455706
0.101746 0.000000 0.871189
0.062477 0.002917 1.000000
0.102023 0.230575 1.000000
0.145113 0.507809 1.000000
0.084780 0.773046 1.000000
0.000000 0.920070 1.000000
0.000000 0.798025 1.000000
0.902662 0.110723 0.160528
0.676787 0.202310 0.386975
0.577061 0.290748 0.773400
0.590940 0.432557 1.000000
0.674181 0.639613 1.000000
0.750845 0.879151 1.000000
0.713297 1.000000 1.000000
0.422203 1.000000 1.000000
0.000000 0.795401 1.000000
0.955874 0.370313 0.121702
0.800065 0.432977 0.320503
0.753688 0.512204 0.671755
0.803530 0.648681 1.000000
0.904680 0.838452 1.000000
0.980527 1.000000 1.000000
0.922767 1.000000 1.000000
0.591397 1.000000 1.000000
0.000000 0.488932 1.000000
0.859492 0.480471 0.082300
0.774251 0.545127 0.247901
0.773122 0.635366 0.557713
0.842223 0.776042 1.000000
0.935972 0.947368 1.000000
0.977089 1.000000 1.000000
0.856601 1.000000 1.000000
0.433835 0.777757 1.000000
0.000000 0.000000 1.000000
0.800676 0.577330 0.046037
0.786985 0.670415 0.172735
0.823483 0.787412 0.434689
0.895616 0.937342 0.831900
0.957133 1.000000 1.000000
0.930087 1.000000 1.000000
0.704832 1.000000 1.000000
0.140027 0.484395 1.000000
0.000000 0.000000 1.000000
1.000000 0.794974 0.028585
1.000000 0.938449 0.110521
1.000000 1.000000 0.318047
1.000000 1.000000 0.636300
1.000000 1.000000 1.000000
1.000000 1.000000 1.000000
0.704116 1.000000 1.000000
0.000000 0.241020 1.000000
0.000000 0.000000 1.000000
1.000000 1.000000 0.057564
1.000000 1.000000 0.088731
1.000000 1.000000 0.235107
1.000000 1.000000 0.466968
1.000000 1.000000 0.747984
1.000000 1.000000 1.000000
1.000000 1.000000 1.000000
0.138838 0.148323 1.000000
0.000000 0.000000 1.000000
1.000000 1.000000 0.172553
1.000000 1.000000 0.146789
1.000000 1.000000 0.225142
1.000000 1.000000 0.363024
1.000000 1.000000 0.509244
1.000000 1.000000 0.606002
1.000000 1.000000 0.588893
1.000000 0.304947 0.386906
0.000000 0.000000 0.000000
1.000000 1.000000 0.425080
1.000000 1.000000 0.336074
1.000000 1.000000 0.339378
1.000000 1.000000 0.375543
1.000000 1.000000 0.378515
1.000000 1.000000 0.275631
1.000000 1.000000 0.000000
1.000000 0.807482 0.000000
0.664175 0.000000 0.000000
0.020605 0.000000 0.182492
0.000000 0.000000 0.848609
0.000000 0.000000 1.000000
0.000000 0.255293 1.000000
0.000000 0.764473 1.000000
0.000000 1.000000 1.000000
0.000000 1.000000 1.000000
0.000000 1.000000 1.000000
0.000000 1.000000 1.000000
0.465190 0.000000 0.059949
0.256261 0.000000 0.666861
0.179161 0.266913 1.000000
0.218441 0.684860 1.000000
0.326958 1.000000 1.000000
0.425868 1.000000 1.000000
0.404635 1.000000 1.000000
0.121021 1.000000 1.000000
0.000000 1.000000 1.000000
0.585902 0.000000 0.000000
0.467368 0.146401 0.502689
0.460619 0.495369 1.000000
0.549536 0.883726 1.000000
0.686307 1.000000 1.000000
0.791420 1.000000 1.000000
0.753666 1.000000 1.000000
0.430140 1.000000 1.000000
0.000000 1.000000 1.000000
0.526399 0.000000 0.000000
0.501481 0.280125 0.345831
0.559699 0.617538 0.969306
0.684268 0.991194 1.000000
0.826703 1.000000 1.000000
0.906823 1.000000 1.000000
0.812751 1.000000 1.000000
0.400911 1.000000 1.000000
0.000000 1.000000 1.000000
0.476958 0.093647 0.000000
0.549355 0.428189 0.197978
0.667639 0.775152 0.728132
0.814350 1.000000 1.000000
0.940338 1.000000 1.000000
0.964750 1.000000 1.000000
0.775039 1.000000 1.000000
0.226960 1.000000 1.000000
0.000000 0.552010 1.000000
0.674480 0.365334 0.000000
0.848373 0.734749 0.072773
1.000000 1.000000 0.499452
1.000000 1.000000 1.000000
1.000000 1.000000 1.000000
1.000000 1.000000 1.000000
0.880304 1.000000 1.000000
0.148542 1.000000 1.000000
0.000000 0.000000 1.000000
1.000000 0.914783 0.000000
1.000000 1.000000 0.000000
1.000000 1.000000 0.308711
1.000000 1.000000 0.743781
1.000000 1.000000 1.000000
1.000000 1.000000 1.000000
1.000000 1.000000 1.000000
0.452529 1.000000 1.000000
0.000000 0.000000 1.000000
1.000000 1.000000 0.000000
1.000000 1.000000 0.004655
1.000000 1.000000 0.193308
1.000000 1.000000 0.480436
1.000000 1.000000 0.826894
1.000000 1.000000 1.000000
1.000000 1.000000 1.000000
1.000000 1.000000 1.000000
0.000000 0.000000 1.000000
1.000000 1.000000 0.216459
1.000000 1.000000 0.148797
1.000000 1.000000 0.202597
1.000000 1.000000 0.330459
1.000000 1.000000 0.478375
1.000000 1.000000 0.585730
1.000000 1.000000 0.585306
1.000000 1.000000 0.403274
1.000000 0.000000 0.000000
