lrplugin/MindfulLensFilmEngine.lrplugin/profiles/luts/sony_classic_negative.cube
# Generated from ColorChecker fit
LUT_3D_SIZE 33
DOMAIN_MIN 0.0 0.0 0.0
DOMAIN_MAX 1.0 1.0 1.0
0.025996 0.000000 0.005632
0.000000 0.000000 0.018141
0.000000 0.000000 0.038523
0.000000 0.000000 0.066505
0.000000 0.000000 0.101790
0.000000 0.000000 0.144053
0.000000 0.000000 0.192944
0.000000 0.000000 0.248086
0.000000 0.000000 0.309080
0.000000 0.000000 0.375496
0.000000 0.000000 0.446881
0.000000 0.000000 0.522758
0.000000 0.000000 0.602620
0.000000 0.000000 0.685936
0.000000 0.000000 0.772152
0.000000 0.000000 0.860683
0.000000 0.000000 0.950922
0.000000 0.000000 1.000000
0.000000 0.000000 1.000000
0.000000 0.032388 1.000000
0.000000 0.080506 1.000000
0.000000 0.129337 1.000000
0.000000 0.177376 1.000000
0.000000 0.222946 1.000000
0.000000 0.264196 1.000000
0.000000 0.299098 1.000000
0.000000 0.325452 1.000000
0.000000 0.340883 1.000000
0.000000 0.342841 1.000000
0.000000 0.328603 1.000000
0.000000 0.295269 1.000000
0.000000 0.239767 1.000000
0.000000 0.158850 1.000000
0.098856 0.049900 0.000000
0.060871 0.036034 0.000054
0.021601 0.018633 0.025716
0.000000 0.000000 0.058746
0.000000 0.000000 0.098788
0.000000 0.000000 0.145458
0.000000 0.000000 0.198350
0.000000 0.000000 0.257028
0.000000 0.000000 0.321034
0.000000 0.000000 0.389881
0.000000 0.000000 0.463058
0.000000 0.000000 0.540029
0.000000 0.000000 0.620230
0.000000 0.000000 0.703073
0.000000 0.000000 0.787943
0.000000 0.028040 0.874199
0.000000 0.065349 0.961176
0.000000 0.107033 1.000000
0.000000 0.152226 1.000000
0.000000 0.199886 1.000000
0.000000 0.248795 1.000000
0.000000 0.297564 1.000000
0.000000 0.344627 1.000000
0.000000 0.388244 1.000000
0.000000 0.426503 1.000000
0.000000 0.457313 1.000000
0.000000 0.478414 1.000000
0.000000 0.487367 1.000000
0.000000 0.481562 1.000000
0.000000 0.458212 1.000000
0.000000 0.414358 1.000000
0.000000 0.346864 1.000000
0.000000 0.252423 1.000000
0.159808 0.114359 0.000000
0.124525 0.105821 0.000000
0.088219 0.094028 0.005920
0.051574 0.080665 0.044306
0.015150 0.067246 0.089410
0.000000 0.055108 0.140791
0.000000 0.045412 0.197982
0.000000 0.039150 0.260493
0.000000 0.037133 0.327806
0.000000 0.040004 0.399375
0.000000 0.048227 0.474634
0.000000 0.062093 0.552985
0.000000 0.081720 0.633809
0.000000 0.107049 0.716457
0.000000 0.137849 0.800259
0.000000 0.173714 0.884515
0.000000 0.214062 0.968500
0.000000 0.258139 1.000000
0.000000 0.305015 1.000000
0.000000 0.353587 1.000000
0.000000 0.402576 1.000000
0.000000 0.450530 1.000000
0.000000 0.495822 1.000000
0.000000 0.536650 1.000000
0.000000 0.571038 1.000000
0.000000 0.596837 1.000000
0.000000 0.611721 1.000000
0.000000 0.613193 1.000000
0.000000 0.598579 1.000000
0.000000 0.565031 1.000000
0.000000 0.509527 1.000000
0.000000 0.428871 1.000000
0.000000 0.319691 1.000000
0.209888 0.171209 0.000000
0.177058 0.168062 0.000000
0.143432 0.161900 0.000000
0.109692 0.154345 0.023049
0.076397 0.146848 0.073520
0.043979 0.140685 0.129913
0.012748 0.136956 0.191704
0.000000 0.136590 0.258344
0.000000 0.140337 0.329257
0.000000 0.148777 0.403840
0.000000 0.162313 0.481467
0.000000 0.181175 0.561484
0.000000 0.205417 0.643213
0.000000 0.234920 0.725947
0.000000 0.269391 0.808958
0.000000 0.308360 0.891487
0.000000 0.351186 0.972753
0.000000 0.397052 1.000000
0.000000 0.444967 1.000000
0.000000 0.493764 1.000000
0.000000 0.542104 1.000000
0.000000 0.588472 1.000000
0.000000 0.631180 1.000000
0.000000 0.668363 1.000000
0.000000 0.697986 1.000000
0.000000 0.717835 1.000000
0.000000 0.725524 1.000000
0.000000 0.718493 1.000000
0.000000 0.694007 1.000000
0.000000 0.649156 1.000000
0.000000 0.580855 1.000000
0.000000 0.485848 1.000000
0.000000 0.360701 1.000000
0.250315 0.221044 0.000000
0.219688 0.223337 0.000000
0.188460 0.222811 0.000000
0.157311 0.221027 0.000000
0.126795 0.219374 0.051029
0.097343 0.219066 0.112735
0.069262 0.221142 0.179425
0.042737 0.226468 0.250490
0.017826 0.235734 0.325296
0.000000 0.249457 0.403183
0.000000 0.267977 0.483466
0.000000 0.291463 0.565434
0.000000 0.319909 0.648349
0.000000 0.353132 0.731448
0.000000 0.390776 0.813944
0.000000 0.432314 0.895020
0.000000 0.477038 0.973838
0.000000 0.524072 1.000000
0.000000 0.572361 1.000000
0.000000 0.620679 1.000000
0.000000 0.667623 1.000000
0.000000 0.711618 1.000000
0.000000 0.750911 1.000000
0.000000 0.783579 1.000000
0.000000 0.807522 1.000000
0.000000 0.820466 1.000000
0.000000 0.819963 1.000000
0.000000 0.803391 1.000000
0.000000 0.767952 1.000000
0.000000 0.710675 1.000000
0.000000 0.628414 1.000000
0.000000 0.517850 1.000000
0.000000 0.375488 1.000000
0.282488 0.264454 0.000000
0.253817 0.272216 0.000000
0.224707 0.277312 0.000000
0.195834 0.281245 0.000000
0.167750 0.285341 0.021893
0.140884 0.290751 0.089214
0.115539 0.298453 0.161100
0.091897 0.309251 0.236885
0.070015 0.323772 0.315877
0.049826 0.342472 0.397358
0.031139 0.365631 0.480584
0.013640 0.393354 0.564786
0.000000 0.425572 0.649169
0.000000 0.462043 0.732912
0.000000 0.502350 0.815168
0.000000 0.545899 0.895065
0.000000 0.591925 0.971704
0.000000 0.639488 1.000000
0.000000 0.687472 1.000000
0.000000 0.734588 1.000000
0.000000 0.779373 1.000000
0.000000 0.820187 1.000000
0.000000 0.855219 1.000000
0.000000 0.882482 1.000000
0.000000 0.899815 1.000000
0.000000 0.904881 1.000000
0.000000 0.895171 1.000000
0.000000 0.868001 1.000000
0.000000 0.820511 1.000000
0.000000 0.749669 1.000000
0.000000 0.652266 1.000000
0.000000 0.524922 1.000000
0.000000 0.364079 0.921749
0.307988 0.302017 0.000000
0.281029 0.315259 0.000000
0.253759 0.325950 0.000000
0.226850 0.335529 0.000000
0.200853 0.345259 0.000000
0.176193 0.356232 0.059353
0.153171 0.369363 0.136733
0.131967 0.385394 0.217532
0.112634 0.404891 0.301002
0.095103 0.428246 0.386365
0.079181 0.455679 0.472820
0.064550 0.487233 0.559540
0.050770 0.522778 0.645672
0.037276 0.562008 0.730337
0.023379 0.604444 0.812629
0.008267 0.649433 0.891619
0.000000 0.696147 0.966349
0.000000 0.743582 1.000000
0.000000 0.790563 1.000000
0.000000 0.835738 1.000000
0.000000 0.877581 1.000000
0.000000 0.914393 1.000000
0.000000 0.944299 1.000000
0.000000 0.965250 1.000000
0.000000 0.975024 1.000000
0.000000 0.971222 1.000000
0.000000 0.951274 1.000000
0.000000 0.912431 1.000000
0.000000 0.851775 1.000000
0.000000 0.766210 1.000000
0.000000 0.652467 0.968306
0.000000 0.507101 0.846823
0.000000 0.326495 0.702269
0.328579 0.334306 0.000000
0.303090 0.353023 0.000000
0.277383 0.369260 0.000000
0.252129 0.384395 0.000000
0.227875 0.399630 0.000000
0.205043 0.415994 0.023201
0.183934 0.434339 0.106371
0.164723 0.455347 0.192480
0.147461 0.479521 0.280718
0.132077 0.507193 0.370252
0.118374 0.538519 0.460223
0.106033 0.573481 0.549744
0.094610 0.611887 0.637905
0.083538 0.653370 0.723768
0.072126 0.697388 0.806371
0.059558 0.743226 0.884724
0.044897 0.789995 0.957814
0.027078 0.836630 1.000000
0.004916 0.881892 1.000000
0.000000 0.924369 1.000000
0.000000 0.962472 1.000000
0.000000 0.994440 1.000000
0.000000 1.000000 1.000000
0.000000 1.000000 1.000000
0.000000 1.000000 1.000000
0.000000 1.000000 1.000000
0.000000 0.988386 1.000000
0.000000 0.936781 1.000000
0.000000 0.861826 1.000000
0.000000 0.760363 0.920424
0.000000 0.629062 0.798848
0.000000 0.464417 0.653694
0.000000 0.262748 0.483535
0.346208 0.361883 0.000000
0.321948 0.386052 0.000000
0.297529 0.407772 0.000000
0.273622 0.428357 0.000000
0.250768 0.448948 0.000000
0.229390 0.470512 0.000000
0.209785 0.493840 0.070113
0.192124 0.519551 0.161823
0.176457 0.548088 0.255121
0.162709 0.579719 0.349114
0.150683 0.614539 0.442885
0.140054 0.652469 0.535489
0.130378 0.693253 0.625958
0.121085 0.736464 0.713297
0.111479 0.781499 0.796485
0.100745 0.827579 0.874474
0.087940 0.873754 0.946192
0.071999 0.918897 1.000000
0.051733 0.961707 1.000000
0.025830 1.000000 1.000000
0.000000 1.000000 1.000000
0.000000 1.000000 1.000000
0.000000 1.000000 1.000000
0.000000 1.000000 1.000000
0.000000 1.000000 1.000000
0.000000 1.000000 1.000000
0.000000 1.000000 1.000000
0.000000 0.941142 0.988640
0.000000 0.850737 0.892056
0.000000 0.732184 0.772909
0.000000 0.582092 0.629767
0.000000 0.396891 0.461168
0.000000 0.172841 0.265628
0.363003 0.385304 0.000000
0.339732 0.414885 0.000000
0.316330 0.442004 0.000000
0.293462 0.467916 0.000000
0.271670 0.493697 0.000000
0.251372 0.520254 0.000000
0.232863 0.548316 0.028099
0.216311 0.578440 0.125704
0.201765 0.611006 0.224352
0.189146 0.646222 0.323091
0.178254 0.684120 0.420946
0.168763 0.724559 0.516916
0.160225 0.767223 0.609973
0.152067 0.811621 0.699063
0.143593 0.857088 0.783108
0.133982 0.902785 0.861003
0.122291 0.947699 0.931618
0.107451 0.990641 0.993795
0.088271 1.000000 1.000000
0.063435 1.000000 1.000000
0.031504 1.000000 1.000000
0.000000 1.000000 1.000000
0.000000 1.000000 1.000000
0.000000 1.000000 1.000000
0.000000 1.000000 1.000000
0.000000 1.000000 1.000000
0.000000 1.000000 0.970141
0.000000 0.925597 0.878667
0.000000 0.818574 0.764333
0.000000 0.681722 0.625671
0.000000 0.511586 0.461190
0.000000 0.304537 0.269373
0.000000 0.056771 0.048675
0.381275 0.405117 0.000000
0.358756 0.440052 0.000000
0.336098 0.472472 0.000000
0.313966 0.503567 0.000000
0.292897 0.534356 0.000000
0.273308 0.565681 0.000000
0.255489 0.598211 0.000000
0.239609 0.632438 0.084313
0.225711 0.668683 0.188599
0.213715 0.707092 0.292371
0.203417 0.747634 0.394595
0.194491 0.790107 0.494211
0.186484 0.834133 0.590133
0.178821 0.879158 0.681251
0.170804 0.924457 0.766427
0.161609 0.969129 0.844498
0.150290 1.000000 0.914276
0.135775 1.000000 0.974546
0.116872 1.000000 1.000000
0.092262 1.000000 1.000000
0.060503 1.000000 1.000000
0.020028 1.000000 1.000000
0.000000 1.000000 1.000000
0.000000 1.000000 1.000000
0.000000 1.000000 1.000000
0.000000 1.000000 0.960173
0.000000 0.986838 0.875964
0.000000 0.890222 0.768682
0.000000 0.765395 0.636831
0.000000 0.609016 0.478884
0.000000 0.417568 0.293294
0.000000 0.187360 0.078483
0.000000 0.000000 0.000000
0.403514 0.421861 0.000000
0.381512 0.462074 0.000000
0.359331 0.499677 0.000000
0.337632 0.535799 0.000000
0.316950 0.571395 0.000000
0.297700 0.607245 0.000000
0.280169 0.643957 0.000000
0.264522 0.681963 0.037883
0.250801 0.721520 0.148097
0.238924 0.762711 0.257189
0.228684 0.805447 0.364064
0.219750 0.849461 0.467607
0.211669 0.894313 0.566673
0.203863 0.939390 0.660092
0.195630 0.983902 0.746671
0.186145 1.000000 0.825188
0.174459 1.000000 0.894396
0.159497 1.000000 0.953022
0.140065 1.000000 0.999769
0.114840 1.000000 1.000000
0.082378 1.000000 1.000000
0.041111 1.000000 1.000000
0.000000 1.000000 1.000000
0.000000 1.000000 1.000000
0.000000 1.000000 0.954820
0.000000 1.000000 0.879888
0.000000 0.949003 0.781761
0.000000 0.835083 0.658908
0.000000 0.691250 0.509773
0.000000 0.514100 0.332772
0.000000 0.300053 0.126300
0.000000 0.045357 0.000000
0.000000 0.000000 0.000000
0.432397 0.436067 0.000000
0.410679 0.481467 0.000000
0.388707 0.524118 0.000000
0.367140 0.565089 0.000000
0.346511 0.605273 0.000000
0.327231 0.645390 0.000000
0.309586 0.685983 0.000000
0.293738 0.727423 0.000000
0.279727 0.769906 0.103128
0.267465 0.813454 0.217824
0.256746 0.857914 0.329634
0.247236 0.902958 0.437383
0.238478 0.948085 0.539870
0.229892 0.992619 0.635866
0.220773 1.000000 0.724119
0.210294 1.000000 0.803350
0.197503 1.000000 0.872254
0.181323 1.000000 0.929501
0.160556 1.000000 0.973733
0.133878 1.000000 1.000000
0.099841 1.000000 1.000000
0.056876 1.000000 1.000000
0.003286 1.000000 0.992491
0.000000 1.000000 0.950405
0.000000 1.000000 0.886623
0.000000 0.996677 0.799611
0.000000 0.892642 0.687804
0.000000 0.760241 0.549615
0.000000 0.596181 0.383428
0.000000 0.396997 0.187604
0.000000 0.159047 0.000000
0.000000 0.000000 0.000000
0.000000 0.000000 0.000000
0.470780 0.448261 0.000000
0.449113 0.498736 0.000000
0.427085 0.546283 0.000000
0.405352 0.591910 0.000000
0.384444 0.636447 0.000000
0.364769 0.680551 0.000000
0.346610 0.724706 0.000000
0.330128 0.769220 0.000000
0.315358 0.814227 0.054020
0.302212 0.859687 0.174606
0.290480 0.905384 0.291633
0.279825 0.950931 0.403868
0.269789 0.995763 0.510051
0.259788 1.000000 0.608898
0.249115 1.000000 0.699097
0.236940 1.000000 0.779310
0.222308 1.000000 0.848175
0.204141 1.000000 0.904304
0.181236 1.000000 0.946282
0.152268 1.000000 0.972668
0.115787 1.000000 0.981996
0.070219 1.000000 0.972776
0.013868 1.000000 0.943488
0.000000 1.000000 0.892590
0.000000 1.000000 0.818512
0.000000 0.939813 0.719660
0.000000 0.817826 0.594411
0.000000 0.665747 0.441120
0.000000 0.480222 0.258114
0.000000 0.257724 0.043695
0.000000 0.000000 0.000000
0.000000 0.000000 0.000000
0.000000 0.000000 0.000000
0.521701 0.458956 0.000000
0.499857 0.514378 0.000000
0.477510 0.566653 0.000000
0.455313 0.616723 0.000000
0.433794 0.665360 0.000000
0.413360 0.713158 0.000000
0.394290 0.760538 0.000000
0.376742 0.807747 0.000000
0.360749 0.854858 0.001148
0.346221 0.901767 0.127907
0.332943 0.948199 0.250432
0.320578 0.993702 0.367432
0.308664 1.000000 0.477589
0.296615 1.000000 0.579559
0.283721 1.000000 0.671974
0.269150 1.000000 0.753437
0.251943 1.000000 0.822529
0.231021 1.000000 0.877802
0.205178 1.000000 0.917784
0.173085 1.000000 0.940977
0.133292 1.000000 0.945856
0.084220 1.000000 0.930872
0.024170 1.000000 0.894448
0.000000 1.000000 0.834984
0.000000 0.978220 0.750852
0.000000 0.865726 0.640399
0.000000 0.724614 0.501945
0.000000 0.551643 0.333787
0.000000 0.343398 0.134193
0.000000 0.096289 0.000000
0.000000 0.000000 0.000000
0.000000 0.000000 0.000000
0.000000 0.000000 0.000000
0.588382 0.468660 0.000000
0.566132 0.528885 0.000000
0.543204 0.585699 0.000000
0.520249 0.639985 0.000000
0.497792 0.692450 0.000000
0.476235 0.743629 0.000000
0.455858 0.793881 0.000000
0.436815 0.843389 0.000000
0.419136 0.892165 0.000000
0.402728 0.940045 0.078150
0.387375 0.986690 0.206455
0.372736 1.000000 0.328498
0.358346 1.000000 0.442903
0.343618 1.000000 0.548269
0.327839 1.000000 0.643169
0.310172 1.000000 0.726150
0.289659 1.000000 0.795732
0.265216 1.000000 0.850411
0.235636 1.000000 0.888656
0.199586 1.000000 0.908911
0.155613 1.000000 0.909594
0.102137 1.000000 0.889096
0.037456 1.000000 0.845785
0.000000 1.000000 0.777999
0.000000 0.905547 0.684055
0.000000 0.774485 0.562240
0.000000 0.613059 0.410818
0.000000 0.417966 0.228026
0.000000 0.185728 0.012076
0.000000 0.000000 0.000000
0.000000 0.000000 0.000000
0.000000 0.000000 0.000000
0.000000 0.000000 0.000000
0.674226 0.477873 0.000000
0.651344 0.542737 0.000000
0.627575 0.603886 0.000000
0.603568 0.662141 0.000000
0.579846 0.718148 0.000000
0.556807 0.772378 0.000000
0.534729 0.825129 0.000000
0.513763 0.876523 0.000000
0.493936 0.926510 0.000000
0.475154 0.974863 0.025802
0.457197 1.000000 0.160166
0.439722 1.000000 0.287530
0.422261 1.000000 0.406459
0.404225 1.000000 0.515493
0.384897 1.000000 0.613148
0.363439 1.000000 0.697912
0.338890 1.000000 0.768248
0.310162 1.000000 0.822594
0.276046 1.000000 0.859360
0.235209 1.000000 0.876933
0.186192 1.000000 0.873672
0.127413 1.000000 0.847911
0.057169 1.000000 0.797958
0.000000 0.938779 0.722095
0.000000 0.816948 0.618580
0.000000 0.666154 0.485643
0.000000 0.483207 0.321488
0.000000 0.264742 0.124295
0.000000 0.007220 0.000000
0.000000 0.000000 0.000000
0.000000 0.000000 0.000000
0.000000 0.000000 0.000000
0.000000 0.000000 0.000000
0.782817 0.487087 0.000000
0.759079 0.556410 0.000000
0.734213 0.621672 0.000000
0.708863 0.683632 0.000000
0.683550 0.742874 0.000000
0.658671 0.799808 0.000000
0.634499 0.854669 0.000000
0.611184 0.907518 0.000000
0.588751 0.958243 0.000000
0.567101 1.000000 0.000000
0.546014 1.000000 0.112081
0.525142 1.000000 0.245042
0.504017 1.000000 0.368769
0.482044 1.000000 0.481743
0.458506 1.000000 0.582421
0.432563 1.000000 0.669234
0.403249 1.000000 0.740588
0.369475 1.000000 0.794861
0.330029 1.000000 0.830406
0.283574 1.000000 0.845551
0.228650 1.000000 0.838597
0.163673 1.000000 0.807822
0.086936 0.966797 0.751474
0.000000 0.853473 0.667778
0.000000 0.712495 0.554932
0.000000 0.540786 0.411110
0.000000 0.335094 0.234458
0.000000 0.091991 0.023097
0.000000 0.000000 0.000000
0.000000 0.000000 0.000000
0.000000 0.000000 0.000000
0.000000 0.000000 0.000000
0.000000 0.000000 0.000000
0.917923 0.496784 0.000000
0.893107 0.570368 0.000000
0.866887 0.639504 0.000000
0.839905 0.704887 0.000000
0.812678 0.767042 0.000000
0.785602 0.826314 0.000000
0.758946 0.882879 0.000000
0.732858 0.936736 0.000000
0.707361 0.987708 0.000000
0.682353 1.000000 0.000000
0.657611 1.000000 0.062760
0.632784 1.000000 0.201595
0.607402 1.000000 0.330392
0.580868 1.000000 0.447577
0.552461 1.000000 0.551547
0.521339 1.000000 0.640675
0.486534 1.000000 0.713308
0.446954 1.000000 0.767767
0.401384 1.000000 0.802348
0.348484 1.000000 0.815319
0.286793 1.000000 0.804926
0.214723 0.990861 0.769384
0.130565 0.885416 0.706887
0.032482 0.753535 0.615600
0.000000 0.592253 0.493665
0.000000 0.398428 0.339195
0.000000 0.168748 0.150280
0.000000 0.000000 0.000000
0.000000 0.000000 0.000000
0.000000 0.000000 0.000000
0.000000 0.000000 0.000000
0.000000 0.000000 0.000000
0.000000 0.000000 0.000000
1.000000 0.507441 0.000000
1.000000 0.585071 0.000000
1.000000 0.657823 0.000000
1.000000 0.726331 0.000000
0.971188 0.791057 0.000000
0.941559 0.852286 0.000000
0.912032 0.910131 0.000000
0.882749 0.964528 0.000000
0.853732 1.000000 0.000000
0.824877 1.000000 0.000000
0.795956 1.000000 0.012810
0.766618 1.000000 0.157795
0.736389 1.000000 0.291936
0.704670 1.000000 0.413601
0.670737 1.000000 0.521130
0.633746 1.000000 0.612838
0.592725 1.000000 0.687012
0.546580 1.000000 0.741917
0.494094 1.000000 0.775790
0.433925 1.000000 0.786841
0.364608 1.000000 0.773257
0.284552 0.914017 0.733198
0.192046 0.790611 0.664796
0.085252 0.639039 0.566162
0.000000 0.456275 0.435376
0.000000 0.239118 0.270495
0.000000 0.000000 0.069551
0.000000 0.000000 0.000000
0.000000 0.000000 0.000000
0.000000 0.000000 0.000000
0.000000 0.000000 0.000000
0.000000 0.000000 0.000000
0.000000 0.000000 0.000000
1.000000 0.519524 0.000000
1.000000 0.600967 0.000000
1.000000 0.677061 0.000000
1.000000 0.748378 0.000000
1.000000 0.815318 0.000000
1.000000 0.878104 0.000000
1.000000 0.936786 0.000000
1.000000 0.991240 0.000000
1.000000 1.000000 0.000000
0.998819 1.000000 0.000000
0.965199 1.000000 0.000000
0.930796 1.000000 0.114295
0.895132 1.000000 0.254053
0.857606 1.000000 0.380468
0.817492 1.000000 0.491823
0.773942 1.000000 0.586373
0.725983 1.000000 0.662351
0.672517 1.000000 0.717960
0.612326 1.000000 0.751380
0.544064 1.000000 0.760765
0.466263 0.940401 0.744241
0.377331 0.824942 0.699911
0.275553 0.682463 0.625850
0.159089 0.510049 0.520109
0.025976 0.304611 0.380711
0.000000 0.062886 0.205656
0.000000 0.000000 0.000000
0.000000 0.000000 0.000000
0.000000 0.000000 0.000000
0.000000 0.000000 0.000000
0.000000 0.000000 0.000000
0.000000 0.000000 0.000000
0.000000 0.000000 0.000000
1.000000 0.533493 0.000000
1.000000 0.618499 0.000000
1.000000 0.697643 0.000000
1.000000 0.771435 0.000000
1.000000 0.840212 0.000000
1.000000 0.904138 0.000000
1.000000 0.963199 0.000000
1.000000 1.000000 0.000000
1.000000 1.000000 0.000000
1.000000 1.000000 0.000000
1.000000 1.000000 0.000000
1.000000 1.000000 0.071795
1.000000 1.000000 0.217441
1.000000 1.000000 0.348876
0.997065 1.000000 0.464323
0.946269 1.000000 0.561980
0.890651 1.000000 0.640021
0.829110 1.000000 0.696593
0.760425 1.000000 0.729815
0.683248 0.965575 0.737785
0.596109 0.857635 0.718571
0.497412 0.723727 0.670217
0.385440 0.561048 0.590740
0.258350 0.366623 0.478134
0.114177 0.137300 0.330364
0.000000 0.000000 0.145370
0.000000 0.000000 0.000000
0.000000 0.000000 0.000000
0.000000 0.000000 0.000000
0.000000 0.000000 0.000000
0.000000 0.000000 0.000000
0.000000 0.000000 0.000000
0.000000 0.000000 0.000000
1.000000 0.549800 0.000000
1.000000 0.638101 0.000000
1.000000 0.719985 0.000000
1.000000 0.795901 0.000000
1.000000 0.866123 0.000000
1.000000 0.930753 0.000000
1.000000 0.989717 0.000000
1.000000 1.000000 0.000000
1.000000 1.000000 0.000000
1.000000 1.000000 0.000000
1.000000 1.000000 0.000000
1.000000 1.000000 0.031042
1.000000 1.000000 0.182848
1.000000 1.000000 0.319571
1.000000 1.000000 0.439375
1.000000 1.000000 0.540402
1.000000 1.000000 0.620767
1.000000 1.000000 0.678558
0.942922 0.990433 0.711838
0.856011 0.889679 0.718644
0.758679 0.763917 0.696989
0.649331 0.610456 0.644857
0.526244 0.426433 0.560208
0.387575 0.208810 0.440977
0.231354 0.000000 0.285072
0.055489 0.000000 0.090374
0.000000 0.000000 0.000000
0.000000 0.000000 0.000000
0.000000 0.000000 0.000000
0.000000 0.000000 0.000000
0.000000 0.000000 0.000000
0.000000 0.000000 0.000000
0.000000 0.000000 0.000000
1.000000 0.568888 0.000000
1.000000 0.660199 0.000000
1.000000 0.744496 0.000000
1.000000 0.822166 0.000000
1.000000 0.893423 0.000000
1.000000 0.958306 0.000000
1.000000 1.000000 0.000000
1.000000 1.000000 0.000000
1.000000 1.000000 0.000000
1.000000 1.000000 0.000000
1.000000 1.000000 0.000000
1.000000 1.000000 0.000000
1.000000 1.000000 0.151066
1.000000 1.000000 0.293344
1.000000 1.000000 0.417771
1.000000 1.000000 0.522431
1.000000 1.000000 0.605378
1.000000 1.000000 0.664645
1.000000 0.921949 0.698236
1.000000 0.804004 0.704131
0.958690 0.659340 0.680282
0.837804 0.485206 0.624618
0.702684 0.278676 0.535040
0.551482 0.036651 0.409425
0.382228 0.000000 0.245621
0.192825 0.000000 0.041454
0.000000 0.000000 0.000000
0.000000 0.000000 0.000000
0.000000 0.000000 0.000000
0.000000 0.000000 0.000000
0.000000 0.000000 0.000000
0.000000 0.000000 0.000000
0.000000 0.000000 0.000000
1.000000 0.591192 0.000000
1.000000 0.685210 0.000000
1.000000 0.771576 0.000000
1.000000 0.850615 0.000000
1.000000 0.922478 0.000000
1.000000 0.987143 0.000000
1.000000 1.000000 0.000000
1.000000 1.000000 0.000000
1.000000 1.000000 0.000000
1.000000 1.000000 0.000000
1.000000 1.000000 0.000000
1.000000 1.000000 0.000000
1.000000 1.000000 0.122935
1.000000 1.000000 0.271036
1.000000 1.000000 0.400350
1.000000 1.000000 0.508903
1.000000 1.000000 0.594693
1.000000 0.955202 0.655692
1.000000 0.844842 0.689847
1.000000 0.708651 0.695081
1.000000 0.543989 0.669287
1.000000 0.348044 0.610336
0.919661 0.117828 0.516070
0.754977 0.000000 0.384309
0.571704 0.000000 0.212844
0.367746 0.000000 0.000000
0.140881 0.000000 0.000000
0.000000 0.000000 0.000000
0.000000 0.000000 0.000000
0.000000 0.000000 0.000000
0.000000 0.000000 0.000000
0.000000 0.000000 0.000000
0.000000 0.000000 0.000000
1.000000 0.617140 0.000000
1.000000 0.713545 0.000000
1.000000 0.801618 0.000000
1.000000 0.881622 0.000000
1.000000 0.953646 0.000000
1.000000 1.000000 0.000000
1.000000 1.000000 0.000000
1.000000 1.000000 0.000000
1.000000 1.000000 0.000000
1.000000 1.000000 0.000000
1.000000 1.000000 0.000000
1.000000 1.000000 0.000000
1.000000 1.000000 0.099340
1.000000 1.000000 0.253530
1.000000 1.000000 0.387996
1.000000 1.000000 0.500704
1.000000 0.990081 0.589594
1.000000 0.887171 0.652581
1.000000 0.759225 0.687554
1.000000 0.603716 0.692375
1.000000 0.417943 0.664884
1.000000 0.199031 0.602889
1.000000 0.000000 0.504179
1.000000 0.000000 0.366511
0.804871 0.000000 0.187621
0.585342 0.000000 0.000000
0.342331 0.000000 0.000000
0.073492 0.000000 0.000000
0.000000 0.000000 0.000000
0.000000 0.000000 0.000000
0.000000 0.000000 0.000000
0.000000 0.000000 0.000000
0.000000 0.000000 0.000000
1.000000 0.647151 0.000000
1.000000 0.745606 0.000000
1.000000 0.835006 0.000000
1.000000 0.915553 0.000000
1.000000 0.987275 0.000000
1.000000 1.000000 0.000000
1.000000 1.000000 0.000000
1.000000 1.000000 0.000000
1.000000 1.000000 0.000000
1.000000 1.000000 0.000000
1.000000 1.000000 0.000000
1.000000 1.000000 0.000000
1.000000 1.000000 0.081216
1.000000 1.000000 0.241761
1.000000 1.000000 0.381641
1.000000 1.000000 0.498764
1.000000 0.931616 0.591012
1.000000 0.811783 0.656242
1.000000 0.665203 0.692284
1.000000 0.489286 0.696944
1.000000 0.281270 0.668001
1.000000 0.038219 0.603207
1.000000 0.000000 0.500292
1.000000 0.000000 0.356956
1.000000 0.000000 0.170876
0.850882 0.000000 0.000000
0.590679 0.000000 0.000000
