lrplugin/MindfulLensFilmEngine.lrplugin/profiles/luts/sony_classic_negative.cube
# Generated from ColorChecker fit
LUT_3D_SIZE 5
DOMAIN_MIN 0.0 0.0 0.0
DOMAIN_MAX 1.0 1.0 1.0
0.025996 0.000000 0.005632
0.000000 0.000000 0.309080
0.000000 0.000000 0.950922
0.000000 0.264196 1.000000
0.000000 0.158850 1.000000
0.346208 0.361883 0.000000
0.176457 0.548088 0.255121
0.087940 0.873754 0.946192
0.000000 1.000000 1.000000
0.000000 0.172841 0.265628
0.674226 0.477873 0.000000
0.493936 0.926510 0.000000
0.338890 1.000000 0.768248
0.000000 0.816948 0.618580
0.000000 0.000000 0.000000
1.000000 0.591192 0.000000
1.000000 1.000000 0.000000
1.000000 1.000000 0.594693
0.571704 0.000000 0.212844
0.000000 0.000000 0.000000
1.000000 0.935021 0.000000
1.000000 1.000000 0.000000
1.000000 0.454241 0.794382
1.000000 0.000000 0.306191
0.333916 0.000000 0.000000
0.236482 0.136594 0.368686
0.000000 0.000000 0.111241
0.000000 0.000000 0.336391
0.000000 0.000000 0.958568
0.000000 0.000000 1.000000
0.410782 0.524671 0.262616
0.275236 0.341351 0.328777
0.349939 0.407644 0.611052
0.264919 0.474855 0.786075
0.000000 0.000000 0.424780
0.486197 0.583900 0.000000
0.335752 0.681433 0.310634
0.286324 0.784644 0.734767
0.000000 0.391523 0.535959
0.000000 0.000000 0.000000
1.000000 0.813095 0.000000
1.000000 1.000000 0.206866
1.000000 0.997697 0.855163
0.302349 0.000000 0.353418
0.000000 0.000000 0.000000
1.000000 1.000000 0.000000
1.000000 1.000000 0.358781
1.000000 1.000000 1.000000
1.000000 0.000000 0.574907
0.000000 0.000000 0.000000
0.567231 0.233480 0.408701
0.239256 0.000000 0.000000
0.234301 0.000000 0.210523
0.146664 0.000000 1.000000
0.000000 0.000000 1.000000
0.717973 0.712611 0.442053
0.523698 0.305684 0.234723
0.627633 0.180662 0.436425
0.613363 0.104246 0.916551
0.000000 0.000000 1.000000
0.620593 0.775173 0.280350
0.464382 0.608386 0.323267
0.443909 0.538237 0.533411
0.132043 0.078114 0.542376
0.000000 0.000000 0.000000
1.000000 1.000000 0.046098
1.000000 1.000000 0.375609
1.000000 1.000000 0.619130
0.334658 0.000000 0.170460
0.000000 0.000000 0.000000
1.000000 1.000000 0.053056
1.000000 1.000000 0.703082
1.000000 1.000000 1.000000
1.000000 0.000000 0.107281
0.000000 0.000000 0.000000
0.743471 0.000000 0.274462
0.313353 0.000000 0.357099
0.306404 0.000000 1.000000
0.270478 0.042808 1.000000
0.000000 0.000000 1.000000
1.000000 0.654075 0.274491
0.787035 0.448605 0.372523
0.902528 0.479473 1.000000
0.900280 0.528774 1.000000
0.000000 0.000000 1.000000
0.849943 0.792307 0.215994
0.768670 0.727128 0.310826
0.816802 0.771688 0.814524
0.520765 0.454772 1.000000
0.000000 0.000000 1.000000
1.000000 1.000000 0.191501
1.000000 1.000000 0.262111
1.000000 1.000000 0.524457
0.813755 0.570356 0.565093
0.000000 0.000000 0.000000
1.000000 1.000000 0.484798
1.000000 1.000000 0.507736
1.000000 1.000000 0.493869
1.000000 1.000000 0.000000
0.159488 0.000000 0.000000
0.020605 0.000000 0.182492
0.000000 0.000000 1.000000
0.000000 0.764473 1.000000
0.000000 1.000000 1.000000
0.000000 1.000000 1.000000
0.585902 0.000000 0.000000
0.460619 0.495369 1.000000
0.686307 1.000000 1.000000
0.753666 1.000000 1.000000
0.000000 1.000000 1.000000
0.476958 0.093647 0.000000
0.667639 0.775152 0.728132
0.940338 1.000000 1.000000
0.775039 1.000000 1.000000
0.000000 0.552010 1.000000
1.000000 0.914783 0.000000
1.000000 1.000000 0.308711
1.000000 1.000000 1.000000
1.000000 1.000000 1.000000
0.000000 0.000000 1.000000
1.000000 1.000000 0.216459
1.000000 1.000000 0.202597
1.000000 1.000000 0.478375
1.000000 1.000000 0.585306
1.000000 0.000000 0.000000
