lrplugin/MindfulLensFilmEngine.lrplugin/profiles/luts/ultramax_400.cube
# Generated from ColorChecker fit
LUT_3D_SIZE 9
DOMAIN_MIN 0.0 0.0 0.0
DOMAIN_MAX 1.0 1.0 1.0
0.194308 0.086384 0.123985
0.000000 0.000000 0.112158
0.000000 0.000000 0.203122
0.000000 0.000000 0.305176
0.000000 0.000000 0.310963
0.000000 0.000000 0.097466
0.000000 0.000000 0.000000
0.000000 0.000000 0.000000
0.000000 0.000000 0.000000
0.184598 0.157686 0.223118
0.000000 0.040945 0.265685
0.000000 0.000000 0.401863
0.000000 0.000000 0.533560
0.000000 0.000000 0.547030
0.000000 0.000000 0.312866
0.000000 0.000000 0.000000
0.000000 0.000000 0.000000
0.000000 0.000000 0.000000
0.183242 0.310174 0.268621
0.024377 0.271175 0.347999
0.000000 0.250674 0.507959
0.000000 0.230362 0.644020
0.000000 0.183004 0.636044
0.000000 0.072441 0.348236
0.000000 0.000000 0.000000
0.000000 0.000000 0.000000
0.000000 0.000000 0.000000
0.356621 0.600785 0.405390
0.178291 0.600923 0.500177
0.046808 0.602669 0.658669
0.000000 0.577648 0.769995
0.000000 0.488561 0.707627
0.000000 0.289185 0.329379
0.000000 0.000000 0.000000
0.000000 0.000000 0.000000
0.000000 0.000000 0.000000
0.947268 1.000000 0.839983
0.684971 1.000000 0.924958
0.466568 1.000000 1.000000
0.226207 1.000000 1.000000
0.000000 0.816812 0.953061
0.000000 0.464171 0.443761
0.000000 0.000000 0.000000
0.000000 0.000000 0.000000
0.000000 0.000000 0.000000
1.000000 1.000000 1.000000
1.000000 1.000000 1.000000
1.000000 1.000000 1.000000
1.000000 1.000000 1.000000
0.524507 1.000000 1.000000
0.000000 0.695986 0.940506
0.000000 0.000000 0.000000
0.000000 0.000000 0.000000
0.000000 0.000000 0.000000
1.000000 1.000000 1.000000
1.000000 1.000000 1.000000
1.000000 1.000000 1.000000
1.000000 1.000000 1.000000
1.000000 1.000000 1.000000
0.891263 1.000000 1.000000
0.000000 0.000000 0.597757
0.000000 0.000000 0.000000
0.000000 0.000000 0.000000
1.000000 1.000000 1.000000
1.000000 1.000000 1.000000
1.000000 1.000000 1.000000
1.000000 1.000000 1.000000
1.000000 1.000000 1.000000
1.000000 1.000000 1.000000
1.000000 0.186082 1.000000
0.000000 0.000000 0.000000
0.000000 0.000000 0.000000
1.000000 1.000000 1.000000
1.000000 1.000000 1.000000
1.000000 1.000000 1.000000
1.000000 1.000000 1.000000
1.000000 1.000000 1.000000
1.000000 1.000000 1.000000
1.000000 0.937376 1.000000
1.000000 0.000000 1.000000
0.000000 0.000000 0.000000
0.299346 0.249621 0.120112
0.074209 0.030429 0.052416
0.000000 0.000000 0.112997
0.000000 0.000000 0.229385
0.000000 0.000000 0.313448
0.000000 0.000000 0.261399
0.000000 0.000000 0.000000
0.000000 0.000000 0.000000
0.000000 0.000000 0.000000
0.279887 0.274464 0.225223
0.142698 0.162847 0.217981
0.067646 0.098816 0.329670
0.016351 0.069720 0.481430
0.000000 0.053982 0.578738
0.000000 0.021103 0.511418
0.000000 0.000000 0.153635
0.000000 0.000000 0.000000
0.000000 0.000000 0.000000
0.242112 0.367775 0.250592
0.139360 0.330511 0.285403
0.104699 0.329964 0.425950
0.090822 0.343421 0.586983
0.043850 0.339240 0.667590
0.000000 0.276857 0.551205
0.000000 0.106782 0.105601
0.000000 0.000000 0.000000
0.000000 0.000000 0.000000
0.350255 0.587305 0.335569
0.223890 0.588109 0.390213
0.166888 0.609067 0.533551
0.123013 0.617400 0.673940
0.029459 0.571402 0.704081
0.000000 0.420443 0.501017
0.000000 0.104971 0.000000
0.000000 0.000000 0.000000
0.000000 0.000000 0.000000
0.844699 1.000000 0.681166
0.632133 1.000000 0.729604
0.485519 1.000000 0.845845
0.339694 0.968703 0.931856
0.122923 0.824453 0.873948
0.000000 0.522788 0.542773
0.000000 0.000000 0.000000
0.000000 0.000000 0.000000
0.000000 0.000000 0.000000
1.000000 1.000000 1.000000
1.000000 1.000000 1.000000
1.000000 1.000000 1.000000
1.000000 1.000000 1.000000
0.622620 1.000000 1.000000
0.017327 0.683293 0.920053
0.000000 0.000000 0.000000
0.000000 0.000000 0.000000
0.000000 0.000000 0.000000
1.000000 1.000000 1.000000
1.000000 1.000000 1.000000
1.000000 1.000000 1.000000
1.000000 1.000000 1.000000
1.000000 1.000000 1.000000
0.968127 1.000000 1.000000
0.000000 0.000000 0.688414
0.000000 0.000000 0.000000
0.000000 0.000000 0.000000
1.000000 1.000000 1.000000
1.000000 1.000000 1.000000
1.000000 1.000000 1.000000
1.000000 1.000000 1.000000
1.000000 1.000000 1.000000
1.000000 1.000000 1.000000
1.000000 0.112833 1.000000
0.000000 0.000000 0.037269
0.000000 0.000000 0.000000
1.000000 1.000000 1.000000
1.000000 1.000000 1.000000
1.000000 1.000000 1.000000
1.000000 1.000000 1.000000
1.000000 1.000000 1.000000
1.000000 1.000000 1.000000
1.000000 0.813872 1.000000
1.000000 0.000000 1.000000
0.000000 0.000000 0.000000
0.401713 0.388856 0.151834
0.203128 0.143299 0.023076
0.077684 0.000000 0.038420
0.000000 0.000000 0.144623
0.000000 0.000000 0.272782
0.000000 0.000000 0.338338
0.000000 0.000000 0.241073
0.000000 0.000000 0.000000
0.000000 0.000000 0.000000
0.373668 0.370282 0.255203
0.261247 0.229950 0.196168
0.232149 0.158083 0.271724
0.248682 0.137623 0.422236
0.266582 0.142588 0.572412
0.235014 0.138072 0.631303
0.096570 0.080245 0.492301
0.000000 0.000000 0.033141
0.000000 0.000000 0.000000
0.294340 0.404403 0.249278
0.216483 0.338395 0.240748
0.227448 0.330310 0.353448
0.280614 0.353027 0.521353
0.322791 0.370499 0.662781
0.294214 0.337756 0.680394
0.128546 0.200902 0.461193
0.000000 0.000000 0.000000
0.000000 0.000000 0.000000
0.325814 0.549785 0.267864
0.226382 0.524138 0.286800
0.216589 0.540176 0.409757
0.240886 0.560715 0.564321
0.237153 0.539642 0.662419
0.136699 0.421922 0.600322
0.000000 0.143595 0.258643
0.000000 0.000000 0.000000
0.000000 0.000000 0.000000
0.706326 0.893472 0.506426
0.524642 0.871162 0.525972
0.428731 0.868604 0.628482
0.354117 0.838548 0.735151
0.229751 0.724816 0.751518
0.000000 0.462309 0.567462
0.000000 0.000000 0.057207
0.000000 0.000000 0.000000
0.000000 0.000000 0.000000
1.000000 1.000000 1.000000
1.000000 1.000000 1.000000
1.000000 1.000000 1.000000
0.921078 1.000000 1.000000
0.596816 1.000000 1.000000
0.109850 0.559135 0.819847
0.000000 0.000000 0.091100
0.000000 0.000000 0.000000
0.000000 0.000000 0.000000
1.000000 1.000000 1.000000
1.000000 1.000000 1.000000
1.000000 1.000000 1.000000
1.000000 1.000000 1.000000
1.000000 1.000000 1.000000
0.900055 0.841095 1.000000
0.000000 0.000000 0.656198
0.000000 0.000000 0.000000
0.000000 0.000000 0.000000
1.000000 1.000000 1.000000
1.000000 1.000000 1.000000
1.000000 1.000000 1.000000
1.000000 1.000000 1.000000
1.000000 1.000000 1.000000
1.000000 1.000000 1.000000
1.000000 0.000000 1.000000
0.000000 0.000000 0.129540
0.000000 0.000000 0.000000
1.000000 1.000000 1.000000
1.000000 1.000000 1.000000
1.000000 1.000000 1.000000
1.000000 1.000000 1.000000
1.000000 1.000000 1.000000
1.000000 1.000000 1.000000
1.000000 0.588084 1.000000
1.000000 0.000000 1.000000
0.000000 0.000000 0.000000
0.522740 0.519993 0.209766
0.312008 0.220262 0.018477
0.193819 0.017375 0.000000
0.140098 0.000000 0.052674
0.116197 0.000000 0.194470
0.080894 0.000000 0.337509
0.000000 0.000000 0.400801
0.000000 0.000000 0.287699
0.000000 0.000000 0.000000
0.498281 0.467970 0.315941
0.378114 0.274474 0.206854
0.360217 0.173306 0.238354
0.407585 0.143002 0.370032
0.476642 0.153174 0.545827
0.517239 0.164510 0.694016
0.472655 0.128773 0.727219
0.279597 0.000000 0.542402
0.000000 0.000000 0.020870
0.383273 0.449817 0.279830
0.303982 0.333976 0.232909
0.332005 0.300248 0.313047
0.421408 0.317106 0.473448
0.519687 0.344097 0.651658
0.567766 0.331844 0.769566
0.499994 0.222045 0.733403
0.244151 0.000000 0.433742
0.000000 0.000000 0.000000
0.337653 0.524914 0.229694
0.245011 0.455086 0.221082
0.260044 0.451462 0.322155
0.327891 0.472447 0.479725
0.387118 0.467525 0.624950
0.369721 0.377254 0.673328
0.201123 0.133268 0.524700
0.000000 0.000000 0.063250
0.000000 0.000000 0.000000
0.597509 0.781118 0.355452
0.432751 0.722603 0.357475
0.371346 0.708683 0.447959
0.349505 0.687700 0.567328
0.296868 0.599073 0.640349
0.136502 0.373295 0.576129
0.000000 0.000000 0.268120
0.000000 0.000000 0.000000
0.000000 0.000000 0.000000
1.000000 1.000000 0.908683
1.000000 1.000000 0.889849
0.969070 1.000000 0.934404
0.784874 1.000000 0.976382
0.543022 0.842834 0.934160
0.157653 0.421000 0.710456
0.000000 0.000000 0.192332
0.000000 0.000000 0.000000
0.000000 0.000000 0.000000
1.000000 1.000000 1.000000
1.000000 1.000000 1.000000
1.000000 1.000000 1.000000
1.000000 1.000000 1.000000
1.000000 1.000000 1.000000
0.798870 0.649879 1.000000
0.000000 0.000000 0.587668
0.000000 0.000000 0.000000
0.000000 0.000000 0.000000
1.000000 1.000000 1.000000
1.000000 1.000000 1.000000
1.000000 1.000000 1.000000
1.000000 1.000000 1.000000
1.000000 1.000000 1.000000
1.000000 1.000000 1.000000
1.000000 0.000000 1.000000
0.000000 0.000000 0.151684
0.000000 0.000000 0.000000
1.000000 1.000000 1.000000
1.000000 1.000000 1.000000
1.000000 1.000000 1.000000
1.000000 1.000000 1.000000
1.000000 1.000000 1.000000
1.000000 1.000000 1.000000
1.000000 0.387671 1.000000
1.000000 0.000000 1.000000
0.000000 0.000000 0.000000
0.656800 0.640424 0.265965
0.400111 0.268097 0.014398
0.253129 0.019136 0.000000
0.188465 0.000000 0.000000
0.172157 0.000000 0.065459
0.163673 0.000000 0.249581
0.115907 0.000000 0.427367
0.000000 0.000000 0.521399
0.000000 0.000000 0.438601
0.659105 0.571849 0.391762
0.503568 0.310129 0.238085
0.467008 0.167583 0.221327
0.513108 0.118344 0.320309
0.598979 0.127616 0.498195
0.675160 0.151682 0.702492
0.685615 0.137899 0.865050
0.567741 0.024699 0.902059
0.252359 0.000000 0.714054
0.525296 0.515265 0.338843
0.423134 0.337892 0.262202
0.444536 0.269806 0.308787
0.544259 0.275074 0.451030
0.670484 0.308837 0.645704
0.764821 0.317312 0.833927
0.762310 0.237792 0.941158
0.591416 0.000000 0.877199
0.174033 0.000000 0.536193
0.413164 0.530866 0.229922
0.312060 0.408520 0.205643
0.334426 0.379877 0.287049
0.426090 0.398939 0.440181
0.526306 0.410782 0.615425
0.567757 0.351560 0.747507
0.476551 0.148499 0.755496
0.172228 0.000000 0.542804
0.000000 0.000000 0.000000
0.556648 0.707325 0.249373
0.399747 0.607626 0.248963
0.361541 0.580349 0.332849
0.378928 0.569430 0.460683
0.382234 0.509883 0.576459
0.295214 0.327795 0.608514
0.035048 0.000000 0.469527
0.000000 0.000000 0.056519
0.000000 0.000000 0.000000
1.000000 1.000000 0.643230
0.991748 1.000000 0.634379
0.826894 0.982250 0.684587
0.699247 0.894517 0.747114
0.530204 0.711048 0.759566
0.234591 0.347865 0.643890
0.000000 0.000000 0.306374
0.000000 0.000000 0.000000
0.000000 0.000000 0.000000
1.000000 1.000000 1.000000
1.000000 1.000000 1.000000
1.000000 1.000000 1.000000
1.000000 1.000000 1.000000
1.000000 1.000000 1.000000
0.749435 0.542096 1.000000
0.000000 0.000000 0.550825
0.000000 0.000000 0.000000
0.000000 0.000000 0.000000
1.000000 1.000000 1.000000
1.000000 1.000000 1.000000
1.000000 1.000000 1.000000
1.000000 1.000000 1.000000
1.000000 1.000000 1.000000
1.000000 1.000000 1.000000
0.985423 0.000000 1.000000
0.000000 0.000000 0.187693
0.000000 0.000000 0.000000
1.000000 1.000000 1.000000
1.000000 1.000000 1.000000
1.000000 1.000000 1.000000
1.000000 1.000000 1.000000
1.000000 1.000000 1.000000
1.000000 1.000000 1.000000
1.000000 0.321784 1.000000
1.000000 0.000000 1.000000
0.000000 0.000000 0.000000
0.771306 0.729029 0.273927
0.439742 0.275074 0.000000
0.232807 0.000000 0.000000
0.123801 0.000000 0.000000
0.079449 0.000000 0.000000
0.059906 0.000000 0.046661
0.018753 0.000000 0.296602
0.000000 0.000000 0.545765
0.000000 0.000000 0.720302
0.834560 0.667728 0.448430
0.620919 0.332110 0.259348
0.540723 0.145501 0.193853
0.558342 0.077623 0.249997
0.631575 0.089278 0.410170
0.711646 0.132340 0.641109
0.743210 0.149762 0.893889
0.664348 0.075569 1.000000
0.406570 0.000000 1.000000
0.709838 0.593484 0.404347
0.568255 0.352267 0.310381
0.564249 0.250496 0.326144
0.653263 0.247832 0.443296
0.784166 0.295010 0.637840
0.899257 0.333841 0.870120
0.934260 0.297212 1.000000
0.818329 0.109084 1.000000
0.474045 0.000000 1.000000
0.552783 0.567307 0.258847
0.432852 0.393491 0.234504
0.449949 0.343864 0.302184
0.550589 0.368022 0.447156
0.674712 0.406634 0.639034
0.755688 0.391448 0.831771
0.720314 0.245285 0.963666
0.488816 0.000000 0.957358
0.000000 0.000000 0.719829
0.595184 0.678686 0.190758
0.441964 0.542212 0.206728
0.420539 0.508972 0.293166
0.468497 0.518498 0.428952
0.516850 0.501395 0.577307
0.490039 0.379345 0.685797
0.305935 0.065106 0.686330
0.000000 0.000000 0.495155
0.000000 0.000000 0.012865
1.000000 1.000000 0.440569
0.898994 0.913334 0.463724
0.774884 0.857665 0.531943
0.701314 0.808045 0.617716
0.600369 0.685017 0.677875
0.387562 0.400195 0.653597
0.000000 0.000000 0.470397
0.000000 0.000000 0.038137
0.000000 0.000000 0.000000
1.000000 1.000000 1.000000
1.000000 1.000000 1.000000
1.000000 1.000000 1.000000
1.000000 1.000000 1.000000
1.000000 1.000000 1.000000
0.809654 0.585139 1.000000
0.074872 0.000000 0.595106
0.000000 0.000000 0.000000
0.000000 0.000000 0.000000
1.000000 1.000000 1.000000
1.000000 1.000000 1.000000
1.000000 1.000000 1.000000
1.000000 1.000000 1.000000
1.000000 1.000000 1.000000
1.000000 1.000000 1.000000
1.000000 0.000000 1.000000
0.000000 0.000000 0.302996
0.000000 0.000000 0.000000
1.000000 1.000000 1.000000
1.000000 1.000000 1.000000
1.000000 1.000000 1.000000
1.000000 1.000000 1.000000
1.000000 1.000000 1.000000
1.000000 1.000000 1.000000
1.000000 0.481061 1.000000
1.000000 0.000000 1.000000
0.000000 0.000000 0.000000
0.806714 0.746178 0.168588
0.376243 0.210950 0.000000
0.083087 0.000000 0.000000
0.000000 0.000000 0.000000
0.000000 0.000000 0.000000
0.000000 0.000000 0.000000
0.000000 0.000000 0.000000
0.000000 0.000000 0.321790
0.000000 0.000000 0.695718
0.976109 0.722902 0.433149
0.686519 0.317105 0.221568
0.542603 0.093132 0.110582
0.509418 0.016303 0.117468
0.545448 0.043012 0.243847
0.602608 0.120727 0.475681
0.626239 0.187993 0.783277
0.555108 0.174432 1.000000
0.321412 0.000740 1.000000
0.899367 0.658698 0.435816
0.706704 0.360714 0.340640
0.663391 0.235321 0.332034
0.725558 0.237772 0.420886
0.842763 0.314397 0.602427
0.957989 0.402601 0.856230
1.000000 0.430863 1.000000
0.921586 0.318740 1.000000
0.623066 0.000000 1.000000
0.729984 0.615389 0.288211
0.585753 0.400542 0.283130
0.589868 0.343354 0.346746
0.689530 0.389015 0.483558
0.825368 0.473788 0.682406
0.931438 0.525016 0.916472
0.935226 0.461112 1.000000
0.757642 0.191570 1.000000
0.313028 0.000000 1.000000
0.697601 0.683279 0.163616
0.548772 0.523830 0.218502
0.542602 0.501412 0.320363
0.617363 0.551151 0.467310
0.704755 0.599245 0.641791
0.729909 0.562971 0.810600
0.611380 0.350680 0.924874
0.261152 0.000000 0.920088
0.000000 0.000000 0.716065
1.000000 0.981149 0.296975
0.897017 0.846299 0.377881
0.818308 0.822156 0.480193
0.801234 0.833779 0.595630
0.768565 0.797305 0.700253
0.636503 0.619943 0.754465
0.314676 0.199981 0.703012
0.000000 0.000000 0.474981
0.000000 0.000000 0.000000
1.000000 1.000000 0.984892
1.000000 1.000000 1.000000
1.000000 1.000000 1.000000
1.000000 1.000000 1.000000
1.000000 1.000000 1.000000
1.000000 0.827888 1.000000
0.399829 0.137912 0.751392
0.000000 0.000000 0.239260
0.000000 0.000000 0.000000
1.000000 1.000000 1.000000
1.000000 1.000000 1.000000
1.000000 1.000000 1.000000
1.000000 1.000000 1.000000
1.000000 1.000000 1.000000
1.000000 1.000000 1.000000
1.000000 0.321843 1.000000
0.000000 0.000000 0.544463
0.000000 0.000000 0.000000
1.000000 1.000000 1.000000
1.000000 1.000000 1.000000
1.000000 1.000000 1.000000
1.000000 1.000000 1.000000
1.000000 1.000000 1.000000
1.000000 1.000000 1.000000
1.000000 0.937626 1.000000
1.000000 0.000000 1.000000
0.000000 0.000000 0.027648
0.676517 0.633726 0.000000
0.128001 0.026971 0.000000
0.000000 0.000000 0.000000
0.000000 0.000000 0.000000
0.000000 0.000000 0.000000
0.000000 0.000000 0.000000
0.000000 0.000000 0.000000
0.000000 0.000000 0.000000
0.000000 0.000000 0.311003
1.000000 0.686157 0.274564
0.629759 0.223286 0.057113
0.406929 0.000000 0.000000
0.305505 0.000000 0.000000
0.284661 0.000000 0.000000
0.296997 0.112569 0.153465
0.288541 0.257711 0.484190
0.198749 0.335796 0.908809
0.000000 0.263115 1.000000
1.000000 0.666620 0.374162
0.778880 0.328336 0.297615
0.687251 0.198772 0.274816
0.711323 0.228775 0.335880
0.801341 0.360267 0.495268
0.900975 0.526248 0.751779
0.947327 0.650792 1.000000
0.870925 0.649049 1.000000
0.595722 0.427244 1.000000
0.891284 0.637753 0.271194
0.722170 0.401702 0.308422
0.710479 0.359765 0.381360
0.804101 0.452725 0.513733
0.944351 0.612442 0.713611
1.000000 0.761848 0.973403
1.000000 0.814955 1.000000
0.959451 0.676847 1.000000
0.567933 0.243685 1.000000
0.821422 0.690675 0.133396
0.682586 0.531439 0.253454
0.695031 0.546015 0.387334
0.797718 0.665123 0.552373
0.923034 0.810557 0.750249
0.996795 0.895185 0.966983
0.938245 0.822954 1.000000
0.660056 0.488883 1.000000
0.068325 0.000000 1.000000
1.000000 0.944981 0.190167
0.959237 0.834082 0.358290
0.935477 0.870998 0.514499
0.982206 0.976382 0.669742
1.000000 1.000000 0.819306
0.974395 1.000000 0.942824
0.747059 0.776019 1.000000
0.244617 0.183327 0.951956
0.000000 0.000000 0.718546
1.000000 1.000000 0.732565
1.000000 1.000000 0.910169
1.000000 1.000000 1.000000
1.000000 1.000000 1.000000
1.000000 1.000000 1.000000
1.000000 1.000000 1.000000
0.876146 0.803859 1.000000
0.061162 0.000000 0.715819
0.000000 0.000000 0.150615
1.000000 1.000000 1.000000
1.000000 1.000000 1.000000
1.000000 1.000000 1.000000
1.000000 1.000000 1.000000
1.000000 1.000000 1.000000
1.000000 1.000000 1.000000
1.000000 1.000000 1.000000
0.533868 0.000000 0.940402
0.000000 0.000000 0.000000
1.000000 1.000000 1.000000
1.000000 1.000000 1.000000
1.000000 1.000000 1.000000
1.000000 1.000000 1.000000
1.000000 1.000000 1.000000
1.000000 1.000000 1.000000
1.000000 1.000000 1.000000
1.000000 0.000000 1.000000
0.000000 0.000000 0.572729
0.267253 0.315018 0.000000
0.000000 0.000000 0.000000
0.000000 0.000000 0.000000
0.000000 0.000000 0.000000
0.000000 0.000000 0.000000
0.000000 0.000000 0.000000
0.000000 0.000000 0.000000
0.000000 0.000000 0.000000
0.000000 0.000000 0.000000
0.828534 0.487765 0.000000
0.353073 0.000000 0.000000
0.041023 0.000000 0.000000
0.000000 0.000000 0.000000
0.000000 0.000000 0.000000
0.000000 0.085086 0.000000
0.000000 0.345520 0.000000
0.000000 0.555654 0.402653
0.000000 0.627372 1.000000
1.000000 0.554450 0.141736
0.698222 0.201723 0.107379
0.554159 0.096827 0.084285
0.533777 0.186206 0.121797
0.588010 0.407375 0.253603
0.661215 0.688928 0.497732
0.691181 0.950532 0.856555
0.609123 1.000000 1.000000
0.339682 1.000000 1.000000
0.956240 0.578527 0.142415
0.766548 0.350488 0.248724
0.741118 0.356003 0.348091
0.828526 0.531449 0.483470
0.970776 0.804278 0.682159
1.000000 1.000000 0.955796
1.000000 1.000000 1.000000
1.000000 1.000000 1.000000
0.698233 1.000000 1.000000
0.897210 0.651929 0.046986
0.778859 0.525483 0.262197
0.818171 0.612615 0.448412
0.954796 0.839639 0.642197
1.000000 1.000000 0.864458
1.000000 1.000000 1.000000
1.000000 1.000000 1.000000
1.000000 1.000000 1.000000
0.525206 0.869354 1.000000
1.000000 0.895067 0.079301
1.000000 0.844057 0.367830
1.000000 0.980954 0.601463
1.000000 1.000000 0.810374
1.000000 1.000000 1.000000
1.000000 1.000000 1.000000
1.000000 1.000000 1.000000
0.846782 1.000000 1.000000
0.085791 0.433556 1.000000
1.000000 1.000000 0.524872
1.000000 1.000000 0.847319
1.000000 1.000000 1.000000
1.000000 1.000000 1.000000
1.000000 1.000000 1.000000
1.000000 1.000000 1.000000
1.000000 1.000000 1.000000
0.822242 1.000000 1.000000
0.000000 0.000000 0.970269
1.000000 1.000000 1.000000
1.000000 1.000000 1.000000
1.000000 1.000000 1.000000
1.000000 1.000000 1.000000
1.000000 1.000000 1.000000
1.000000 1.000000 1.000000
1.000000 1.000000 1.000000
1.000000 1.000000 1.000000
0.000000 0.000000 0.803275
1.000000 1.000000 1.000000
1.000000 1.000000 1.000000
1.000000 1.000000 1.000000
1.000000 1.000000 1.000000
1.000000 1.000000 1.000000
1.000000 1.000000 1.000000
1.000000 1.000000 1.000000
1.000000 1.000000 1.000000
0.963385 0.000000 1.000000
