lrplugin/MindfulLensFilmEngine.lrplugin/profiles/luts/ultramax_400.cube
# Generated from ColorChecker fit
LUT_3D_SIZE 33
DOMAIN_MIN 0.0 0.0 0.0
DOMAIN_MAX 1.0 1.0 1.0
0.194308 0.086384 0.123985
0.116498 0.026013 0.106965
0.041590 0.000000 0.100103
0.000000 0.000000 0.102240
0.000000 0.000000 0.112158
0.000000 0.000000 0.128577
0.000000 0.000000 0.150155
0.000000 0.000000 0.175492
0.000000 0.000000 0.203122
0.000000 0.000000 0.231522
0.000000 0.000000 0.259106
0.000000 0.000000 0.284227
0.000000 0.000000 0.305176
0.000000 0.000000 0.320186
0.000000 0.000000 0.327425
0.000000 0.000000 0.325001
0.000000 0.000000 0.310963
0.000000 0.000000 0.283296
0.000000 0.000000 0.239925
0.000000 0.000000 0.178714
0.000000 0.000000 0.097466
0.000000 0.000000 0.000000
0.000000 0.000000 0.000000
0.000000 0.000000 0.000000
0.000000 0.000000 0.000000
0.000000 0.000000 0.000000
0.000000 0.000000 0.000000
0.000000 0.000000 0.000000
0.000000 0.000000 0.000000
0.000000 0.000000 0.000000
0.000000 0.000000 0.000000
0.000000 0.000000 0.000000
0.000000 0.000000 0.000000
0.197333 0.098641 0.159402
0.126332 0.046083 0.146236
0.058537 0.000000 0.143181
0.000000 0.000000 0.149054
0.000000 0.000000 0.162613
0.000000 0.000000 0.182551
0.000000 0.000000 0.207504
0.000000 0.000000 0.236043
0.000000 0.000000 0.266681
0.000000 0.000000 0.297867
0.000000 0.000000 0.327992
0.000000 0.000000 0.355383
0.000000 0.000000 0.378307
0.000000 0.000000 0.394971
0.000000 0.000000 0.403518
0.000000 0.000000 0.402032
0.000000 0.000000 0.388536
0.000000 0.000000 0.360991
0.000000 0.000000 0.317297
0.000000 0.000000 0.255293
0.000000 0.000000 0.172755
0.000000 0.000000 0.067402
0.000000 0.000000 0.000000
0.000000 0.000000 0.000000
0.000000 0.000000 0.000000
0.000000 0.000000 0.000000
0.000000 0.000000 0.000000
0.000000 0.000000 0.000000
0.000000 0.000000 0.000000
0.000000 0.000000 0.000000
0.000000 0.000000 0.000000
0.000000 0.000000 0.000000
0.000000 0.000000 0.000000
0.195833 0.114333 0.186902
0.130855 0.069101 0.177382
0.069371 0.025770 0.177912
0.010956 0.000000 0.187285
0.000000 0.000000 0.204232
0.000000 0.000000 0.227422
0.000000 0.000000 0.255466
0.000000 0.000000 0.286911
0.000000 0.000000 0.320243
0.000000 0.000000 0.353888
0.000000 0.000000 0.386211
0.000000 0.000000 0.415514
0.000000 0.000000 0.440040
0.000000 0.000000 0.457970
0.000000 0.000000 0.467423
0.000000 0.000000 0.466457
0.000000 0.000000 0.453071
0.000000 0.000000 0.425200
0.000000 0.000000 0.380719
0.000000 0.000000 0.317443
0.000000 0.000000 0.233124
0.000000 0.000000 0.125453
0.000000 0.000000 0.000000
0.000000 0.000000 0.000000
0.000000 0.000000 0.000000
0.000000 0.000000 0.000000
0.000000 0.000000 0.000000
0.000000 0.000000 0.000000
0.000000 0.000000 0.000000
0.000000 0.000000 0.000000
0.000000 0.000000 0.000000
0.000000 0.000000 0.000000
0.000000 0.000000 0.000000
0.191068 0.133847 0.207667
0.131310 0.095445 0.201571
0.075315 0.058963 0.205449
0.022623 0.024470 0.218068
0.000000 0.000000 0.238135
0.000000 0.000000 0.264296
0.000000 0.000000 0.295133
0.000000 0.000000 0.329171
0.000000 0.000000 0.364870
0.000000 0.000000 0.400631
0.000000 0.000000 0.434794
0.000000 0.000000 0.465638
0.000000 0.000000 0.491378
0.000000 0.000000 0.510171
0.000000 0.000000 0.520111
0.000000 0.000000 0.519233
0.000000 0.000000 0.505508
0.000000 0.000000 0.476848
0.000000 0.000000 0.431103
0.000000 0.000000 0.366063
0.000000 0.000000 0.279453
0.000000 0.000000 0.168942
0.000000 0.000000 0.032135
0.000000 0.000000 0.000000
0.000000 0.000000 0.000000
0.000000 0.000000 0.000000
0.000000 0.000000 0.000000
0.000000 0.000000 0.000000
0.000000 0.000000 0.000000
0.000000 0.000000 0.000000
0.000000 0.000000 0.000000
0.000000 0.000000 0.000000
0.000000 0.000000 0.000000
0.184598 0.157686 0.223118
0.129239 0.125601 0.220208
0.077894 0.095437 0.227181
0.030067 0.067220 0.242779
0.000000 0.040945 0.265685
0.000000 0.016568 0.294517
0.000000 0.000000 0.327836
0.000000 0.000000 0.364139
0.000000 0.000000 0.401863
0.000000 0.000000 0.439383
0.000000 0.000000 0.475014
0.000000 0.000000 0.507009
0.000000 0.000000 0.533560
0.000000 0.000000 0.552799
0.000000 0.000000 0.562795
0.000000 0.000000 0.561556
0.000000 0.000000 0.547030
0.000000 0.000000 0.517104
0.000000 0.000000 0.469602
0.000000 0.000000 0.402288
0.000000 0.000000 0.312866
0.000000 0.000000 0.198977
0.000000 0.000000 0.058200
0.000000 0.000000 0.000000
0.000000 0.000000 0.000000
0.000000 0.000000 0.000000
0.000000 0.000000 0.000000
0.000000 0.000000 0.000000
0.000000 0.000000 0.000000
0.000000 0.000000 0.000000
0.000000 0.000000 0.000000
0.000000 0.000000 0.000000
0.000000 0.000000 0.000000
0.178277 0.186459 0.234915
0.126480 0.160171 0.234939
0.078928 0.135780 0.244741
0.035091 0.113273 0.263036
0.000000 0.092605 0.288482
0.000000 0.073695 0.319675
0.000000 0.056427 0.355148
0.000000 0.040650 0.393373
0.000000 0.026179 0.432764
0.000000 0.012793 0.471671
0.000000 0.000237 0.508382
0.000000 0.000000 0.541127
0.000000 0.000000 0.568072
0.000000 0.000000 0.587324
0.000000 0.000000 0.596927
0.000000 0.000000 0.594865
0.000000 0.000000 0.579060
0.000000 0.000000 0.547375
0.000000 0.000000 0.497608
0.000000 0.000000 0.427499
0.000000 0.000000 0.334726
0.000000 0.000000 0.216905
0.000000 0.000000 0.071593
0.000000 0.000000 0.000000
0.000000 0.000000 0.000000
0.000000 0.000000 0.000000
0.000000 0.000000 0.000000
0.000000 0.000000 0.000000
0.000000 0.000000 0.000000
0.000000 0.000000 0.000000
0.000000 0.000000 0.000000
0.000000 0.000000 0.000000
0.000000 0.000000 0.000000
0.174261 0.220891 0.244962
0.125168 0.199865 0.247654
0.080535 0.180690 0.260001
0.039796 0.163315 0.280696
0.002361 0.147655 0.308371
0.000000 0.133588 0.341596
0.000000 0.120960 0.378881
0.000000 0.109581 0.418672
0.000000 0.099226 0.459358
0.000000 0.089635 0.499263
0.000000 0.080514 0.536652
0.000000 0.071533 0.569729
0.000000 0.062327 0.596636
0.000000 0.052499 0.615453
0.000000 0.041612 0.624201
0.000000 0.029200 0.620838
0.000000 0.014757 0.603263
0.000000 0.000000 0.569310
0.000000 0.000000 0.516755
0.000000 0.000000 0.443314
0.000000 0.000000 0.346637
0.000000 0.000000 0.224318
0.000000 0.000000 0.073886
0.000000 0.000000 0.000000
0.000000 0.000000 0.000000
0.000000 0.000000 0.000000
0.000000 0.000000 0.000000
0.000000 0.000000 0.000000
0.000000 0.000000 0.000000
0.000000 0.000000 0.000000
0.000000 0.000000 0.000000
0.000000 0.000000 0.000000
0.000000 0.000000 0.000000
0.175000 0.261814 0.255403
0.127737 0.245505 0.260479
0.085130 0.230979 0.275075
0.046578 0.218145 0.297858
0.011456 0.206879 0.327435
0.000000 0.197020 0.362351
0.000000 0.188376 0.401090
0.000000 0.180715 0.442074
0.000000 0.173775 0.483667
0.000000 0.167255 0.524169
0.000000 0.160822 0.561819
0.000000 0.154108 0.594796
0.000000 0.146708 0.621217
0.000000 0.138184 0.639137
0.000000 0.128062 0.646553
0.000000 0.115835 0.641397
0.000000 0.100960 0.621542
0.000000 0.082857 0.584800
0.000000 0.060916 0.528920
0.000000 0.034487 0.451593
0.000000 0.002888 0.350445
0.000000 0.000000 0.223044
0.000000 0.000000 0.066895
0.000000 0.000000 0.000000
0.000000 0.000000 0.000000
0.000000 0.000000 0.000000
0.000000 0.000000 0.000000
0.000000 0.000000 0.000000
0.000000 0.000000 0.000000
0.000000 0.000000 0.000000
0.000000 0.000000 0.000000
0.000000 0.000000 0.000000
0.000000 0.000000 0.000000
0.183242 0.310174 0.268621
0.136918 0.298024 0.275786
0.095427 0.287566 0.292319
0.058133 0.278671 0.316863
0.024377 0.271175 0.347999
0.000000 0.264878 0.384248
0.000000 0.259547 0.424069
0.000000 0.254914 0.465860
0.000000 0.250674 0.507959
0.000000 0.246490 0.548640
0.000000 0.241987 0.586118
0.000000 0.236759 0.618547
0.000000 0.230362 0.644020
0.000000 0.222318 0.660566
0.000000 0.212114 0.666157
0.000000 0.199204 0.658700
0.000000 0.183004 0.636044
0.000000 0.162897 0.595975
0.000000 0.138231 0.536218
0.000000 0.108320 0.454437
0.000000 0.072441 0.348236
0.000000 0.029837 0.215155
0.000000 0.000000 0.052677
0.000000 0.000000 0.000000
0.000000 0.000000 0.000000
0.000000 0.000000 0.000000
0.000000 0.000000 0.000000
0.000000 0.000000 0.000000
0.000000 0.000000 0.000000
0.000000 0.000000 0.000000
0.000000 0.000000 0.000000
0.000000 0.000000 0.000000
0.000000 0.000000 0.000000
0.202032 0.367028 0.287242
0.155738 0.358467 0.296183
0.114435 0.351486 0.314326
0.077454 0.345915 0.340289
0.044101 0.341552 0.372628
0.013653 0.338158 0.409839
0.000000 0.335460 0.450355
0.000000 0.333150 0.492551
0.000000 0.330886 0.534737
0.000000 0.328289 0.575165
0.000000 0.324947 0.612025
0.000000 0.320412 0.643445
0.000000 0.314203 0.667492
0.000000 0.305802 0.682172
0.000000 0.294657 0.685430
0.000000 0.280182 0.675150
0.000000 0.261754 0.649156
0.000000 0.238717 0.605207
0.000000 0.210379 0.541005
0.000000 0.176015 0.454189
0.000000 0.134863 0.342336
0.000000 0.086127 0.202964
0.000000 0.028976 0.033528
0.000000 0.000000 0.000000
0.000000 0.000000 0.000000
0.000000 0.000000 0.000000
0.000000 0.000000 0.000000
0.000000 0.000000 0.000000
0.000000 0.000000 0.000000
0.000000 0.000000 0.000000
0.000000 0.000000 0.000000
0.000000 0.000000 0.000000
0.000000 0.000000 0.000000
0.234716 0.433543 0.314133
0.187524 0.427990 0.324523
0.145464 0.423881 0.343935
0.107832 0.421008 0.370959
0.073898 0.419130 0.404129
0.042906 0.417968 0.441914
0.014077 0.417209 0.482724
0.000000 0.416508 0.524907
0.000000 0.415481 0.566750
0.000000 0.413712 0.606478
0.000000 0.410748 0.642257
0.000000 0.406103 0.672190
0.000000 0.399256 0.694319
0.000000 0.389649 0.706626
0.000000 0.376692 0.707030
0.000000 0.359758 0.693390
0.000000 0.338186 0.663504
0.000000 0.311281 0.615109
0.000000 0.278312 0.545880
0.000000 0.238512 0.453430
0.000000 0.191082 0.335314
0.000000 0.135187 0.189023
0.000000 0.069955 0.011988
0.000000 0.000000 0.000000
0.000000 0.000000 0.000000
0.000000 0.000000 0.000000
0.000000 0.000000 0.000000
0.000000 0.000000 0.000000
0.000000 0.000000 0.000000
0.000000 0.000000 0.000000
0.000000 0.000000 0.000000
0.000000 0.000000 0.000000
0.000000 0.000000 0.000000
0.284933 0.510999 0.352399
0.235898 0.507859 0.363898
0.192117 0.506006 0.384221
0.152853 0.505193 0.411936
0.117339 0.505139 0.445549
0.084785 0.505526 0.483507
0.054376 0.506003 0.524194
0.025270 0.506183 0.565932
0.000000 0.505644 0.606984
0.000000 0.503931 0.645551
0.000000 0.500551 0.679772
0.000000 0.494979 0.707726
0.000000 0.486655 0.727431
0.000000 0.474982 0.736842
0.000000 0.459329 0.733854
0.000000 0.439032 0.716302
0.000000 0.413389 0.681958
0.000000 0.381666 0.628534
0.000000 0.343093 0.553680
0.000000 0.296864 0.454986
0.000000 0.242140 0.329979
0.000000 0.178046 0.176126
0.000000 0.103672 0.000000
0.000000 0.018075 0.000000
0.000000 0.000000 0.000000
0.000000 0.000000 0.000000
0.000000 0.000000 0.000000
0.000000 0.000000 0.000000
0.000000 0.000000 0.000000
0.000000 0.000000 0.000000
0.000000 0.000000 0.000000
0.000000 0.000000 0.000000
0.000000 0.000000 0.000000
0.356621 0.600785 0.405390
0.304781 0.599453 0.417640
0.258299 0.599228 0.438503
0.216402 0.599826 0.466521
0.178291 0.600923 0.500177
0.143139 0.602165 0.537891
0.110097 0.603159 0.578022
0.078288 0.603481 0.618869
0.046808 0.602669 0.658669
0.014731 0.600227 0.695597
0.000000 0.595626 0.727769
0.000000 0.588300 0.753237
0.000000 0.577648 0.769995
0.000000 0.563035 0.775973
0.000000 0.543793 0.769042
0.000000 0.519214 0.747011
0.000000 0.488561 0.707627
0.000000 0.451059 0.648577
0.000000 0.405897 0.567486
0.000000 0.352232 0.461919
0.000000 0.289185 0.329379
0.000000 0.215842 0.167308
0.000000 0.131254 0.000000
0.000000 0.034437 0.000000
0.000000 0.000000 0.000000
0.000000 0.000000 0.000000
0.000000 0.000000 0.000000
0.000000 0.000000 0.000000
0.000000 0.000000 0.000000
0.000000 0.000000 0.000000
0.000000 0.000000 0.000000
0.000000 0.000000 0.000000
0.000000 0.000000 0.000000
0.454017 0.704403 0.476694
0.398391 0.704261 0.489324
0.348209 0.705025 0.510340
0.302663 0.706370 0.538260
0.260919 0.707935 0.571542
0.222116 0.709324 0.608580
0.185369 0.710108 0.647709
0.149766 0.709820 0.687203
0.114370 0.707961 0.725274
0.078218 0.703997 0.760071
0.040321 0.697356 0.789686
0.000000 0.687434 0.812147
0.000000 0.673592 0.825422
0.000000 0.655156 0.827415
0.000000 0.631416 0.815974
0.000000 0.601628 0.788881
0.000000 0.565013 0.743860
0.000000 0.520757 0.678572
0.000000 0.468011 0.590618
0.000000 0.405892 0.477536
0.000000 0.333482 0.336806
0.000000 0.249827 0.165844
0.000000 0.153940 0.000000
0.000000 0.044796 0.000000
0.000000 0.000000 0.000000
0.000000 0.000000 0.000000
0.000000 0.000000 0.000000
0.000000 0.000000 0.000000
0.000000 0.000000 0.000000
0.000000 0.000000 0.000000
0.000000 0.000000 0.000000
0.000000 0.000000 0.000000
0.000000 0.000000 0.000000
0.581653 0.823466 0.570140
0.521243 0.823884 0.582763
0.466345 0.824985 0.603531
0.416116 0.826403 0.630937
0.369686 0.827739 0.663413
0.326160 0.828558 0.699329
0.284618 0.828390 0.736995
0.244114 0.826730 0.774659
0.203674 0.823039 0.810508
0.162303 0.816743 0.842669
0.118975 0.807232 0.869206
0.072643 0.793864 0.888122
0.022232 0.775958 0.897361
0.000000 0.752801 0.894804
0.000000 0.723644 0.878270
0.000000 0.687705 0.845519
0.000000 0.644165 0.794249
0.000000 0.592170 0.722096
0.000000 0.530832 0.626636
0.000000 0.459230 0.505383
0.000000 0.376404 0.355790
0.000000 0.281362 0.175250
0.000000 0.173078 0.000000
0.000000 0.050488 0.000000
0.000000 0.000000 0.000000
0.000000 0.000000 0.000000
0.000000 0.000000 0.000000
0.000000 0.000000 0.000000
0.000000 0.000000 0.000000
0.000000 0.000000 0.000000
0.000000 0.000000 0.000000
0.000000 0.000000 0.000000
0.000000 0.000000 0.000000
0.744361 0.959697 0.689799
0.678151 0.960034 0.702014
0.617503 0.960808 0.722118
0.561537 0.961614 0.748578
0.509351 0.962013 0.779801
0.460013 0.961530 0.814133
0.412570 0.959657 0.849859
0.366038 0.955850 0.885202
0.319412 0.949529 0.918324
0.271658 0.940082 0.947326
0.221720 0.926861 0.970248
0.168511 0.909181 0.985069
0.110925 0.886324 0.989706
0.047824 0.857538 0.982015
0.000000 0.822035 0.959792
0.000000 0.778991 0.920771
0.000000 0.727550 0.862625
0.000000 0.666818 0.782965
0.000000 0.595869 0.679342
0.000000 0.513740 0.549246
0.000000 0.419435 0.390104
0.000000 0.311920 0.199284
0.000000 0.190130 0.000000
0.000000 0.052963 0.000000
0.000000 0.000000 0.000000
0.000000 0.000000 0.000000
0.000000 0.000000 0.000000
0.000000 0.000000 0.000000
0.000000 0.000000 0.000000
0.000000 0.000000 0.000000
0.000000 0.000000 0.000000
0.000000 0.000000 0.000000
0.000000 0.000000 0.000000
0.947268 1.000000 0.839983
0.874224 1.000000 0.851373
0.806774 1.000000 0.870381
0.744002 1.000000 0.895449
0.684971 1.000000 0.924958
0.628715 1.000000 0.957231
0.574244 1.000000 0.990525
0.520543 1.000000 1.000000
0.466568 1.000000 1.000000
0.411253 1.000000 1.000000
0.353504 1.000000 1.000000
0.292204 1.000000 1.000000
0.226207 1.000000 1.000000
0.154343 0.971048 1.000000
0.075417 0.928255 1.000000
0.000000 0.877142 1.000000
0.000000 0.816812 0.953061
0.000000 0.746335 0.865238
0.000000 0.664742 0.752781
0.000000 0.571033 0.613154
0.000000 0.464171 0.443761
0.000000 0.343085 0.241944
0.000000 0.206669 0.004984
0.000000 0.053781 0.000000
0.000000 0.000000 0.000000
0.000000 0.000000 0.000000
0.000000 0.000000 0.000000
0.000000 0.000000 0.000000
0.000000 0.000000 0.000000
0.000000 0.000000 0.000000
0.000000 0.000000 0.000000
0.000000 0.000000 0.000000
0.000000 0.000000 0.000000
1.000000 1.000000 1.000000
1.000000 1.000000 1.000000
1.000000 1.000000 1.000000
0.968884 1.000000 1.000000
0.901902 1.000000 1.000000
0.837603 1.000000 1.000000
0.774962 1.000000 1.000000
0.712929 1.000000 1.000000
0.650426 1.000000 1.000000
0.586352 1.000000 1.000000
0.519578 1.000000 1.000000
0.448951 1.000000 1.000000
0.373291 1.000000 1.000000
0.291394 1.000000 1.000000
0.202028 1.000000 1.000000
0.103938 0.983924 1.000000
0.000000 0.913707 1.000000
0.000000 0.832462 0.973213
0.000000 0.739182 0.851234
0.000000 0.632827 0.701375
0.000000 0.512320 0.521014
0.000000 0.376552 0.307469
0.000000 0.224377 0.057994
0.000000 0.054614 0.000000
0.000000 0.000000 0.000000
0.000000 0.000000 0.000000
0.000000 0.000000 0.000000
0.000000 0.000000 0.000000
0.000000 0.000000 0.000000
0.000000 0.000000 0.000000
0.000000 0.000000 0.000000
0.000000 0.000000 0.000000
0.000000 0.000000 0.000000
1.000000 1.000000 1.000000
1.000000 1.000000 1.000000
1.000000 1.000000 1.000000
1.000000 1.000000 1.000000
1.000000 1.000000 1.000000
1.000000 1.000000 1.000000
1.000000 1.000000 1.000000
0.948796 1.000000 1.000000
0.876569 1.000000 1.000000
0.802520 1.000000 1.000000
0.725487 1.000000 1.000000
0.644281 1.000000 1.000000
0.557688 1.000000 1.000000
0.464469 1.000000 1.000000
0.363357 1.000000 1.000000
0.253062 1.000000 1.000000
0.132266 1.000000 1.000000
0.000000 0.927055 1.000000
0.000000 0.821032 0.979227
0.000000 0.700952 0.818420
0.000000 0.565701 0.626359
0.000000 0.414128 0.400338
0.000000 0.245048 0.137587
0.000000 0.057243 0.000000
0.000000 0.000000 0.000000
0.000000 0.000000 0.000000
0.000000 0.000000 0.000000
0.000000 0.000000 0.000000
0.000000 0.000000 0.000000
0.000000 0.000000 0.000000
0.000000 0.000000 0.000000
0.000000 0.000000 0.000000
0.000000 0.000000 0.000000
1.000000 1.000000 1.000000
1.000000 1.000000 1.000000
1.000000 1.000000 1.000000
1.000000 1.000000 1.000000
1.000000 1.000000 1.000000
1.000000 1.000000 1.000000
1.000000 1.000000 1.000000
1.000000 1.000000 1.000000
1.000000 1.000000 1.000000
1.000000 1.000000 1.000000
0.977073 1.000000 1.000000
0.884019 1.000000 1.000000
0.785206 1.000000 1.000000
0.679358 1.000000 1.000000
0.565175 1.000000 1.000000
0.441332 1.000000 1.000000
0.306476 1.000000 1.000000
0.159231 1.000000 1.000000
0.000000 0.912244 1.000000
0.000000 0.777350 0.969038
0.000000 0.626242 0.764531
0.000000 0.457730 0.525273
0.000000 0.270590 0.248469
0.000000 0.063564 0.000000
0.000000 0.000000 0.000000
0.000000 0.000000 0.000000
0.000000 0.000000 0.000000
0.000000 0.000000 0.000000
0.000000 0.000000 0.000000
0.000000 0.000000 0.000000
0.000000 0.000000 0.000000
0.000000 0.000000 0.000000
0.000000 0.000000 0.000000
1.000000 1.000000 1.000000
1.000000 1.000000 1.000000
1.000000 1.000000 1.000000
1.000000 1.000000 1.000000
1.000000 1.000000 1.000000
1.000000 1.000000 1.000000
1.000000 1.000000 1.000000
1.000000 1.000000 1.000000
1.000000 1.000000 1.000000
1.000000 1.000000 1.000000
1.000000 1.000000 1.000000
1.000000 1.000000 1.000000
1.000000 1.000000 1.000000
0.942149 1.000000 1.000000
0.813553 1.000000 1.000000
0.674802 1.000000 1.000000
0.524507 1.000000 1.000000
0.361257 1.000000 1.000000
0.183614 1.000000 1.000000
0.000000 0.864075 1.000000
0.000000 0.695986 0.940506
0.000000 0.509388 0.687234
0.000000 0.303019 0.395586
0.000000 0.075581 0.062682
0.000000 0.000000 0.000000
0.000000 0.000000 0.000000
0.000000 0.000000 0.000000
0.000000 0.000000 0.000000
0.000000 0.000000 0.000000
0.000000 0.000000 0.000000
0.000000 0.000000 0.000000
0.000000 0.000000 0.000000
0.000000 0.000000 0.000000
1.000000 1.000000 1.000000
1.000000 1.000000 1.000000
1.000000 1.000000 1.000000
1.000000 1.000000 1.000000
1.000000 1.000000 1.000000
1.000000 1.000000 1.000000
1.000000 1.000000 1.000000
1.000000 1.000000 1.000000
1.000000 1.000000 1.000000
1.000000 1.000000 1.000000
1.000000 1.000000 1.000000
1.000000 1.000000 1.000000
1.000000 1.000000 1.000000
1.000000 1.000000 1.000000
1.000000 1.000000 1.000000
0.959820 1.000000 1.000000
0.792690 1.000000 1.000000
0.612021 1.000000 1.000000
0.416341 1.000000 1.000000
0.204150 0.963291 1.000000
0.000000 0.777084 1.000000
0.000000 0.571242 0.891425
0.000000 0.344464 0.584126
0.000000 0.095410 0.234699
0.000000 0.000000 0.000000
0.000000 0.000000 0.000000
0.000000 0.000000 0.000000
0.000000 0.000000 0.000000
0.000000 0.000000 0.000000
0.000000 0.000000 0.000000
0.000000 0.000000 0.000000
0.000000 0.000000 0.000000
0.000000 0.000000 0.000000
1.000000 1.000000 1.000000
1.000000 1.000000 1.000000
1.000000 1.000000 1.000000
1.000000 1.000000 1.000000
1.000000 1.000000 1.000000
1.000000 1.000000 1.000000
1.000000 1.000000 1.000000
1.000000 1.000000 1.000000
1.000000 1.000000 1.000000
1.000000 1.000000 1.000000
1.000000 1.000000 1.000000
1.000000 1.000000 1.000000
1.000000 1.000000 1.000000
1.000000 1.000000 1.000000
1.000000 1.000000 1.000000
1.000000 1.000000 1.000000
1.000000 1.000000 1.000000
0.918133 1.000000 1.000000
0.702965 1.000000 1.000000
0.470614 1.000000 1.000000
0.219523 0.871800 1.000000
0.000000 0.645544 1.000000
0.000000 0.397163 0.819517
0.000000 0.125280 0.452732
0.000000 0.000000 0.039943
0.000000 0.000000 0.000000
0.000000 0.000000 0.000000
0.000000 0.000000 0.000000
0.000000 0.000000 0.000000
0.000000 0.000000 0.000000
0.000000 0.000000 0.000000
0.000000 0.000000 0.000000
0.000000 0.000000 0.000000
1.000000 1.000000 1.000000
1.000000 1.000000 1.000000
1.000000 1.000000 1.000000
1.000000 1.000000 1.000000
1.000000 1.000000 1.000000
1.000000 1.000000 1.000000
1.000000 1.000000 1.000000
1.000000 1.000000 1.000000
1.000000 1.000000 1.000000
1.000000 1.000000 1.000000
1.000000 1.000000 1.000000
1.000000 1.000000 1.000000
1.000000 1.000000 1.000000
1.000000 1.000000 1.000000
1.000000 1.000000 1.000000
1.000000 1.000000 1.000000
1.000000 1.000000 1.000000
1.000000 1.000000 1.000000
1.000000 1.000000 1.000000
0.796381 1.000000 1.000000
0.522918 0.982508 1.000000
0.228370 0.734656 1.000000
0.000000 0.463469 1.000000
0.000000 0.167529 0.722434
0.000000 0.000000 0.290509
0.000000 0.000000 0.000000
0.000000 0.000000 0.000000
0.000000 0.000000 0.000000
0.000000 0.000000 0.000000
0.000000 0.000000 0.000000
0.000000 0.000000 0.000000
0.000000 0.000000 0.000000
0.000000 0.000000 0.000000
1.000000 1.000000 1.000000
1.000000 1.000000 1.000000
1.000000 1.000000 1.000000
1.000000 1.000000 1.000000
1.000000 1.000000 1.000000
1.000000 1.000000 1.000000
1.000000 1.000000 1.000000
1.000000 1.000000 1.000000
1.000000 1.000000 1.000000
1.000000 1.000000 1.000000
1.000000 1.000000 1.000000
1.000000 1.000000 1.000000
1.000000 1.000000 1.000000
1.000000 1.000000 1.000000
1.000000 1.000000 1.000000
1.000000 1.000000 1.000000
1.000000 1.000000 1.000000
1.000000 1.000000 1.000000
1.000000 1.000000 1.000000
1.000000 1.000000 1.000000
0.891263 1.000000 1.000000
0.572042 0.841053 1.000000
0.229279 0.545842 1.000000
0.000000 0.224607 1.000000
0.000000 0.000000 0.597757
0.000000 0.000000 0.094843
0.000000 0.000000 0.000000
0.000000 0.000000 0.000000
0.000000 0.000000 0.000000
0.000000 0.000000 0.000000
0.000000 0.000000 0.000000
0.000000 0.000000 0.000000
0.000000 0.000000 0.000000
1.000000 1.000000 1.000000
1.000000 1.000000 1.000000
1.000000 1.000000 1.000000
1.000000 1.000000 1.000000
1.000000 1.000000 1.000000
1.000000 1.000000 1.000000
1.000000 1.000000 1.000000
1.000000 1.000000 1.000000
1.000000 1.000000 1.000000
1.000000 1.000000 1.000000
1.000000 1.000000 1.000000
1.000000 1.000000 1.000000
1.000000 1.000000 1.000000
1.000000 1.000000 1.000000
1.000000 1.000000 1.000000
1.000000 1.000000 1.000000
1.000000 1.000000 1.000000
1.000000 1.000000 1.000000
1.000000 1.000000 1.000000
1.000000 1.000000 1.000000
1.000000 1.000000 1.000000
0.986557 0.967320 1.000000
0.616731 0.646857 1.000000
0.220790 0.299075 1.000000
0.000000 0.000000 0.967810
0.000000 0.000000 0.443001
0.000000 0.000000 0.000000
0.000000 0.000000 0.000000
0.000000 0.000000 0.000000
0.000000 0.000000 0.000000
0.000000 0.000000 0.000000
0.000000 0.000000 0.000000
0.000000 0.000000 0.000000
1.000000 1.000000 1.000000
1.000000 1.000000 1.000000
1.000000 1.000000 1.000000
1.000000 1.000000 1.000000
1.000000 1.000000 1.000000
1.000000 1.000000 1.000000
1.000000 1.000000 1.000000
1.000000 1.000000 1.000000
1.000000 1.000000 1.000000
1.000000 1.000000 1.000000
1.000000 1.000000 1.000000
1.000000 1.000000 1.000000
1.000000 1.000000 1.000000
1.000000 1.000000 1.000000
1.000000 1.000000 1.000000
1.000000 1.000000 1.000000
1.000000 1.000000 1.000000
1.000000 1.000000 1.000000
1.000000 1.000000 1.000000
1.000000 1.000000 1.000000
1.000000 1.000000 1.000000
1.000000 1.000000 1.000000
1.000000 0.769197 1.000000
0.655678 0.393607 1.000000
0.201394 0.000000 1.000000
0.000000 0.000000 0.859399
0.000000 0.000000 0.255606
