lrplugin/MindfulLensFilmEngine.lrplugin/profiles/luts/ultramax_400.cube
# Generated from ColorChecker fit
LUT_3D_SIZE 5
DOMAIN_MIN 0.0 0.0 0.0
DOMAIN_MAX 1.0 1.0 1.0
0.194308 0.086384 0.123985
0.000000 0.000000 0.203122
0.000000 0.000000 0.310963
0.000000 0.000000 0.000000
0.000000 0.000000 0.000000
0.183242 0.310174 0.268621
0.000000 0.250674 0.507959
0.000000 0.183004 0.636044
0.000000 0.000000 0.000000
0.000000 0.000000 0.000000
0.947268 1.000000 0.839983
0.466568 1.000000 1.000000
0.000000 0.816812 0.953061
0.000000 0.000000 0.000000
0.000000 0.000000 0.000000
1.000000 1.000000 1.000000
1.000000 1.000000 1.000000
1.000000 1.000000 1.000000
0.000000 0.000000 0.597757
0.000000 0.000000 0.000000
1.000000 1.000000 1.000000
1.000000 1.000000 1.000000
1.000000 1.000000 1.000000
1.000000 0.937376 1.000000
0.000000 0.000000 0.000000
0.401713 0.388856 0.151834
0.077684 0.000000 0.038420
0.000000 0.000000 0.272782
0.000000 0.000000 0.241073
0.000000 0.000000 0.000000
0.294340 0.404403 0.249278
0.227448 0.330310 0.353448
0.322791 0.370499 0.662781
0.128546 0.200902 0.461193
0.000000 0.000000 0.000000
0.706326 0.893472 0.506426
0.428731 0.868604 0.628482
0.229751 0.724816 0.751518
0.000000 0.000000 0.057207
0.000000 0.000000 0.000000
1.000000 1.000000 1.000000
1.000000 1.000000 1.000000
1.000000 1.000000 1.000000
0.000000 0.000000 0.656198
0.000000 0.000000 0.000000
1.000000 1.000000 1.000000
1.000000 1.000000 1.000000
1.000000 1.000000 1.000000
1.000000 0.588084 1.000000
0.000000 0.000000 0.000000
0.656800 0.640424 0.265965
0.253129 0.019136 0.000000
0.172157 0.000000 0.065459
0.115907 0.000000 0.427367
0.000000 0.000000 0.438601
0.525296 0.515265 0.338843
0.444536 0.269806 0.308787
0.670484 0.308837 0.645704
0.762310 0.237792 0.941158
0.174033 0.000000 0.536193
0.556648 0.707325 0.249373
0.361541 0.580349 0.332849
0.382234 0.509883 0.576459
0.035048 0.000000 0.469527
0.000000 0.000000 0.000000
1.000000 1.000000 1.000000
1.000000 1.000000 1.000000
1.000000 1.000000 1.000000
0.000000 0.000000 0.550825
0.000000 0.000000 0.000000
1.000000 1.000000 1.000000
1.000000 1.000000 1.000000
1.000000 1.000000 1.000000
1.000000 0.321784 1.000000
0.000000 0.000000 0.000000
0.806714 0.746178 0.168588
0.083087 0.000000 0.000000
0.000000 0.000000 0.000000
0.000000 0.000000 0.000000
0.000000 0.000000 0.695718
0.899367 0.658698 0.435816
0.663391 0.235321 0.332034
0.842763 0.314397 0.602427
1.000000 0.430863 1.000000
0.623066 0.000000 1.000000
0.697601 0.683279 0.163616
0.542602 0.501412 0.320363
0.704755 0.599245 0.641791
0.611380 0.350680 0.924874
0.000000 0.000000 0.716065
1.000000 1.000000 0.984892
1.000000 1.000000 1.000000
1.000000 1.000000 1.000000
0.399829 0.137912 0.751392
0.000000 0.000000 0.000000
1.000000 1.000000 1.000000
1.000000 1.000000 1.000000
1.000000 1.000000 1.000000
1.000000 0.937626 1.000000
0.000000 0.000000 0.027648
0.267253 0.315018 0.000000
0.000000 0.000000 0.000000
0.000000 0.000000 0.000000
0.000000 0.000000 0.000000
0.000000 0.000000 0.000000
1.000000 0.554450 0.141736
0.554159 0.096827 0.084285
0.588010 0.407375 0.253603
0.691181 0.950532 0.856555
0.339682 1.000000 1.000000
0.897210 0.651929 0.046986
0.818171 0.612615 0.448412
1.000000 1.000000 0.864458
1.000000 1.000000 1.000000
0.525206 0.869354 1.000000
1.000000 1.000000 0.524872
1.000000 1.000000 1.000000
1.000000 1.000000 1.000000
1.000000 1.000000 1.000000
0.000000 0.000000 0.970269
1.000000 1.000000 1.000000
1.000000 1.000000 1.000000
1.000000 1.000000 1.000000
1.000000 1.000000 1.000000
0.963385 0.000000 1.000000
