lrplugin/MindfulLensFilmEngine.lrplugin/profiles/luts/vektro100.cube
# Generated from ColorChecker fit
LUT_3D_SIZE 9
DOMAIN_MIN 0.0 0.0 0.0
DOMAIN_MAX 1.0 1.0 1.0
0.193318 0.133740 0.113286
0.070229 0.106234 0.285752
0.059570 0.090930 0.400138
0.149026 0.114503 0.484458
0.321942 0.171323 0.535243
0.557317 0.223445 0.517541
0.829808 0.200616 0.364919
1.000000 0.000273 0.000000
1.000000 0.000000 0.000000
0.065115 0.097541 0.010727
0.000000 0.159656 0.249884
0.013199 0.216884 0.429682
0.098487 0.282761 0.568432
0.228085 0.338517 0.652961
0.374176 0.333067 0.638613
0.504597 0.183021 0.449249
0.582844 0.000000 0.000000
0.568067 0.000000 0.000000
0.000000 0.000000 0.000000
0.000000 0.147681 0.075622
0.000000 0.286629 0.330052
0.018966 0.402181 0.531010
0.101694 0.462425 0.655619
0.154695 0.403139 0.649517
0.138988 0.127791 0.426863
0.011251 0.000000 0.000000
0.000000 0.000000 0.000000
0.000000 0.000000 0.000000
0.000000 0.081139 0.000000
0.000000 0.314138 0.150847
0.000000 0.489875 0.418882
0.000000 0.563301 0.586998
0.000000 0.457053 0.591129
0.000000 0.061459 0.335727
0.000000 0.000000 0.000000
0.000000 0.000000 0.000000
0.000000 0.000000 0.000000
0.000000 0.000000 0.000000
0.000000 0.308338 0.000000
0.000000 0.557913 0.326266
0.000000 0.656354 0.538408
0.000000 0.513159 0.551848
0.000000 0.005517 0.261336
0.000000 0.000000 0.000000
0.000000 0.000000 0.000000
0.000000 0.000000 0.000000
0.000000 0.000000 0.000000
0.028730 0.273116 0.000000
0.123447 0.613321 0.394907
0.103368 0.751750 0.648685
0.000000 0.584764 0.667604
0.000000 0.000000 0.336707
0.000000 0.000000 0.000000
0.000000 0.000000 0.000000
0.000000 0.000000 0.000000
0.085240 0.000000 0.000000
0.316036 0.207314 0.344676
0.449202 0.658081 0.814074
0.427167 0.854614 1.000000
0.188017 0.680133 1.000000
0.000000 0.000000 0.742387
0.000000 0.000000 0.000000
0.000000 0.000000 0.000000
0.082858 0.000000 0.000000
0.483624 0.000000 0.629607
0.812968 0.104732 1.000000
1.000000 0.689134 1.000000
1.000000 0.965025 1.000000
0.750295 0.802485 1.000000
0.150060 0.039284 1.000000
0.000000 0.000000 0.655614
0.000000 0.000000 0.000000
0.549817 0.000000 1.000000
1.000000 0.000000 1.000000
1.000000 0.000000 1.000000
1.000000 0.698379 1.000000
1.000000 1.000000 1.000000
1.000000 0.950001 1.000000
1.000000 0.138943 1.000000
0.000000 0.000000 1.000000
0.000000 0.000000 0.257086
0.437858 0.269053 0.114138
0.324760 0.167748 0.140271
0.320973 0.072490 0.136502
0.421169 0.021783 0.141752
0.615676 0.021821 0.163463
0.890479 0.046486 0.177590
1.000000 0.037350 0.128610
1.000000 0.000000 0.000000
1.000000 0.000000 0.000000
0.312068 0.307557 0.140779
0.246042 0.283966 0.239354
0.266455 0.254053 0.307591
0.361159 0.243182 0.374707
0.513662 0.244406 0.438439
0.703132 0.218469 0.465039
0.904391 0.093803 0.389278
1.000000 0.000000 0.114442
1.000000 0.000000 0.000000
0.176582 0.279390 0.011139
0.155389 0.345118 0.189188
0.197511 0.390335 0.335021
0.283979 0.427265 0.468152
0.391485 0.435824 0.576612
0.492376 0.363614 0.616950
0.554655 0.125929 0.514232
0.541984 0.000000 0.162039
0.413680 0.000000 0.000000
0.058996 0.191847 0.000000
0.086310 0.361635 0.046814
0.153561 0.494907 0.272926
0.234965 0.590747 0.473313
0.300393 0.615928 0.626301
0.315372 0.504917 0.678733
0.241088 0.159866 0.545972
0.034383 0.000000 0.111896
0.000000 0.000000 0.000000
0.000000 0.047175 0.000000
0.073167 0.338909 0.000000
0.174883 0.576301 0.222966
0.260305 0.745296 0.488941
0.292486 0.799531 0.683348
0.230135 0.660328 0.743324
0.027618 0.216703 0.574528
0.000000 0.000000 0.051132
0.000000 0.000000 0.000000
0.000000 0.000000 0.000000
0.151175 0.277285 0.000000
0.302604 0.638004 0.334329
0.407042 0.897543 0.661316
0.420722 0.996399 0.891123
0.295534 0.842756 0.951184
0.000000 0.312490 0.737451
0.000000 0.000000 0.114394
0.000000 0.000000 0.000000
0.102407 0.000000 0.000000
0.356406 0.172069 0.349761
0.578709 0.678460 0.803725
0.723071 1.000000 1.000000
0.738908 1.000000 1.000000
0.571290 1.000000 1.000000
0.160946 0.458234 1.000000
0.000000 0.000000 0.483852
0.000000 0.000000 0.000000
0.349455 0.000000 0.780379
0.725783 0.013521 1.000000
1.000000 0.691071 1.000000
1.000000 1.000000 1.000000
1.000000 1.000000 1.000000
1.000000 1.000000 1.000000
0.639870 0.659898 1.000000
0.000000 0.000000 1.000000
0.000000 0.000000 0.000000
0.765188 0.000000 1.000000
1.000000 0.000000 1.000000
1.000000 0.664196 1.000000
1.000000 1.000000 1.000000
1.000000 1.000000 1.000000
1.000000 1.000000 1.000000
1.000000 0.918402 1.000000
0.545697 0.000000 1.000000
0.000000 0.000000 1.000000
0.548386 0.308142 0.166700
0.434959 0.156626 0.077752
0.428511 0.009303 0.000000
0.530699 0.000000 0.000000
0.738836 0.000000 0.000000
1.000000 0.000000 0.000780
1.000000 0.000000 0.064280
1.000000 0.000000 0.055901
1.000000 0.000000 0.000000
0.431922 0.404321 0.272939
0.355581 0.310046 0.254422
0.365984 0.212312 0.230102
0.457968 0.148308 0.240108
0.622028 0.122915 0.293084
0.844313 0.108699 0.366191
1.000000 0.045921 0.405108
1.000000 0.000000 0.324031
1.000000 0.000000 0.005674
0.311234 0.439542 0.215324
0.270300 0.414707 0.270641
0.295622 0.376943 0.319121
0.375220 0.350300 0.391186
0.492767 0.326519 0.485776
0.627595 0.265028 0.570350
0.754695 0.092946 0.580880
0.844710 0.000000 0.421858
0.863945 0.000000 0.000000
0.207986 0.420701 0.058337
0.206692 0.480644 0.187985
0.250915 0.516371 0.308319
0.321856 0.538792 0.440056
0.396370 0.526507 0.572432
0.446970 0.425806 0.663200
0.441826 0.150668 0.638630
0.344765 0.000000 0.393508
0.115269 0.000000 0.000000
0.144696 0.349648 0.000000
0.193188 0.512850 0.115557
0.266207 0.638728 0.303890
0.338135 0.725055 0.490004
0.379008 0.737291 0.653429
0.354520 0.608587 0.742212
0.226022 0.239781 0.672921
0.000000 0.000000 0.330636
0.000000 0.000000 0.000000
0.144736 0.223192 0.000000
0.259072 0.511272 0.209985
0.376695 0.747104 0.459556
0.465166 0.915320 0.691842
0.487703 0.968243 0.876670
0.403181 0.825881 0.952381
0.166132 0.375937 0.825839
0.000000 0.000000 0.372420
0.000000 0.000000 0.000000
0.232330 0.033099 0.348887
0.434484 0.470816 0.675424
0.618431 0.839544 0.976563
0.744915 1.000000 1.000000
0.770334 1.000000 1.000000
0.646745 1.000000 1.000000
0.321860 0.569742 1.000000
0.000000 0.000000 0.705565
0.000000 0.000000 0.000000
0.432559 0.000000 1.000000
0.750414 0.381346 1.000000
1.000000 0.909051 1.000000
1.000000 1.000000 1.000000
1.000000 1.000000 1.000000
1.000000 1.000000 1.000000
0.753764 0.826762 1.000000
0.053907 0.000000 1.000000
0.000000 0.000000 0.220588
0.771354 0.000000 1.000000
1.000000 0.227680 1.000000
1.000000 0.943587 1.000000
1.000000 1.000000 1.000000
1.000000 1.000000 1.000000
1.000000 1.000000 1.000000
1.000000 1.000000 1.000000
0.738643 0.000000 1.000000
0.000000 0.000000 1.000000
0.610039 0.295117 0.224273
0.499576 0.132897 0.071352
0.494547 0.000000 0.000000
0.603593 0.000000 0.000000
0.831012 0.000000 0.000000
1.000000 0.010352 0.039698
1.000000 0.179746 0.244373
1.000000 0.343444 0.450926
1.000000 0.402048 0.562683
0.514181 0.439658 0.375254
0.427431 0.305637 0.282991
0.428516 0.175318 0.204979
0.519258 0.097714 0.192256
0.697136 0.089533 0.264373
0.955287 0.135167 0.409403
1.000000 0.186701 0.583931
1.000000 0.163908 0.713064
1.000000 0.000000 0.690422
0.414910 0.524934 0.354462
0.350752 0.431906 0.322632
0.356579 0.337829 0.304860
0.427395 0.278577 0.342478
0.553859 0.257717 0.445335
0.722287 0.246503 0.591796
0.914654 0.183881 0.728745
1.000000 0.000000 0.771583
1.000000 0.000000 0.604225
0.327957 0.557440 0.230914
0.291185 0.521340 0.256385
0.306297 0.477621 0.294279
0.361476 0.449019 0.376223
0.440564 0.425960 0.502361
0.523058 0.366560 0.641356
0.584113 0.196624 0.730384
0.594541 0.000000 0.675143
0.520810 0.000000 0.349844
0.269910 0.538629 0.121156
0.271229 0.578531 0.197888
0.306080 0.602427 0.283965
0.355826 0.619914 0.401311
0.397490 0.608277 0.540365
0.403751 0.512493 0.660085
0.342945 0.245227 0.687943
0.179062 0.000000 0.519932
0.000000 0.000000 0.020560
0.258208 0.464910 0.189258
0.314238 0.603031 0.308302
0.385195 0.714939 0.432173
0.445625 0.797093 0.573089
0.465731 0.813638 0.711785
0.411372 0.696412 0.797514
0.244066 0.344941 0.748044
0.000000 0.000000 0.449664
0.000000 0.000000 0.000000
0.311144 0.327651 0.646818
0.444417 0.589346 0.796318
0.573762 0.812804 0.944684
0.666905 0.981344 1.000000
0.687230 1.000000 1.000000
0.593779 0.925388 1.000000
0.341249 0.505976 1.000000
0.000000 0.000000 0.655578
0.000000 0.000000 0.000000
0.447867 0.113176 1.000000
0.686828 0.526941 1.000000
0.902754 0.888628 1.000000
1.000000 1.000000 1.000000
1.000000 1.000000 1.000000
0.999685 1.000000 1.000000
0.689119 0.733499 1.000000
0.116627 0.000000 1.000000
0.000000 0.000000 0.228965
0.688377 0.000000 1.000000
1.000000 0.400238 1.000000
1.000000 0.929971 1.000000
1.000000 1.000000 1.000000
1.000000 1.000000 1.000000
1.000000 1.000000 1.000000
1.000000 1.000000 1.000000
0.692279 0.000000 1.000000
0.000000 0.000000 1.000000
0.662792 0.249160 0.247124
0.572200 0.131659 0.101197
0.586282 0.027531 0.000000
0.720665 0.010756 0.000000
0.986630 0.123005 0.084928
1.000000 0.373636 0.353898
1.000000 0.739700 0.748301
1.000000 1.000000 1.000000
1.000000 1.000000 1.000000
0.603186 0.440470 0.422737
0.519544 0.313557 0.319931
0.525616 0.201804 0.246949
0.630207 0.166050 0.265734
0.837781 0.234826 0.406750
1.000000 0.404353 0.668975
1.000000 0.638541 1.000000
1.000000 0.868988 1.000000
1.000000 0.994984 1.000000
0.536315 0.570183 0.418312
0.459065 0.447248 0.354776
0.456314 0.339441 0.321711
0.530050 0.294461 0.371358
0.677919 0.327701 0.524474
0.893222 0.422240 0.770335
1.000000 0.528849 1.000000
1.000000 0.565988 1.000000
1.000000 0.419807 1.000000
0.471982 0.644396 0.307403
0.406475 0.541970 0.276375
0.400003 0.452821 0.275026
0.447735 0.411509 0.345890
0.540498 0.420287 0.500022
0.664773 0.449095 0.716990
0.802700 0.435565 0.944883
0.932075 0.285016 1.000000
1.000000 0.000000 1.000000
0.420840 0.664164 0.211087
0.378342 0.601918 0.202900
0.379164 0.549279 0.222156
0.411656 0.527669 0.301685
0.459824 0.526201 0.442838
0.503333 0.501676 0.615478
0.517501 0.378586 0.757990
0.473308 0.049111 0.777273
0.337386 0.000000 0.548744
0.394398 0.625499 0.297971
0.392088 0.626243 0.300047
0.417132 0.631107 0.325890
0.451060 0.648373 0.398624
0.471059 0.654016 0.509895
0.449974 0.591696 0.619864
0.356307 0.372765 0.657208
0.154216 0.000000 0.519125
0.000000 0.000000 0.071325
0.405017 0.519369 0.784185
0.465989 0.609055 0.781040
0.538095 0.695555 0.796542
0.596047 0.774013 0.844113
0.610216 0.807262 0.905692
0.546625 0.725825 0.931737
0.366958 0.427915 0.841220
0.028553 0.000000 0.521634
0.000000 0.000000 0.000000
0.465914 0.331701 1.000000
0.619171 0.539419 1.000000
0.767094 0.734829 1.000000
0.877574 0.899934 1.000000
0.914163 0.984428 1.000000
0.836066 0.905693 1.000000
0.598147 0.548803 1.000000
0.150926 0.000000 1.000000
0.000000 0.000000 0.062117
0.591159 0.043376 1.000000
0.871620 0.401360 1.000000
1.000000 0.736094 1.000000
1.000000 1.000000 1.000000
1.000000 1.000000 1.000000
1.000000 1.000000 1.000000
1.000000 0.735155 1.000000
0.576797 0.000000 1.000000
0.000000 0.000000 1.000000
0.701455 0.164529 0.202483
0.661254 0.163086 0.154374
0.725753 0.186053 0.144244
0.917564 0.319234 0.254652
1.000000 0.616127 0.536672
1.000000 1.000000 1.000000
1.000000 1.000000 1.000000
1.000000 1.000000 1.000000
1.000000 1.000000 1.000000
0.698112 0.408728 0.397363
0.644712 0.351695 0.367077
0.683688 0.325576 0.377703
0.830831 0.403037 0.502093
1.000000 0.624435 0.781620
1.000000 0.997815 1.000000
1.000000 1.000000 1.000000
1.000000 1.000000 1.000000
1.000000 1.000000 1.000000
0.678994 0.584976 0.403597
0.612394 0.486339 0.383654
0.625594 0.423302 0.406112
0.727567 0.455392 0.534122
0.922943 0.609825 0.799348
1.000000 0.881509 1.000000
1.000000 1.000000 1.000000
1.000000 1.000000 1.000000
1.000000 1.000000 1.000000
0.647970 0.698974 0.299271
0.574083 0.575858 0.279282
0.567169 0.491210 0.301743
0.629383 0.491417 0.420099
0.758533 0.590558 0.656312
0.948089 0.770398 1.000000
1.000000 0.980394 1.000000
1.000000 1.000000 1.000000
1.000000 1.000000 1.000000
0.609762 0.751376 0.209998
0.540414 0.624047 0.176667
0.524962 0.536236 0.184392
0.558738 0.521191 0.276914
0.632736 0.579850 0.466490
0.733603 0.680840 0.733895
0.843645 0.760478 1.000000
0.940823 0.722771 1.000000
0.998757 0.439415 1.000000
0.569947 0.737797 0.308918
0.522878 0.629662 0.246039
0.516374 0.560277 0.221381
0.538951 0.549749 0.268981
0.574781 0.585878 0.391390
0.603694 0.624151 0.559680
0.601175 0.587746 0.713436
0.538369 0.367530 0.760765
0.382074 0.000000 0.578286
0.534956 0.648807 0.816695
0.533817 0.586413 0.705156
0.559663 0.560181 0.627560
0.594189 0.577082 0.608240
0.614750 0.611773 0.640045
0.594355 0.606604 0.684338
0.501672 0.471611 0.671004
0.301025 0.084523 0.498441
0.000000 0.000000 0.033567
0.512073 0.469932 1.000000
0.586430 0.482967 1.000000
0.673939 0.527759 1.000000
0.749477 0.598139 1.000000
0.783579 0.655625 1.000000
0.742437 0.629427 1.000000
0.587898 0.416443 1.000000
0.277468 0.000000 0.728739
0.000000 0.000000 0.000000
0.509436 0.181658 1.000000
0.694767 0.302949 1.000000
0.879166 0.449774 1.000000
1.000000 0.602824 1.000000
1.000000 0.710479 1.000000
1.000000 0.688808 1.000000
0.903470 0.421569 1.000000
0.517227 0.000000 1.000000
0.000000 0.000000 0.618103
0.675679 0.010554 0.064547
0.730001 0.212426 0.224937
0.889836 0.454040 0.429070
1.000000 0.833029 0.770413
1.000000 1.000000 1.000000
1.000000 1.000000 1.000000
1.000000 1.000000 1.000000
1.000000 1.000000 1.000000
1.000000 1.000000 1.000000
0.752977 0.321479 0.288077
0.770562 0.413014 0.433229
0.883972 0.555515 0.625898
1.000000 0.833473 0.949847
1.000000 1.000000 1.000000
1.000000 1.000000 1.000000
1.000000 1.000000 1.000000
1.000000 1.000000 1.000000
1.000000 1.000000 1.000000
0.801327 0.554079 0.314005
0.782734 0.549857 0.432811
0.850028 0.606007 0.601466
1.000000 0.793880 0.894029
1.000000 1.000000 1.000000
1.000000 1.000000 1.000000
1.000000 1.000000 1.000000
1.000000 1.000000 1.000000
1.000000 1.000000 1.000000
0.818666 0.713653 0.224953
0.770369 0.631397 0.303396
0.797768 0.617099 0.432579
0.910003 0.728972 0.676855
1.000000 0.992918 1.000000
1.000000 1.000000 1.000000
1.000000 1.000000 1.000000
1.000000 1.000000 1.000000
1.000000 1.000000 1.000000
0.803787 0.800460 0.151068
0.738171 0.661032 0.172224
0.737810 0.595329 0.243567
0.805024 0.648426 0.419748
0.937790 0.833087 0.723932
1.000000 1.000000 1.000000
1.000000 1.000000 1.000000
1.000000 1.000000 1.000000
1.000000 1.000000 1.000000
0.756333 0.809715 0.270024
0.691697 0.637116 0.214059
0.681624 0.542193 0.206288
0.721615 0.556881 0.291656
0.802826 0.680803 0.483625
0.912073 0.881273 0.764174
1.000000 1.000000 1.000000
1.000000 1.000000 1.000000
1.000000 1.000000 1.000000
0.676805 0.731590 0.807021
0.637361 0.552963 0.651193
0.641536 0.454145 0.540124
0.678012 0.453929 0.509055
0.731128 0.538800 0.561743
0.780877 0.662933 0.670461
0.802913 0.748191 0.776002
0.768545 0.684128 0.787674
0.644737 0.327986 0.583302
0.566553 0.551214 1.000000
0.582427 0.396843 1.000000
0.630724 0.322593 1.000000
0.693309 0.334120 1.000000
0.747699 0.404769 1.000000
0.767072 0.475575 1.000000
0.720260 0.455262 0.983446
0.571753 0.220243 0.694775
0.281697 0.000000 0.126958
0.427786 0.248674 1.000000
0.535014 0.151980 1.000000
0.663221 0.133904 1.000000
0.787449 0.186962 1.000000
0.878399 0.271358 1.000000
0.902428 0.314987 1.000000
0.821549 0.213435 1.000000
0.593434 0.000000 1.000000
0.171411 0.000000 0.412798
0.489949 0.000000 0.000000
0.696541 0.239999 0.313905
1.000000 0.807731 0.858356
1.000000 1.000000 1.000000
1.000000 1.000000 1.000000
1.000000 1.000000 1.000000
1.000000 1.000000 1.000000
1.000000 1.000000 1.000000
1.000000 1.000000 1.000000
0.676631 0.130845 0.090783
0.819560 0.465551 0.534150
1.000000 0.875573 1.000000
1.000000 1.000000 1.000000
1.000000 1.000000 1.000000
1.000000 1.000000 1.000000
1.000000 1.000000 1.000000
1.000000 1.000000 1.000000
1.000000 1.000000 1.000000
0.816532 0.437326 0.160187
0.896916 0.613557 0.532757
1.000000 0.879227 0.958141
1.000000 1.000000 1.000000
1.000000 1.000000 1.000000
1.000000 1.000000 1.000000
1.000000 1.000000 1.000000
1.000000 1.000000 1.000000
1.000000 1.000000 1.000000
0.901657 0.655986 0.109847
0.926530 0.692058 0.393974
1.000000 0.829875 0.732648
1.000000 1.000000 1.000000
1.000000 1.000000 1.000000
1.000000 1.000000 1.000000
1.000000 1.000000 1.000000
1.000000 1.000000 1.000000
1.000000 1.000000 1.000000
0.924866 0.786684 0.074442
0.907174 0.704056 0.249574
0.966885 0.733659 0.479542
1.000000 0.932392 0.829905
1.000000 1.000000 1.000000
1.000000 1.000000 1.000000
1.000000 1.000000 1.000000
1.000000 1.000000 1.000000
1.000000 1.000000 1.000000
0.879872 0.824238 0.236181
0.838475 0.647507 0.278856
0.866425 0.591675 0.375215
0.966207 0.700503 0.581114
1.000000 0.985441 0.920921
1.000000 1.000000 1.000000
1.000000 1.000000 1.000000
1.000000 1.000000 1.000000
1.000000 1.000000 1.000000
0.761244 0.758421 0.824797
0.720912 0.515324 0.708645
0.741622 0.399978 0.643585
0.819037 0.443004 0.675765
0.944483 0.642710 0.819852
1.000000 0.965097 1.000000
1.000000 1.000000 1.000000
1.000000 1.000000 1.000000
1.000000 1.000000 1.000000
0.564401 0.573964 1.000000
0.555821 0.295381 1.000000
0.599723 0.149581 1.000000
0.684955 0.154045 1.000000
0.796022 0.293943 1.000000
0.913083 0.522137 1.000000
1.000000 0.759175 1.000000
1.000000 0.893298 1.000000
1.000000 0.780435 0.838165
0.285619 0.250554 1.000000
0.345388 0.000000 1.000000
0.448831 0.000000 1.000000
0.577975 0.000000 1.000000
0.710506 0.000000 1.000000
0.819765 0.092137 1.000000
0.874752 0.212384 1.000000
0.840123 0.167231 1.000000
0.676189 0.000000 0.700708
0.003592 0.000000 0.000000
0.433812 0.181201 0.429260
0.973526 1.000000 1.000000
1.000000 1.000000 1.000000
1.000000 1.000000 1.000000
1.000000 1.000000 1.000000
1.000000 1.000000 1.000000
1.000000 1.000000 1.000000
1.000000 1.000000 1.000000
0.332766 0.000000 0.000000
0.669009 0.452418 0.692569
1.000000 1.000000 1.000000
1.000000 1.000000 1.000000
1.000000 1.000000 1.000000
1.000000 1.000000 1.000000
1.000000 1.000000 1.000000
1.000000 1.000000 1.000000
1.000000 1.000000 1.000000
0.592665 0.169628 0.000000
0.836609 0.628264 0.720968
1.000000 1.000000 1.000000
1.000000 1.000000 1.000000
1.000000 1.000000 1.000000
1.000000 1.000000 1.000000
1.000000 1.000000 1.000000
1.000000 1.000000 1.000000
1.000000 1.000000 1.000000
0.769362 0.468598 0.000000
0.928601 0.716383 0.603237
1.000000 1.000000 1.000000
1.000000 1.000000 1.000000
1.000000 1.000000 1.000000
1.000000 1.000000 1.000000
1.000000 1.000000 1.000000
1.000000 1.000000 1.000000
1.000000 1.000000 1.000000
0.849785 0.660391 0.027229
0.937825 0.719379 0.475684
1.000000 0.933400 0.979141
1.000000 1.000000 1.000000
1.000000 1.000000 1.000000
1.000000 1.000000 1.000000
1.000000 1.000000 1.000000
1.000000 1.000000 1.000000
1.000000 1.000000 1.000000
0.821717 0.739424 0.269243
0.857977 0.634808 0.522142
0.979154 0.698612 0.829734
1.000000 0.986424 1.000000
1.000000 1.000000 1.000000
1.000000 1.000000 1.000000
1.000000 1.000000 1.000000
1.000000 1.000000 1.000000
1.000000 1.000000 1.000000
0.673793 0.695074 0.946626
0.683605 0.455187 0.973972
0.772664 0.395290 1.000000
0.943622 0.557830 1.000000
1.000000 0.952943 1.000000
1.000000 1.000000 1.000000
1.000000 1.000000 1.000000
1.000000 1.000000 1.000000
1.000000 1.000000 1.000000
0.395502 0.511672 1.000000
0.410111 0.167988 1.000000
0.498046 0.014047 1.000000
0.655141 0.079153 1.000000
0.872883 0.360304 1.000000
1.000000 0.822186 1.000000
1.000000 1.000000 1.000000
1.000000 1.000000 1.000000
1.000000 1.000000 1.000000
0.000000 0.168507 1.000000
0.033751 0.000000 1.000000
0.157470 0.000000 1.000000
0.337356 0.000000 1.000000
0.558081 0.000000 1.000000
0.799970 0.081047 1.000000
1.000000 0.495122 1.000000
1.000000 0.864603 1.000000
1.000000 1.000000 1.000000
