lrplugin/MindfulLensFilmEngine.lrplugin/profiles/luts/vektro100.cube
# Generated from ColorChecker fit
LUT_3D_SIZE 5
DOMAIN_MIN 0.0 0.0 0.0
DOMAIN_MAX 1.0 1.0 1.0
0.193318 0.133740 0.113286
0.059570 0.090930 0.400138
0.321942 0.171323 0.535243
0.829808 0.200616 0.364919
1.000000 0.000000 0.000000
0.000000 0.000000 0.000000
0.000000 0.286629 0.330052
0.101694 0.462425 0.655619
0.138988 0.127791 0.426863
0.000000 0.000000 0.000000
0.000000 0.000000 0.000000
0.000000 0.308338 0.000000
0.000000 0.656354 0.538408
0.000000 0.005517 0.261336
0.000000 0.000000 0.000000
0.000000 0.000000 0.000000
0.316036 0.207314 0.344676
0.427167 0.854614 1.000000
0.000000 0.000000 0.742387
0.000000 0.000000 0.000000
0.549817 0.000000 1.000000
1.000000 0.000000 1.000000
1.000000 1.000000 1.000000
1.000000 0.138943 1.000000
0.000000 0.000000 0.257086
0.548386 0.308142 0.166700
0.428511 0.009303 0.000000
0.738836 0.000000 0.000000
1.000000 0.000000 0.064280
1.000000 0.000000 0.000000
0.311234 0.439542 0.215324
0.295622 0.376943 0.319121
0.492767 0.326519 0.485776
0.754695 0.092946 0.580880
0.863945 0.000000 0.000000
0.144696 0.349648 0.000000
0.266207 0.638728 0.303890
0.379008 0.737291 0.653429
0.226022 0.239781 0.672921
0.000000 0.000000 0.000000
0.232330 0.033099 0.348887
0.618431 0.839544 0.976563
0.770334 1.000000 1.000000
0.321860 0.569742 1.000000
0.000000 0.000000 0.000000
0.771354 0.000000 1.000000
1.000000 0.943587 1.000000
1.000000 1.000000 1.000000
1.000000 1.000000 1.000000
0.000000 0.000000 1.000000
0.662792 0.249160 0.247124
0.586282 0.027531 0.000000
0.986630 0.123005 0.084928
1.000000 0.739700 0.748301
1.000000 1.000000 1.000000
0.536315 0.570183 0.418312
0.456314 0.339441 0.321711
0.677919 0.327701 0.524474
1.000000 0.528849 1.000000
1.000000 0.419807 1.000000
0.420840 0.664164 0.211087
0.379164 0.549279 0.222156
0.459824 0.526201 0.442838
0.517501 0.378586 0.757990
0.337386 0.000000 0.548744
0.405017 0.519369 0.784185
0.538095 0.695555 0.796542
0.610216 0.807262 0.905692
0.366958 0.427915 0.841220
0.000000 0.000000 0.000000
0.591159 0.043376 1.000000
1.000000 0.736094 1.000000
1.000000 1.000000 1.000000
1.000000 0.735155 1.000000
0.000000 0.000000 1.000000
0.675679 0.010554 0.064547
0.889836 0.454040 0.429070
1.000000 1.000000 1.000000
1.000000 1.000000 1.000000
1.000000 1.000000 1.000000
0.801327 0.554079 0.314005
0.850028 0.606007 0.601466
1.000000 1.000000 1.000000
1.000000 1.000000 1.000000
1.000000 1.000000 1.000000
0.803787 0.800460 0.151068
0.737810 0.595329 0.243567
0.937790 0.833087 0.723932
1.000000 1.000000 1.000000
1.000000 1.000000 1.000000
0.676805 0.731590 0.807021
0.641536 0.454145 0.540124
0.731128 0.538800 0.561743
0.802913 0.748191 0.776002
0.644737 0.327986 0.583302
0.427786 0.248674 1.000000
0.663221 0.133904 1.000000
0.878399 0.271358 1.000000
0.821549 0.213435 1.000000
0.171411 0.000000 0.412798
0.003592 0.000000 0.000000
0.973526 1.000000 1.000000
1.000000 1.000000 1.000000
1.000000 1.000000 1.000000
1.000000 1.000000 1.000000
0.592665 0.169628 0.000000
1.000000 1.000000 1.000000
1.000000 1.000000 1.000000
1.000000 1.000000 1.000000
1.000000 1.000000 1.000000
0.849785 0.660391 0.027229
1.000000 0.933400 0.979141
1.000000 1.000000 1.000000
1.000000 1.000000 1.000000
1.000000 1.000000 1.000000
0.673793 0.695074 0.946626
0.772664 0.395290 1.000000
1.000000 0.952943 1.000000
1.000000 1.000000 1.000000
1.000000 1.000000 1.000000
0.000000 0.168507 1.000000
0.157470 0.000000 1.000000
0.558081 0.000000 1.000000
1.000000 0.495122 1.000000
1.000000 1.000000 1.000000
