lrplugin/MindfulLensFilmEngine.lrplugin/profiles/luts/vektro100.cube
# Generated from ColorChecker fit
LUT_3D_SIZE 33
DOMAIN_MIN 0.0 0.0 0.0
DOMAIN_MAX 1.0 1.0 1.0
0.193318 0.133740 0.113286
0.151495 0.128393 0.164563
0.117120 0.121391 0.209760
0.090076 0.113719 0.249867
0.070229 0.106234 0.285752
0.057431 0.099670 0.318161
0.051514 0.094632 0.347717
0.052294 0.091601 0.374917
0.059570 0.090930 0.400138
0.073124 0.092846 0.423634
0.092723 0.097451 0.445535
0.118113 0.104721 0.465848
0.149026 0.114503 0.484458
0.185177 0.126521 0.501125
0.226262 0.140372 0.515489
0.271963 0.155524 0.527064
0.321942 0.171323 0.535243
0.375845 0.186986 0.539295
0.433304 0.201605 0.538367
0.493929 0.214144 0.531482
0.557317 0.223445 0.517541
0.623045 0.228218 0.495321
0.690676 0.227052 0.463477
0.759755 0.218407 0.420540
0.829808 0.200616 0.364919
0.900347 0.171889 0.294899
0.970866 0.130306 0.208643
1.000000 0.073824 0.104191
1.000000 0.000273 0.000000
1.000000 0.000000 0.000000
1.000000 0.000000 0.000000
1.000000 0.000000 0.000000
1.000000 0.000000 0.000000
0.164927 0.132463 0.102864
0.127108 0.132708 0.157904
0.096419 0.131195 0.206966
0.072717 0.128857 0.251003
0.055843 0.126503 0.290844
0.045619 0.124812 0.327198
0.041853 0.124340 0.360648
0.044333 0.125516 0.391656
0.052833 0.128641 0.420560
0.067107 0.133893 0.447575
0.086895 0.141320 0.472795
0.111918 0.150847 0.496187
0.141880 0.162272 0.517599
0.176469 0.175265 0.536754
0.215357 0.189372 0.553253
0.258195 0.204011 0.566572
0.304623 0.218476 0.576067
0.354258 0.231933 0.580969
0.406704 0.243422 0.580386
0.461548 0.251858 0.573304
0.518357 0.256027 0.558586
0.576683 0.254593 0.534971
0.636063 0.246089 0.501075
0.696013 0.228926 0.455393
0.756034 0.201386 0.396295
0.815612 0.161627 0.322029
0.874212 0.107678 0.230719
0.931286 0.037445 0.120367
0.986265 0.000000 0.000000
1.000000 0.000000 0.000000
1.000000 0.000000 0.000000
1.000000 0.000000 0.000000
1.000000 0.000000 0.000000
0.133757 0.125869 0.082245
0.099830 0.131850 0.141258
0.072714 0.135965 0.194389
0.052241 0.139094 0.242553
0.038224 0.141994 0.286542
0.030459 0.145294 0.327027
0.028727 0.149499 0.364553
0.032791 0.154985 0.399544
0.042396 0.162003 0.432301
0.057271 0.170678 0.462999
0.077127 0.181010 0.491695
0.101661 0.192869 0.518320
0.130550 0.206003 0.542682
0.163455 0.220032 0.564466
0.200020 0.234449 0.583235
0.239872 0.248623 0.598429
0.282621 0.261793 0.609365
0.327860 0.273076 0.615235
0.375167 0.281461 0.615111
0.424099 0.285809 0.607940
0.474199 0.284859 0.592546
0.524992 0.277220 0.567632
0.575988 0.261375 0.531777
0.626676 0.235684 0.483435
0.676532 0.198378 0.420940
0.725013 0.147562 0.342501
0.771559 0.081215 0.246205
0.815594 0.000000 0.130017
0.856524 0.000000 0.000000
0.893740 0.000000 0.000000
0.926613 0.000000 0.000000
0.954500 0.000000 0.000000
0.976738 0.000000 0.000000
0.100315 0.114165 0.051461
0.070191 0.126042 0.114644
0.046560 0.135935 0.172035
0.029225 0.144674 0.224513
0.017974 0.152966 0.272832
0.012576 0.161387 0.317623
0.012785 0.170390 0.359395
0.018338 0.180302 0.398533
0.028952 0.191321 0.435300
0.044331 0.203522 0.469834
0.064160 0.216851 0.502154
0.088106 0.231130 0.532152
0.115823 0.246054 0.559599
0.146943 0.261192 0.584143
0.181084 0.275985 0.605308
0.217846 0.289750 0.622496
0.256814 0.301678 0.634985
0.297554 0.310832 0.641931
0.339615 0.316149 0.642368
0.382530 0.316441 0.635203
0.425814 0.310394 0.619226
0.468966 0.296566 0.593098
0.511468 0.273390 0.555362
0.552785 0.239173 0.504434
0.592364 0.192095 0.438610
0.629636 0.130210 0.356061
0.664015 0.051446 0.254837
0.694898 0.000000 0.132862
0.721664 0.000000 0.000000
0.743677 0.000000 0.000000
0.760283 0.000000 0.000000
0.770811 0.000000 0.000000
0.774572 0.000000 0.000000
0.065115 0.097541 0.010727
0.038729 0.115483 0.078266
0.018515 0.131318 0.140099
0.004252 0.145825 0.197066
0.000000 0.159656 0.249884
0.000000 0.173340 0.299145
0.000000 0.187278 0.345320
0.001647 0.201743 0.388758
0.013199 0.216884 0.429682
0.029009 0.232723 0.468195
0.048735 0.249157 0.504274
0.072020 0.265955 0.537776
0.098487 0.282761 0.568432
0.127745 0.299092 0.595854
0.159384 0.314339 0.619528
0.192979 0.327768 0.638817
0.228085 0.338517 0.652961
0.264244 0.345598 0.661080
0.300977 0.347897 0.662168
0.337792 0.344176 0.655096
0.374176 0.333067 0.638613
0.409602 0.313079 0.611346
0.443525 0.282593 0.571797
0.475383 0.239864 0.518345
0.504597 0.183021 0.449249
0.530571 0.110067 0.362642
0.552693 0.018878 0.256534
0.570333 0.000000 0.128814
0.582844 0.000000 0.000000
0.589561 0.000000 0.000000
0.589806 0.000000 0.000000
0.582880 0.000000 0.000000
0.568067 0.000000 0.000000
0.028671 0.076167 0.000000
0.005981 0.100357 0.032516
0.000000 0.122309 0.098960
0.000000 0.142751 0.160580
0.000000 0.162284 0.218054
0.000000 0.181385 0.271938
0.000000 0.200403 0.322664
0.000000 0.219562 0.370542
0.000000 0.238958 0.415759
0.012028 0.258562 0.458379
0.031600 0.278219 0.498342
0.054170 0.297648 0.535466
0.079336 0.316440 0.569446
0.106678 0.334062 0.599854
0.135760 0.349854 0.626137
0.166130 0.363029 0.647624
0.197319 0.372674 0.663515
0.228838 0.377752 0.672891
0.260185 0.377096 0.674709
0.290839 0.369416 0.667803
0.320263 0.353293 0.650883
0.347900 0.327185 0.622538
0.373181 0.289422 0.581233
0.395517 0.238207 0.525309
0.414301 0.171619 0.452986
0.428912 0.087608 0.362360
0.438710 0.000000 0.251403
0.443039 0.000000 0.117966
0.441225 0.000000 0.000000
0.432577 0.000000 0.000000
0.416390 0.000000 0.000000
0.391938 0.000000 0.000000
0.358480 0.000000 0.000000
0.000000 0.050191 0.000000
0.000000 0.080825 0.000000
0.000000 0.109082 0.049182
0.000000 0.135639 0.115607
0.000000 0.161048 0.177884
0.000000 0.185733 0.236532
0.000000 0.209991 0.291944
0.000000 0.233995 0.344393
0.000000 0.257791 0.394028
0.000000 0.281298 0.440874
0.013505 0.304309 0.484833
0.035332 0.326492 0.525687
0.059165 0.347388 0.563092
0.084560 0.366411 0.596581
0.111054 0.382850 0.625565
0.138167 0.395867 0.649334
0.165403 0.404498 0.667050
0.192248 0.407652 0.677757
0.218173 0.404115 0.680374
0.242630 0.392543 0.673695
0.265055 0.371467 0.656395
0.284865 0.339292 0.627024
0.301465 0.294298 0.584008
0.314237 0.234636 0.525652
0.322549 0.158334 0.450136
0.325754 0.063290 0.355520
0.323184 0.000000 0.239737
0.314157 0.000000 0.100600
0.297973 0.000000 0.000000
0.273914 0.000000 0.000000
0.241247 0.000000 0.000000
0.199221 0.000000 0.000000
0.147067 0.000000 0.000000
0.000000 0.019745 0.000000
0.000000 0.057028 0.000000
0.000000 0.091791 0.000000
0.000000 0.124657 0.062886
0.000000 0.156127 0.130102
0.000000 0.186574 0.193644
0.000000 0.216244 0.253866
0.000000 0.245259 0.311005
0.000000 0.273612 0.365169
0.000000 0.301172 0.416348
0.000000 0.327681 0.464407
0.016280 0.352755 0.509086
0.038774 0.375883 0.550005
0.062214 0.396428 0.586661
0.086110 0.413629 0.618426
0.109956 0.426595 0.644549
0.133229 0.434312 0.664159
0.155389 0.435638 0.676259
0.175879 0.429306 0.679731
0.194125 0.413921 0.673331
0.209536 0.387964 0.655696
0.221504 0.349787 0.625338
0.229405 0.297620 0.580646
0.232596 0.229562 0.519885
0.230418 0.143589 0.441200
0.222197 0.037550 0.342610
0.207239 0.000000 0.222013
0.184835 0.000000 0.077182
0.154257 0.000000 0.000000
0.114763 0.000000 0.000000
0.065592 0.000000 0.000000
0.005966 0.000000 0.000000
0.000000 0.000000 0.000000
0.000000 0.000000 0.000000
0.000000 0.029091 0.000000
0.000000 0.070571 0.000000
0.000000 0.109951 0.003343
0.000000 0.147681 0.075622
0.000000 0.184081 0.144175
0.000000 0.219347 0.209321
0.000000 0.253549 0.271256
0.000000 0.286629 0.330052
0.000000 0.318405 0.385660
0.000000 0.348567 0.437907
0.000000 0.376680 0.486497
0.018966 0.402181 0.531010
0.040466 0.424384 0.570905
0.061779 0.442473 0.605518
0.082371 0.455509 0.634059
0.101694 0.462425 0.655619
0.119179 0.462028 0.669163
0.134244 0.452999 0.673534
0.146289 0.433894 0.667453
0.154695 0.403139 0.649517
0.158827 0.359039 0.618201
0.158036 0.299768 0.571854
0.151651 0.223378 0.508707
0.138988 0.127791 0.426863
0.119344 0.010805 0.324305
0.092001 0.000000 0.198894
0.056220 0.000000 0.048364
0.011251 0.000000 0.000000
0.000000 0.000000 0.000000
0.000000 0.000000 0.000000
0.000000 0.000000 0.000000
0.000000 0.000000 0.000000
0.000000 0.000000 0.000000
0.000000 0.000000 0.000000
0.000000 0.045537 0.000000
0.000000 0.091649 0.000000
0.000000 0.135849 0.015541
0.000000 0.178405 0.089214
0.000000 0.219464 0.159384
0.000000 0.259042 0.226211
0.000000 0.297031 0.289729
0.000000 0.333197 0.349851
0.000000 0.367180 0.406365
0.000000 0.398493 0.458938
0.000546 0.426521 0.507114
0.020145 0.450527 0.550311
0.038912 0.469645 0.587827
0.056287 0.482883 0.618837
0.071694 0.489123 0.642391
0.084539 0.487121 0.657418
0.094213 0.475507 0.662724
0.100089 0.452784 0.656990
0.101521 0.417330 0.638775
0.097849 0.367394 0.606517
0.088394 0.301104 0.558528
0.072463 0.216456 0.492999
0.049342 0.111323 0.407997
0.018302 0.000000 0.301466
0.000000 0.000000 0.171229
0.000000 0.000000 0.014983
0.000000 0.000000 0.000000
0.000000 0.000000 0.000000
0.000000 0.000000 0.000000
0.000000 0.000000 0.000000
0.000000 0.000000 0.000000
0.000000 0.000000 0.000000
0.000000 0.000000 0.000000
0.000000 0.016785 0.000000
0.000000 0.069859 0.000000
0.000000 0.120751 0.000000
0.000000 0.169680 0.030032
0.000000 0.216738 0.105318
0.000000 0.261894 0.177121
0.000000 0.304987 0.245440
0.000000 0.345731 0.310148
0.000000 0.383715 0.370998
0.000000 0.418400 0.427617
0.000000 0.449121 0.479510
0.002084 0.475090 0.526059
0.018365 0.495388 0.566524
0.032582 0.508972 0.600042
0.044132 0.514673 0.625625
0.052395 0.511197 0.642164
0.056734 0.497121 0.648426
0.056496 0.470897 0.643055
0.051009 0.430851 0.624573
0.039586 0.375183 0.591379
0.021521 0.301967 0.541747
0.000000 0.209149 0.473831
0.000000 0.094551 0.385659
0.000000 0.000000 0.275139
0.000000 0.000000 0.140053
0.000000 0.000000 0.000000
0.000000 0.000000 0.000000
0.000000 0.000000 0.000000
0.000000 0.000000 0.000000
0.000000 0.000000 0.000000
0.000000 0.000000 0.000000
0.000000 0.000000 0.000000
0.000000 0.000000 0.000000
0.000000 0.000000 0.000000
0.000000 0.044668 0.000000
0.000000 0.102487 0.000000
0.000000 0.158016 0.000000
0.000000 0.211296 0.048569
0.000000 0.262243 0.125422
0.000000 0.310646 0.198609
0.000000 0.356167 0.267966
0.000000 0.398344 0.333207
0.000000 0.436587 0.393922
0.000000 0.470180 0.449577
0.000000 0.498281 0.499519
0.000997 0.519923 0.542967
0.012138 0.534011 0.579020
0.019913 0.539324 0.606654
0.023674 0.534515 0.624721
0.022758 0.518112 0.631950
0.016485 0.488515 0.626949
0.004157 0.444000 0.608200
0.000000 0.382713 0.574064
0.000000 0.302679 0.522778
0.000000 0.201792 0.452457
0.000000 0.077822 0.361093
0.000000 0.000000 0.246554
0.000000 0.000000 0.106586
0.000000 0.000000 0.000000
0.000000 0.000000 0.000000
0.000000 0.000000 0.000000
0.000000 0.000000 0.000000
0.000000 0.000000 0.000000
0.000000 0.000000 0.000000
0.000000 0.000000 0.000000
0.000000 0.000000 0.000000
0.000000 0.000000 0.000000
0.000000 0.016145 0.000000
0.000000 0.081139 0.000000
0.000000 0.143508 0.000000
0.000000 0.203242 0.000000
0.000000 0.260206 0.072736
0.000000 0.314138 0.150847
0.000000 0.364648 0.224903
0.000000 0.411223 0.294580
0.000000 0.453221 0.359430
0.000000 0.489875 0.418882
0.000000 0.520293 0.472243
0.000000 0.543455 0.518696
0.000000 0.558215 0.557302
0.000000 0.563301 0.586998
0.000000 0.557315 0.606598
0.000000 0.538734 0.614795
0.000000 0.505905 0.610157
0.000000 0.457053 0.591129
0.000000 0.390275 0.556034
0.000000 0.303541 0.503071
0.000000 0.194696 0.430318
0.000000 0.061459 0.335727
0.000000 0.000000 0.217130
0.000000 0.000000 0.072235
0.000000 0.000000 0.000000
0.000000 0.000000 0.000000
0.000000 0.000000 0.000000
0.000000 0.000000 0.000000
0.000000 0.000000 0.000000
0.000000 0.000000 0.000000
0.000000 0.000000 0.000000
0.000000 0.000000 0.000000
0.000000 0.000000 0.000000
0.000000 0.000000 0.000000
0.000000 0.056766 0.000000
0.000000 0.126228 0.000000
0.000000 0.192662 0.000000
0.000000 0.255881 0.020870
0.000000 0.315572 0.103950
0.000000 0.371296 0.182745
0.000000 0.422485 0.256891
0.000000 0.468448 0.325904
0.000000 0.508367 0.389174
0.000000 0.541297 0.445971
0.000000 0.566167 0.495440
0.000000 0.581781 0.536604
0.000000 0.586814 0.568361
0.000000 0.579819 0.589489
0.000000 0.559218 0.598642
0.000000 0.523311 0.594349
0.000000 0.470268 0.575020
0.000000 0.398137 0.538937
0.000000 0.304835 0.484264
0.000000 0.188158 0.409038
0.000000 0.045771 0.311176
0.000000 0.000000 0.188470
0.000000 0.000000 0.038590
0.000000 0.000000 0.000000
0.000000 0.000000 0.000000
0.000000 0.000000 0.000000
0.000000 0.000000 0.000000
0.000000 0.000000 0.000000
0.000000 0.000000 0.000000
0.000000 0.000000 0.000000
0.000000 0.000000 0.000000
0.000000 0.000000 0.000000
0.000000 0.000000 0.000000
0.000000 0.029411 0.000000
0.000000 0.106230 0.000000
0.000000 0.179621 0.000000
0.000000 0.249346 0.000000
0.000000 0.315040 0.059900
0.000000 0.376213 0.143460
0.000000 0.432246 0.222098
0.000000 0.482396 0.295290
0.000000 0.525794 0.362390
0.000000 0.561444 0.422629
0.000000 0.588223 0.475113
0.000000 0.604884 0.518828
0.000000 0.610052 0.552635
0.000000 0.602226 0.575274
0.000000 0.579778 0.585359
0.000000 0.540957 0.581384
0.000000 0.483882 0.561718
0.000000 0.406548 0.524609
0.000000 0.306824 0.468179
0.000000 0.182450 0.390429
0.000000 0.031043 0.289239
0.000000 0.000000 0.162361
0.000000 0.000000 0.007429
0.000000 0.000000 0.000000
0.000000 0.000000 0.000000
0.000000 0.000000 0.000000
0.000000 0.000000 0.000000
0.000000 0.000000 0.000000
0.000000 0.000000 0.000000
0.000000 0.000000 0.000000
0.000000 0.000000 0.000000
0.000000 0.000000 0.000000
0.000000 0.000000 0.000000
0.000000 0.000000 0.000000
0.000000 0.083547 0.000000
0.000000 0.164165 0.000000
0.000000 0.240659 0.000000
0.000000 0.312612 0.020863
0.000000 0.379482 0.109206
0.000000 0.440600 0.192346
0.000000 0.495172 0.269723
0.000000 0.542276 0.340652
0.000000 0.580866 0.404325
0.000000 0.609768 0.459813
0.000000 0.627682 0.506063
0.000000 0.633182 0.541897
0.000000 0.624717 0.566017
0.000000 0.600608 0.577001
0.000000 0.559050 0.573303
0.000000 0.498113 0.553256
0.000000 0.415740 0.515067
0.000000 0.309748 0.456824
0.000000 0.177828 0.376489
0.000000 0.017543 0.271901
0.000000 0.000000 0.140779
0.000000 0.000000 0.000000
0.000000 0.000000 0.000000
0.000000 0.000000 0.000000
0.000000 0.000000 0.000000
0.000000 0.000000 0.000000
0.000000 0.000000 0.000000
0.000000 0.000000 0.000000
0.000000 0.000000 0.000000
0.000000 0.000000 0.000000
0.000000 0.000000 0.000000
0.000000 0.000000 0.000000
0.000000 0.000000 0.000000
0.000000 0.058194 0.000000
0.000000 0.146321 0.000000
0.000000 0.229858 0.000000
0.000000 0.308338 0.000000
0.000000 0.381166 0.082324
0.000000 0.447623 0.169966
0.000000 0.506863 0.251521
0.000000 0.557913 0.326266
0.000000 0.599675 0.393358
0.000000 0.630925 0.451826
0.000000 0.650310 0.500581
0.000000 0.656354 0.538408
0.000000 0.647454 0.563969
0.000000 0.621879 0.575806
0.000000 0.577775 0.572334
0.000000 0.513159 0.551848
0.000000 0.425923 0.512519
0.000000 0.313832 0.452394
0.000000 0.174526 0.369399
0.000000 0.005517 0.261336
0.000000 0.000000 0.125883
0.000000 0.000000 0.000000
0.000000 0.000000 0.000000
0.000000 0.000000 0.000000
0.000000 0.000000 0.000000
0.000000 0.000000 0.000000
0.000000 0.000000 0.000000
0.000000 0.000000 0.000000
0.000000 0.000000 0.000000
0.000000 0.000000 0.000000
0.000000 0.000000 0.000000
0.000000 0.000000 0.000000
0.000000 0.000000 0.000000
0.000000 0.030166 0.000000
0.000000 0.126096 0.000000
0.000000 0.216964 0.000000
0.000000 0.302250 0.000000
0.000000 0.381309 0.065341
0.000000 0.453371 0.157473
0.000000 0.517538 0.243188
0.001006 0.572786 0.321728
0.009546 0.617965 0.392208
0.012061 0.651799 0.453622
0.007778 0.672886 0.504842
0.000000 0.679697 0.544616
0.000000 0.670578 0.571568
0.000000 0.643748 0.584200
0.000000 0.597299 0.580891
0.000000 0.529198 0.559899
0.000000 0.437286 0.519354
0.000000 0.319277 0.457268
0.000000 0.172759 0.371528
0.000000 0.000000 0.259898
0.000000 0.000000 0.120018
0.000000 0.000000 0.000000
0.000000 0.000000 0.000000
0.000000 0.000000 0.000000
0.000000 0.000000 0.000000
0.000000 0.000000 0.000000
0.000000 0.000000 0.000000
0.000000 0.000000 0.000000
0.000000 0.000000 0.000000
0.000000 0.000000 0.000000
0.000000 0.000000 0.000000
0.000000 0.000000 0.000000
0.000000 0.000000 0.000000
0.000000 0.000000 0.000000
0.000000 0.103476 0.000000
0.000000 0.201973 0.000000
0.000000 0.294359 0.000000
0.000000 0.379935 0.060970
0.000000 0.457880 0.157568
0.017987 0.527244 0.247416
0.031907 0.586954 0.329714
0.039930 0.635806 0.403543
0.041274 0.672475 0.467857
0.035140 0.695507 0.521491
0.020712 0.703321 0.563154
0.000000 0.694212 0.591434
0.000000 0.666347 0.604793
0.000000 0.617767 0.601574
0.000000 0.546390 0.579995
0.000000 0.450002 0.538150
0.000000 0.326268 0.474012
0.000000 0.172723 0.385430
0.000000 0.000000 0.270131
0.000000 0.000000 0.125717
0.000000 0.000000 0.000000
0.000000 0.000000 0.000000
0.000000 0.000000 0.000000
0.000000 0.000000 0.000000
0.000000 0.000000 0.000000
0.000000 0.000000 0.000000
0.000000 0.000000 0.000000
0.000000 0.000000 0.000000
0.000000 0.000000 0.000000
0.000000 0.000000 0.000000
0.000000 0.000000 0.000000
0.000000 0.000000 0.000000
0.000000 0.000000 0.000000
0.000000 0.078428 0.000000
0.000000 0.184868 0.000000
0.000000 0.284657 0.000000
0.013115 0.377047 0.072110
0.038106 0.461165 0.173140
0.058139 0.536011 0.267079
0.072439 0.600458 0.353091
0.080215 0.653254 0.430216
0.080657 0.693020 0.497374
0.072940 0.718251 0.553358
0.056221 0.727315 0.596842
0.029640 0.718456 0.626375
0.000000 0.689790 0.640382
0.000000 0.639308 0.637167
0.000000 0.564872 0.614910
0.000000 0.464221 0.571668
0.000000 0.334966 0.505376
0.000000 0.174594 0.413845
0.000000 0.000000 0.294762
0.000000 0.000000 0.145694
0.000000 0.000000 0.000000
0.000000 0.000000 0.000000
0.000000 0.000000 0.000000
0.000000 0.000000 0.000000
0.000000 0.000000 0.000000
0.000000 0.000000 0.000000
0.000000 0.000000 0.000000
0.000000 0.000000 0.000000
0.000000 0.000000 0.000000
0.000000 0.000000 0.000000
0.000000 0.000000 0.000000
0.000000 0.000000 0.000000
0.000000 0.000000 0.000000
0.000000 0.050900 0.000000
0.000000 0.165606 0.000000
0.028730 0.273116 0.000000
0.060322 0.372630 0.101846
0.087164 0.463225 0.207261
0.108473 0.543847 0.305240
0.123447 0.613321 0.394907
0.131267 0.670341 0.475267
0.131099 0.713478 0.545198
0.122089 0.741175 0.603460
0.103368 0.751750 0.648685
0.074051 0.743395 0.679385
0.033233 0.714174 0.693949
0.000000 0.662026 0.690641
0.000000 0.584764 0.667604
0.000000 0.480075 0.622857
0.000000 0.345518 0.554297
0.000000 0.178527 0.459697
0.000000 0.000000 0.336707
0.000000 0.000000 0.182855
0.000000 0.000000 0.000000
0.000000 0.000000 0.000000
0.000000 0.000000 0.000000
0.000000 0.000000 0.000000
0.000000 0.000000 0.000000
0.000000 0.000000 0.000000
0.000000 0.000000 0.000000
0.000000 0.000000 0.000000
0.000000 0.000000 0.000000
0.000000 0.000000 0.000000
0.000000 0.000000 0.000000
0.000000 0.000000 0.000000
0.000000 0.000000 0.000000
0.002225 0.020820 0.000000
0.044769 0.144128 0.000000
0.083586 0.259688 0.036702
0.117897 0.366649 0.153446
0.146910 0.464034 0.263190
0.169812 0.550742 0.365145
0.185776 0.625542 0.458399
0.193957 0.687080 0.541918
0.193492 0.733875 0.614545
0.183503 0.764319 0.674997
0.163093 0.776677 0.721872
0.131350 0.769090 0.753643
0.087344 0.739572 0.768661
0.030128 0.686011 0.765152
0.000000 0.606166 0.741221
0.000000 0.497675 0.694850
0.000000 0.358045 0.623897
0.000000 0.184660 0.526097
0.000000 0.000000 0.399063
0.000000 0.000000 0.240285
0.000000 0.000000 0.047129
0.000000 0.000000 0.000000
0.000000 0.000000 0.000000
0.000000 0.000000 0.000000
0.000000 0.000000 0.000000
0.000000 0.000000 0.000000
0.000000 0.000000 0.000000
0.000000 0.000000 0.000000
0.000000 0.000000 0.000000
0.000000 0.000000 0.000000
0.000000 0.000000 0.000000
0.000000 0.000000 0.000000
0.010150 0.000000 0.000000
0.060216 0.000000 0.000000
0.106845 0.120355 0.000000
0.149248 0.244306 0.109044
0.186622 0.359048 0.230367
0.218146 0.463552 0.344370
0.242982 0.556664 0.450227
0.260276 0.637105 0.546989
0.269156 0.703467 0.633582
0.268732 0.754218 0.708811
0.258100 0.787699 0.771358
0.236337 0.802126 0.819780
0.202504 0.795585 0.852514
0.155642 0.766041 0.867872
0.094781 0.711329 0.864042
0.018928 0.629158 0.839093
0.000000 0.517114 0.790967
0.000000 0.372654 0.717484
0.000000 0.193108 0.616343
0.000000 0.000000 0.485118
0.000000 0.000000 0.321260
0.000000 0.000000 0.122098
0.000000 0.000000 0.000000
0.000000 0.000000 0.000000
0.000000 0.000000 0.000000
0.000000 0.000000 0.000000
0.000000 0.000000 0.000000
0.000000 0.000000 0.000000
0.000000 0.000000 0.000000
0.000000 0.000000 0.000000
0.000000 0.000000 0.000000
0.000000 0.000000 0.000000
0.015944 0.000000 0.000000
0.074049 0.000000 0.000000
0.129040 0.000000 0.000000
0.180121 0.094188 0.077694
0.226477 0.226884 0.210423
0.267279 0.349752 0.336250
0.301679 0.461714 0.454432
0.328813 0.561564 0.564106
0.347799 0.647970 0.664283
0.357740 0.719475 0.753853
0.357718 0.774494 0.831582
0.346803 0.811317 0.896115
0.324046 0.828107 0.945971
0.288479 0.822903 0.979548
0.239120 0.793615 0.995120
0.174968 0.738028 0.990840
0.095007 0.653800 0.964735
0.000000 0.538465 0.914711
0.000000 0.389428 0.838552
0.000000 0.203970 0.733916
0.000000 0.000000 0.598340
0.000000 0.000000 0.429238
0.000000 0.000000 0.223901
0.000000 0.000000 0.000000
0.000000 0.000000 0.000000
0.000000 0.000000 0.000000
0.000000 0.000000 0.000000
0.000000 0.000000 0.000000
0.000000 0.000000 0.000000
0.000000 0.000000 0.000000
0.000000 0.000000 0.000000
0.000000 0.000000 0.000000
0.018620 0.000000 0.000000
0.085240 0.000000 0.000000
0.149107 0.000000 0.000000
0.209414 0.000000 0.063256
0.265337 0.065506 0.207235
0.316036 0.207314 0.344676
0.360655 0.338668 0.474921
0.398319 0.458440 0.597191
0.428138 0.565372 0.710584
0.449202 0.658081 0.814074
0.460588 0.735058 0.906513
0.461352 0.794668 0.986628
0.450537 0.835149 1.000000
0.427167 0.854614 1.000000
0.390248 0.851048 1.000000
0.338771 0.822311 1.000000
0.271708 0.766137 1.000000
0.188017 0.680133 1.000000
0.086637 0.561780 1.000000
0.000000 0.408433 0.990779
0.000000 0.217321 0.882483
0.000000 0.000000 0.742387
0.000000 0.000000 0.567865
0.000000 0.000000 0.356170
0.000000 0.000000 0.104433
0.000000 0.000000 0.000000
0.000000 0.000000 0.000000
0.000000 0.000000 0.000000
0.000000 0.000000 0.000000
0.000000 0.000000 0.000000
0.000000 0.000000 0.000000
0.000000 0.000000 0.000000
0.017180 0.000000 0.000000
0.092758 0.000000 0.000000
0.165977 0.000000 0.000000
0.236021 0.000000 0.069821
0.302058 0.000000 0.224908
0.363238 0.034173 0.373767
0.418693 0.185469 0.515827
0.467541 0.325681 0.650393
0.508879 0.453627 0.776649
0.541792 0.567998 0.893652
0.565343 0.667360 1.000000
0.578582 0.750152 1.000000
0.580540 0.814689 1.000000
0.570231 0.859157 1.000000
0.546653 0.881617 1.000000
0.508785 0.880003 1.000000
0.455593 0.852125 1.000000
0.386022 0.795664 1.000000
0.299002 0.708176 1.000000
0.193446 0.587091 1.000000
0.068249 0.429714 1.000000
0.000000 0.233220 1.000000
0.000000 0.000000 0.921100
0.000000 0.000000 0.740971
0.000000 0.000000 0.522726
0.000000 0.000000 0.263458
0.000000 0.000000 0.000000
0.000000 0.000000 0.000000
0.000000 0.000000 0.000000
0.000000 0.000000 0.000000
0.000000 0.000000 0.000000
0.000000 0.000000 0.000000
0.010623 0.000000 0.000000
0.095563 0.000000 0.000000
0.178574 0.000000 0.000000
0.258831 0.000000 0.101704
0.335492 0.000000 0.267771
0.407698 0.000000 0.427868
0.474571 0.000028 0.581510
0.535218 0.161205 0.728086
0.588729 0.310657 0.866865
0.634176 0.447153 0.996991
0.670616 0.569332 1.000000
0.697087 0.675709 1.000000
0.712610 0.764673 1.000000
0.716190 0.834484 1.000000
0.706816 0.883279 1.000000
0.683458 0.909068 1.000000
0.645070 0.909734 1.000000
0.590588 0.883033 1.000000
0.518934 0.826598 1.000000
0.429009 0.737932 1.000000
0.319700 0.614414 1.000000
0.189875 0.453296 1.000000
0.038388 0.251704 1.000000
0.000000 0.006639 1.000000
0.000000 0.000000 0.952573
0.000000 0.000000 0.727573
