lrplugin/MindfulLensFilmEngine.lrplugin/profiles/luts/velvia_pro.cube
# Generated from ColorChecker fit
LUT_3D_SIZE 33
DOMAIN_MIN 0.0 0.0 0.0
DOMAIN_MAX 1.0 1.0 1.0
0.105261 0.043748 0.131484
0.095875 0.046557 0.147357
0.086177 0.045590 0.167543
0.076733 0.042081 0.191583
0.068034 0.037121 0.219000
0.060497 0.031665 0.249299
0.054465 0.026525 0.281968
0.050204 0.022375 0.316475
0.047910 0.019750 0.352271
0.047700 0.019045 0.388788
0.049618 0.020514 0.425440
0.053635 0.024274 0.461622
0.059645 0.030300 0.496713
0.067469 0.038428 0.530070
0.076854 0.048356 0.561036
0.087470 0.059640 0.588932
0.098914 0.071698 0.613064
0.110710 0.083807 0.632717
0.122306 0.095107 0.647159
0.133073 0.104595 0.655640
0.142313 0.111131 0.657391
0.149248 0.113434 0.651626
0.153028 0.110085 0.637539
0.152730 0.099522 0.614307
0.147353 0.080048 0.581089
0.135825 0.049823 0.537023
0.116996 0.006869 0.481233
0.089643 0.000000 0.412822
0.052471 0.000000 0.330875
0.004105 0.000000 0.234459
0.000000 0.000000 0.122623
0.000000 0.000000 0.000000
0.000000 0.000000 0.000000
0.102639 0.091430 0.134220
0.096029 0.095026 0.151399
0.089071 0.094940 0.172760
0.082308 0.092380 0.197851
0.076211 0.088414 0.226197
0.071174 0.083971 0.257308
0.067518 0.079841 0.290674
0.065487 0.076674 0.325767
0.065253 0.074979 0.362041
0.066912 0.075127 0.398932
0.070487 0.077349 0.435858
0.075925 0.081736 0.472217
0.083100 0.088241 0.507390
0.091809 0.096675 0.540740
0.101776 0.106710 0.571612
0.112651 0.117880 0.599332
0.124010 0.129578 0.623207
0.135351 0.141057 0.642528
0.146101 0.151431 0.656565
0.155611 0.159676 0.664572
0.163158 0.164626 0.665784
0.167944 0.164976 0.659417
0.169097 0.159281 0.644670
0.165670 0.145959 0.620723
0.156641 0.123284 0.586738
0.140914 0.089395 0.541858
0.117320 0.042289 0.485208
0.084613 0.000000 0.415896
0.041473 0.000000 0.333011
0.000000 0.000000 0.235624
0.000000 0.000000 0.122785
0.000000 0.000000 0.000000
0.000000 0.000000 0.000000
0.097187 0.136096 0.134176
0.093304 0.140564 0.152772
0.089020 0.141424 0.175413
0.084858 0.139858 0.201648
0.081264 0.136911 0.231006
0.078611 0.133489 0.263000
0.077197 0.130355 0.297125
0.077245 0.128136 0.332855
0.078905 0.127317 0.369649
0.082251 0.128245 0.406945
0.087283 0.131126 0.444165
0.093926 0.136028 0.480710
0.102030 0.142878 0.515966
0.111373 0.151463 0.549299
0.121656 0.161433 0.580057
0.132506 0.172296 0.607569
0.143476 0.183420 0.631146
0.154045 0.194036 0.650083
0.163615 0.203233 0.663653
0.171515 0.209962 0.671114
0.177001 0.213033 0.671704
0.179253 0.211117 0.664643
0.177375 0.202745 0.649132
0.170400 0.186310 0.624356
0.157282 0.160063 0.589480
0.136905 0.122118 0.543651
0.108075 0.070447 0.485997
0.069526 0.002883 0.415631
0.019915 0.000000 0.331642
0.000000 0.000000 0.233107
0.000000 0.000000 0.119080
0.000000 0.000000 0.000000
0.000000 0.000000 0.000000
0.089196 0.178000 0.131182
0.087994 0.183430 0.151310
0.086321 0.185304 0.175334
0.084679 0.184782 0.202806
0.083491 0.182884 0.233259
0.083108 0.180490 0.266210
0.083806 0.178342 0.301156
0.085786 0.177040 0.337576
0.089176 0.177047 0.374931
0.094027 0.178684 0.412663
0.100316 0.182134 0.450198
0.107948 0.187440 0.486941
0.116751 0.194505 0.522281
0.126480 0.203093 0.555586
0.136812 0.212827 0.586209
0.147355 0.223193 0.613483
0.157637 0.233535 0.636722
0.167116 0.243058 0.655224
0.175173 0.250828 0.668266
0.181114 0.255771 0.675109
0.184172 0.256673 0.674994
0.183505 0.252182 0.667146
0.178197 0.240804 0.650769
0.167255 0.220907 0.625051
0.149615 0.190719 0.589161
0.124135 0.148329 0.542249
0.089602 0.091685 0.483448
0.044726 0.018596 0.411871
0.000000 0.000000 0.326615
0.000000 0.000000 0.226757
0.000000 0.000000 0.111357
0.000000 0.000000 0.000000
0.000000 0.000000 0.000000
0.079025 0.217386 0.125201
0.080459 0.223869 0.146976
0.081336 0.226830 0.172488
0.082135 0.227404 0.201291
0.083258 0.226587 0.232923
0.085033 0.225234 0.266903
0.087714 0.224064 0.302733
0.091480 0.223653 0.339895
0.096437 0.224438 0.377853
0.102613 0.226717 0.416055
0.109965 0.230649 0.453926
0.118373 0.236252 0.490879
0.127644 0.243405 0.526303
0.137510 0.251848 0.559572
0.147629 0.261181 0.590041
0.157583 0.270863 0.617046
0.166880 0.280216 0.639907
0.174956 0.288420 0.657922
0.181167 0.294516 0.670375
0.184801 0.297408 0.676529
0.185066 0.295856 0.675628
0.181099 0.288484 0.666901
0.171961 0.273774 0.649556
0.156637 0.250070 0.622784
0.134042 0.215575 0.585757
0.103011 0.168354 0.537629
0.062308 0.106332 0.477536
0.010622 0.027292 0.404596
0.000000 0.000000 0.317908
0.000000 0.000000 0.216553
0.000000 0.000000 0.099595
0.000000 0.000000 0.000000
0.000000 0.000000 0.000000
0.067098 0.254481 0.116327
0.071124 0.262113 0.139864
0.074492 0.266236 0.166968
0.077656 0.267962 0.197197
0.080996 0.268261 0.230092
0.084819 0.267966 0.265176
0.089356 0.267770 0.301953
0.094765 0.268225 0.339910
0.101127 0.269744 0.378515
0.108451 0.272602 0.417218
0.116670 0.276932 0.455449
0.125643 0.282728 0.492622
0.135154 0.289846 0.528132
0.144913 0.298001 0.561356
0.154556 0.306768 0.591651
0.163642 0.315584 0.618359
0.171659 0.323744 0.640801
0.178018 0.330406 0.658281
0.182056 0.334587 0.670085
0.183036 0.335164 0.675478
0.180145 0.330875 0.673711
0.172497 0.320319 0.664014
0.159132 0.301955 0.645599
0.139014 0.274101 0.617660
0.111032 0.234937 0.579374
0.074002 0.182504 0.529898
0.026665 0.114701 0.468371
0.000000 0.029289 0.393914
0.000000 0.000000 0.305631
0.000000 0.000000 0.202605
0.000000 0.000000 0.083903
0.000000 0.000000 0.000000
0.000000 0.000000 0.000000
0.053903 0.289501 0.104783
0.060482 0.298380 0.130199
0.066282 0.303744 0.159000
0.071736 0.306680 0.190749
0.077202 0.308134 0.224992
0.082964 0.308916 0.261254
0.089233 0.309693 0.299044
0.096141 0.310993 0.337850
0.103751 0.313207 0.377145
0.112047 0.316582 0.416381
0.120940 0.321230 0.454994
0.130268 0.327120 0.492401
0.139793 0.334082 0.527999
0.149202 0.341809 0.561169
0.158109 0.349851 0.591274
0.166051 0.357620 0.617655
0.172494 0.364388 0.639640
0.176825 0.369288 0.656535
0.178362 0.371313 0.667629
0.176343 0.369316 0.672192
0.169935 0.362012 0.669478
0.158229 0.347973 0.658720
0.140242 0.325635 0.639134
0.114917 0.293292 0.609918
0.081120 0.249100 0.570251
0.037646 0.191076 0.519294
0.000000 0.117093 0.456190
0.000000 0.024891 0.380064
0.000000 0.000000 0.290022
0.000000 0.000000 0.185152
0.000000 0.000000 0.064524
0.000000 0.000000 0.000000
0.000000 0.000000 0.000000
0.039995 0.322645 0.090925
0.049088 0.332874 0.118334
0.057264 0.339561 0.148939
0.064936 0.343769 0.182305
0.072438 0.346422 0.217981
0.080034 0.348302 0.255496
0.087910 0.350054 0.294362
0.096178 0.352183 0.334072
0.104878 0.355053 0.374101
0.113972 0.358889 0.413905
0.123350 0.363777 0.452924
0.132825 0.369663 0.490577
0.142139 0.376354 0.526266
0.150957 0.383516 0.559375
0.158869 0.390676 0.589270
0.165392 0.397221 0.615297
0.169968 0.402401 0.636786
0.171964 0.405323 0.653047
0.170673 0.404956 0.663372
0.165314 0.400129 0.667036
0.155029 0.389532 0.663295
0.138888 0.371714 0.651386
0.115887 0.345087 0.630528
0.084944 0.307920 0.599923
0.044906 0.258344 0.558754
0.000000 0.194352 0.506186
0.000000 0.113796 0.441363
0.000000 0.014386 0.363416
0.000000 0.000000 0.271453
0.000000 0.000000 0.164566
0.000000 0.000000 0.041829
0.000000 0.000000 0.000000
0.000000 0.000000 0.000000
0.025995 0.354101 0.075238
0.037564 0.365785 0.104758
0.048064 0.373880 0.137273
0.057882 0.379427 0.172352
0.067333 0.383322 0.209546
0.076658 0.386327 0.248390
0.086020 0.389061 0.288398
0.095510 0.392004 0.329066
0.105144 0.395496 0.369873
0.114865 0.399739 0.410280
0.124537 0.404794 0.449728
0.133955 0.410583 0.487641
0.142835 0.416887 0.523425
0.150822 0.423351 0.556466
0.157484 0.429475 0.586134
0.162314 0.434625 0.611779
0.164734 0.438023 0.632733
0.164087 0.438754 0.648312
0.159645 0.435762 0.657810
0.150604 0.427852 0.660506
0.136085 0.413690 0.655658
0.115136 0.391800 0.642508
0.086728 0.360571 0.620279
0.049760 0.318247 0.588176
0.003056 0.262936 0.545384
0.000000 0.192604 0.491073
0.000000 0.105081 0.424391
0.000000 0.000000 0.344470
0.000000 0.000000 0.250425
0.000000 0.000000 0.141349
0.000000 0.000000 0.016319
0.000000 0.000000 0.000000
0.000000 0.000000 0.000000
0.012590 0.384042 0.058337
0.026600 0.397289 0.090086
0.039370 0.406882 0.124617
0.051266 0.413835 0.161506
0.062581 0.419023 0.200306
0.073531 0.423182 0.240555
0.084259 0.426906 0.281770
0.094835 0.430652 0.323452
0.105251 0.434736 0.365083
0.115427 0.439335 0.406127
0.125208 0.444486 0.446029
0.134364 0.450087 0.484217
0.142590 0.455896 0.520098
0.149509 0.461531 0.553065
0.154665 0.466470 0.582489
0.157532 0.470053 0.607725
0.157507 0.471480 0.628108
0.153913 0.469809 0.642956
0.145998 0.463963 0.651569
0.132936 0.452720 0.653228
0.113828 0.434724 0.647195
0.087697 0.408474 0.632716
0.053494 0.372333 0.609016
0.010095 0.324523 0.575304
0.000000 0.263126 0.530770
0.000000 0.186087 0.474585
0.000000 0.091208 0.405903
0.000000 0.000000 0.323859
0.000000 0.000000 0.227569
0.000000 0.000000 0.116132
0.000000 0.000000 0.000000
0.000000 0.000000 0.000000
0.000000 0.000000 0.000000
0.000531 0.412628 0.040970
0.016949 0.427550 0.075064
0.031939 0.438732 0.111721
0.045846 0.447164 0.150517
0.058940 0.453697 0.191009
0.071415 0.459041 0.232739
0.083392 0.463768 0.275228
0.094919 0.468310 0.317980
0.105965 0.472958 0.360481
0.116429 0.477867 0.402198
0.126133 0.483047 0.442579
0.134825 0.488373 0.481055
0.142179 0.493579 0.517039
0.147793 0.498258 0.549926
0.151192 0.501865 0.579090
0.151825 0.503715 0.603890
0.149069 0.502983 0.623665
0.142224 0.498706 0.637736
0.130517 0.489778 0.645406
0.113098 0.474957 0.645960
0.089046 0.452860 0.638664
0.057363 0.421963 0.622767
0.016977 0.380604 0.597497
0.000000 0.326982 0.562068
0.000000 0.259155 0.515672
0.000000 0.175042 0.457484
0.000000 0.072422 0.386661
0.000000 0.000000 0.302342
0.000000 0.000000 0.203648
0.000000 0.000000 0.089679
0.000000 0.000000 0.000000
0.000000 0.000000 0.000000
0.000000 0.000000 0.000000
0.000000 0.440004 0.024013
0.009429 0.456717 0.060573
0.026592 0.469583 0.099463
0.042444 0.479569 0.140263
0.057235 0.487502 0.182535
0.071137 0.494067 0.225824
0.084248 0.499813 0.269654
0.096592 0.505147 0.313533
0.108120 0.510336 0.356949
0.118705 0.515509 0.399374
0.128149 0.520654 0.440260
0.136177 0.525622 0.479041
0.142440 0.530121 0.515133
0.146516 0.533721 0.547933
0.147907 0.535852 0.576822
0.146040 0.535806 0.601160
0.140269 0.532733 0.620290
0.129872 0.525645 0.633538
0.114053 0.513413 0.640208
0.091943 0.494770 0.639590
0.062595 0.468309 0.630954
0.024991 0.432483 0.613550
0.000000 0.385605 0.586613
0.000000 0.325848 0.549357
0.000000 0.251248 0.500980
0.000000 0.159699 0.440660
0.000000 0.048955 0.367558
0.000000 0.000000 0.280814
0.000000 0.000000 0.179555
0.000000 0.000000 0.062884
0.000000 0.000000 0.000000
0.000000 0.000000 0.000000
0.000000 0.000000 0.000000
0.000000 0.466302 0.008475
0.004927 0.484924 0.047619
0.024215 0.499573 0.088851
0.041950 0.511192 0.131754
0.058358 0.520584 0.175895
0.073589 0.528410 0.220820
0.087719 0.535193 0.266058
0.100751 0.541317 0.311121
0.112612 0.547026 0.355500
0.123155 0.552423 0.398670
0.132157 0.557473 0.440087
0.139323 0.562002 0.479188
0.144281 0.565693 0.515393
0.146588 0.568094 0.548103
0.145721 0.568610 0.576701
0.141088 0.566507 0.600552
0.132019 0.560913 0.619002
0.117770 0.550814 0.631379
0.097525 0.535059 0.636994
0.070389 0.512355 0.635137
0.035396 0.481271 0.625083
0.000000 0.440235 0.606086
0.000000 0.387538 0.577383
0.000000 0.321328 0.538194
0.000000 0.239615 0.487717
0.000000 0.140271 0.425136
0.000000 0.021025 0.349615
0.000000 0.000000 0.260298
0.000000 0.000000 0.156314
0.000000 0.000000 0.036771
0.000000 0.000000 0.000000
0.000000 0.000000 0.000000
0.000000 0.000000 0.000000
0.000000 0.491640 0.000000
0.004393 0.512292 0.037342
0.025762 0.528827 0.081026
0.045318 0.542161 0.126131
0.063265 0.553073 0.172229
0.079730 0.562202 0.218869
0.094768 0.570045 0.265584
0.108358 0.576962 0.311888
0.120407 0.583173 0.357277
0.130744 0.588757 0.401229
0.139125 0.593655 0.443203
0.145232 0.597667 0.482641
0.148673 0.600455 0.518965
0.148979 0.601539 0.551581
0.145609 0.600302 0.579874
0.137946 0.595986 0.603213
0.125298 0.587694 0.620947
0.106901 0.574389 0.632409
0.081914 0.554893 0.636912
0.049421 0.527891 0.633750
0.008435 0.491928 0.622202
0.000000 0.445407 0.601525
0.000000 0.386595 0.570960
0.000000 0.313615 0.529728
0.000000 0.224454 0.477035
0.000000 0.116959 0.412065
0.000000 0.000000 0.333986
0.000000 0.000000 0.241947
0.000000 0.000000 0.135079
0.000000 0.000000 0.012495
0.000000 0.000000 0.000000
0.000000 0.000000 0.000000
0.000000 0.000000 0.000000
0.000000 0.516123 0.000000
0.008843 0.538931 0.031013
0.032251 0.557455 0.077257
0.053569 0.572590 0.124665
0.072977 0.585089 0.172809
0.090583 0.595565 0.221243
0.106418 0.604494 0.269503
0.120441 0.612210 0.317107
0.132533 0.618909 0.363554
0.142503 0.624646 0.408326
0.150086 0.629337 0.450885
0.154941 0.632759 0.490676
0.156652 0.634549 0.527127
0.154731 0.634203 0.559644
0.148612 0.631080 0.587618
0.137656 0.624398 0.610420
0.121152 0.613234 0.627405
0.098310 0.596528 0.637906
0.068269 0.573079 0.641242
0.030091 0.541547 0.636710
0.000000 0.500451 0.623591
0.000000 0.448173 0.601148
0.000000 0.382952 0.568623
0.000000 0.302890 0.525244
0.000000 0.205949 0.470216
0.000000 0.089950 0.402730
0.000000 0.000000 0.321956
0.000000 0.000000 0.227047
0.000000 0.000000 0.117136
0.000000 0.000000 0.000000
0.000000 0.000000 0.000000
0.000000 0.000000 0.000000
0.000000 0.000000 0.000000
0.000000 0.539840 0.000000
0.019359 0.564932 0.030032
0.044765 0.585556 0.078948
0.067787 0.602579 0.128758
0.088583 0.616733 0.179037
0.107238 0.628606 0.229344
0.123763 0.638650 0.279219
0.138092 0.647174 0.328181
0.150086 0.654350 0.375735
0.159532 0.660209 0.421365
0.166140 0.664643 0.464537
0.169550 0.667404 0.504700
0.169322 0.668105 0.541283
0.164946 0.666219 0.573699
0.155835 0.661080 0.601341
0.141328 0.651881 0.623583
0.120689 0.637676 0.639783
0.093110 0.617380 0.649280
0.057704 0.589768 0.651394
0.013513 0.553475 0.645427
0.000000 0.506998 0.630663
0.000000 0.448691 0.606367
0.000000 0.376773 0.571788
0.000000 0.289320 0.526153
0.000000 0.184269 0.468675
0.000000 0.059417 0.398545
0.000000 0.000000 0.314939
0.000000 0.000000 0.217011
0.000000 0.000000 0.103901
0.000000 0.000000 0.000000
0.000000 0.000000 0.000000
0.000000 0.000000 0.000000
0.000000 0.000000 0.000000
0.006819 0.562869 0.000000
0.037090 0.590377 0.035930
0.064454 0.613211 0.087628
0.089124 0.632216 0.139941
0.111236 0.648096 0.192447
0.130851 0.661419 0.244708
0.147959 0.672609 0.296266
0.162471 0.681953 0.346647
0.174227 0.689599 0.395356
0.182990 0.695552 0.441883
0.188452 0.699682 0.485696
0.190225 0.701715 0.526249
0.187851 0.701241 0.562973
0.180797 0.697708 0.595285
0.168452 0.690425 0.622581
0.150135 0.678562 0.644241
0.125088 0.661149 0.659623
0.092478 0.637076 0.668071
0.051398 0.605095 0.668909
0.000869 0.563815 0.661442
0.000000 0.511709 0.644958
0.000000 0.447110 0.618725
0.000000 0.368208 0.581995
0.000000 0.273057 0.534000
0.000000 0.159570 0.473955
0.000000 0.025520 0.401056
0.000000 0.000000 0.314480
0.000000 0.000000 0.213387
0.000000 0.000000 0.096920
0.000000 0.000000 0.000000
0.000000 0.000000 0.000000
0.000000 0.000000 0.000000
0.000000 0.000000 0.000000
0.030749 0.585273 0.000000
0.063247 0.615331 0.050369
0.092534 0.640491 0.104962
0.118798 0.661572 0.159879
0.142154 0.679255 0.214702
0.162642 0.694082 0.268997
0.180228 0.706454 0.322309
0.194802 0.716634 0.374168
0.206182 0.724745 0.424083
0.214109 0.730769 0.471546
0.218250 0.734550 0.516030
0.218199 0.735792 0.556990
0.213473 0.734058 0.593864
0.203517 0.728774 0.626070
0.187700 0.719224 0.653009
0.165317 0.704554 0.674062
0.135587 0.683770 0.688594
0.097658 0.655737 0.695951
0.050599 0.619182 0.695459
0.000000 0.572693 0.686429
0.000000 0.514716 0.668150
0.000000 0.443559 0.639895
0.000000 0.357391 0.600920
0.000000 0.254240 0.550459
0.000000 0.131995 0.487732
0.000000 0.000000 0.411937
0.000000 0.000000 0.322256
0.000000 0.000000 0.217852
0.000000 0.000000 0.097870
0.000000 0.000000 0.000000
0.000000 0.000000 0.000000
0.000000 0.000000 0.000000
0.000000 0.000000 0.000000
0.064404 0.607100 0.017961
0.099111 0.639848 0.075142
0.130285 0.667451 0.132741
0.158091 0.690707 0.190364
0.182623 0.710271 0.247596
0.203898 0.726661 0.304006
0.221859 0.740255 0.359144
0.236377 0.751290 0.412542
0.247244 0.759865 0.463712
0.254180 0.765939 0.512151
0.256832 0.769330 0.557335
0.254769 0.769719 0.598723
0.247488 0.766646 0.635755
0.234410 0.759510 0.667854
0.214883 0.747573 0.694424
0.188179 0.729956 0.714849
0.153497 0.705639 0.728498
0.109959 0.673466 0.734721
0.056615 0.632139 0.732846
0.000000 0.580220 0.722188
0.000000 0.516132 0.702041
0.000000 0.438159 0.671681
0.000000 0.344445 0.630366
0.000000 0.232994 0.577336
0.000000 0.101671 0.511811
0.000000 0.000000 0.432995
0.000000 0.000000 0.340073
0.000000 0.000000 0.232211
0.000000 0.000000 0.108559
0.000000 0.000000 0.000000
0.000000 0.000000 0.000000
0.000000 0.000000 0.000000
0.000000 0.000000 0.000000
0.109126 0.628386 0.051558
0.146026 0.663965 0.112172
0.179053 0.694134 0.172891
0.208352 0.719666 0.233322
0.233992 0.741193 0.293055
0.255970 0.759209 0.351663
0.274207 0.774066 0.408697
0.288549 0.785978 0.463694
0.298769 0.795020 0.516171
0.304565 0.801125 0.565627
0.305558 0.804090 0.611541
0.301299 0.803569 0.653376
0.291260 0.799079 0.690576
0.274842 0.789994 0.722567
0.251370 0.775553 0.748756
0.220093 0.754851 0.768532
0.180188 0.726847 0.781267
0.130756 0.690357 0.786312
0.070824 0.644060 0.783003
0.000000 0.586495 0.770656
0.000000 0.516060 0.748567
0.000000 0.431014 0.716018
0.000000 0.329478 0.672270
0.000000 0.209432 0.616565
0.000000 0.068715 0.548128
0.000000 0.000000 0.466167
0.000000 0.000000 0.369869
0.000000 0.000000 0.258405
0.000000 0.000000 0.130926
0.000000 0.000000 0.000000
0.000000 0.000000 0.000000
0.000000 0.000000 0.000000
0.000000 0.000000 0.000000
0.166323 0.649152 0.099342
0.205402 0.687707 0.163514
0.240252 0.720567 0.227466
0.270994 0.748481 0.290808
0.297678 0.772057 0.353135
0.320278 0.791763 0.414021
0.338691 0.807928 0.473025
0.352743 0.820743 0.529684
0.362183 0.830257 0.583518
0.366688 0.836381 0.634031
0.365857 0.838885 0.680706
0.359218 0.837400 0.723009
0.346222 0.831418 0.760387
0.326247 0.820292 0.792270
0.298595 0.803232 0.818068
0.262494 0.779313 0.837174
0.217099 0.747466 0.848962
0.161489 0.706486 0.852790
0.094668 0.655026 0.847994
0.015566 0.591602 0.833894
0.000000 0.514586 0.809792
0.000000 0.422215 0.774971
0.000000 0.312584 0.728696
0.000000 0.183649 0.670213
0.000000 0.033226 0.598751
0.000000 0.000000 0.513520
0.000000 0.000000 0.413712
0.000000 0.000000 0.298500
0.000000 0.000000 0.167040
0.000000 0.000000 0.018469
0.000000 0.000000 0.000000
0.000000 0.000000 0.000000
0.000000 0.000000 0.000000
0.237471 0.669407 0.163499
0.278715 0.711086 0.231352
0.315358 0.746766 0.298650
0.347498 0.777169 0.365007
0.375163 0.802882 0.430021
0.398303 0.824347 0.493270
0.416796 0.841870 0.554315
0.430443 0.855616 0.612697
0.438974 0.865612 0.667941
0.442040 0.871742 0.719554
0.439221 0.873755 0.767021
0.430021 0.871255 0.809812
0.413869 0.863712 0.847379
0.390122 0.850452 0.879153
0.358059 0.830664 0.904550
0.316886 0.803397 0.922966
0.265736 0.767558 0.933778
0.203665 0.721918 0.936346
0.129655 0.665105 0.930012
0.042615 0.595611 0.914099
0.000000 0.511785 0.887912
0.000000 0.411839 0.850736
0.000000 0.293844 0.801842
0.000000 0.155731 0.740478
0.000000 0.000000 0.665878
0.000000 0.000000 0.577253
0.000000 0.000000 0.473801
0.000000 0.000000 0.354697
0.000000 0.000000 0.219101
0.000000 0.000000 0.066154
0.000000 0.000000 0.000000
0.000000 0.000000 0.000000
0.000000 0.000000 0.000000
0.324107 0.689144 0.246342
0.367507 0.734099 0.318002
0.405915 0.772729 0.388761
0.439409 0.805735 0.458237
0.467992 0.833676 0.526031
0.491596 0.856972 0.591726
0.510073 0.875905 0.654885
0.523204 0.890615 0.715054
0.530696 0.901104 0.771761
0.532178 0.907234 0.824514
0.527208 0.908727 0.872805
0.515268 0.905166 0.916107
0.495765 0.895994 0.953873
0.468032 0.880514 0.985540
0.431328 0.857890 1.000000
0.384837 0.827147 1.000000
0.327667 0.787169 1.000000
0.258855 0.736702 1.000000
0.177360 0.674350 1.000000
0.082067 0.598580 1.000000
0.000000 0.507718 0.985251
0.000000 0.399950 0.945640
0.000000 0.273323 0.894034
0.000000 0.125746 0.829688
0.000000 0.000000 0.751836
0.000000 0.000000 0.659695
0.000000 0.000000 0.552465
0.000000 0.000000 0.429326
0.000000 0.000000 0.289440
0.000000 0.000000 0.131952
0.000000 0.000000 0.000000
0.000000 0.000000 0.000000
0.000000 0.000000 0.000000
0.427839 0.708344 0.350318
0.473385 0.756729 0.425909
0.513532 0.798445 0.500244
0.548337 0.834168 0.572944
0.577781 0.864433 0.643613
0.601771 0.889636 0.711838
0.620139 0.910033 0.777185
0.632645 0.925743 0.839204
0.638970 0.936741 0.897426
0.638725 0.942866 0.951363
0.631444 0.943815 1.000000
0.616586 0.939148 1.000000
0.593537 0.928283 1.000000
0.561607 0.910499 1.000000
0.520034 0.884936 1.000000
0.467979 0.850594 1.000000
0.404529 0.806333 1.000000
0.328696 0.750875 1.000000
0.239420 0.682800 1.000000
0.135563 0.600551 1.000000
0.015915 0.502429 1.000000
0.000000 0.386596 1.000000
0.000000 0.251076 1.000000
0.000000 0.093752 0.940300
0.000000 0.000000 0.859084
0.000000 0.000000 0.763305
0.000000 0.000000 0.652164
0.000000 0.000000 0.524847
0.000000 0.000000 0.380518
0.000000 0.000000 0.218325
0.000000 0.000000 0.037398
0.000000 0.000000 0.000000
0.000000 0.000000 0.000000
0.550336 0.726972 0.478002
0.598022 0.778946 0.557651
0.639885 0.823886 0.635677
0.675960 0.862444 0.711706
0.706206 0.895132 0.785345
0.730508 0.922320 0.856184
0.748677 0.944241 0.923794
0.760448 0.960988 0.987726
0.765483 0.972514 1.000000
0.763368 0.978633 1.000000
0.753617 0.979018 1.000000
0.735665 0.973204 1.000000
0.708878 0.960585 1.000000
0.672543 0.940417 1.000000
0.625875 0.911814 1.000000
0.568013 0.873752 1.000000
0.498022 0.825069 1.000000
0.414893 0.764460 1.000000
0.317541 0.690482 1.000000
0.204809 0.601554 1.000000
0.075463 0.495952 1.000000
0.000000 0.371815 1.000000
0.000000 0.227141 1.000000
0.000000 0.059790 1.000000
0.000000 0.000000 0.990213
0.000000 0.000000 0.890673
0.000000 0.000000 0.775490
0.000000 0.000000 0.643852
0.000000 0.000000 0.494927
0.000000 0.000000 0.327867
0.000000 0.000000 0.141804
0.000000 0.000000 0.000000
0.000000 0.000000 0.000000
0.693336 0.744982 0.632102
0.743156 0.800706 0.715935
0.786713 0.849012 0.797768
0.824019 0.890527 0.877232
0.855012 0.925738 0.953937
0.879554 0.954993 1.000000
0.897434 0.978500 1.000000
0.908364 0.996328 1.000000
0.911985 1.000000 1.000000
0.907862 1.000000 1.000000
0.895483 1.000000 1.000000
0.874265 1.000000 1.000000
0.843548 0.992894 1.000000
0.802600 0.970263 1.000000
0.750613 0.938523 1.000000
0.686702 0.896625 1.000000
0.609913 0.843382 1.000000
0.519212 0.777465 1.000000
0.413494 0.697408 1.000000
0.291578 0.601604 1.000000
0.152209 0.488305 1.000000
0.000000 0.355627 1.000000
0.000000 0.201544 1.000000
0.000000 0.023890 1.000000
0.000000 0.000000 1.000000
0.000000 0.000000 1.000000
0.000000 0.000000 0.925164
0.000000 0.000000 0.789062
0.000000 0.000000 0.635389
0.000000 0.000000 0.463299
0.000000 0.000000 0.271928
0.000000 0.000000 0.060395
0.000000 0.000000 0.000000
0.858641 0.762313 0.815455
0.910592 0.821952 0.903599
0.955823 0.873768 0.989356
0.994324 0.918365 1.000000
1.000000 0.956205 1.000000
1.000000 0.987613 1.000000
1.000000 1.000000 1.000000
1.000000 1.000000 1.000000
1.000000 1.000000 1.000000
1.000000 1.000000 1.000000
1.000000 1.000000 1.000000
1.000000 1.000000 1.000000
0.999373 1.000000 1.000000
0.953606 1.000000 1.000000
0.896077 0.965049 1.000000
0.825879 0.919201 1.000000
0.742035 0.861264 1.000000
0.643490 0.789886 1.000000
0.529115 0.703576 1.000000
0.397709 0.600702 1.000000
0.247993 0.479494 1.000000
0.078616 0.338042 1.000000
0.000000 0.174296 1.000000
0.000000 0.000000 1.000000
0.000000 0.000000 1.000000
0.000000 0.000000 1.000000
0.000000 0.000000 1.000000
