lrplugin/MindfulLensFilmEngine.lrplugin/profiles/luts/velvia_pro.cube
# Generated from ColorChecker fit
LUT_3D_SIZE 5
DOMAIN_MIN 0.0 0.0 0.0
DOMAIN_MAX 1.0 1.0 1.0
0.105261 0.043748 0.131484
0.047910 0.019750 0.352271
0.098914 0.071698 0.613064
0.147353 0.080048 0.581089
0.000000 0.000000 0.000000
0.025995 0.354101 0.075238
0.105144 0.395496 0.369873
0.164734 0.438023 0.632733
0.003056 0.262936 0.545384
0.000000 0.000000 0.000000
0.006819 0.562869 0.000000
0.174227 0.689599 0.395356
0.125088 0.661149 0.659623
0.000000 0.159570 0.473955
0.000000 0.000000 0.000000
0.550336 0.726972 0.478002
0.765483 0.972514 1.000000
0.498022 0.825069 1.000000
0.000000 0.000000 0.990213
0.000000 0.000000 0.000000
1.000000 0.846861 1.000000
1.000000 1.000000 1.000000
1.000000 0.957307 1.000000
0.191039 0.000000 1.000000
0.000000 0.000000 1.000000
0.379685 0.148256 0.221710
0.207219 0.000000 0.131971
0.272628 0.000000 0.273353
0.523325 0.000000 0.493984
0.601436 0.000000 0.567215
0.333290 0.450435 0.257276
0.300198 0.356880 0.321642
0.387505 0.359929 0.511483
0.451841 0.265549 0.689266
0.044545 0.000000 0.642684
0.284863 0.609773 0.201854
0.365165 0.661776 0.428623
0.379322 0.688047 0.632936
0.093174 0.395349 0.691599
0.000000 0.000000 0.406646
0.765971 0.760385 0.673223
0.941411 1.000000 1.000000
0.795087 1.000000 1.000000
0.002053 0.537475 1.000000
0.000000 0.000000 0.486112
1.000000 0.979914 1.000000
1.000000 1.000000 1.000000
1.000000 1.000000 1.000000
1.000000 0.810182 1.000000
0.000000 0.000000 1.000000
0.603922 0.215169 0.271648
0.328809 0.000000 0.044943
0.363406 0.000000 0.091289
0.713464 0.000000 0.439714
1.000000 0.000000 1.000000
0.615362 0.560777 0.311654
0.460351 0.333551 0.301704
0.508019 0.214355 0.425293
0.673329 0.033869 0.725790
0.565957 0.000000 1.000000
0.527689 0.684650 0.210520
0.489065 0.612229 0.392295
0.477017 0.559476 0.525814
0.315720 0.257869 0.668784
0.000000 0.000000 0.804139
0.901433 0.798094 0.587316
0.983203 1.000000 0.938096
0.846372 1.000000 1.000000
0.224329 0.657605 0.894689
0.000000 0.000000 0.569825
1.000000 1.000000 1.000000
1.000000 1.000000 1.000000
1.000000 1.000000 1.000000
1.000000 1.000000 1.000000
0.000000 0.000000 1.000000
0.677975 0.121109 0.181776
0.516448 0.043941 0.125571
0.678785 0.000000 0.235162
1.000000 0.000000 0.720478
1.000000 0.000000 1.000000
0.855885 0.630397 0.246138
0.773045 0.481251 0.451730
0.917481 0.367515 0.649742
1.000000 0.144584 1.000000
1.000000 0.000000 1.000000
0.802641 0.801413 0.126302
0.817039 0.765342 0.535335
0.893050 0.710296 0.721126
0.913188 0.392465 0.922285
0.454675 0.000000 1.000000
1.000000 0.922656 0.442626
1.000000 1.000000 0.999053
1.000000 1.000000 1.000000
0.793816 0.941849 0.921291
0.000000 0.000000 0.718225
1.000000 1.000000 1.000000
1.000000 1.000000 1.000000
1.000000 1.000000 1.000000
1.000000 1.000000 1.000000
0.000000 0.000000 1.000000
0.145419 0.000000 0.000000
0.517476 0.000000 0.476633
1.000000 0.285136 0.941658
1.000000 0.470643 1.000000
1.000000 0.000000 1.000000
0.682103 0.187582 0.136887
1.000000 0.538740 0.981789
1.000000 0.768644 1.000000
1.000000 0.757401 1.000000
1.000000 0.000000 1.000000
0.820637 0.556994 0.132646
1.000000 0.928521 1.000000
1.000000 1.000000 1.000000
1.000000 1.000000 1.000000
1.000000 0.000000 1.000000
1.000000 0.799647 0.529889
1.000000 1.000000 1.000000
1.000000 1.000000 1.000000
1.000000 1.000000 1.000000
1.000000 0.075281 1.000000
1.000000 1.000000 1.000000
1.000000 1.000000 1.000000
1.000000 1.000000 1.000000
1.000000 1.000000 1.000000
1.000000 1.000000 1.000000
