lrplugin/MindfulLensFilmEngine.lrplugin/profiles/luts/velvia_pro.cube
# Generated from ColorChecker fit
LUT_3D_SIZE 9
DOMAIN_MIN 0.0 0.0 0.0
DOMAIN_MAX 1.0 1.0 1.0
0.105261 0.043748 0.131484
0.068034 0.037121 0.219000
0.047910 0.019750 0.352271
0.059645 0.030300 0.496713
0.098914 0.071698 0.613064
0.142313 0.111131 0.657391
0.147353 0.080048 0.581089
0.052471 0.000000 0.330875
0.000000 0.000000 0.000000
0.079025 0.217386 0.125201
0.083258 0.226587 0.232923
0.096437 0.224438 0.377853
0.127644 0.243405 0.526303
0.166880 0.280216 0.639907
0.185066 0.295856 0.675628
0.134042 0.215575 0.585757
0.000000 0.000000 0.317908
0.000000 0.000000 0.000000
0.025995 0.354101 0.075238
0.067333 0.383322 0.209546
0.105144 0.395496 0.369873
0.142835 0.416887 0.523425
0.164734 0.438023 0.632733
0.136085 0.413690 0.655658
0.003056 0.262936 0.545384
0.000000 0.000000 0.250425
0.000000 0.000000 0.000000
0.000000 0.466302 0.008475
0.058358 0.520584 0.175895
0.112612 0.547026 0.355500
0.144281 0.565693 0.515393
0.132019 0.560913 0.619002
0.035396 0.481271 0.625083
0.000000 0.239615 0.487717
0.000000 0.000000 0.156314
0.000000 0.000000 0.000000
0.006819 0.562869 0.000000
0.111236 0.648096 0.192447
0.174227 0.689599 0.395356
0.187851 0.701241 0.562973
0.125088 0.661149 0.659623
0.000000 0.511709 0.644958
0.000000 0.159570 0.473955
0.000000 0.000000 0.096920
0.000000 0.000000 0.000000
0.166323 0.649152 0.099342
0.297678 0.772057 0.353135
0.362183 0.830257 0.583518
0.346222 0.831418 0.760387
0.217099 0.747466 0.848962
0.000000 0.514586 0.809792
0.000000 0.033226 0.598751
0.000000 0.000000 0.167040
0.000000 0.000000 0.000000
0.550336 0.726972 0.478002
0.706206 0.895132 0.785345
0.765483 0.972514 1.000000
0.708878 0.960585 1.000000
0.498022 0.825069 1.000000
0.075463 0.495952 1.000000
0.000000 0.000000 0.990213
0.000000 0.000000 0.494927
0.000000 0.000000 0.000000
1.000000 0.794621 1.000000
1.000000 1.000000 1.000000
1.000000 1.000000 1.000000
1.000000 1.000000 1.000000
1.000000 0.895634 1.000000
0.504363 0.458329 1.000000
0.000000 0.000000 1.000000
0.000000 0.000000 1.000000
0.000000 0.000000 0.365113
1.000000 0.846861 1.000000
1.000000 1.000000 1.000000
1.000000 1.000000 1.000000
1.000000 1.000000 1.000000
1.000000 0.957307 1.000000
1.000000 0.400709 1.000000
0.191039 0.000000 1.000000
0.000000 0.000000 1.000000
0.000000 0.000000 1.000000
0.256419 0.109279 0.172741
0.188829 0.066546 0.167339
0.152688 0.021836 0.224939
0.166399 0.015361 0.322261
0.229282 0.051593 0.431349
0.321578 0.099262 0.519578
0.404448 0.091363 0.549647
0.419969 0.000000 0.479582
0.291143 0.000000 0.262736
0.243697 0.284196 0.201953
0.217596 0.256749 0.229440
0.215440 0.228845 0.309265
0.249957 0.234495 0.419042
0.314794 0.271969 0.531716
0.384517 0.303799 0.615555
0.414613 0.256778 0.634155
0.341486 0.021960 0.546438
0.082462 0.000000 0.306652
0.195699 0.413384 0.180028
0.208123 0.408858 0.244701
0.232672 0.400299 0.348404
0.276398 0.415519 0.469650
0.327275 0.446588 0.582278
0.354195 0.449837 0.655453
0.306970 0.345860 0.653667
0.116330 0.019510 0.536738
0.000000 0.000000 0.259811
0.151847 0.514078 0.133926
0.200317 0.540951 0.240226
0.244774 0.555124 0.369607
0.286596 0.578206 0.501478
0.308082 0.596068 0.610572
0.272450 0.558842 0.666953
0.123838 0.380920 0.636009
0.000000 0.000000 0.478453
0.000000 0.000000 0.150327
0.168376 0.599982 0.124062
0.250894 0.667580 0.276575
0.308943 0.708715 0.433577
0.338229 0.738798 0.575372
0.315375 0.737499 0.677591
0.197926 0.648748 0.711193
0.000000 0.380738 0.642462
0.000000 0.000000 0.433008
0.000000 0.000000 0.039769
0.318323 0.681271 0.244305
0.433375 0.799765 0.447762
0.499185 0.872941 0.634472
0.505785 0.910008 0.785635
0.424125 0.884438 0.877781
0.206075 0.733959 0.882762
0.000000 0.360565 0.767759
0.000000 0.000000 0.495281
0.000000 0.000000 0.023160
0.691537 0.764590 0.621978
0.838089 0.944997 0.881253
0.906311 1.000000 1.000000
0.880559 1.000000 1.000000
0.726109 1.000000 1.000000
0.389157 0.825352 1.000000
0.000000 0.332123 1.000000
0.000000 0.000000 0.793604
0.000000 0.000000 0.228975
1.000000 0.853055 1.000000
1.000000 1.000000 1.000000
1.000000 1.000000 1.000000
1.000000 1.000000 1.000000
1.000000 1.000000 1.000000
0.856240 0.930272 1.000000
0.071079 0.303604 1.000000
0.000000 0.000000 1.000000
0.000000 0.000000 0.819146
1.000000 0.946254 1.000000
1.000000 1.000000 1.000000
1.000000 1.000000 1.000000
1.000000 1.000000 1.000000
1.000000 1.000000 1.000000
1.000000 1.000000 1.000000
0.733562 0.279672 1.000000
0.000000 0.000000 1.000000
0.000000 0.000000 1.000000
0.379685 0.148256 0.221710
0.272357 0.065420 0.141379
0.207219 0.000000 0.131971
0.206321 0.000000 0.181512
0.272628 0.000000 0.273353
0.390027 0.000000 0.386175
0.523325 0.000000 0.493984
0.618246 0.000000 0.566111
0.601436 0.000000 0.567215
0.379460 0.327788 0.268569
0.312266 0.256512 0.232708
0.280411 0.190418 0.254990
0.300269 0.165061 0.324335
0.369133 0.180258 0.424994
0.465215 0.200084 0.536541
0.547647 0.152876 0.633879
0.556481 0.000000 0.687236
0.412686 0.000000 0.662167
0.333290 0.450435 0.257276
0.304659 0.401792 0.268100
0.300198 0.356880 0.321642
0.330607 0.345054 0.407722
0.387505 0.359929 0.511483
0.443431 0.359382 0.613399
0.451841 0.265549 0.689266
0.347114 0.000000 0.710211
0.044545 0.000000 0.642684
0.282411 0.538253 0.214872
0.291253 0.524163 0.274739
0.308780 0.507259 0.359259
0.340018 0.510696 0.459145
0.370911 0.521888 0.560440
0.368323 0.492512 0.644511
0.280038 0.338505 0.688053
0.034759 0.000000 0.663087
0.000000 0.000000 0.536960
0.284863 0.609773 0.201854
0.330573 0.643001 0.313267
0.365165 0.661776 0.428623
0.387991 0.683053 0.539533
0.379322 0.688047 0.632936
0.300346 0.622233 0.691094
0.093174 0.395349 0.691599
0.000000 0.000000 0.607369
0.000000 0.000000 0.406646
0.415498 0.679994 0.312169
0.497951 0.774150 0.477776
0.545168 0.837123 0.623973
0.550825 0.879665 0.743269
0.489518 0.876790 0.823498
0.316763 0.767775 0.847819
0.000000 0.456157 0.794721
0.000000 0.000000 0.638016
0.000000 0.000000 0.346844
0.765971 0.760385 0.673223
0.885528 0.929928 0.895814
0.941411 1.000000 1.000000
0.921623 1.000000 1.000000
0.795087 1.000000 1.000000
0.511643 0.944839 1.000000
0.002053 0.537475 1.000000
0.000000 0.000000 0.883440
0.000000 0.000000 0.486112
1.000000 0.858888 1.000000
1.000000 1.000000 1.000000
1.000000 1.000000 1.000000
1.000000 1.000000 1.000000
1.000000 1.000000 1.000000
0.995864 1.000000 1.000000
0.303708 0.652321 1.000000
0.000000 0.000000 1.000000
0.000000 0.000000 0.986460
1.000000 0.979914 1.000000
1.000000 1.000000 1.000000
1.000000 1.000000 1.000000
1.000000 1.000000 1.000000
1.000000 1.000000 1.000000
1.000000 1.000000 1.000000
1.000000 0.810182 1.000000
0.000000 0.000000 1.000000
0.000000 0.000000 1.000000
0.495972 0.184350 0.259538
0.352268 0.070568 0.130635
0.257890 0.000000 0.071252
0.238532 0.000000 0.080721
0.300809 0.000000 0.153700
0.432252 0.000000 0.280176
0.601313 0.000000 0.445460
0.757364 0.000000 0.630191
0.830696 0.000000 0.810335
0.512458 0.376124 0.312901
0.406148 0.266990 0.238949
0.342966 0.163426 0.219620
0.342932 0.102529 0.255142
0.406984 0.085662 0.341069
0.516981 0.078445 0.468285
0.635701 0.010759 0.622997
0.706842 0.000000 0.786740
0.655018 0.000000 0.936376
0.470146 0.497502 0.301540
0.401051 0.407529 0.282671
0.364568 0.323798 0.300885
0.375043 0.277207 0.357305
0.427740 0.262916 0.448385
0.498844 0.240346 0.565901
0.545458 0.133179 0.696958
0.505605 0.000000 0.823988
0.298228 0.000000 0.924747
0.412081 0.575367 0.252578
0.380504 0.519914 0.289068
0.366706 0.466281 0.342457
0.379358 0.439167 0.414767
0.408052 0.427530 0.503345
0.423297 0.384593 0.600865
0.376523 0.227837 0.695329
0.200078 0.000000 0.770064
0.000000 0.000000 0.803724
0.398115 0.633073 0.226592
0.404841 0.628344 0.318860
0.410197 0.615921 0.405201
0.417178 0.614301 0.488534
0.409703 0.606244 0.567103
0.352606 0.538770 0.634477
0.191643 0.323160 0.679554
0.000000 0.000000 0.686557
0.000000 0.000000 0.635037
0.504910 0.690442 0.317610
0.551207 0.753490 0.466220
0.572666 0.794233 0.583436
0.566610 0.824972 0.673071
0.511282 0.822264 0.734265
0.365844 0.726929 0.761486
0.070375 0.444050 0.744526
0.000000 0.000000 0.668504
0.000000 0.000000 0.513869
0.825931 0.763770 0.653117
0.913550 0.912491 0.858779
0.948546 1.000000 1.000000
0.922570 1.000000 1.000000
0.808188 1.000000 1.000000
0.558890 0.969597 1.000000
0.109081 0.611877 1.000000
0.000000 0.000000 0.844401
0.000000 0.000000 0.568859
1.000000 0.865822 1.000000
1.000000 1.000000 1.000000
1.000000 1.000000 1.000000
1.000000 1.000000 1.000000
1.000000 1.000000 1.000000
1.000000 1.000000 1.000000
0.420930 0.844482 1.000000
0.000000 0.000000 1.000000
0.000000 0.000000 0.962098
1.000000 1.000000 1.000000
1.000000 1.000000 1.000000
1.000000 1.000000 1.000000
1.000000 1.000000 1.000000
1.000000 1.000000 1.000000
1.000000 1.000000 1.000000
1.000000 1.000000 1.000000
0.000000 0.143853 1.000000
0.000000 0.000000 1.000000
0.603922 0.215169 0.271648
0.439936 0.092755 0.128900
0.328809 0.000000 0.044943
0.299879 0.000000 0.030418
0.363406 0.000000 0.091289
0.510568 0.000000 0.228848
0.713464 0.000000 0.439714
0.925110 0.000000 0.715832
1.000000 0.000000 1.000000
0.646559 0.431102 0.327077
0.515846 0.303238 0.248660
0.432444 0.176076 0.212022
0.420020 0.088261 0.228697
0.483158 0.042698 0.305548
0.607362 0.006553 0.444761
0.759057 0.000000 0.643853
0.885585 0.000000 0.895664
0.915210 0.000000 1.000000
0.615362 0.560777 0.311654
0.519132 0.445415 0.295618
0.460351 0.333551 0.301704
0.457010 0.257630 0.342343
0.508019 0.214355 0.425293
0.593209 0.164693 0.553638
0.673329 0.033869 0.725790
0.690049 0.000000 0.935485
0.565957 0.000000 1.000000
0.555184 0.635901 0.252583
0.495132 0.551839 0.297120
0.458349 0.468979 0.341480
0.457150 0.413562 0.398989
0.484774 0.376094 0.478303
0.515376 0.311339 0.583402
0.504031 0.138323 0.713593
0.386734 0.000000 0.863509
0.080400 0.000000 1.000000
0.527689 0.684650 0.210520
0.505992 0.651535 0.313968
0.489065 0.612229 0.392295
0.483553 0.586774 0.459727
0.477017 0.559476 0.525814
0.437939 0.478900 0.595431
0.315720 0.257869 0.668784
0.040681 0.000000 0.741401
0.000000 0.000000 0.804139
0.611346 0.731675 0.279577
0.630663 0.769997 0.440415
0.631936 0.789642 0.548550
0.616134 0.804454 0.619099
0.565147 0.792536 0.662511
0.441780 0.696254 0.684558
0.189762 0.422232 0.686339
0.000000 0.000000 0.664282
0.000000 0.000000 0.610138
0.901433 0.798094 0.587316
0.964906 0.929189 0.804172
0.983203 1.000000 0.938096
0.951621 1.000000 1.000000
0.846372 1.000000 1.000000
0.624590 0.988750 0.979067
0.224329 0.657605 0.894689
0.000000 0.000000 0.760725
0.000000 0.000000 0.569825
1.000000 0.901498 1.000000
1.000000 1.000000 1.000000
1.000000 1.000000 1.000000
1.000000 1.000000 1.000000
1.000000 1.000000 1.000000
1.000000 1.000000 1.000000
0.534402 0.986657 1.000000
0.000000 0.185997 1.000000
0.000000 0.000000 0.845373
1.000000 1.000000 1.000000
1.000000 1.000000 1.000000
1.000000 1.000000 1.000000
1.000000 1.000000 1.000000
1.000000 1.000000 1.000000
1.000000 1.000000 1.000000
1.000000 1.000000 1.000000
0.118160 0.506249 1.000000
0.000000 0.000000 1.000000
0.679894 0.212260 0.247737
0.524460 0.116681 0.134238
0.421809 0.001673 0.059480
0.404929 0.000000 0.045408
0.487722 0.000000 0.109294
0.665015 0.000000 0.263735
0.912551 0.000000 0.516658
1.000000 0.000000 0.871312
1.000000 0.000000 1.000000
0.763356 0.468560 0.307500
0.635687 0.354246 0.266612
0.555908 0.230516 0.245336
0.551331 0.137559 0.266512
0.630187 0.079823 0.348308
0.781625 0.026019 0.504218
0.975717 0.000000 0.743064
1.000000 0.000000 1.000000
1.000000 0.000000 1.000000
0.755760 0.620387 0.290726
0.658460 0.508730 0.318417
0.599839 0.392577 0.343945
0.601534 0.305915 0.391049
0.666104 0.246993 0.478792
0.777023 0.178322 0.621565
0.898688 0.026672 0.829085
0.976414 0.000000 1.000000
0.936434 0.000000 1.000000
0.703772 0.704271 0.224700
0.639925 0.617511 0.317079
0.601230 0.526079 0.382879
0.603651 0.457764 0.446734
0.644069 0.404614 0.528606
0.700286 0.322940 0.643780
0.731025 0.133311 0.802871
0.675926 0.000000 1.000000
0.455549 0.000000 1.000000
0.670863 0.753215 0.170159
0.644039 0.714436 0.323479
0.624522 0.665717 0.423163
0.622601 0.628646 0.494739
0.629484 0.589072 0.559065
0.617300 0.497104 0.632323
0.539096 0.267113 0.726025
0.328839 0.000000 0.847005
0.000000 0.000000 0.997426
0.737315 0.796693 0.221294
0.751564 0.829825 0.431955
0.750958 0.842656 0.559277
0.740112 0.850573 0.629686
0.704561 0.833225 0.664936
0.610758 0.734520 0.682106
0.406076 0.462629 0.693602
0.018809 0.000000 0.707157
0.000000 0.000000 0.725829
1.000000 0.860647 0.505751
1.000000 0.990468 0.770294
1.000000 1.000000 0.919154
1.000000 1.000000 0.979654
0.968317 1.000000 0.974442
0.780160 1.000000 0.921495
0.431949 0.750878 0.834114
0.000000 0.089184 0.720929
0.000000 0.000000 0.585894
1.000000 0.967494 1.000000
1.000000 1.000000 1.000000
1.000000 1.000000 1.000000
1.000000 1.000000 1.000000
1.000000 1.000000 1.000000
1.000000 1.000000 1.000000
0.733505 1.000000 1.000000
0.000000 0.403671 1.000000
0.000000 0.000000 0.739875
1.000000 1.000000 1.000000
1.000000 1.000000 1.000000
1.000000 1.000000 1.000000
1.000000 1.000000 1.000000
1.000000 1.000000 1.000000
1.000000 1.000000 1.000000
1.000000 1.000000 1.000000
0.399761 0.858250 1.000000
0.000000 0.000000 1.000000
0.677975 0.121109 0.181776
0.572659 0.100987 0.148991
0.516448 0.043941 0.125571
0.545972 0.000000 0.144769
0.678785 0.000000 0.235162
0.913355 0.000000 0.420655
1.000000 0.000000 0.720478
1.000000 0.000000 1.000000
1.000000 0.000000 1.000000
0.822163 0.438274 0.254846
0.737721 0.382947 0.301852
0.698143 0.302831 0.336978
0.734386 0.239661 0.394370
0.858328 0.199430 0.503503
1.000000 0.152393 0.689178
1.000000 0.033066 0.971522
1.000000 0.000000 1.000000
1.000000 0.000000 1.000000
0.855885 0.630397 0.246138
0.796312 0.564697 0.366820
0.773045 0.481251 0.451730
0.811367 0.415592 0.535914
0.917481 0.367515 0.649742
1.000000 0.301074 0.818910
1.000000 0.144584 1.000000
1.000000 0.000000 1.000000
1.000000 0.000000 1.000000
0.827616 0.738835 0.183017
0.797390 0.688440 0.371401
0.790595 0.622248 0.497480
0.826839 0.569593 0.597197
0.906651 0.524067 0.701818
1.000000 0.443525 0.837935
1.000000 0.250082 1.000000
1.000000 0.000000 1.000000
1.000000 0.000000 1.000000
0.802641 0.801413 0.126302
0.806721 0.792848 0.376558
0.817039 0.765342 0.535335
0.847531 0.742027 0.639470
0.893050 0.710296 0.721126
0.929372 0.621804 0.807793
0.913188 0.392465 0.922285
0.782112 0.000000 1.000000
0.454675 0.000000 1.000000
0.863050 0.852431 0.170262
0.906878 0.913067 0.476707
0.935435 0.946522 0.659854
0.956982 0.969731 0.757438
0.960700 0.963885 0.802517
0.916688 0.874439 0.823476
0.775965 0.611106 0.844029
0.470469 0.047863 0.883213
0.000000 0.000000 0.955395
1.000000 0.922656 0.442626
1.000000 1.000000 0.799718
1.000000 1.000000 0.999053
1.000000 1.000000 1.000000
1.000000 1.000000 1.000000
1.000000 1.000000 1.000000
0.793816 0.941849 0.921291
0.293924 0.303028 0.817801
0.000000 0.000000 0.718225
1.000000 1.000000 1.000000
1.000000 1.000000 1.000000
1.000000 1.000000 1.000000
1.000000 1.000000 1.000000
1.000000 1.000000 1.000000
1.000000 1.000000 1.000000
1.000000 1.000000 1.000000
0.371559 0.701112 1.000000
0.000000 0.000000 0.753470
1.000000 1.000000 1.000000
1.000000 1.000000 1.000000
1.000000 1.000000 1.000000
1.000000 1.000000 1.000000
1.000000 1.000000 1.000000
1.000000 1.000000 1.000000
1.000000 1.000000 1.000000
0.839265 1.000000 1.000000
0.000000 0.000000 1.000000
0.529973 0.000000 0.072011
0.529078 0.000000 0.179774
0.570002 0.035692 0.258203
0.693025 0.082937 0.351856
0.919343 0.133727 0.500618
1.000000 0.166061 0.739699
1.000000 0.122199 1.000000
1.000000 0.000000 1.000000
1.000000 0.000000 1.000000
0.760017 0.263959 0.174067
0.771721 0.326209 0.367701
0.821657 0.343046 0.508638
0.944429 0.357748 0.642332
1.000000 0.377853 0.809563
1.000000 0.375162 1.000000
1.000000 0.285735 1.000000
1.000000 0.009891 1.000000
1.000000 0.000000 1.000000
0.858002 0.518814 0.189548
0.887693 0.554474 0.460853
0.947709 0.553887 0.653455
1.000000 0.554132 0.813704
1.000000 0.556545 0.983276
1.000000 0.526727 1.000000
1.000000 0.394536 1.000000
1.000000 0.054095 1.000000
1.000000 0.000000 1.000000
0.874215 0.671888 0.145898
0.927760 0.710076 0.486818
0.999409 0.716091 0.720386
1.000000 0.720808 0.893849
1.000000 0.719366 1.000000
1.000000 0.671164 1.000000
1.000000 0.499862 1.000000
1.000000 0.093380 1.000000
1.000000 0.000000 1.000000
0.875750 0.765832 0.104016
0.959500 0.836513 0.506640
1.000000 0.873999 0.770620
1.000000 0.902966 0.944098
1.000000 0.912353 1.000000
1.000000 0.855358 1.000000
1.000000 0.649439 1.000000
1.000000 0.176319 1.000000
1.000000 0.000000 1.000000
0.946505 0.839767 0.158255
1.000000 0.973752 0.614815
1.000000 1.000000 0.898796
1.000000 1.000000 1.000000
1.000000 1.000000 1.000000
1.000000 1.000000 1.000000
1.000000 0.887467 1.000000
1.000000 0.347957 1.000000
0.703792 0.000000 1.000000
1.000000 0.929288 0.436421
1.000000 1.000000 0.939293
1.000000 1.000000 1.000000
1.000000 1.000000 1.000000
1.000000 1.000000 1.000000
1.000000 1.000000 1.000000
1.000000 1.000000 1.000000
0.959757 0.649808 1.000000
0.276710 0.000000 1.000000
1.000000 1.000000 1.000000
1.000000 1.000000 1.000000
1.000000 1.000000 1.000000
1.000000 1.000000 1.000000
1.000000 1.000000 1.000000
1.000000 1.000000 1.000000
1.000000 1.000000 1.000000
1.000000 1.000000 1.000000
0.078585 0.000000 0.998294
1.000000 1.000000 1.000000
1.000000 1.000000 1.000000
1.000000 1.000000 1.000000
1.000000 1.000000 1.000000
1.000000 1.000000 1.000000
1.000000 1.000000 1.000000
1.000000 1.000000 1.000000
1.000000 1.000000 1.000000
0.247603 0.438793 1.000000
0.145419 0.000000 0.000000
0.315982 0.000000 0.237476
0.517476 0.000000 0.476633
0.793824 0.101551 0.694297
1.000000 0.285136 0.941658
1.000000 0.426898 1.000000
1.000000 0.470643 1.000000
1.000000 0.324435 1.000000
1.000000 0.000000 1.000000
0.491679 0.000000 0.074390
0.665183 0.094840 0.481754
0.866682 0.275122 0.786280
1.000000 0.428936 1.000000
1.000000 0.565365 1.000000
1.000000 0.657753 1.000000
1.000000 0.643706 1.000000
1.000000 0.425088 1.000000
1.000000 0.000000 1.000000
0.682103 0.187582 0.136887
0.865326 0.393161 0.624818
1.000000 0.538740 0.981789
1.000000 0.662940 1.000000
1.000000 0.768644 1.000000
1.000000 0.822997 1.000000
1.000000 0.757401 1.000000
1.000000 0.467524 1.000000
1.000000 0.000000 1.000000
0.768788 0.409665 0.135979
0.968990 0.601810 0.694338
1.000000 0.740150 1.000000
1.000000 0.857108 1.000000
1.000000 0.949364 1.000000
1.000000 0.977864 1.000000
1.000000 0.867811 1.000000
1.000000 0.508671 1.000000
1.000000 0.000000 1.000000
0.820637 0.556994 0.132646
1.000000 0.769109 0.751439
1.000000 0.928521 1.000000
1.000000 1.000000 1.000000
1.000000 1.000000 1.000000
1.000000 1.000000 1.000000
1.000000 1.000000 1.000000
1.000000 0.601926 1.000000
1.000000 0.000000 1.000000
0.923361 0.673516 0.221320
1.000000 0.939850 0.890696
1.000000 1.000000 1.000000
1.000000 1.000000 1.000000
1.000000 1.000000 1.000000
1.000000 1.000000 1.000000
1.000000 1.000000 1.000000
1.000000 0.797160 1.000000
1.000000 0.000000 1.000000
1.000000 0.799647 0.529889
1.000000 1.000000 1.000000
1.000000 1.000000 1.000000
1.000000 1.000000 1.000000
1.000000 1.000000 1.000000
1.000000 1.000000 1.000000
1.000000 1.000000 1.000000
1.000000 1.000000 1.000000
1.000000 0.075281 1.000000
1.000000 0.972278 1.000000
1.000000 1.000000 1.000000
1.000000 1.000000 1.000000
1.000000 1.000000 1.000000
1.000000 1.000000 1.000000
1.000000 1.000000 1.000000
1.000000 1.000000 1.000000
1.000000 1.000000 1.000000
1.000000 0.505764 1.000000
1.000000 1.000000 1.000000
1.000000 1.000000 1.000000
1.000000 1.000000 1.000000
1.000000 1.000000 1.000000
1.000000 1.000000 1.000000
1.000000 1.000000 1.000000
1.000000 1.000000 1.000000
1.000000 1.000000 1.000000
1.000000 1.000000 1.000000
