lrplugin/MindfulLensFilmEngine.lrplugin/profiles/luts/veniliqum.cube
# Generated from ColorChecker fit
LUT_3D_SIZE 33
DOMAIN_MIN 0.0 0.0 0.0
DOMAIN_MAX 1.0 1.0 1.0
0.175531 0.061470 0.154956
0.000000 0.058612 0.196557
0.000000 0.051890 0.232656
0.000000 0.042869 0.265499
0.000000 0.033033 0.297188
0.000000 0.023785 0.329674
0.000000 0.016447 0.364767
0.000000 0.012261 0.404126
0.000000 0.012387 0.449267
0.000000 0.017906 0.501558
0.000000 0.029817 0.562221
0.000000 0.049038 0.632333
0.000000 0.076409 0.712823
0.000000 0.112685 0.804474
0.000000 0.158542 0.907924
0.000000 0.214578 1.000000
0.000000 0.281306 1.000000
0.000000 0.359161 1.000000
0.000000 0.448495 1.000000
0.000000 0.549582 1.000000
0.000000 0.662614 1.000000
0.000000 0.787702 1.000000
0.000000 0.924875 1.000000
0.000000 1.000000 1.000000
0.000000 1.000000 1.000000
0.000000 1.000000 1.000000
0.000000 1.000000 1.000000
0.000000 1.000000 1.000000
0.042311 1.000000 1.000000
0.366325 1.000000 1.000000
0.735830 1.000000 1.000000
1.000000 1.000000 1.000000
1.000000 1.000000 1.000000
0.354990 0.106802 0.133465
0.145658 0.103046 0.170664
0.000000 0.095163 0.202153
0.000000 0.084662 0.230094
0.000000 0.072973 0.256503
0.000000 0.061444 0.283248
0.000000 0.051342 0.312054
0.000000 0.043854 0.344497
0.000000 0.040086 0.382008
0.000000 0.041063 0.425870
0.000000 0.047730 0.477222
0.000000 0.060950 0.537056
0.000000 0.081506 0.606216
0.000000 0.110100 0.685402
0.000000 0.147355 0.775166
0.000000 0.193810 0.875916
0.000000 0.249926 0.987911
0.000000 0.316082 1.000000
0.000000 0.392577 1.000000
0.000000 0.479627 1.000000
0.000000 0.577371 1.000000
0.000000 0.685864 1.000000
0.000000 0.805082 1.000000
0.000000 0.934919 1.000000
0.000000 1.000000 1.000000
0.000000 1.000000 1.000000
0.000000 1.000000 1.000000
0.105660 1.000000 1.000000
0.362038 1.000000 1.000000
0.656823 1.000000 1.000000
0.993753 1.000000 1.000000
1.000000 1.000000 1.000000
1.000000 1.000000 1.000000
0.493476 0.153777 0.121598
0.307369 0.149572 0.155070
0.145226 0.140998 0.182684
0.004469 0.129510 0.206518
0.000000 0.116482 0.228503
0.000000 0.103208 0.250423
0.000000 0.090899 0.273919
0.000000 0.080688 0.300482
0.000000 0.073626 0.331459
0.000000 0.070682 0.368050
0.000000 0.072748 0.411307
0.000000 0.080631 0.462140
0.000000 0.095059 0.521308
0.000000 0.116681 0.589427
0.000000 0.146062 0.666965
0.000000 0.183688 0.754244
0.000000 0.229965 0.851440
0.000000 0.285217 0.958583
0.000000 0.349687 1.000000
0.000000 0.423538 1.000000
0.000000 0.506853 1.000000
0.000000 0.599632 1.000000
0.000000 0.701797 1.000000
0.000000 0.813187 1.000000
0.000000 0.933562 1.000000
0.009945 1.000000 1.000000
0.178751 1.000000 1.000000
0.376129 1.000000 1.000000
0.605258 1.000000 1.000000
0.869547 1.000000 1.000000
1.000000 1.000000 1.000000
1.000000 1.000000 1.000000
1.000000 1.000000 1.000000
0.591474 0.201664 0.118080
0.427310 0.197451 0.148453
0.286521 0.188649 0.172880
0.166427 0.176658 0.193354
0.064581 0.162797 0.211722
0.000000 0.148304 0.229686
0.000000 0.134337 0.248800
0.000000 0.121974 0.270472
0.000000 0.112209 0.295964
0.000000 0.105959 0.326392
0.000000 0.104059 0.362725
0.000000 0.107262 0.405786
0.000000 0.116241 0.456253
0.000000 0.131589 0.514654
0.000000 0.153818 0.581376
0.000000 0.183359 0.656655
0.000000 0.220562 0.740584
0.000000 0.265695 0.833107
0.000000 0.318949 0.934023
0.000000 0.380431 1.000000
0.000000 0.450168 1.000000
0.000000 0.528107 1.000000
0.000000 0.614113 1.000000
0.025573 0.707971 1.000000
0.129329 0.809386 1.000000
0.253137 0.917982 1.000000
0.399617 1.000000 1.000000
0.571620 1.000000 1.000000
0.772227 1.000000 1.000000
1.000000 1.000000 1.000000
1.000000 1.000000 1.000000
1.000000 1.000000 1.000000
1.000000 1.000000 1.000000
0.650335 0.249713 0.121630
0.506825 0.245925 0.149483
0.386099 0.237350 0.171362
0.285379 0.225331 0.189176
0.202121 0.211135 0.204689
0.134006 0.195943 0.219516
0.078950 0.180859 0.235129
0.035096 0.166905 0.252851
0.000820 0.155023 0.273860
0.000000 0.146072 0.299186
0.000000 0.140833 0.329716
0.000000 0.140004 0.366188
0.000000 0.144205 0.409195
0.000000 0.153972 0.459182
0.000000 0.169763 0.516450
0.000000 0.191953 0.581153
0.000000 0.220838 0.653297
0.000000 0.256632 0.732743
0.000000 0.299469 0.819207
0.021765 0.349403 0.912257
0.059527 0.406405 1.000000
0.106705 0.470368 1.000000
0.164900 0.541102 1.000000
0.235942 0.618336 1.000000
0.321893 0.701722 1.000000
0.425045 0.790826 1.000000
0.547917 0.885137 1.000000
0.693264 0.984063 1.000000
0.864067 1.000000 1.000000
1.000000 1.000000 1.000000
1.000000 1.000000 1.000000
1.000000 1.000000 1.000000
1.000000 1.000000 1.000000
0.672270 0.297157 0.130958
0.548116 0.294220 0.156823
0.446156 0.286317 0.176746
0.363515 0.274739 0.192553
0.297547 0.260697 0.205923
0.245838 0.245317 0.218387
0.206204 0.229649 0.231332
0.176691 0.214660 0.245997
0.155576 0.201235 0.263476
0.141365 0.190181 0.284715
0.132796 0.182222 0.310517
0.128837 0.178003 0.341534
0.128686 0.178087 0.378275
0.131771 0.182957 0.421103
0.137752 0.193015 0.470232
0.146517 0.208582 0.525733
0.158186 0.229897 0.587528
0.173110 0.257122 0.655394
0.191868 0.290335 0.728962
0.215271 0.329534 0.807715
0.244361 0.374637 0.890991
0.280409 0.425480 0.977983
0.324917 0.481819 1.000000
0.379618 0.543330 1.000000
0.446474 0.609607 1.000000
0.527677 0.680163 1.000000
0.625652 0.754433 1.000000
0.743053 0.831767 1.000000
0.882763 0.911437 1.000000
1.000000 0.992634 1.000000
1.000000 1.000000 1.000000
1.000000 1.000000 1.000000
1.000000 1.000000 1.000000
0.660357 0.343212 0.144771
0.554254 0.341541 0.169131
0.469754 0.334749 0.187643
0.403885 0.324073 0.202048
0.353904 0.310666 0.213939
0.317296 0.295602 0.224765
0.291780 0.279874 0.235828
0.275303 0.264395 0.248282
0.266045 0.249996 0.263137
0.262413 0.237428 0.281255
0.263046 0.227361 0.303354
0.266814 0.220384 0.330003
0.272817 0.217006 0.361626
0.280385 0.217655 0.398501
0.289078 0.222677 0.440760
0.298687 0.232339 0.488387
0.309235 0.246827 0.541221
0.320971 0.266244 0.598955
0.334379 0.290617 0.661134
0.350171 0.319886 0.727159
0.369289 0.353916 0.796283
0.392908 0.392488 0.867614
0.422429 0.435304 0.940112
0.459489 0.481982 1.000000
0.505950 0.532064 1.000000
0.563908 0.585007 1.000000
0.635687 0.640191 1.000000
0.723843 0.696911 1.000000
0.831163 0.754386 1.000000
0.960662 0.811750 1.000000
1.000000 0.868059 1.000000
1.000000 0.922287 1.000000
1.000000 0.973328 1.000000
0.618534 0.387074 0.161766
0.529168 0.387078 0.185059
0.460816 0.381828 0.202657
0.410406 0.372504 0.216216
0.375097 0.360206 0.227247
0.352278 0.345953 0.237112
0.339568 0.330683 0.247029
0.334816 0.315252 0.258070
0.336102 0.300439 0.271160
0.341737 0.286939 0.287076
0.350261 0.275366 0.306451
0.360446 0.266256 0.329770
0.371292 0.260062 0.357375
0.382032 0.257157 0.389457
0.392128 0.257833 0.426065
0.401272 0.262302 0.467098
0.409388 0.270693 0.512311
0.416628 0.283058 0.561313
0.423377 0.299365 0.613565
0.430249 0.319503 0.668383
0.438087 0.343279 0.724936
0.447968 0.370421 0.782247
0.461196 0.400574 0.839193
0.479307 0.433304 0.894505
0.504067 0.468096 0.946766
0.537472 0.504353 0.994414
0.581749 0.541399 1.000000
0.639355 0.578477 1.000000
0.712978 0.614747 1.000000
0.805536 0.649291 1.000000
0.920177 0.681109 1.000000
1.000000 0.709121 1.000000
1.000000 0.732165 1.000000
0.551606 0.427921 0.180637
0.477654 0.430002 0.203251
0.424128 0.426716 0.220384
0.387856 0.419189 0.233607
0.365899 0.408465 0.244346
0.355547 0.395510 0.253880
0.354322 0.381205 0.263343
0.359975 0.366354 0.273722
0.370486 0.351678 0.285856
0.384068 0.337819 0.300440
0.399164 0.325336 0.318022
0.414446 0.314709 0.339004
0.428817 0.306337 0.363642
0.441410 0.300538 0.392043
0.451591 0.297550 0.424171
0.458952 0.297528 0.459843
0.463319 0.300548 0.498728
0.464746 0.306606 0.540350
0.463519 0.315616 0.584088
0.460153 0.327411 0.629172
0.455396 0.341744 0.674688
0.450223 0.358288 0.719574
0.445841 0.376633 0.762622
0.443688 0.396290 0.802479
0.445431 0.416689 0.837644
0.452969 0.437179 0.866472
0.468429 0.457028 0.887169
0.494171 0.475424 0.897796
0.532784 0.491473 0.896269
0.587087 0.504203 0.880354
0.660130 0.512557 0.847676
0.755195 0.515401 0.795708
0.875790 0.511518 0.721782
0.465239 0.464917 0.200069
0.405371 0.469466 0.222346
0.365340 0.468558 0.239415
0.341877 0.463263 0.252763
0.331942 0.454572 0.263733
0.332730 0.443393 0.273519
0.341661 0.430555 0.283169
0.356389 0.416805 0.293588
0.374797 0.402810 0.305530
0.394999 0.389157 0.319605
0.415339 0.376351 0.336279
0.434391 0.364816 0.355866
0.450960 0.354896 0.378540
0.464081 0.346855 0.404325
0.473019 0.340875 0.433098
0.477271 0.337057 0.464593
0.476563 0.335423 0.498395
0.470852 0.335912 0.533944
0.460324 0.338384 0.570532
0.445397 0.342618 0.607309
0.426719 0.348311 0.643272
0.405168 0.355081 0.677279
0.381853 0.362464 0.708035
0.358112 0.369915 0.734105
0.335515 0.376811 0.753901
0.315862 0.382444 0.765696
0.301183 0.386029 0.767610
0.293738 0.386697 0.757621
0.296019 0.383501 0.733559
0.310745 0.375413 0.693109
0.340870 0.361322 0.633807
0.389575 0.340038 0.553046
0.460272 0.310290 0.448071
0.365963 0.497202 0.218742
0.318841 0.504605 0.240975
0.290968 0.506481 0.258334
0.278975 0.503847 0.272222
0.279726 0.497637 0.283896
0.290315 0.488705 0.294468
0.308065 0.477826 0.304901
0.330533 0.465692 0.316014
0.355502 0.452914 0.328480
0.380987 0.440024 0.342822
0.405236 0.427474 0.359422
0.426722 0.415631 0.378512
0.444154 0.404786 0.400179
0.456467 0.395146 0.424362
0.462830 0.386839 0.450858
0.462638 0.379913 0.479313
0.455522 0.374332 0.509229
0.441338 0.369982 0.539961
0.420176 0.366668 0.570719
0.392355 0.364113 0.600565
0.358423 0.361961 0.628416
0.319162 0.359774 0.653041
0.275581 0.357033 0.673065
0.228922 0.353138 0.686965
0.180654 0.347411 0.693072
0.132479 0.339091 0.689572
0.086329 0.327335 0.674504
0.044367 0.311222 0.645758
0.008985 0.289748 0.601083
0.000000 0.261831 0.538076
0.000000 0.226305 0.454193
0.000000 0.181926 0.346740
0.000000 0.127367 0.212878
0.261171 0.523904 0.235329
0.225449 0.534537 0.257764
0.208387 0.539595 0.275719
0.206519 0.540041 0.290513
0.216609 0.536753 0.303319
0.235655 0.530532 0.315163
0.260880 0.522097 0.326926
0.289742 0.512083 0.339342
0.319928 0.501050 0.352998
0.349353 0.489474 0.368335
0.376166 0.477749 0.385650
0.398744 0.466191 0.405089
0.415695 0.455034 0.426658
0.425858 0.444431 0.450210
0.428301 0.434456 0.475456
0.422325 0.425099 0.501961
0.407457 0.416272 0.529140
0.383460 0.407805 0.556266
0.350322 0.399448 0.582463
0.308265 0.390871 0.606709
0.257740 0.381660 0.627837
0.199428 0.371323 0.644532
0.134242 0.359288 0.655334
0.063322 0.344899 0.658637
0.000000 0.327423 0.652687
0.000000 0.306043 0.635584
0.000000 0.279863 0.605284
0.000000 0.247906 0.559595
0.000000 0.209114 0.496178
0.000000 0.162349 0.412549
0.000000 0.106391 0.306077
0.000000 0.039940 0.173985
0.000000 0.000000 0.013349
0.159121 0.544129 0.248497
0.133445 0.558360 0.271332
0.125839 0.566991 0.290142
0.132742 0.570928 0.306160
0.150818 0.570997 0.320477
0.176966 0.567941 0.334033
0.208314 0.562425 0.347625
0.242218 0.555032 0.361902
0.276267 0.546263 0.377369
0.308279 0.536540 0.394381
0.336305 0.526204 0.413151
0.358622 0.515515 0.433742
0.373742 0.504653 0.456072
0.380403 0.493714 0.479914
0.377577 0.482719 0.504893
0.364465 0.471602 0.530488
0.340497 0.460221 0.556034
0.305336 0.448352 0.580715
0.258873 0.435688 0.603573
0.201231 0.421844 0.623502
0.132763 0.406353 0.639250
0.054052 0.388668 0.649418
0.000000 0.368160 0.652462
0.000000 0.344120 0.646690
0.000000 0.315759 0.630266
0.000000 0.282206 0.601206
0.000000 0.242510 0.557379
0.000000 0.195639 0.496511
0.000000 0.140480 0.416177
0.000000 0.075840 0.313810
0.000000 0.000444 0.186695
0.000000 0.000000 0.031969
0.000000 0.000000 0.000000
0.068934 0.556968 0.256906
0.051940 0.575158 0.280292
0.052429 0.587743 0.300167
0.066740 0.595575 0.317681
0.091440 0.599425 0.333839
0.123330 0.599981 0.349499
0.159437 0.597853 0.365371
0.197022 0.593569 0.382023
0.233574 0.587576 0.399872
0.266814 0.580240 0.419192
0.294692 0.571848 0.440110
0.315389 0.562604 0.462604
0.327318 0.552634 0.486510
0.329118 0.541980 0.511515
0.319664 0.530605 0.537160
0.298057 0.518392 0.562841
0.263630 0.505141 0.587806
0.215947 0.490574 0.611157
0.154802 0.474331 0.631851
0.080218 0.455969 0.648698
0.000000 0.434969 0.660361
0.000000 0.410727 0.665358
0.000000 0.382560 0.662059
0.000000 0.349705 0.648690
0.000000 0.311316 0.623328
0.000000 0.266469 0.583906
0.000000 0.214157 0.528210
0.000000 0.153294 0.453878
0.000000 0.082711 0.358406
0.000000 0.001161 0.239138
0.000000 0.000000 0.093277
0.000000 0.000000 0.000000
0.000000 0.000000 0.000000
0.000593 0.561491 0.259211
0.000000 0.583992 0.283251
0.000000 0.600906 0.304354
0.018472 0.613029 0.323587
0.048427 0.621077 0.341870
0.084688 0.625684 0.359976
0.124186 0.627404 0.378534
0.164083 0.626711 0.398024
0.201769 0.623997 0.418781
0.234868 0.619574 0.440993
0.261230 0.613672 0.464703
0.278939 0.606442 0.489807
0.286309 0.597953 0.516054
0.281882 0.588194 0.543048
0.264432 0.577074 0.570245
0.232964 0.564418 0.596957
0.186712 0.549974 0.622349
0.125141 0.533408 0.645437
0.047947 0.514304 0.665094
0.000000 0.492166 0.680046
0.000000 0.466419 0.688872
0.000000 0.436404 0.690005
0.000000 0.401384 0.681732
0.000000 0.360541 0.662192
0.000000 0.312973 0.629381
0.000000 0.257702 0.581147
0.000000 0.193667 0.515189
0.000000 0.119724 0.429065
0.000000 0.034653 0.320182
0.000000 0.000000 0.185805
0.000000 0.000000 0.023047
0.000000 0.000000 0.000000
0.000000 0.000000 0.000000
0.000000 0.556753 0.254059
0.000000 0.583909 0.278807
0.000000 0.605517 0.301254
0.000000 0.622319 0.322381
0.032593 0.634974 0.343025
0.071848 0.644062 0.363875
0.113359 0.650083 0.385474
0.154190 0.653455 0.408219
0.191634 0.654516 0.432360
0.223214 0.653521 0.458002
0.246685 0.650648 0.485102
0.260030 0.645992 0.513473
0.261465 0.639567 0.542779
0.249434 0.631307 0.572540
0.222614 0.621066 0.602128
0.179910 0.608614 0.630770
0.120458 0.593645 0.657546
0.043625 0.575769 0.681391
0.000000 0.554516 0.701091
0.000000 0.529335 0.715287
0.000000 0.499595 0.722476
0.000000 0.464584 0.721005
0.000000 0.423508 0.709078
0.000000 0.375495 0.684749
0.000000 0.319590 0.645930
0.000000 0.254758 0.590384
0.000000 0.179882 0.515727
0.000000 0.093767 0.419431
0.000000 0.000000 0.298821
0.000000 0.000000 0.151074
0.000000 0.000000 0.000000
0.000000 0.000000 0.000000
0.000000 0.000000 0.000000
0.000000 0.541789 0.240091
0.000000 0.573937 0.265555
0.000000 0.600598 0.289413
0.019297 0.622457 0.312563
0.055617 0.640120 0.335756
0.096480 0.654112 0.359598
0.138619 0.664878 0.384547
0.178999 0.672781 0.410916
0.214815 0.678103 0.438871
0.243492 0.681047 0.468431
0.262686 0.681734 0.499472
0.270283 0.680203 0.531719
0.264399 0.676416 0.564754
0.243382 0.670250 0.598013
0.205807 0.661504 0.630782
0.150484 0.649895 0.662205
0.076449 0.635061 0.691278
0.000000 0.616557 0.716850
0.000000 0.593857 0.737624
0.000000 0.566358 0.752157
0.000000 0.533372 0.758861
0.000000 0.494132 0.755999
0.000000 0.447791 0.741690
0.000000 0.393420 0.713905
0.000000 0.330010 0.670471
0.000000 0.256470 0.609066
0.000000 0.171631 0.527224
0.000000 0.074239 0.422330
0.000000 0.000000 0.291626
0.000000 0.000000 0.132206
0.000000 0.000000 0.000000
0.000000 0.000000 0.000000
0.000000 0.000000 0.000000
0.039442 0.515618 0.215941
0.043386 0.553086 0.242081
0.062466 0.585148 0.267371
0.092626 0.612436 0.292624
0.130041 0.635501 0.318507
0.171117 0.654812 0.345541
0.212490 0.670759 0.374101
0.251025 0.683650 0.404415
0.283820 0.693714 0.436565
0.308201 0.701096 0.470486
0.321726 0.705865 0.505969
0.322183 0.708004 0.542655
0.307588 0.707420 0.580042
0.276192 0.703935 0.617481
0.226472 0.697294 0.654175
0.157139 0.687159 0.689182
0.067131 0.673111 0.721415
0.000000 0.654652 0.749638
0.000000 0.631202 0.772470
0.000000 0.602101 0.788385
0.000000 0.566607 0.795708
0.000000 0.523898 0.792620
0.000000 0.473073 0.777154
0.000000 0.413147 0.747199
0.000000 0.343056 0.700495
0.000000 0.261656 0.634637
0.000000 0.167720 0.547075
0.000000 0.059943 0.435110
0.000000 0.000000 0.295899
0.000000 0.000000 0.126452
0.000000 0.000000 0.000000
0.000000 0.000000 0.000000
0.000000 0.000000 0.000000
0.175597 0.477240 0.180238
0.181287 0.520348 0.206966
0.201527 0.558154 0.233660
0.232162 0.591234 0.261049
0.269270 0.620084 0.289714
0.309157 0.645120 0.320095
0.348362 0.666676 0.352479
0.383651 0.685006 0.387012
0.412023 0.700282 0.423691
0.430708 0.712597 0.462367
0.437162 0.721961 0.502746
0.429078 0.728307 0.544386
0.404372 0.731483 0.586700
0.361197 0.731259 0.628954
0.297933 0.727323 0.670267
0.213190 0.719283 0.709615
0.105809 0.706666 0.745823
0.000000 0.688918 0.777573
0.000000 0.665404 0.803400
0.000000 0.635410 0.821693
0.000000 0.598139 0.830692
0.000000 0.552714 0.828495
0.000000 0.498177 0.813050
0.000000 0.433491 0.782161
0.000000 0.357537 0.733486
0.000000 0.269114 0.664534
0.000000 0.166942 0.572670
0.000000 0.049660 0.455113
0.000000 0.000000 0.308933
0.000000 0.000000 0.131058
0.000000 0.000000 0.000000
0.000000 0.000000 0.000000
0.000000 0.000000 0.000000
0.396470 0.425636 0.131605
0.402495 0.474696 0.158785
0.422483 0.518579 0.186808
0.452183 0.557807 0.216316
0.487572 0.592821 0.247810
0.524861 0.623980 0.281642
0.560487 0.651565 0.318016
0.591120 0.675774 0.356994
0.613660 0.696726 0.398488
0.625238 0.714457 0.442265
0.623214 0.728925 0.487947
0.605179 0.740004 0.535008
0.568955 0.747490 0.582776
0.512593 0.751098 0.630433
0.434376 0.750460 0.677014
0.332816 0.745130 0.721409
0.206656 0.734580 0.762362
0.054869 0.718200 0.798468
0.000000 0.695302 0.828178
0.000000 0.665115 0.849797
0.000000 0.626788 0.861482
0.000000 0.579390 0.861244
0.000000 0.521909 0.846950
0.000000 0.453250 0.816318
0.000000 0.372240 0.766921
0.000000 0.277625 0.696186
0.000000 0.168068 0.601391
0.000000 0.042155 0.479672
0.000000 0.000000 0.328015
0.000000 0.000000 0.143263
0.000000 0.000000 0.000000
0.000000 0.000000 0.000000
0.000000 0.000000 0.000000
0.717227 0.359772 0.068655
0.722167 0.415088 0.096105
0.740484 0.465374 0.125333
0.767829 0.511096 0.156900
0.800081 0.552642 0.191219
0.833352 0.590315 0.228559
0.863981 0.624341 0.269042
0.888540 0.654864 0.312643
0.903831 0.681946 0.359191
0.906885 0.705571 0.408369
0.894965 0.725639 0.459713
0.865563 0.741972 0.512613
0.816404 0.754310 0.566314
0.745439 0.762312 0.619914
0.650853 0.765558 0.672363
0.531060 0.763543 0.722466
0.384705 0.755687 0.768883
0.210662 0.741326 0.810126
0.008038 0.719714 0.844560
0.000000 0.690027 0.870407
0.000000 0.651359 0.885739
0.000000 0.602724 0.888484
0.000000 0.543054 0.876422
0.000000 0.471202 0.847189
0.000000 0.385937 0.798273
0.000000 0.285952 0.727016
0.000000 0.169854 0.630614
0.000000 0.036175 0.506116
0.000000 0.000000 0.350426
0.000000 0.000000 0.160301
0.000000 0.000000 0.000000
0.000000 0.000000 0.000000
0.000000 0.000000 0.000000
1.000000 0.278593 0.000000
1.000000 0.340461 0.017488
1.000000 0.397467 0.047751
1.000000 0.450024 0.081265
1.000000 0.498462 0.118360
1.000000 0.543031 0.159219
1.000000 0.583902 0.203880
1.000000 0.621164 0.252235
1.000000 0.654824 0.304027
1.000000 0.684810 0.358856
1.000000 0.710970 0.416174
1.000000 0.733069 0.475286
1.000000 0.750792 0.535352
1.000000 0.763744 0.595387
0.963277 0.771448 0.654255
0.823828 0.773348 0.710680
0.655855 0.768806 0.763234
0.458133 0.757104 0.810346
0.229671 0.737442 0.850299
0.000000 0.708939 0.881227
0.000000 0.670637 0.901119
0.000000 0.621492 0.907820
0.000000 0.560384 0.899026
0.000000 0.486108 0.872286
0.000000 0.397381 0.825006
0.000000 0.292839 0.754443
0.000000 0.171037 0.657709
0.000000 0.030448 0.531768
0.000000 0.000000 0.373440
0.000000 0.000000 0.179398
0.000000 0.000000 0.000000
0.000000 0.000000 0.000000
0.000000 0.000000 0.000000
1.000000 0.181028 0.000000
1.000000 0.249736 0.000000
1.000000 0.313773 0.000000
1.000000 0.373494 0.000000
1.000000 0.429177 0.027643
1.000000 0.481017 0.071984
1.000000 0.529128 0.120847
1.000000 0.573546 0.174038
1.000000 0.614223 0.231218
1.000000 0.651033 0.291902
1.000000 0.683766 0.355457
1.000000 0.712134 0.421104
1.000000 0.735767 0.487920
1.000000 0.754216 0.554834
1.000000 0.766948 0.620627
1.000000 0.773353 0.683937
1.000000 0.772737 0.743254
0.814035 0.764327 0.796921
0.558305 0.747269 0.843137
0.268814 0.720628 0.879952
0.000000 0.683388 0.905272
0.000000 0.634454 0.916856
0.000000 0.572648 0.912315
0.000000 0.496712 0.889116
0.000000 0.405307 0.844579
0.000000 0.297015 0.775877
0.000000 0.170335 0.680038
0.000000 0.023687 0.553942
0.000000 0.000000 0.394325
0.000000 0.000000 0.197774
0.000000 0.000000 0.000000
0.000000 0.000000 0.000000
0.000000 0.000000 0.000000
1.000000 0.065988 0.000000
1.000000 0.141816 0.000000
1.000000 0.213184 0.000000
1.000000 0.280393 0.000000
1.000000 0.343666 0.000000
1.000000 0.403142 0.000000
1.000000 0.458882 0.018252
1.000000 0.510866 0.076316
1.000000 0.558991 0.138979
1.000000 0.603075 0.205673
1.000000 0.642856 0.275681
1.000000 0.677989 0.348141
1.000000 0.708051 0.422043
1.000000 0.732535 0.496232
1.000000 0.750855 0.569407
1.000000 0.762346 0.640120
1.000000 0.766260 0.706777
1.000000 0.761768 0.767637
1.000000 0.747961 0.820814
0.691092 0.723849 0.864275
0.333892 0.688363 0.895841
0.000000 0.640350 0.913185
0.000000 0.578580 0.913837
0.000000 0.501738 0.895178
0.000000 0.408432 0.854443
0.000000 0.297188 0.788723
0.000000 0.166450 0.694959
0.000000 0.014583 0.569948
0.000000 0.000000 0.410342
0.000000 0.000000 0.212643
0.000000 0.000000 0.000000
0.000000 0.000000 0.000000
0.000000 0.000000 0.000000
1.000000 0.000000 0.000000
1.000000 0.015585 0.000000
1.000000 0.094577 0.000000
1.000000 0.169590 0.000000
1.000000 0.240789 0.000000
1.000000 0.308260 0.000000
1.000000 0.372008 0.000000
1.000000 0.431959 0.000000
1.000000 0.487955 0.025518
1.000000 0.539759 0.098330
1.000000 0.587053 0.174960
1.000000 0.629439 0.254460
1.000000 0.666437 0.335737
1.000000 0.697488 0.417551
1.000000 0.721950 0.498517
1.000000 0.739101 0.577102
1.000000 0.748140 0.651629
1.000000 0.748182 0.720273
1.000000 0.738265 0.781061
1.000000 0.717344 0.831879
0.863037 0.684293 0.870461
0.431375 0.637905 0.894398
0.000000 0.576896 0.901133
0.000000 0.499895 0.887966
0.000000 0.405456 0.852045
0.000000 0.292049 0.790378
0.000000 0.158065 0.699821
0.000000 0.001812 0.577089
0.000000 0.000000 0.418746
0.000000 0.000000 0.221213
0.000000 0.000000 0.000000
0.000000 0.000000 0.000000
0.000000 0.000000 0.000000
1.000000 0.000000 0.000000
1.000000 0.000000 0.000000
1.000000 0.000000 0.000000
1.000000 0.039935 0.000000
1.000000 0.119388 0.000000
1.000000 0.195204 0.000000
1.000000 0.267333 0.000000
1.000000 0.335644 0.000000
1.000000 0.399925 0.000000
1.000000 0.459885 0.000000
1.000000 0.515151 0.051400
1.000000 0.565270 0.138121
1.000000 0.609706 0.227014
1.000000 0.647846 0.316755
1.000000 0.678993 0.405873
1.000000 0.702371 0.492753
1.000000 0.717122 0.575632
1.000000 0.722309 0.652601
1.000000 0.716912 0.721604
1.000000 0.699833 0.780441
1.000000 0.669891 0.826762
1.000000 0.625825 0.858075
0.568405 0.566292 0.871738
0.012608 0.489872 0.864966
0.000000 0.395060 0.834824
0.000000 0.280273 0.778234
0.000000 0.143845 0.691970
0.000000 0.000000 0.572660
0.000000 0.000000 0.416786
0.000000 0.000000 0.220684
0.000000 0.000000 0.000000
0.000000 0.000000 0.000000
0.000000 0.000000 0.000000
1.000000 0.000000 0.000000
1.000000 0.000000 0.000000
1.000000 0.000000 0.000000
1.000000 0.000000 0.000000
1.000000 0.000000 0.000000
1.000000 0.062792 0.000000
1.000000 0.143665 0.000000
1.000000 0.220721 0.000000
1.000000 0.293694 0.000000
1.000000 0.362239 0.000000
1.000000 0.425927 0.000000
1.000000 0.484249 0.000000
1.000000 0.536617 0.093880
1.000000 0.582361 0.191801
1.000000 0.620729 0.289386
1.000000 0.650891 0.384935
1.000000 0.671935 0.476600
1.000000 0.682867 0.562389
1.000000 0.682614 0.640162
1.000000 0.670021 0.707632
1.000000 0.643854 0.762369
1.000000 0.602796 0.801793
1.000000 0.545450 0.823180
0.752791 0.470340 0.823659
0.106059 0.375908 0.800212
0.000000 0.260514 0.749677
0.000000 0.122438 0.668742
