lrplugin/MindfulLensFilmEngine.lrplugin/profiles/luts/veniliqum.cube
# Generated from ColorChecker fit
LUT_3D_SIZE 9
DOMAIN_MIN 0.0 0.0 0.0
DOMAIN_MAX 1.0 1.0 1.0
0.175531 0.061470 0.154956
0.000000 0.033033 0.297188
0.000000 0.012387 0.449267
0.000000 0.076409 0.712823
0.000000 0.281306 1.000000
0.000000 0.662614 1.000000
0.000000 1.000000 1.000000
0.042311 1.000000 1.000000
1.000000 1.000000 1.000000
0.650335 0.249713 0.121630
0.202121 0.211135 0.204689
0.000820 0.155023 0.273860
0.000000 0.144205 0.409195
0.000000 0.220838 0.653297
0.059527 0.406405 1.000000
0.321893 0.701722 1.000000
0.864067 1.000000 1.000000
1.000000 1.000000 1.000000
0.551606 0.427921 0.180637
0.365899 0.408465 0.244346
0.370486 0.351678 0.285856
0.428817 0.306337 0.363642
0.463319 0.300548 0.498728
0.455396 0.341744 0.674688
0.445431 0.416689 0.837644
0.532784 0.491473 0.896269
0.875790 0.511518 0.721782
0.159121 0.544129 0.248497
0.150818 0.570997 0.320477
0.276267 0.546263 0.377369
0.373742 0.504653 0.456072
0.340497 0.460221 0.556034
0.132763 0.406353 0.639250
0.000000 0.315759 0.630266
0.000000 0.140480 0.416177
0.000000 0.000000 0.000000
0.000000 0.541789 0.240091
0.055617 0.640120 0.335756
0.214815 0.678103 0.438871
0.264399 0.676416 0.564754
0.076449 0.635061 0.691278
0.000000 0.533372 0.758861
0.000000 0.330010 0.670471
0.000000 0.000000 0.291626
0.000000 0.000000 0.000000
0.717227 0.359772 0.068655
0.800081 0.552642 0.191219
0.903831 0.681946 0.359191
0.816404 0.754310 0.566314
0.384705 0.755687 0.768883
0.000000 0.651359 0.885739
0.000000 0.385937 0.798273
0.000000 0.000000 0.350426
0.000000 0.000000 0.000000
1.000000 0.000000 0.000000
1.000000 0.240789 0.000000
1.000000 0.487955 0.025518
1.000000 0.666437 0.335737
1.000000 0.748140 0.651629
0.863037 0.684293 0.870461
0.000000 0.405456 0.852045
0.000000 0.000000 0.418746
0.000000 0.000000 0.000000
1.000000 0.000000 0.000000
1.000000 0.000000 0.000000
1.000000 0.021711 0.000000
1.000000 0.336317 0.000000
1.000000 0.533875 0.200655
1.000000 0.551566 0.561961
1.000000 0.305899 0.668518
0.000000 0.000000 0.321112
0.000000 0.000000 0.000000
1.000000 0.000000 0.000000
1.000000 0.000000 0.000000
1.000000 0.000000 0.000000
1.000000 0.000000 0.000000
1.000000 0.029769 0.000000
1.000000 0.167993 0.000000
1.000000 0.000016 0.082780
1.000000 0.000000 0.000000
0.000000 0.000000 0.000000
0.183185 0.067664 0.274494
0.000000 0.043387 0.393735
0.000000 0.022168 0.535475
0.000000 0.085950 0.806201
0.000000 0.296005 1.000000
0.000000 0.692935 1.000000
0.000000 1.000000 1.000000
0.720736 1.000000 1.000000
1.000000 1.000000 1.000000
0.586476 0.232976 0.215683
0.132861 0.185553 0.270205
0.000000 0.118127 0.324211
0.000000 0.098592 0.462610
0.001490 0.174168 0.732861
0.301091 0.371406 1.000000
0.886614 0.696186 1.000000
1.000000 1.000000 1.000000
1.000000 1.000000 1.000000
0.442787 0.389368 0.245138
0.267664 0.348157 0.271250
0.297884 0.269409 0.289254
0.429363 0.206968 0.362481
0.616997 0.194003 0.516815
0.874659 0.243013 0.740687
1.000000 0.345829 0.985075
1.000000 0.473605 1.000000
1.000000 0.576828 1.000000
0.011085 0.496276 0.289042
0.024717 0.488574 0.310849
0.201422 0.431328 0.332379
0.411942 0.364329 0.395388
0.585998 0.306697 0.504181
0.712291 0.256882 0.625611
0.838495 0.192661 0.689081
1.000000 0.071140 0.586544
1.000000 0.000000 0.172500
0.000000 0.508558 0.271936
0.000000 0.559598 0.301340
0.113392 0.554613 0.353721
0.311282 0.519343 0.449259
0.380168 0.458858 0.570683
0.283573 0.357557 0.663267
0.044001 0.179165 0.634839
0.000000 0.000000 0.355773
0.000000 0.000000 0.000000
0.424754 0.376486 0.116721
0.538340 0.509440 0.153418
0.730687 0.585414 0.251771
0.822192 0.616098 0.410384
0.692226 0.592511 0.590406
0.279142 0.484999 0.715537
0.000000 0.243239 0.672026
0.000000 0.000000 0.308670
0.000000 0.000000 0.000000
1.000000 0.045753 0.000000
1.000000 0.281731 0.000000
1.000000 0.465300 0.000000
1.000000 0.594099 0.163408
1.000000 0.645097 0.435793
1.000000 0.574589 0.642658
0.356891 0.318203 0.648675
0.000000 0.000000 0.281065
0.000000 0.000000 0.000000
1.000000 0.000000 0.000000
1.000000 0.000000 0.000000
1.000000 0.131255 0.000000
1.000000 0.388269 0.000000
1.000000 0.549477 0.000000
1.000000 0.557127 0.303227
1.000000 0.332792 0.411180
1.000000 0.000000 0.107146
0.000000 0.000000 0.000000
1.000000 0.000000 0.000000
1.000000 0.000000 0.000000
1.000000 0.000000 0.000000
1.000000 0.000000 0.000000
1.000000 0.233932 0.000000
1.000000 0.358828 0.000000
1.000000 0.211160 0.000000
1.000000 0.000000 0.000000
1.000000 0.000000 0.000000
0.381244 0.118784 0.298092
0.000000 0.113534 0.403959
0.000000 0.107361 0.538894
0.000000 0.187273 0.814244
0.000000 0.419607 1.000000
0.000000 0.850030 1.000000
0.000000 1.000000 1.000000
0.505316 1.000000 1.000000
1.000000 1.000000 1.000000
0.732585 0.283943 0.240948
0.274824 0.241555 0.280852
0.009229 0.177447 0.327529
0.000000 0.164576 0.470747
0.000000 0.255230 0.762823
0.195938 0.481024 1.000000
0.824390 0.852902 1.000000
1.000000 1.000000 1.000000
1.000000 1.000000 1.000000
0.569082 0.439984 0.266718
0.393060 0.389911 0.273453
0.381131 0.302848 0.280090
0.461680 0.237701 0.354818
0.622072 0.232707 0.528377
0.908649 0.305430 0.794054
1.000000 0.452765 1.000000
1.000000 0.650933 1.000000
1.000000 0.855486 1.000000
0.128895 0.557747 0.311247
0.140239 0.527382 0.305405
0.287678 0.450281 0.308015
0.474424 0.371302 0.365690
0.662667 0.314630 0.487593
0.873574 0.283779 0.645435
1.000000 0.261594 0.773476
1.000000 0.210244 0.768526
1.000000 0.071230 0.489944
0.000000 0.603494 0.308739
0.000000 0.618164 0.298705
0.183907 0.581881 0.321098
0.380544 0.525451 0.400955
0.500409 0.459009 0.525860
0.539496 0.372019 0.645947
0.552773 0.233273 0.673900
0.654190 0.000000 0.484951
1.000000 0.000000 0.000000
0.476351 0.538901 0.191756
0.570963 0.621873 0.173713
0.745905 0.655200 0.227496
0.854041 0.655639 0.356563
0.807213 0.619273 0.526923
0.576240 0.521515 0.667132
0.190918 0.317106 0.668298
0.000000 0.000000 0.384074
0.000000 0.000000 0.000000
1.000000 0.321064 0.000000
1.000000 0.493543 0.000000
1.000000 0.623211 0.000000
1.000000 0.712775 0.126824
1.000000 0.744267 0.372888
1.000000 0.679050 0.578893
0.990513 0.457815 0.614367
0.000000 0.000581 0.311389
0.000000 0.000000 0.000000
1.000000 0.000000 0.000000
1.000000 0.183624 0.000000
1.000000 0.434302 0.000000
1.000000 0.643185 0.000000
1.000000 0.778257 0.000000
1.000000 0.786829 0.249487
1.000000 0.595540 0.368163
1.000000 0.110360 0.110747
0.069780 0.000000 0.000000
1.000000 0.000000 0.000000
1.000000 0.000000 0.000000
1.000000 0.032281 0.000000
1.000000 0.388616 0.000000
1.000000 0.660925 0.000000
1.000000 0.782469 0.000000
1.000000 0.665839 0.000000
1.000000 0.202951 0.000000
1.000000 0.000000 0.000000
0.619294 0.178419 0.261808
0.000000 0.200564 0.371143
0.000000 0.218555 0.510038
0.000000 0.324466 0.794693
0.000000 0.589700 1.000000
0.000000 1.000000 1.000000
0.000000 1.000000 1.000000
0.000000 1.000000 1.000000
1.000000 1.000000 1.000000
0.948001 0.355737 0.215615
0.533197 0.325766 0.262048
0.198741 0.273106 0.316463
0.000000 0.275783 0.473485
0.000000 0.391148 0.790287
0.000000 0.655883 1.000000
0.269638 1.000000 1.000000
1.000000 1.000000 1.000000
1.000000 1.000000 1.000000
0.799586 0.522429 0.245701
0.657027 0.469889 0.258510
0.581014 0.381655 0.273148
0.532402 0.321698 0.362663
0.531025 0.333322 0.562652
0.655690 0.439157 0.871261
1.000000 0.641160 1.000000
1.000000 0.920621 1.000000
1.000000 1.000000 1.000000
0.391402 0.660740 0.297571
0.422078 0.613117 0.293832
0.505576 0.522320 0.301193
0.577576 0.438270 0.371124
0.632737 0.390217 0.517646
0.724694 0.386743 0.717326
0.966059 0.415755 0.909284
1.000000 0.444489 0.995186
1.000000 0.419513 0.839248
0.161850 0.748332 0.315092
0.264666 0.731051 0.299677
0.406657 0.668641 0.320055
0.498328 0.596973 0.406122
0.509163 0.531247 0.550319
0.467624 0.465993 0.707638
0.461148 0.375068 0.795620
0.636153 0.211659 0.694355
1.000000 0.000000 0.246482
0.770377 0.758287 0.240488
0.842154 0.794709 0.206064
0.939534 0.789574 0.247552
0.947848 0.764703 0.373269
0.811407 0.721244 0.554080
0.533498 0.639677 0.723400
0.176386 0.479808 0.777192
0.000000 0.180773 0.573970
0.000000 0.000000 0.000000
1.000000 0.659105 0.014341
1.000000 0.770530 0.000000
1.000000 0.849495 0.000000
1.000000 0.903771 0.176536
1.000000 0.920458 0.420695
1.000000 0.865982 0.644174
0.979753 0.686100 0.721359
0.069794 0.305897 0.489185
0.000000 0.000000 0.000000
1.000000 0.414703 0.000000
1.000000 0.620367 0.000000
1.000000 0.808196 0.000000
1.000000 0.971910 0.000000
1.000000 1.000000 0.040290
1.000000 1.000000 0.347883
1.000000 0.945487 0.493838
1.000000 0.536510 0.293514
0.630064 0.000000 0.000000
1.000000 0.000000 0.000000
1.000000 0.301495 0.000000
1.000000 0.620888 0.000000
1.000000 0.922266 0.000000
1.000000 1.000000 0.000000
1.000000 1.000000 0.000000
1.000000 1.000000 0.000000
1.000000 0.817513 0.000000
1.000000 0.000354 0.000000
0.733146 0.206050 0.220061
0.102680 0.257458 0.356939
0.000000 0.302231 0.517784
0.000000 0.437511 0.823655
0.000000 0.739766 1.000000
0.000000 1.000000 1.000000
0.000000 1.000000 1.000000
0.000000 1.000000 1.000000
0.000000 1.000000 1.000000
1.000000 0.397377 0.176241
0.799392 0.380702 0.257579
0.432727 0.341124 0.342025
0.000000 0.361731 0.529064
0.000000 0.504941 0.880725
0.000000 0.812502 1.000000
0.000000 1.000000 1.000000
0.000000 1.000000 1.000000
1.000000 1.000000 1.000000
0.989621 0.575259 0.200777
0.960731 0.520145 0.252338
0.844546 0.431384 0.301575
0.634388 0.378014 0.426393
0.382558 0.408403 0.667247
0.200333 0.550247 1.000000
0.257969 0.810569 1.000000
0.784698 1.000000 1.000000
1.000000 1.000000 1.000000
0.663681 0.733343 0.248840
0.781157 0.667371 0.284185
0.811884 0.562535 0.327196
0.724012 0.473823 0.434202
0.544668 0.435550 0.624080
0.359955 0.461364 0.878255
0.314953 0.544235 1.000000
0.613722 0.656469 1.000000
1.000000 0.749694 1.000000
0.518066 0.860698 0.273956
0.676176 0.809386 0.294443
0.748162 0.719520 0.348009
0.677001 0.632036 0.469407
0.464642 0.567200 0.655936
0.172017 0.524607 0.867445
0.000000 0.483179 1.000000
0.000000 0.401168 1.000000
0.306497 0.216154 0.688585
1.000000 0.941807 0.228012
1.000000 0.928613 0.222793
1.000000 0.882699 0.291492
1.000000 0.830953 0.447281
0.772778 0.779589 0.665886
0.264732 0.714150 0.885577
0.000000 0.599510 1.000000
0.000000 0.379869 0.894053
0.000000 0.000000 0.372128
1.000000 0.956574 0.061253
1.000000 1.000000 0.007278
1.000000 1.000000 0.083481
1.000000 1.000000 0.281459
1.000000 1.000000 0.555359
1.000000 0.999585 0.821875
0.494026 0.860758 0.960252
0.000000 0.558039 0.812283
0.000000 0.000906 0.182310
1.000000 0.880321 0.000000
1.000000 1.000000 0.000000
1.000000 1.000000 0.000000
1.000000 1.000000 0.000000
1.000000 1.000000 0.224142
1.000000 1.000000 0.563923
1.000000 1.000000 0.760942
1.000000 0.896562 0.635413
0.012673 0.241424 0.000000
1.000000 0.683787 0.000000
1.000000 0.905058 0.000000
1.000000 1.000000 0.000000
1.000000 1.000000 0.000000
1.000000 1.000000 0.000000
1.000000 1.000000 0.000000
1.000000 1.000000 0.282981
1.000000 1.000000 0.224977
1.000000 0.654552 0.000000
0.544838 0.157051 0.245638
0.219412 0.233089 0.441362
0.000000 0.300764 0.649378
0.000000 0.462283 0.995605
0.000000 0.799179 1.000000
0.000000 1.000000 1.000000
0.000000 1.000000 1.000000
0.000000 1.000000 1.000000
0.000000 1.000000 1.000000
0.955244 0.353773 0.177746
0.951046 0.344775 0.329593
0.634669 0.313409 0.473595
0.057080 0.347830 0.714092
0.000000 0.515520 1.000000
0.000000 0.863292 1.000000
0.000000 1.000000 1.000000
0.000000 1.000000 1.000000
0.000000 1.000000 1.000000
0.980730 0.532919 0.169004
1.000000 0.468624 0.299224
1.000000 0.373482 0.416886
0.746721 0.321595 0.604751
0.201603 0.366397 0.908133
0.000000 0.540648 1.000000
0.000000 0.856439 1.000000
0.000000 1.000000 1.000000
0.000000 1.000000 1.000000
0.797032 0.699541 0.184244
1.000000 0.607626 0.302883
1.000000 0.481909 0.419674
0.902570 0.382444 0.595801
0.433144 0.348613 0.855000
0.000000 0.399125 1.000000
0.000000 0.532020 1.000000
0.000000 0.724665 1.000000
0.000000 0.933758 1.000000
0.800937 0.854110 0.186656
1.000000 0.760188 0.291557
1.000000 0.635037 0.420742
0.915155 0.524660 0.613821
0.411286 0.454388 0.872950
0.000000 0.428880 1.000000
0.000000 0.432125 1.000000
0.000000 0.427439 1.000000
0.000000 0.357469 1.000000
1.000000 0.992515 0.137789
1.000000 0.920138 0.214590
1.000000 0.824630 0.357232
1.000000 0.737945 0.583747
0.745518 0.671362 0.874716
0.000000 0.615490 1.000000
0.000000 0.540267 1.000000
0.000000 0.394960 1.000000
0.000000 0.108164 0.983956
1.000000 1.000000 0.000000
1.000000 1.000000 0.019684
1.000000 1.000000 0.164641
1.000000 1.000000 0.428874
1.000000 0.982592 0.771388
1.000000 0.939951 1.000000
0.000000 0.835381 1.000000
0.000000 0.604099 1.000000
0.000000 0.160649 0.793530
1.000000 1.000000 0.000000
1.000000 1.000000 0.000000
1.000000 1.000000 0.000000
1.000000 1.000000 0.070856
1.000000 1.000000 0.472416
1.000000 1.000000 0.881481
1.000000 1.000000 1.000000
0.450017 1.000000 1.000000
0.000000 0.485150 0.591701
1.000000 1.000000 0.000000
1.000000 1.000000 0.000000
1.000000 1.000000 0.000000
1.000000 1.000000 0.000000
1.000000 1.000000 0.000000
1.000000 1.000000 0.372113
1.000000 1.000000 0.730168
1.000000 1.000000 0.763269
1.000000 1.000000 0.237462
0.000000 0.000000 0.429691
0.039627 0.072224 0.722791
0.000000 0.152420 1.000000
0.000000 0.330548 1.000000
0.000000 0.693207 1.000000
0.000000 1.000000 1.000000
0.000000 1.000000 1.000000
0.000000 1.000000 1.000000
0.000000 1.000000 1.000000
0.396879 0.165727 0.293416
0.852021 0.152287 0.558606
0.714277 0.117766 0.798916
0.067080 0.155384 1.000000
0.000000 0.337688 1.000000
0.000000 0.716557 1.000000
0.000000 1.000000 1.000000
0.000000 1.000000 1.000000
0.000000 1.000000 1.000000
0.600686 0.325748 0.205801
1.000000 0.239167 0.461816
1.000000 0.125289 0.688957
0.834710 0.063282 0.974844
0.000000 0.111644 1.000000
0.000000 0.308201 1.000000
0.000000 0.670110 1.000000
0.000000 1.000000 1.000000
0.000000 1.000000 1.000000
0.628980 0.479208 0.141339
1.000000 0.347257 0.394711
1.000000 0.187319 0.630638
1.000000 0.064510 0.915163
0.319074 0.023280 1.000000
0.000000 0.087403 1.000000
0.000000 0.259984 1.000000
0.000000 0.523456 1.000000
0.000000 0.839581 1.000000
0.857741 0.637982 0.072883
1.000000 0.486369 0.317939
1.000000 0.311605 0.572404
1.000000 0.164757 0.880742
0.379758 0.076222 1.000000
0.000000 0.055724 1.000000
0.000000 0.092318 1.000000
0.000000 0.154386 1.000000
0.000000 0.189639 1.000000
1.000000 0.809361 0.000000
1.000000 0.661733 0.190507
1.000000 0.501317 0.461056
1.000000 0.365128 0.806178
0.770046 0.269513 1.000000
0.000000 0.210146 1.000000
0.000000 0.162030 1.000000
0.000000 0.079497 1.000000
0.000000 0.000000 1.000000
1.000000 0.996056 0.000000
1.000000 0.873997 0.000000
1.000000 0.755038 0.241756
1.000000 0.662145 0.624429
1.000000 0.597613 1.000000
0.634522 0.543065 1.000000
0.000000 0.459456 1.000000
0.000000 0.287064 1.000000
0.000000 0.000000 1.000000
1.000000 1.000000 0.000000
1.000000 1.000000 0.000000
1.000000 1.000000 0.000000
1.000000 1.000000 0.266810
1.000000 1.000000 0.780123
1.000000 1.000000 1.000000
1.000000 0.970350 1.000000
0.000000 0.760779 1.000000
0.000000 0.319147 1.000000
1.000000 1.000000 0.000000
1.000000 1.000000 0.000000
1.000000 1.000000 0.000000
1.000000 1.000000 0.000000
1.000000 1.000000 0.224174
1.000000 1.000000 0.818529
1.000000 1.000000 1.000000
1.000000 1.000000 1.000000
0.554708 0.994195 1.000000
0.000000 0.000000 0.881736
0.000000 0.000000 1.000000
0.000000 0.000000 1.000000
0.000000 0.000000 1.000000
0.000000 0.343010 1.000000
0.000000 0.981483 1.000000
0.000000 1.000000 1.000000
0.000000 1.000000 1.000000
0.000000 1.000000 1.000000
0.000000 0.000000 0.614903
0.352405 0.000000 1.000000
0.567483 0.000000 1.000000
0.000000 0.000000 1.000000
0.000000 0.000000 1.000000
0.000000 0.276493 1.000000
0.000000 0.920913 1.000000
0.000000 1.000000 1.000000
0.000000 1.000000 1.000000
0.000000 0.000000 0.384954
0.915312 0.000000 0.821130
1.000000 0.000000 1.000000
0.849888 0.000000 1.000000
0.000000 0.000000 1.000000
0.000000 0.000000 1.000000
0.000000 0.138815 1.000000
0.000000 0.722454 1.000000
0.000000 1.000000 1.000000
0.000000 0.000000 0.176046
1.000000 0.000000 0.622818
1.000000 0.000000 1.000000
1.000000 0.000000 1.000000
0.209593 0.000000 1.000000
0.000000 0.000000 1.000000
0.000000 0.000000 1.000000
0.000000 0.000000 1.000000
0.000000 0.330934 1.000000
0.521983 0.117616 0.000000
1.000000 0.000000 0.418874
1.000000 0.000000 0.855506
1.000000 0.000000 1.000000
0.386947 0.000000 1.000000
0.000000 0.000000 1.000000
0.000000 0.000000 1.000000
0.000000 0.000000 1.000000
0.000000 0.000000 1.000000
1.000000 0.287184 0.000000
1.000000 0.041740 0.177965
1.000000 0.000000 0.637612
1.000000 0.000000 1.000000
0.873005 0.000000 1.000000
0.000000 0.000000 1.000000
0.000000 0.000000 1.000000
0.000000 0.000000 1.000000
0.000000 0.000000 1.000000
1.000000 0.510931 0.000000
1.000000 0.272604 0.000000
1.000000 0.050732 0.331609
1.000000 0.000000 0.892133
1.000000 0.000000 1.000000
0.264972 0.000000 1.000000
0.000000 0.000000 1.000000
0.000000 0.000000 1.000000
0.000000 0.000000 1.000000
1.000000 0.798389 0.000000
1.000000 0.586796 0.000000
1.000000 0.415336 0.000000
1.000000 0.297991 0.477937
1.000000 0.228070 1.000000
1.000000 0.178212 1.000000
0.352614 0.100384 1.000000
0.000000 0.000000 1.000000
0.000000 0.000000 1.000000
1.000000 1.000000 0.000000
1.000000 0.987203 0.000000
1.000000 0.889236 0.000000
1.000000 0.860537 0.000000
1.000000 0.880367 0.581590
1.000000 0.907312 1.000000
1.000000 0.879289 1.000000
1.000000 0.713544 1.000000
0.000000 0.306649 1.000000
0.000000 0.000000 1.000000
0.000000 0.000000 1.000000
0.000000 0.000000 1.000000
0.000000 0.000000 1.000000
0.000000 0.000000 1.000000
0.000000 0.308341 1.000000
0.000000 1.000000 1.000000
0.000000 1.000000 1.000000
0.000000 1.000000 1.000000
0.000000 0.000000 1.000000
0.000000 0.000000 1.000000
0.076446 0.000000 1.000000
0.000000 0.000000 1.000000
0.000000 0.000000 1.000000
0.000000 0.000000 1.000000
0.000000 0.104029 1.000000
0.000000 1.000000 1.000000
0.000000 1.000000 1.000000
0.000000 0.000000 0.798616
0.114133 0.000000 1.000000
0.993292 0.000000 1.000000
0.730016 0.000000 1.000000
0.000000 0.000000 1.000000
0.000000 0.000000 1.000000
0.000000 0.000000 1.000000
0.000000 0.000000 1.000000
0.000000 0.597340 1.000000
0.000000 0.000000 0.362650
0.726159 0.000000 1.000000
1.000000 0.000000 1.000000
1.000000 0.000000 1.000000
0.098060 0.000000 1.000000
0.000000 0.000000 1.000000
0.000000 0.000000 1.000000
0.000000 0.000000 1.000000
0.000000 0.000000 1.000000
0.000000 0.000000 0.000000
1.000000 0.000000 0.658010
1.000000 0.000000 1.000000
1.000000 0.000000 1.000000
0.435967 0.000000 1.000000
0.000000 0.000000 1.000000
0.000000 0.000000 1.000000
0.000000 0.000000 1.000000
0.000000 0.000000 1.000000
1.000000 0.000000 0.000000
1.000000 0.000000 0.222748
1.000000 0.000000 0.939912
1.000000 0.000000 1.000000
1.000000 0.000000 1.000000
0.000000 0.000000 1.000000
0.000000 0.000000 1.000000
0.000000 0.000000 1.000000
0.000000 0.000000 1.000000
1.000000 0.000000 0.000000
1.000000 0.000000 0.000000
1.000000 0.000000 0.469347
1.000000 0.000000 1.000000
1.000000 0.000000 1.000000
0.029220 0.000000 1.000000
0.000000 0.000000 1.000000
0.000000 0.000000 1.000000
0.000000 0.000000 1.000000
1.000000 0.000000 0.000000
1.000000 0.000000 0.000000
1.000000 0.000000 0.000000
1.000000 0.000000 0.728750
1.000000 0.000000 1.000000
1.000000 0.000000 1.000000
0.000000 0.000000 1.000000
0.000000 0.000000 1.000000
0.000000 0.000000 1.000000
1.000000 0.313789 0.000000
1.000000 0.000000 0.000000
1.000000 0.000000 0.000000
1.000000 0.000000 0.006961
1.000000 0.000000 0.971730
1.000000 0.000000 1.000000
1.000000 0.000000 1.000000
0.000000 0.000000 1.000000
0.000000 0.000000 1.000000
