lrplugin/MindfulLensFilmEngine.lrplugin/profiles/luts/veniliqum.cube
# Generated from ColorChecker fit
LUT_3D_SIZE 5
DOMAIN_MIN 0.0 0.0 0.0
DOMAIN_MAX 1.0 1.0 1.0
0.175531 0.061470 0.154956
0.000000 0.012387 0.449267
0.000000 0.281306 1.000000
0.000000 1.000000 1.000000
1.000000 1.000000 1.000000
0.551606 0.427921 0.180637
0.370486 0.351678 0.285856
0.463319 0.300548 0.498728
0.445431 0.416689 0.837644
0.875790 0.511518 0.721782
0.000000 0.541789 0.240091
0.214815 0.678103 0.438871
0.076449 0.635061 0.691278
0.000000 0.330010 0.670471
0.000000 0.000000 0.000000
1.000000 0.000000 0.000000
1.000000 0.487955 0.025518
1.000000 0.748140 0.651629
0.000000 0.405456 0.852045
0.000000 0.000000 0.000000
1.000000 0.000000 0.000000
1.000000 0.000000 0.000000
1.000000 0.029769 0.000000
1.000000 0.000016 0.082780
0.000000 0.000000 0.000000
0.381244 0.118784 0.298092
0.000000 0.107361 0.538894
0.000000 0.419607 1.000000
0.000000 1.000000 1.000000
1.000000 1.000000 1.000000
0.569082 0.439984 0.266718
0.381131 0.302848 0.280090
0.622072 0.232707 0.528377
1.000000 0.452765 1.000000
1.000000 0.855486 1.000000
0.000000 0.603494 0.308739
0.183907 0.581881 0.321098
0.500409 0.459009 0.525860
0.552773 0.233273 0.673900
1.000000 0.000000 0.000000
1.000000 0.321064 0.000000
1.000000 0.623211 0.000000
1.000000 0.744267 0.372888
0.990513 0.457815 0.614367
0.000000 0.000000 0.000000
1.000000 0.000000 0.000000
1.000000 0.032281 0.000000
1.000000 0.660925 0.000000
1.000000 0.665839 0.000000
1.000000 0.000000 0.000000
0.733146 0.206050 0.220061
0.000000 0.302231 0.517784
0.000000 0.739766 1.000000
0.000000 1.000000 1.000000
0.000000 1.000000 1.000000
0.989621 0.575259 0.200777
0.844546 0.431384 0.301575
0.382558 0.408403 0.667247
0.257969 0.810569 1.000000
1.000000 1.000000 1.000000
0.518066 0.860698 0.273956
0.748162 0.719520 0.348009
0.464642 0.567200 0.655936
0.000000 0.483179 1.000000
0.306497 0.216154 0.688585
1.000000 0.956574 0.061253
1.000000 1.000000 0.083481
1.000000 1.000000 0.555359
0.494026 0.860758 0.960252
0.000000 0.000906 0.182310
1.000000 0.683787 0.000000
1.000000 1.000000 0.000000
1.000000 1.000000 0.000000
1.000000 1.000000 0.282981
1.000000 0.654552 0.000000
0.000000 0.000000 0.429691
0.000000 0.152420 1.000000
0.000000 0.693207 1.000000
0.000000 1.000000 1.000000
0.000000 1.000000 1.000000
0.600686 0.325748 0.205801
1.000000 0.125289 0.688957
0.000000 0.111644 1.000000
0.000000 0.670110 1.000000
0.000000 1.000000 1.000000
0.857741 0.637982 0.072883
1.000000 0.311605 0.572404
0.379758 0.076222 1.000000
0.000000 0.092318 1.000000
0.000000 0.189639 1.000000
1.000000 0.996056 0.000000
1.000000 0.755038 0.241756
1.000000 0.597613 1.000000
0.000000 0.459456 1.000000
0.000000 0.000000 1.000000
1.000000 1.000000 0.000000
1.000000 1.000000 0.000000
1.000000 1.000000 0.224174
1.000000 1.000000 1.000000
0.554708 0.994195 1.000000
0.000000 0.000000 1.000000
0.000000 0.000000 1.000000
0.000000 0.000000 1.000000
0.000000 1.000000 1.000000
0.000000 1.000000 1.000000
0.000000 0.000000 0.798616
0.993292 0.000000 1.000000
0.000000 0.000000 1.000000
0.000000 0.000000 1.000000
0.000000 0.597340 1.000000
0.000000 0.000000 0.000000
1.000000 0.000000 1.000000
0.435967 0.000000 1.000000
0.000000 0.000000 1.000000
0.000000 0.000000 1.000000
1.000000 0.000000 0.000000
1.000000 0.000000 0.469347
1.000000 0.000000 1.000000
0.000000 0.000000 1.000000
0.000000 0.000000 1.000000
1.000000 0.313789 0.000000
1.000000 0.000000 0.000000
1.000000 0.000000 0.971730
1.000000 0.000000 1.000000
0.000000 0.000000 1.000000
