lrplugin/MindfulLensFilmEngine.lrplugin/profiles/luts/vespera.cube
# Generated from ColorChecker fit
LUT_3D_SIZE 5
DOMAIN_MIN 0.0 0.0 0.0
DOMAIN_MAX 1.0 1.0 1.0
1.000000 1.000000 0.000000
0.000000 0.000000 0.217473
0.000000 0.000000 0.807579
0.000000 0.812110 1.000000
0.000000 1.000000 1.000000
1.000000 1.000000 0.000000
0.371358 0.530193 0.135758
0.159666 0.252172 0.410282
0.317869 0.370087 0.668848
0.000000 0.138922 1.000000
1.000000 0.225869 0.000000
0.832629 0.316243 0.000000
0.262732 0.641586 0.387116
0.000000 0.455601 0.875097
0.000000 0.000000 1.000000
1.000000 0.000000 0.000000
1.000000 0.000000 0.000000
1.000000 0.472686 0.000000
1.000000 0.920977 1.000000
0.000000 0.000000 1.000000
1.000000 0.000000 0.000000
1.000000 0.000000 0.000000
1.000000 0.000000 0.000000
1.000000 1.000000 0.493524
1.000000 0.000000 1.000000
1.000000 0.871518 0.000000
0.000000 0.000000 0.173996
0.000000 0.000000 0.623634
0.000000 1.000000 1.000000
0.000000 1.000000 1.000000
1.000000 1.000000 0.504729
0.929439 0.454097 0.340917
0.524844 0.313502 0.278584
0.274278 0.403731 0.744349
0.000000 0.000000 1.000000
1.000000 0.190438 0.400020
0.552483 0.376547 0.352202
0.432840 0.712330 0.313314
0.571449 0.372326 0.655655
0.000000 0.000000 1.000000
1.000000 0.000000 0.000000
1.000000 0.000000 0.000000
1.000000 1.000000 0.000000
1.000000 1.000000 0.747865
0.000000 0.000000 1.000000
1.000000 0.000000 0.000000
1.000000 0.000000 0.000000
1.000000 1.000000 0.000000
1.000000 1.000000 0.259442
1.000000 1.000000 1.000000
1.000000 0.396915 0.000000
0.272237 0.000000 0.061752
0.000000 0.000000 0.684734
0.000000 1.000000 1.000000
0.000000 1.000000 1.000000
1.000000 0.995726 0.499917
1.000000 0.174995 0.242314
0.736313 0.025983 0.236074
0.000000 0.069908 1.000000
0.000000 0.000000 1.000000
1.000000 0.538116 0.470433
1.000000 0.480286 0.306759
0.843938 0.614061 0.176081
0.488222 0.034817 0.830101
0.000000 0.000000 1.000000
1.000000 0.000000 0.000000
1.000000 0.541413 0.000000
1.000000 1.000000 0.000000
1.000000 1.000000 0.694691
0.000000 0.000000 1.000000
1.000000 0.000000 0.000000
1.000000 0.597723 0.000000
1.000000 1.000000 0.000000
1.000000 1.000000 0.282003
1.000000 1.000000 1.000000
1.000000 0.000000 1.000000
0.707364 0.000000 1.000000
0.000000 0.000000 1.000000
0.000000 0.000000 1.000000
0.000000 1.000000 1.000000
1.000000 0.426824 1.000000
1.000000 0.000000 1.000000
0.000000 0.000000 1.000000
0.000000 0.000000 1.000000
0.000000 0.000000 1.000000
1.000000 0.811261 0.826836
1.000000 0.000000 0.747420
0.419956 0.000000 0.710297
0.000000 0.000000 1.000000
0.000000 0.000000 1.000000
1.000000 0.907192 0.000000
1.000000 1.000000 0.000000
0.428944 1.000000 0.127208
0.000000 0.543243 1.000000
0.000000 0.000000 1.000000
1.000000 1.000000 0.000000
1.000000 1.000000 0.000000
1.000000 1.000000 0.000000
1.000000 1.000000 0.590499
0.901661 1.000000 1.000000
1.000000 0.000000 1.000000
0.000000 0.000000 1.000000
0.000000 0.000000 1.000000
0.000000 0.000000 1.000000
0.000000 0.000000 1.000000
1.000000 0.000000 1.000000
1.000000 0.000000 1.000000
0.000000 0.000000 1.000000
0.000000 0.000000 1.000000
0.000000 0.000000 1.000000
1.000000 1.000000 1.000000
1.000000 0.000000 1.000000
0.000000 0.000000 1.000000
0.000000 0.000000 1.000000
0.000000 0.000000 1.000000
1.000000 1.000000 1.000000
0.872545 1.000000 1.000000
0.000000 0.000000 1.000000
0.000000 0.000000 1.000000
0.000000 0.000000 1.000000
1.000000 1.000000 0.220435
1.000000 1.000000 1.000000
0.823990 1.000000 1.000000
0.000000 1.000000 1.000000
0.000000 0.000000 1.000000
