lrplugin/MindfulLensFilmEngine.lrplugin/profiles/luts/vespera.cube
# Generated from ColorChecker fit
LUT_3D_SIZE 9
DOMAIN_MIN 0.0 0.0 0.0
DOMAIN_MAX 1.0 1.0 1.0
1.000000 1.000000 0.000000
0.855381 0.503929 0.000000
0.000000 0.000000 0.217473
0.000000 0.000000 0.513402
0.000000 0.000000 0.807579
0.000000 0.100104 1.000000
0.000000 0.812110 1.000000
0.000000 1.000000 1.000000
0.000000 1.000000 1.000000
1.000000 1.000000 0.000000
1.000000 0.808978 0.000000
0.356562 0.279639 0.140140
0.000000 0.000000 0.326753
0.000000 0.000000 0.500614
0.000000 0.153389 0.677123
0.000000 0.509529 0.883890
0.000000 0.953928 1.000000
0.000000 1.000000 1.000000
1.000000 1.000000 0.000000
1.000000 0.934405 0.000000
0.371358 0.530193 0.135758
0.105047 0.311712 0.282543
0.159666 0.252172 0.410282
0.330226 0.298251 0.530979
0.317869 0.370087 0.668848
0.000000 0.361287 0.860310
0.000000 0.138922 1.000000
1.000000 1.000000 0.000000
0.995897 0.768960 0.000000
0.301940 0.570904 0.082646
0.026847 0.497648 0.258007
0.066767 0.495790 0.412731
0.223976 0.485389 0.555431
0.206874 0.359970 0.706923
0.000000 0.000000 0.900234
0.000000 0.000000 1.000000
1.000000 0.225869 0.000000
1.000000 0.211626 0.000000
0.832629 0.316243 0.000000
0.407306 0.486236 0.133381
0.262732 0.641586 0.387116
0.208442 0.675737 0.628546
0.000000 0.455601 0.875097
0.000000 0.000000 1.000000
0.000000 0.000000 1.000000
1.000000 0.000000 0.000000
1.000000 0.000000 0.000000
1.000000 0.000000 0.000000
1.000000 0.217672 0.000000
1.000000 0.645244 0.215590
1.000000 0.840468 0.631396
0.497581 0.643638 1.000000
0.000000 0.000000 1.000000
0.000000 0.000000 1.000000
1.000000 0.000000 0.000000
1.000000 0.000000 0.000000
1.000000 0.000000 0.000000
1.000000 0.000000 0.000000
1.000000 0.472686 0.000000
1.000000 0.960988 0.448052
1.000000 0.920977 1.000000
0.902484 0.139798 1.000000
0.000000 0.000000 1.000000
1.000000 0.000000 0.000000
1.000000 0.000000 0.000000
1.000000 0.000000 0.000000
1.000000 0.000000 0.000000
1.000000 0.100067 0.000000
1.000000 1.000000 0.000000
1.000000 1.000000 0.975076
1.000000 0.658019 1.000000
1.000000 0.000000 1.000000
1.000000 0.000000 0.000000
1.000000 0.000000 0.000000
1.000000 0.000000 0.000000
1.000000 0.000000 0.000000
1.000000 0.000000 0.000000
1.000000 1.000000 0.000000
1.000000 1.000000 0.493524
1.000000 1.000000 1.000000
1.000000 0.000000 1.000000
1.000000 1.000000 0.000000
0.785904 0.323253 0.005177
0.000000 0.000000 0.178743
0.000000 0.000000 0.380739
0.000000 0.000000 0.641466
0.000000 0.184845 1.000000
0.000000 0.901464 1.000000
0.000000 1.000000 1.000000
0.000000 1.000000 1.000000
1.000000 1.000000 0.057665
1.000000 0.656690 0.116988
0.451391 0.199621 0.174574
0.000000 0.000000 0.245122
0.000000 0.000000 0.355537
0.000000 0.181828 0.544933
0.000000 0.521511 0.864630
0.000000 0.914901 1.000000
0.000000 1.000000 1.000000
1.000000 1.000000 0.219575
1.000000 0.793599 0.233155
0.550602 0.443374 0.237631
0.296922 0.264162 0.244304
0.342426 0.224224 0.276686
0.476259 0.265290 0.370495
0.393693 0.302550 0.573658
0.000000 0.224664 0.946307
0.000000 0.000000 1.000000
1.000000 0.946529 0.218329
0.979379 0.645191 0.243244
0.371124 0.485794 0.256391
0.178788 0.436519 0.265679
0.292649 0.439014 0.291222
0.509114 0.408393 0.365344
0.530713 0.233233 0.532577
0.000000 0.000000 0.849660
0.000000 0.000000 1.000000
1.000000 0.111186 0.000000
1.000000 0.132915 0.039821
0.550166 0.263814 0.122338
0.283865 0.445451 0.199642
0.302425 0.592860 0.288456
0.409513 0.594537 0.417707
0.314922 0.312446 0.628531
0.000000 0.000000 0.974272
0.000000 0.000000 1.000000
1.000000 0.000000 0.000000
1.000000 0.000000 0.000000
1.000000 0.000000 0.000000
1.000000 0.253620 0.000000
1.000000 0.663909 0.160703
1.000000 0.817356 0.418812
0.619243 0.549310 0.751663
0.000000 0.000000 1.000000
0.000000 0.000000 1.000000
1.000000 0.000000 0.000000
1.000000 0.000000 0.000000
1.000000 0.000000 0.000000
1.000000 0.000000 0.000000
1.000000 0.640545 0.000000
1.000000 1.000000 0.262892
1.000000 0.963187 0.795120
0.894360 0.070135 1.000000
0.000000 0.000000 1.000000
1.000000 0.000000 0.000000
1.000000 0.000000 0.000000
1.000000 0.000000 0.000000
1.000000 0.000000 0.000000
1.000000 0.521390 0.000000
1.000000 1.000000 0.000000
1.000000 1.000000 0.655053
1.000000 0.831752 1.000000
1.000000 0.000000 1.000000
1.000000 0.000000 0.000000
1.000000 0.000000 0.000000
1.000000 0.000000 0.000000
1.000000 0.000000 0.000000
1.000000 0.315301 0.000000
1.000000 1.000000 0.000000
1.000000 1.000000 0.230615
1.000000 1.000000 1.000000
1.000000 0.172673 1.000000
1.000000 0.871518 0.000000
0.993939 0.228468 0.072601
0.000000 0.000000 0.173996
0.000000 0.000000 0.339669
0.000000 0.000000 0.623634
0.000000 0.428151 1.000000
0.000000 1.000000 1.000000
0.000000 1.000000 1.000000
0.000000 1.000000 1.000000
1.000000 1.000000 0.276953
1.000000 0.589384 0.250512
0.725084 0.206663 0.226606
0.115850 0.050539 0.243644
0.000000 0.110943 0.352246
0.000000 0.351270 0.615238
0.000000 0.708380 1.000000
0.000000 1.000000 1.000000
0.000000 1.000000 1.000000
1.000000 1.000000 0.504729
1.000000 0.752419 0.429172
0.929439 0.454097 0.340917
0.587791 0.320020 0.274980
0.524844 0.313502 0.278584
0.523873 0.371324 0.411161
0.274278 0.403731 0.744349
0.000000 0.294432 1.000000
0.000000 0.000000 1.000000
1.000000 0.918393 0.577814
1.000000 0.651245 0.508304
0.675205 0.524259 0.415569
0.466497 0.500668 0.331230
0.556432 0.517173 0.299116
0.735544 0.483939 0.375264
0.700497 0.284596 0.627916
0.054080 0.000000 1.000000
0.000000 0.000000 1.000000
1.000000 0.190438 0.400020
1.000000 0.229776 0.390633
0.552483 0.376547 0.352202
0.347544 0.567370 0.312951
0.432840 0.712330 0.313314
0.606167 0.694977 0.405932
0.571449 0.372326 0.655655
0.000000 0.000000 1.000000
0.000000 0.000000 1.000000
1.000000 0.000000 0.000000
1.000000 0.000000 0.000000
1.000000 0.000000 0.055460
1.000000 0.505249 0.123700
0.968931 0.899583 0.223650
0.956079 1.000000 0.404555
0.712947 0.698507 0.727869
0.000000 0.000000 1.000000
0.000000 0.000000 1.000000
1.000000 0.000000 0.000000
1.000000 0.000000 0.000000
1.000000 0.000000 0.000000
1.000000 0.309666 0.000000
1.000000 1.000000 0.000000
1.000000 1.000000 0.275523
1.000000 1.000000 0.747865
0.853512 0.321061 1.000000
0.000000 0.000000 1.000000
1.000000 0.000000 0.000000
1.000000 0.000000 0.000000
1.000000 0.000000 0.000000
1.000000 0.000000 0.000000
1.000000 1.000000 0.000000
1.000000 1.000000 0.000000
1.000000 1.000000 0.621951
1.000000 1.000000 1.000000
1.000000 0.000000 1.000000
1.000000 0.000000 0.000000
1.000000 0.000000 0.000000
1.000000 0.000000 0.000000
1.000000 0.000000 0.000000
1.000000 1.000000 0.000000
1.000000 1.000000 0.000000
1.000000 1.000000 0.259442
1.000000 1.000000 1.000000
1.000000 1.000000 1.000000
1.000000 0.668361 0.000000
1.000000 0.097174 0.035975
0.000000 0.000000 0.105811
0.000000 0.000000 0.274849
0.000000 0.030159 0.620816
0.000000 0.595328 1.000000
0.000000 1.000000 1.000000
0.000000 1.000000 1.000000
0.000000 1.000000 1.000000
1.000000 1.000000 0.311290
1.000000 0.481655 0.245566
1.000000 0.147287 0.185723
0.314270 0.040659 0.193886
0.000000 0.146754 0.344386
0.000000 0.424019 0.723761
0.000000 0.804367 1.000000
0.000000 1.000000 1.000000
0.000000 1.000000 1.000000
1.000000 1.000000 0.565767
1.000000 0.682453 0.452499
1.000000 0.405877 0.322016
0.982814 0.294730 0.233049
0.689641 0.307378 0.256532
0.433351 0.375653 0.475611
0.000000 0.404854 0.985635
0.000000 0.273742 1.000000
0.000000 0.000000 1.000000
1.000000 0.930936 0.674221
1.000000 0.655706 0.566657
1.000000 0.526810 0.423488
0.898940 0.502535 0.300050
0.844642 0.514632 0.263882
0.867358 0.468320 0.394735
0.657879 0.242280 0.784564
0.000000 0.000000 1.000000
0.000000 0.000000 1.000000
1.000000 0.357277 0.550621
1.000000 0.367790 0.500924
0.874785 0.491948 0.401940
0.611113 0.661424 0.305605
0.644309 0.781356 0.276067
0.766300 0.730345 0.389679
0.675139 0.360458 0.735004
0.000000 0.000000 1.000000
0.000000 0.000000 1.000000
1.000000 0.000000 0.111941
1.000000 0.000000 0.171190
1.000000 0.293391 0.172173
0.881611 0.778986 0.163431
0.856394 1.000000 0.205718
0.903404 1.000000 0.371991
0.727957 0.813439 0.747418
0.000000 0.000000 1.000000
0.000000 0.000000 1.000000
1.000000 0.000000 0.000000
1.000000 0.000000 0.000000
1.000000 0.000000 0.000000
1.000000 0.873044 0.000000
1.000000 1.000000 0.000000
1.000000 1.000000 0.256222
1.000000 1.000000 0.735273
0.710573 0.583707 1.000000
0.000000 0.000000 1.000000
1.000000 0.000000 0.000000
1.000000 0.000000 0.000000
1.000000 0.000000 0.000000
1.000000 0.971659 0.000000
1.000000 1.000000 0.000000
1.000000 1.000000 0.000000
1.000000 1.000000 0.615037
1.000000 1.000000 1.000000
0.695900 0.000000 1.000000
1.000000 0.000000 0.000000
1.000000 0.000000 0.000000
1.000000 0.000000 0.000000
1.000000 1.000000 0.000000
1.000000 1.000000 0.000000
1.000000 1.000000 0.000000
1.000000 1.000000 0.306182
1.000000 1.000000 1.000000
1.000000 1.000000 1.000000
1.000000 0.396915 0.000000
1.000000 0.000000 0.000785
0.272237 0.000000 0.061752
0.000000 0.000000 0.255922
0.000000 0.000000 0.684734
0.000000 0.484449 1.000000
0.000000 1.000000 1.000000
0.000000 1.000000 1.000000
0.000000 1.000000 1.000000
1.000000 0.811210 0.270994
1.000000 0.240860 0.194544
1.000000 0.000000 0.126402
0.508970 0.000000 0.152402
0.000000 0.000000 0.370590
0.000000 0.195141 0.891216
0.000000 0.576466 1.000000
0.000000 0.955554 1.000000
0.000000 1.000000 1.000000
1.000000 0.995726 0.499917
1.000000 0.488055 0.382442
1.000000 0.174995 0.242314
1.000000 0.036497 0.161975
0.736313 0.025983 0.236074
0.081752 0.070337 0.571467
0.000000 0.069908 1.000000
0.000000 0.000000 1.000000
0.000000 0.000000 1.000000
1.000000 0.913577 0.591687
1.000000 0.559921 0.484520
1.000000 0.366722 0.328447
1.000000 0.287320 0.202514
1.000000 0.248520 0.197975
0.785417 0.150590 0.418291
0.261285 0.000000 0.979133
0.000000 0.000000 1.000000
0.000000 0.000000 1.000000
1.000000 0.538116 0.470433
1.000000 0.445296 0.423824
1.000000 0.480286 0.306759
1.000000 0.569811 0.194892
0.843938 0.614061 0.176081
0.774579 0.486690 0.350392
0.488222 0.034817 0.830101
0.000000 0.000000 1.000000
0.000000 0.000000 1.000000
1.000000 0.000000 0.063288
1.000000 0.143255 0.126399
1.000000 0.530250 0.102214
0.925873 0.914022 0.062987
0.807023 1.000000 0.093185
0.775353 1.000000 0.289477
0.530307 0.649076 0.760745
0.000000 0.000000 1.000000
0.000000 0.000000 1.000000
1.000000 0.000000 0.000000
1.000000 0.000000 0.000000
1.000000 0.541413 0.000000
1.000000 1.000000 0.000000
1.000000 1.000000 0.000000
1.000000 1.000000 0.160257
1.000000 1.000000 0.694691
0.312946 0.581965 1.000000
0.000000 0.000000 1.000000
1.000000 0.000000 0.000000
1.000000 0.000000 0.000000
1.000000 0.548813 0.000000
1.000000 1.000000 0.000000
1.000000 1.000000 0.000000
1.000000 1.000000 0.000000
1.000000 1.000000 0.558567
1.000000 1.000000 1.000000
0.108467 0.079867 1.000000
1.000000 0.000000 0.000000
1.000000 0.000000 0.000000
1.000000 0.597723 0.000000
1.000000 1.000000 0.000000
1.000000 1.000000 0.000000
1.000000 1.000000 0.000000
1.000000 1.000000 0.282003
1.000000 1.000000 1.000000
1.000000 1.000000 1.000000
1.000000 0.028375 0.253976
1.000000 0.000000 0.257505
0.613152 0.000000 0.314371
0.000000 0.000000 0.537519
0.000000 0.000000 1.000000
0.000000 0.000000 1.000000
0.000000 0.761162 1.000000
0.000000 1.000000 1.000000
0.000000 1.000000 1.000000
1.000000 0.487317 0.451370
1.000000 0.000000 0.374833
1.000000 0.000000 0.308105
0.534849 0.000000 0.360735
0.000000 0.000000 0.654479
0.000000 0.000000 1.000000
0.000000 0.000000 1.000000
0.000000 0.151417 1.000000
0.000000 0.342367 1.000000
1.000000 0.758832 0.589397
1.000000 0.106339 0.483299
1.000000 0.000000 0.348186
1.000000 0.000000 0.290213
0.481127 0.000000 0.427742
0.000000 0.000000 0.891342
0.000000 0.000000 1.000000
0.000000 0.000000 1.000000
0.000000 0.000000 1.000000
1.000000 0.828498 0.599342
1.000000 0.297997 0.513103
1.000000 0.000000 0.363731
1.000000 0.000000 0.253987
1.000000 0.000000 0.298836
0.287358 0.000000 0.625455
0.000000 0.000000 1.000000
0.000000 0.000000 1.000000
0.000000 0.000000 1.000000
1.000000 0.692131 0.415496
1.000000 0.393397 0.397449
1.000000 0.244590 0.286858
1.000000 0.167487 0.183088
0.855603 0.057330 0.197710
0.432445 0.000000 0.454504
0.000000 0.000000 1.000000
0.000000 0.000000 1.000000
0.000000 0.000000 1.000000
1.000000 0.355782 0.000000
1.000000 0.414078 0.072544
1.000000 0.591199 0.052689
1.000000 0.782308 0.011554
0.648504 0.856031 0.057315
0.377172 0.654460 0.310357
0.000000 0.000000 0.903273
0.000000 0.000000 1.000000
0.000000 0.000000 1.000000
1.000000 0.000000 0.000000
1.000000 0.391815 0.000000
1.000000 1.000000 0.000000
1.000000 1.000000 0.000000
1.000000 1.000000 0.000000
1.000000 1.000000 0.127883
0.523517 1.000000 0.748453
0.000000 0.072491 1.000000
0.000000 0.000000 1.000000
1.000000 0.000000 0.000000
1.000000 0.368621 0.000000
1.000000 1.000000 0.000000
1.000000 1.000000 0.000000
1.000000 1.000000 0.000000
1.000000 1.000000 0.000000
1.000000 1.000000 0.561786
1.000000 1.000000 1.000000
0.000000 0.000000 1.000000
1.000000 0.000000 0.000000
1.000000 0.396746 0.000000
1.000000 1.000000 0.000000
1.000000 1.000000 0.000000
1.000000 1.000000 0.000000
1.000000 1.000000 0.000000
1.000000 1.000000 0.283061
1.000000 1.000000 1.000000
1.000000 1.000000 1.000000
1.000000 0.000000 1.000000
1.000000 0.000000 1.000000
0.707364 0.000000 1.000000
0.000000 0.000000 1.000000
0.000000 0.000000 1.000000
0.000000 0.000000 1.000000
0.000000 0.000000 1.000000
0.000000 0.452866 1.000000
0.000000 1.000000 1.000000
1.000000 0.061524 1.000000
1.000000 0.000000 1.000000
1.000000 0.000000 1.000000
0.143579 0.000000 1.000000
0.000000 0.000000 1.000000
0.000000 0.000000 1.000000
0.000000 0.000000 1.000000
0.000000 0.000000 1.000000
0.000000 0.000000 1.000000
1.000000 0.426824 1.000000
1.000000 0.000000 1.000000
1.000000 0.000000 1.000000
1.000000 0.000000 1.000000
0.000000 0.000000 1.000000
0.000000 0.000000 1.000000
0.000000 0.000000 1.000000
0.000000 0.000000 1.000000
0.000000 0.000000 1.000000
1.000000 0.670643 1.000000
1.000000 0.000000 1.000000
1.000000 0.000000 0.947613
1.000000 0.000000 0.854821
0.472707 0.000000 0.948899
0.000000 0.000000 1.000000
0.000000 0.000000 1.000000
0.000000 0.000000 1.000000
0.000000 0.000000 1.000000
1.000000 0.811261 0.826836
1.000000 0.175960 0.844906
1.000000 0.000000 0.747420
1.000000 0.000000 0.657456
0.419956 0.000000 0.710297
0.000000 0.000000 1.000000
0.000000 0.000000 1.000000
0.000000 0.000000 1.000000
0.000000 0.000000 1.000000
1.000000 0.877193 0.275463
1.000000 0.568642 0.419642
1.000000 0.409026 0.415695
0.940564 0.288559 0.383306
0.125291 0.070919 0.454362
0.000000 0.000000 0.772963
0.000000 0.000000 1.000000
0.000000 0.000000 1.000000
0.000000 0.000000 1.000000
1.000000 0.907192 0.000000
1.000000 1.000000 0.000000
1.000000 1.000000 0.000000
1.000000 1.000000 0.000000
0.428944 1.000000 0.127208
0.000000 1.000000 0.484341
0.000000 0.543243 1.000000
0.000000 0.000000 1.000000
0.000000 0.000000 1.000000
1.000000 0.950246 0.000000
1.000000 1.000000 0.000000
1.000000 1.000000 0.000000
1.000000 1.000000 0.000000
1.000000 1.000000 0.000000
1.000000 1.000000 0.135605
0.957114 1.000000 0.918926
0.000000 1.000000 1.000000
0.000000 0.000000 1.000000
1.000000 1.000000 0.000000
1.000000 1.000000 0.000000
1.000000 1.000000 0.000000
1.000000 1.000000 0.000000
1.000000 1.000000 0.000000
1.000000 1.000000 0.000000
1.000000 1.000000 0.590499
1.000000 1.000000 1.000000
0.901661 1.000000 1.000000
1.000000 0.000000 1.000000
1.000000 0.000000 1.000000
0.241949 0.000000 1.000000
0.000000 0.000000 1.000000
0.000000 0.000000 1.000000
0.000000 0.000000 1.000000
0.000000 0.000000 1.000000
0.000000 0.000000 1.000000
0.000000 0.000000 1.000000
1.000000 0.000000 1.000000
1.000000 0.000000 1.000000
1.000000 0.000000 1.000000
0.000000 0.000000 1.000000
0.000000 0.000000 1.000000
0.000000 0.000000 1.000000
0.000000 0.000000 1.000000
0.000000 0.000000 1.000000
0.000000 0.000000 1.000000
1.000000 0.030411 1.000000
1.000000 0.000000 1.000000
1.000000 0.000000 1.000000
0.794679 0.000000 1.000000
0.000000 0.000000 1.000000
0.000000 0.000000 1.000000
0.000000 0.000000 1.000000
0.000000 0.000000 1.000000
0.000000 0.000000 1.000000
1.000000 0.467716 1.000000
1.000000 0.000000 1.000000
1.000000 0.000000 1.000000
1.000000 0.000000 1.000000
0.000000 0.000000 1.000000
0.000000 0.000000 1.000000
0.000000 0.000000 1.000000
0.000000 0.000000 1.000000
0.000000 0.000000 1.000000
1.000000 0.920206 1.000000
1.000000 0.000000 1.000000
1.000000 0.000000 1.000000
1.000000 0.000000 1.000000
0.000000 0.000000 1.000000
0.000000 0.000000 1.000000
0.000000 0.000000 1.000000
0.000000 0.000000 1.000000
0.000000 0.000000 1.000000
1.000000 1.000000 1.000000
1.000000 0.600572 1.000000
1.000000 0.000000 1.000000
0.361551 0.000000 1.000000
0.000000 0.000000 1.000000
0.000000 0.000000 1.000000
0.000000 0.000000 1.000000
0.000000 0.000000 1.000000
0.000000 0.000000 1.000000
1.000000 1.000000 0.587345
1.000000 1.000000 0.956945
1.000000 1.000000 1.000000
0.194508 1.000000 1.000000
0.000000 0.840548 1.000000
0.000000 0.116913 1.000000
0.000000 0.000000 1.000000
0.000000 0.000000 1.000000
0.000000 0.000000 1.000000
1.000000 1.000000 0.000000
1.000000 1.000000 0.000000
1.000000 1.000000 0.267794
1.000000 1.000000 0.505959
0.400687 1.000000 0.782869
0.000000 1.000000 1.000000
0.000000 1.000000 1.000000
0.000000 0.253645 1.000000
0.000000 0.000000 1.000000
1.000000 1.000000 0.000000
1.000000 1.000000 0.000000
1.000000 1.000000 0.000000
1.000000 1.000000 0.000000
1.000000 1.000000 0.104329
1.000000 1.000000 0.720841
1.000000 1.000000 1.000000
0.331862 1.000000 1.000000
0.000000 1.000000 1.000000
1.000000 0.000000 1.000000
1.000000 0.000000 1.000000
0.000000 0.000000 1.000000
0.000000 0.000000 1.000000
0.000000 0.000000 1.000000
0.000000 0.000000 1.000000
0.000000 0.000000 1.000000
0.000000 0.000000 1.000000
0.000000 0.000000 1.000000
1.000000 0.000000 1.000000
1.000000 0.000000 1.000000
1.000000 0.000000 1.000000
0.000000 0.000000 1.000000
0.000000 0.000000 1.000000
0.000000 0.000000 1.000000
0.000000 0.000000 1.000000
0.000000 0.000000 1.000000
0.000000 0.000000 1.000000
1.000000 0.000000 1.000000
1.000000 0.000000 1.000000
1.000000 0.000000 1.000000
0.000000 0.000000 1.000000
0.000000 0.000000 1.000000
0.000000 0.000000 1.000000
0.000000 0.000000 1.000000
0.000000 0.000000 1.000000
0.000000 0.000000 1.000000
1.000000 0.280187 1.000000
1.000000 0.000000 1.000000
1.000000 0.000000 1.000000
0.000000 0.000000 1.000000
0.000000 0.000000 1.000000
0.000000 0.000000 1.000000
0.000000 0.000000 1.000000
0.000000 0.000000 1.000000
0.000000 0.000000 1.000000
1.000000 1.000000 1.000000
1.000000 0.000000 1.000000
1.000000 0.000000 1.000000
0.000000 0.000000 1.000000
0.000000 0.000000 1.000000
0.000000 0.000000 1.000000
0.000000 0.000000 1.000000
0.000000 0.000000 1.000000
0.000000 0.000000 1.000000
1.000000 1.000000 1.000000
1.000000 0.536251 1.000000
1.000000 0.000000 1.000000
0.000000 0.000000 1.000000
0.000000 0.000000 1.000000
0.000000 0.000000 1.000000
0.000000 0.000000 1.000000
0.000000 0.000000 1.000000
0.000000 0.000000 1.000000
1.000000 1.000000 1.000000
1.000000 1.000000 1.000000
0.872545 1.000000 1.000000
0.000000 0.417568 1.000000
0.000000 0.000000 1.000000
0.000000 0.000000 1.000000
0.000000 0.000000 1.000000
0.000000 0.000000 1.000000
0.000000 0.000000 1.000000
1.000000 1.000000 1.000000
1.000000 1.000000 1.000000
1.000000 1.000000 1.000000
0.000000 1.000000 1.000000
0.000000 1.000000 1.000000
0.000000 1.000000 1.000000
0.000000 0.399091 1.000000
0.000000 0.000000 1.000000
0.000000 0.000000 1.000000
1.000000 1.000000 0.220435
1.000000 1.000000 1.000000
1.000000 1.000000 1.000000
1.000000 1.000000 1.000000
0.823990 1.000000 1.000000
0.000000 1.000000 1.000000
0.000000 1.000000 1.000000
0.000000 1.000000 1.000000
0.000000 0.000000 1.000000
