lrplugin/MindfulLensFilmEngine.lrplugin/profiles/luts/vespera.cube
# Generated from ColorChecker fit
LUT_3D_SIZE 33
DOMAIN_MIN 0.0 0.0 0.0
DOMAIN_MAX 1.0 1.0 1.0
1.000000 1.000000 0.000000
1.000000 1.000000 0.000000
1.000000 0.899912 0.000000
1.000000 0.694302 0.000000
0.855381 0.503929 0.000000
0.549954 0.329882 0.000000
0.270359 0.173144 0.066317
0.016282 0.034593 0.142177
0.000000 0.000000 0.217473
0.000000 0.000000 0.292189
0.000000 0.000000 0.366354
0.000000 0.000000 0.440050
0.000000 0.000000 0.513402
0.000000 0.000000 0.586585
0.000000 0.000000 0.659821
0.000000 0.000000 0.733379
0.000000 0.000000 0.807579
0.000000 0.000000 0.882784
0.000000 0.000000 0.959407
0.000000 0.000000 1.000000
0.000000 0.100104 1.000000
0.000000 0.250495 1.000000
0.000000 0.419830 1.000000
0.000000 0.607329 1.000000
0.000000 0.812110 1.000000
0.000000 1.000000 1.000000
0.000000 1.000000 1.000000
0.000000 1.000000 1.000000
0.000000 1.000000 1.000000
0.000000 1.000000 1.000000
0.000000 1.000000 1.000000
0.000000 1.000000 1.000000
0.000000 1.000000 1.000000
1.000000 1.000000 0.000000
1.000000 1.000000 0.000000
1.000000 0.977778 0.000000
1.000000 0.776795 0.000000
0.993775 0.590562 0.000000
0.705599 0.420062 0.000000
0.444015 0.266175 0.049397
0.208740 0.129677 0.117314
0.000000 0.011238 0.184534
0.000000 0.000000 0.251026
0.000000 0.000000 0.316809
0.000000 0.000000 0.381949
0.000000 0.000000 0.446559
0.000000 0.000000 0.510801
0.000000 0.000000 0.574883
0.000000 0.000000 0.639062
0.000000 0.000000 0.703642
0.000000 0.000000 0.768976
0.000000 0.000000 0.835462
0.000000 0.000000 0.903548
0.000000 0.101759 0.973729
0.000000 0.232086 1.000000
0.000000 0.378997 1.000000
0.000000 0.541609 1.000000
0.000000 0.718936 1.000000
0.000000 0.909887 1.000000
0.000000 1.000000 1.000000
0.000000 1.000000 1.000000
0.000000 1.000000 1.000000
0.000000 1.000000 1.000000
0.000000 1.000000 1.000000
0.000000 1.000000 1.000000
0.000000 1.000000 1.000000
1.000000 1.000000 0.000000
1.000000 1.000000 0.000000
1.000000 1.000000 0.000000
1.000000 0.852818 0.000000
1.000000 0.671553 0.000000
0.818417 0.505435 0.000000
0.572899 0.355239 0.040762
0.354366 0.221637 0.101770
0.162198 0.105197 0.161966
0.000000 0.006384 0.221306
0.000000 0.000000 0.279796
0.000000 0.000000 0.337488
0.000000 0.000000 0.394482
0.000000 0.000000 0.450927
0.000000 0.000000 0.507018
0.000000 0.000000 0.562999
0.000000 0.000000 0.619159
0.000000 0.000000 0.675839
0.000000 0.000000 0.733424
0.000000 0.015740 0.792349
0.000000 0.111818 0.853094
0.000000 0.223009 0.916191
0.000000 0.348431 0.982215
0.000000 0.487096 1.000000
0.000000 0.637914 1.000000
0.000000 0.799691 1.000000
0.000000 0.971129 1.000000
0.000000 1.000000 1.000000
0.000000 1.000000 1.000000
0.000000 1.000000 1.000000
0.000000 1.000000 1.000000
0.000000 1.000000 1.000000
0.000000 1.000000 1.000000
1.000000 1.000000 0.000000
1.000000 1.000000 0.000000
1.000000 1.000000 0.000000
1.000000 0.920394 0.000000
1.000000 0.744984 0.000000
0.891938 0.584142 0.000000
0.660559 0.438537 0.038467
0.456734 0.308739 0.093595
0.279869 0.195210 0.147815
0.129003 0.098311 0.201070
0.002808 0.018300 0.253352
0.000000 0.000000 0.304699
0.000000 0.000000 0.355200
0.000000 0.000000 0.404988
0.000000 0.000000 0.454247
0.000000 0.000000 0.503206
0.000000 0.000000 0.552142
0.000000 0.000000 0.601382
0.000000 0.000000 0.651298
0.000000 0.049158 0.702311
0.000000 0.129331 0.754890
0.000000 0.222375 0.809551
0.000000 0.327301 0.866857
0.000000 0.443019 0.927421
0.000000 0.568334 0.991901
0.000000 0.701949 1.000000
0.000000 0.842461 1.000000
0.000000 0.988366 1.000000
0.000000 1.000000 1.000000
0.000000 1.000000 1.000000
0.000000 1.000000 1.000000
0.000000 1.000000 1.000000
0.000000 1.000000 1.000000
1.000000 1.000000 0.000000
1.000000 1.000000 0.000000
1.000000 1.000000 0.000000
1.000000 0.977582 0.000000
1.000000 0.808978 0.000000
0.930527 0.654366 0.000000
0.711382 0.514313 0.040577
0.520250 0.389284 0.090852
0.356562 0.279639 0.140140
0.219388 0.185634 0.188372
0.107426 0.107421 0.235526
0.019012 0.045050 0.281629
0.000000 0.000000 0.326753
0.000000 0.000000 0.371021
0.000000 0.000000 0.414601
0.000000 0.000000 0.457711
0.000000 0.000000 0.500614
0.000000 0.000000 0.543623
0.000000 0.034383 0.587098
0.000000 0.088076 0.631447
0.000000 0.153389 0.677123
0.000000 0.229333 0.724632
0.000000 0.314818 0.774522
0.000000 0.408650 0.827393
0.000000 0.509529 0.883890
0.000000 0.616054 0.944706
0.000000 0.726719 1.000000
0.000000 0.839915 1.000000
0.000000 0.953928 1.000000
0.000000 1.000000 1.000000
0.000000 1.000000 1.000000
0.000000 1.000000 1.000000
0.000000 1.000000 1.000000
1.000000 1.000000 0.000000
1.000000 1.000000 0.000000
1.000000 1.000000 0.000000
1.000000 1.000000 0.000000
1.000000 0.861695 0.000000
0.939382 0.714328 0.000000
0.730589 0.580849 0.045171
0.550155 0.461617 0.091614
0.397541 0.356888 0.137010
0.271843 0.266815 0.181277
0.171790 0.191446 0.224380
0.095743 0.130726 0.266332
0.041699 0.084498 0.307194
0.007285 0.052498 0.347073
0.000000 0.034362 0.386125
0.000000 0.029619 0.424554
0.000000 0.037696 0.462611
0.005681 0.057917 0.500595
0.021018 0.089501 0.538852
0.034059 0.131565 0.577778
0.039864 0.183120 0.617813
0.033129 0.243074 0.659447
0.008183 0.310234 0.703219
0.000000 0.383300 0.749712
0.000000 0.460870 0.799559
0.000000 0.541438 0.853442
0.000000 0.623394 0.912087
0.000000 0.705025 0.976271
0.000000 0.784514 1.000000
0.000000 0.859941 1.000000
0.000000 0.929281 1.000000
0.000000 0.990406 1.000000
0.000000 1.000000 1.000000
1.000000 1.000000 0.000000
1.000000 1.000000 0.000000
1.000000 1.000000 0.000000
1.000000 1.000000 0.000000
1.000000 0.901337 0.000000
0.924538 0.762292 0.005766
0.724236 0.636468 0.050338
0.552528 0.524120 0.093966
0.408905 0.425401 0.136506
0.292490 0.340359 0.177862
0.202040 0.268939 0.217987
0.135946 0.210982 0.256879
0.092232 0.166225 0.294586
0.068554 0.134303 0.331204
0.062204 0.114746 0.366874
0.070105 0.106980 0.401786
0.088814 0.110329 0.436180
0.114521 0.124010 0.470339
0.143050 0.147141 0.504599
0.169857 0.178733 0.539339
0.190034 0.217694 0.574988
0.198304 0.262829 0.612024
0.189023 0.312839 0.650969
0.156181 0.366321 0.692396
0.093403 0.421769 0.736923
0.000000 0.477573 0.785219
0.000000 0.532020 0.837998
0.000000 0.583292 0.896023
0.000000 0.629467 0.960103
0.000000 0.668523 1.000000
0.000000 0.698330 1.000000
0.000000 0.716656 1.000000
0.000000 0.721167 1.000000
1.000000 1.000000 0.000000
1.000000 1.000000 0.000000
1.000000 1.000000 0.000000
1.000000 1.000000 0.000000
1.000000 0.926147 0.000000
0.892866 0.796560 0.011401
0.699215 0.679532 0.054180
0.534282 0.575217 0.096005
0.397587 0.483661 0.136720
0.288282 0.404810 0.176215
0.205153 0.338505 0.214429
0.146618 0.284482 0.251349
0.110730 0.242375 0.287007
0.095173 0.211714 0.321486
0.097267 0.191925 0.354915
0.113964 0.182331 0.387472
0.141850 0.182151 0.419380
0.177142 0.190501 0.450912
0.215693 0.206391 0.482388
0.252988 0.228729 0.514177
0.284146 0.256321 0.546693
0.303919 0.287867 0.580399
0.306691 0.321963 0.615807
0.286483 0.357103 0.653474
0.236944 0.391678 0.694007
0.151361 0.423972 0.738061
0.022652 0.452169 0.786336
0.000000 0.474346 0.839581
0.000000 0.488481 0.898594
0.000000 0.492442 0.964219
0.000000 0.484000 1.000000
0.000000 0.460817 1.000000
0.000000 0.420454 1.000000
1.000000 1.000000 0.000000
1.000000 1.000000 0.000000
1.000000 1.000000 0.000000
1.000000 1.000000 0.000000
1.000000 0.934405 0.000000
0.852071 0.815473 0.012832
0.663251 0.708445 0.054809
0.503164 0.613370 0.095841
0.371358 0.530193 0.135758
0.267012 0.458753 0.174438
0.188942 0.398788 0.211805
0.135593 0.349931 0.247833
0.105047 0.311712 0.282543
0.095018 0.283556 0.316003
0.102852 0.264785 0.348329
0.125530 0.254619 0.379685
0.159666 0.252172 0.410282
0.201506 0.256456 0.440379
0.246932 0.266379 0.470283
0.291456 0.280743 0.500349
0.330226 0.298251 0.530979
0.358022 0.317498 0.562622
0.369258 0.336977 0.595777
0.357980 0.355078 0.630988
0.317869 0.370087 0.668848
0.242238 0.380186 0.709998
0.124035 0.383453 0.755127
0.000000 0.377863 0.804970
0.000000 0.361287 0.860310
0.000000 0.331493 0.921980
0.000000 0.286145 0.990858
0.000000 0.222802 1.000000
0.000000 0.138922 1.000000
1.000000 1.000000 0.000000
1.000000 1.000000 0.000000
1.000000 1.000000 0.000000
1.000000 1.000000 0.000000
1.000000 0.924434 0.000000
0.810692 0.817413 0.008190
0.624907 0.721648 0.050351
0.467758 0.637084 0.091594
0.338821 0.563559 0.131736
0.237305 0.500812 0.170641
0.162053 0.448474 0.208221
0.111540 0.406076 0.244436
0.083875 0.373042 0.279294
0.076800 0.348695 0.312850
0.087691 0.332253 0.345205
0.113555 0.322831 0.376512
0.151037 0.319439 0.406968
0.196410 0.320986 0.436818
0.245584 0.326274 0.466357
0.294100 0.334004 0.495926
0.337135 0.342773 0.525913
0.369496 0.351072 0.556755
0.385626 0.357292 0.588937
0.379599 0.359717 0.622990
0.345125 0.356530 0.659494
0.275545 0.345808 0.699076
0.163835 0.325526 0.742412
0.002603 0.293555 0.790225
0.000000 0.247662 0.843283
0.000000 0.185510 0.902407
0.000000 0.104660 0.968461
0.000000 0.002568 1.000000
0.000000 0.000000 1.000000
1.000000 1.000000 0.000000
1.000000 1.000000 0.000000
1.000000 1.000000 0.000000
1.000000 0.999056 0.000000
0.991092 0.894595 0.000000
0.778106 0.800804 0.000000
0.593579 0.717625 0.038942
0.437481 0.644900 0.081396
0.309417 0.582364 0.122781
0.208623 0.529650 0.162949
0.133970 0.486287 0.201797
0.083963 0.451700 0.239274
0.056738 0.425211 0.275371
0.050066 0.406038 0.310133
0.061352 0.393295 0.343647
0.087631 0.385993 0.376052
0.125574 0.383039 0.407532
0.171486 0.383237 0.438320
0.221304 0.385285 0.468696
0.270597 0.387781 0.498988
0.314569 0.389217 0.529571
0.348058 0.387981 0.560870
0.365534 0.382358 0.593355
0.361100 0.370531 0.627544
0.328494 0.350577 0.664005
0.261085 0.320470 0.703351
0.151878 0.278080 0.746244
0.000000 0.221175 0.793393
0.000000 0.147417 0.845556
0.000000 0.054367 0.903538
0.000000 0.000000 0.968190
0.000000 0.000000 1.000000
0.000000 0.000000 1.000000
1.000000 1.000000 0.000000
1.000000 1.000000 0.000000
1.000000 1.000000 0.000000
1.000000 0.932610 0.000000
0.977659 0.843290 0.000000
0.764523 0.764106 0.000000
0.579500 0.694899 0.018730
0.422588 0.635403 0.063391
0.293419 0.585251 0.107034
0.191260 0.543972 0.149497
0.115010 0.510991 0.190665
0.063200 0.485629 0.230472
0.033997 0.467105 0.268897
0.025199 0.454531 0.305971
0.034238 0.446918 0.341769
0.058180 0.443174 0.376415
0.093724 0.442100 0.410081
0.137202 0.442397 0.442986
0.184579 0.442661 0.475397
0.231455 0.441383 0.507629
0.273061 0.436952 0.540044
0.304262 0.427653 0.573052
0.319558 0.411667 0.607112
0.313079 0.387071 0.642728
0.278593 0.351840 0.680453
0.209496 0.303843 0.720890
0.098822 0.240847 0.764685
0.000000 0.160516 0.812535
0.000000 0.060407 0.865184
0.000000 0.000000 0.923424
0.000000 0.000000 0.988094
0.000000 0.000000 1.000000
0.000000 0.000000 1.000000
1.000000 1.000000 0.000000
1.000000 1.000000 0.000000
1.000000 0.924222 0.000000
1.000000 0.841706 0.000000
0.995897 0.768960 0.000000
0.780989 0.705823 0.000000
0.593736 0.652030 0.000000
0.434166 0.607215 0.035735
0.301940 0.570904 0.082646
0.196350 0.542522 0.128433
0.116326 0.521392 0.172967
0.060427 0.506729 0.216169
0.026847 0.497648 0.258007
0.013414 0.493159 0.298495
0.017588 0.492169 0.337697
0.036464 0.493479 0.375723
0.066767 0.495790 0.412731
0.104860 0.497696 0.448929
0.146735 0.497690 0.484569
0.188020 0.494159 0.519953
0.223976 0.485389 0.555431
0.249495 0.469559 0.591398
0.259105 0.444748 0.628300
0.246967 0.408928 0.666628
0.206874 0.359970 0.706923
0.132253 0.295640 0.749772
0.016164 0.213601 0.795810
0.000000 0.111411 0.845721
0.000000 0.000000 0.900234
0.000000 0.000000 0.960129
0.000000 0.000000 1.000000
0.000000 0.000000 1.000000
0.000000 0.000000 1.000000
1.000000 0.945456 0.000000
1.000000 0.862341 0.000000
1.000000 0.788797 0.000000
1.000000 0.724766 0.000000
1.000000 0.670087 0.000000
0.839386 0.624496 0.000000
0.648192 0.587624 0.000000
0.484141 0.558999 0.000000
0.346922 0.538046 0.047781
0.235859 0.524085 0.097916
0.149905 0.516333 0.146859
0.087651 0.513904 0.194518
0.047319 0.515808 0.240846
0.026764 0.520950 0.285846
0.023476 0.528134 0.329568
0.034576 0.536057 0.372109
0.056820 0.543316 0.413613
0.086598 0.548401 0.454275
0.119931 0.549700 0.494334
0.152474 0.545499 0.534078
0.179517 0.533976 0.573844
0.195981 0.513209 0.614015
0.196423 0.481172 0.655022
0.175030 0.435734 0.697345
0.125625 0.374660 0.741509
0.041663 0.295614 0.788089
0.000000 0.196153 0.837707
0.000000 0.073733 0.891033
0.000000 0.000000 0.948784
0.000000 0.000000 1.000000
0.000000 0.000000 1.000000
0.000000 0.000000 1.000000
0.000000 0.000000 1.000000
1.000000 0.740022 0.000000
1.000000 0.677452 0.000000
1.000000 0.624248 0.000000
1.000000 0.580250 0.000000
1.000000 0.545193 0.000000
0.952429 0.518707 0.000000
0.755603 0.500321 0.000000
0.585271 0.489459 0.000000
0.441149 0.485441 0.000613
0.322588 0.487483 0.056116
0.228572 0.494700 0.110507
0.157719 0.506100 0.163679
0.108280 0.520589 0.215573
0.078138 0.536969 0.266179
0.064810 0.553939 0.315533
0.065448 0.570094 0.363718
0.076835 0.583925 0.410867
0.095389 0.593819 0.457160
0.117160 0.598061 0.502823
0.137831 0.594830 0.548132
0.152721 0.582203 0.593409
0.156779 0.558154 0.639024
0.144589 0.520550 0.685396
0.110369 0.467159 0.732990
0.047968 0.395641 0.782319
0.000000 0.303556 0.833944
0.000000 0.188357 0.888475
0.000000 0.047397 0.946567
0.000000 0.000000 1.000000
0.000000 0.000000 1.000000
0.000000 0.000000 1.000000
0.000000 0.000000 1.000000
0.000000 0.000000 1.000000
1.000000 0.500707 0.000000
1.000000 0.460277 0.000000
1.000000 0.429017 0.000000
1.000000 0.406660 0.000000
1.000000 0.392839 0.000000
1.000000 0.387079 0.000000
0.929544 0.388805 0.000000
0.751150 0.397337 0.000000
0.598234 0.411892 0.000000
0.470175 0.431582 0.001216
0.365985 0.455416 0.062088
0.284310 0.482300 0.121826
0.223430 0.511036 0.180358
0.181256 0.540322 0.237659
0.155335 0.568752 0.293752
0.142845 0.594818 0.348708
0.140598 0.616906 0.402647
0.145041 0.633300 0.455733
0.152252 0.642181 0.508182
0.157943 0.641623 0.560255
0.157460 0.629601 0.612260
0.145782 0.603982 0.664556
0.117520 0.562532 0.717547
0.066921 0.502914 0.771685
0.000000 0.422684 0.827471
0.000000 0.319297 0.885452
0.000000 0.190105 0.946223
0.000000 0.032353 1.000000
0.000000 0.000000 1.000000
0.000000 0.000000 1.000000
0.000000 0.000000 1.000000
0.000000 0.000000 1.000000
0.000000 0.000000 1.000000
1.000000 0.225869 0.000000
1.000000 0.209238 0.000000
1.000000 0.201584 0.000000
1.000000 0.202537 0.000000
1.000000 0.211626 0.000000
1.000000 0.228273 0.000000
1.000000 0.251798 0.000000
0.996209 0.281417 0.000000
0.832629 0.316243 0.000000
0.693092 0.355285 0.000000
0.576637 0.397447 0.000000
0.481939 0.441532 0.067146
0.407306 0.486236 0.133381
0.350678 0.530155 0.198462
0.309629 0.571779 0.262399
0.281367 0.609495 0.325248
0.262732 0.641586 0.387116
0.250198 0.666231 0.448155
0.239872 0.681507 0.508566
0.227496 0.685386 0.568598
0.208442 0.675737 0.628546
0.177719 0.650324 0.688755
0.129966 0.606810 0.749616
0.059457 0.542750 0.811567
0.000000 0.455601 0.875097
0.000000 0.342711 0.940738
0.000000 0.201329 1.000000
0.000000 0.028596 1.000000
0.000000 0.000000 1.000000
0.000000 0.000000 1.000000
0.000000 0.000000 1.000000
0.000000 0.000000 1.000000
0.000000 0.000000 1.000000
1.000000 0.000000 0.000000
1.000000 0.000000 0.000000
1.000000 0.000000 0.000000
1.000000 0.000000 0.000000
1.000000 0.000197 0.000000
1.000000 0.040992 0.000000
1.000000 0.088063 0.000000
1.000000 0.140522 0.000000
1.000000 0.197378 0.000000
1.000000 0.257536 0.000000
0.875858 0.319797 0.000000
0.765957 0.382859 0.000000
0.675280 0.445315 0.072837
0.601796 0.505655 0.146779
0.543108 0.562267 0.219658
0.496450 0.613433 0.291518
0.458693 0.657332 0.362451
0.426338 0.692041 0.432597
0.395521 0.715530 0.502143
0.362011 0.725669 0.571325
0.321210 0.720223 0.640426
0.268154 0.696851 0.709775
0.197511 0.653112 0.779752
0.103585 0.586459 0.850781
0.000000 0.494243 0.923338
0.000000 0.373710 0.997942
0.000000 0.222002 1.000000
0.000000 0.036159 1.000000
0.000000 0.000000 1.000000
0.000000 0.000000 1.000000
0.000000 0.000000 1.000000
0.000000 0.000000 1.000000
0.000000 0.000000 1.000000
1.000000 0.000000 0.000000
1.000000 0.000000 0.000000
1.000000 0.000000 0.000000
1.000000 0.000000 0.000000
1.000000 0.000000 0.000000
1.000000 0.000000 0.000000
1.000000 0.000000 0.000000
1.000000 0.000000 0.000000
1.000000 0.054221 0.000000
1.000000 0.137320 0.000000
1.000000 0.221511 0.000000
1.000000 0.305386 0.000000
1.000000 0.387436 0.000000
0.950839 0.466047 0.080810
0.872020 0.539501 0.163726
0.804366 0.605978 0.245709
0.744774 0.663552 0.326839
0.689775 0.710196 0.407243
0.635533 0.743777 0.487093
0.577845 0.762061 0.566612
0.512142 0.762707 0.646070
0.433487 0.743272 0.725784
0.336578 0.701211 0.806119
0.215746 0.633872 0.887487
0.064954 0.538502 0.970348
0.000000 0.412244 1.000000
0.000000 0.252136 1.000000
0.000000 0.055114 1.000000
0.000000 0.000000 1.000000
0.000000 0.000000 1.000000
0.000000 0.000000 1.000000
0.000000 0.000000 1.000000
0.000000 0.000000 1.000000
1.000000 0.000000 0.000000
1.000000 0.000000 0.000000
1.000000 0.000000 0.000000
1.000000 0.000000 0.000000
1.000000 0.000000 0.000000
1.000000 0.000000 0.000000
1.000000 0.000000 0.000000
1.000000 0.000000 0.000000
1.000000 0.000000 0.000000
1.000000 0.000000 0.000000
1.000000 0.101673 0.000000
1.000000 0.208260 0.000000
1.000000 0.311807 0.000000
1.000000 0.410597 0.000000
1.000000 0.502809 0.092811
1.000000 0.586517 0.186027
1.000000 0.659694 0.278482
1.000000 0.720206 0.370288
0.977079 0.765818 0.461606
0.892190 0.794190 0.552646
0.798450 0.802878 0.643662
0.690953 0.789337 0.734960
0.564423 0.750916 0.826890
0.413219 0.684859 0.919853
0.231334 0.588310 1.000000
0.012393 0.458307 1.000000
0.000000 0.291785 1.000000
0.000000 0.085574 1.000000
0.000000 0.000000 1.000000
0.000000 0.000000 1.000000
0.000000 0.000000 1.000000
0.000000 0.000000 1.000000
0.000000 0.000000 1.000000
1.000000 0.000000 0.000000
1.000000 0.000000 0.000000
1.000000 0.000000 0.000000
1.000000 0.000000 0.000000
1.000000 0.000000 0.000000
1.000000 0.000000 0.000000
1.000000 0.000000 0.000000
1.000000 0.000000 0.000000
1.000000 0.000000 0.000000
1.000000 0.000000 0.000000
1.000000 0.000000 0.000000
1.000000 0.090663 0.000000
1.000000 0.217672 0.000000
1.000000 0.338612 0.000000
1.000000 0.451557 0.005133
1.000000 0.554478 0.110687
1.000000 0.645244 0.215590
1.000000 0.721618 0.319940
1.000000 0.781259 0.423887
1.000000 0.821725 0.527624
1.000000 0.840468 0.631396
1.000000 0.834837 0.735492
0.899135 0.802077 0.840252
0.714115 0.739332 0.946062
0.497581 0.643638 1.000000
0.243188 0.511930 1.000000
0.000000 0.341040 1.000000
0.000000 0.127694 1.000000
0.000000 0.000000 1.000000
0.000000 0.000000 1.000000
0.000000 0.000000 1.000000
0.000000 0.000000 1.000000
0.000000 0.000000 1.000000
1.000000 0.000000 0.000000
1.000000 0.000000 0.000000
1.000000 0.000000 0.000000
1.000000 0.000000 0.000000
1.000000 0.000000 0.000000
1.000000 0.000000 0.000000
1.000000 0.000000 0.000000
1.000000 0.000000 0.000000
1.000000 0.000000 0.000000
1.000000 0.000000 0.000000
1.000000 0.000000 0.000000
1.000000 0.000000 0.000000
1.000000 0.104317 0.000000
1.000000 0.249437 0.000000
1.000000 0.385151 0.000000
1.000000 0.509328 0.017916
1.000000 0.619731 0.136386
1.000000 0.714020 0.254418
1.000000 0.789751 0.372149
1.000000 0.844376 0.489759
1.000000 0.875244 0.607478
1.000000 0.879600 0.725585
1.000000 0.854587 0.844403
1.000000 0.797241 0.964307
0.882666 0.704497 1.000000
0.589175 0.573186 1.000000
0.250225 0.400034 1.000000
0.000000 0.181664 1.000000
0.000000 0.000000 1.000000
0.000000 0.000000 1.000000
0.000000 0.000000 1.000000
0.000000 0.000000 1.000000
0.000000 0.000000 1.000000
1.000000 0.000000 0.000000
1.000000 0.000000 0.000000
1.000000 0.000000 0.000000
1.000000 0.000000 0.000000
1.000000 0.000000 0.000000
1.000000 0.000000 0.000000
1.000000 0.000000 0.000000
1.000000 0.000000 0.000000
1.000000 0.000000 0.000000
1.000000 0.000000 0.000000
1.000000 0.000000 0.000000
1.000000 0.000000 0.000000
1.000000 0.000000 0.000000
1.000000 0.142458 0.000000
1.000000 0.303038 0.000000
1.000000 0.450573 0.000000
1.000000 0.582722 0.039105
1.000000 0.697040 0.171953
1.000000 0.790981 0.304618
1.000000 0.861891 0.437271
1.000000 0.907016 0.570126
1.000000 0.923498 0.703450
1.000000 0.908374 0.837552
1.000000 0.858577 0.972793
1.000000 0.770939 1.000000
1.000000 0.642185 1.000000
0.687513 0.468939 1.000000
0.251365 0.247720 1.000000
0.000000 0.000000 1.000000
0.000000 0.000000 1.000000
0.000000 0.000000 1.000000
0.000000 0.000000 1.000000
0.000000 0.000000 1.000000
1.000000 0.000000 0.000000
1.000000 0.000000 0.000000
1.000000 0.000000 0.000000
1.000000 0.000000 0.000000
1.000000 0.000000 0.000000
1.000000 0.000000 0.000000
1.000000 0.000000 0.000000
1.000000 0.000000 0.000000
1.000000 0.000000 0.000000
1.000000 0.000000 0.000000
1.000000 0.000000 0.000000
1.000000 0.000000 0.000000
1.000000 0.000000 0.000000
1.000000 0.017101 0.000000
1.000000 0.204705 0.000000
1.000000 0.377761 0.000000
1.000000 0.533824 0.000000
1.000000 0.670347 0.070786
1.000000 0.784677 0.219534
1.000000 0.874060 0.368395
1.000000 0.935635 0.517571
1.000000 0.966440 0.667313
1.000000 0.963409 0.817920
1.000000 0.923372 0.969738
1.000000 0.843055 1.000000
1.000000 0.719081 1.000000
1.000000 0.547968 1.000000
0.792109 0.326132 1.000000
0.245531 0.049885 1.000000
0.000000 0.000000 1.000000
0.000000 0.000000 1.000000
0.000000 0.000000 1.000000
0.000000 0.000000 1.000000
1.000000 0.000000 0.000000
1.000000 0.000000 0.000000
1.000000 0.000000 0.000000
1.000000 0.000000 0.000000
1.000000 0.000000 0.000000
1.000000 0.000000 0.000000
1.000000 0.000000 0.000000
1.000000 0.000000 0.000000
1.000000 0.000000 0.000000
1.000000 0.000000 0.000000
1.000000 0.000000 0.000000
1.000000 0.000000 0.000000
1.000000 0.000000 0.000000
1.000000 0.000000 0.000000
1.000000 0.089678 0.000000
1.000000 0.290478 0.000000
1.000000 0.472686 0.000000
1.000000 0.633648 0.000000
1.000000 0.770609 0.115146
1.000000 0.880711 0.281377
1.000000 0.960988 0.448052
1.000000 1.000000 0.615412
1.000000 1.000000 0.783740
1.000000 0.991696 0.953371
1.000000 0.920977 1.000000
1.000000 0.804065 1.000000
1.000000 0.637373 1.000000
1.000000 0.417215 1.000000
0.902484 0.139798 1.000000
0.231650 0.000000 1.000000
0.000000 0.000000 1.000000
0.000000 0.000000 1.000000
0.000000 0.000000 1.000000
1.000000 0.000000 0.000000
1.000000 0.000000 0.000000
1.000000 0.000000 0.000000
1.000000 0.000000 0.000000
1.000000 0.000000 0.000000
1.000000 0.000000 0.000000
1.000000 0.000000 0.000000
1.000000 0.000000 0.000000
1.000000 0.000000 0.000000
1.000000 0.000000 0.000000
1.000000 0.000000 0.000000
1.000000 0.000000 0.000000
1.000000 0.000000 0.000000
1.000000 0.000000 0.000000
1.000000 0.000000 0.000000
1.000000 0.188352 0.000000
1.000000 0.398993 0.000000
1.000000 0.586691 0.000000
1.000000 0.748585 0.000000
1.000000 0.881713 0.174473
1.000000 0.983007 0.359825
1.000000 1.000000 0.545995
1.000000 1.000000 0.733257
1.000000 1.000000 0.921930
1.000000 1.000000 1.000000
1.000000 0.897368 1.000000
1.000000 0.737448 1.000000
1.000000 0.521321 1.000000
1.000000 0.245094 1.000000
1.000000 0.000000 1.000000
0.208651 0.000000 1.000000
0.000000 0.000000 1.000000
0.000000 0.000000 1.000000
1.000000 0.000000 0.000000
1.000000 0.000000 0.000000
1.000000 0.000000 0.000000
1.000000 0.000000 0.000000
1.000000 0.000000 0.000000
1.000000 0.000000 0.000000
1.000000 0.000000 0.000000
1.000000 0.000000 0.000000
1.000000 0.000000 0.000000
1.000000 0.000000 0.000000
1.000000 0.000000 0.000000
1.000000 0.000000 0.000000
1.000000 0.000000 0.000000
1.000000 0.000000 0.000000
1.000000 0.000000 0.000000
1.000000 0.071048 0.000000
1.000000 0.312474 0.000000
1.000000 0.529264 0.000000
1.000000 0.718453 0.000000
1.000000 0.876975 0.045954
1.000000 1.000000 0.251152
1.000000 1.000000 0.457324
1.000000 1.000000 0.664728
1.000000 1.000000 0.873670
1.000000 1.000000 1.000000
1.000000 0.999264 1.000000
1.000000 0.848523 1.000000
