lrplugin/MindfulLensFilmEngine.lrplugin/profiles/luts/zetra_100.cube
# Generated from ColorChecker fit
LUT_3D_SIZE 33
DOMAIN_MIN 0.0 0.0 0.0
DOMAIN_MAX 1.0 1.0 1.0
0.000000 0.000000 0.000000
0.000000 0.000000 0.000000
0.000000 0.000000 0.000000
0.000000 0.000000 0.000000
0.000000 0.000000 0.000000
0.000000 0.000000 0.000000
0.000000 0.000000 0.000000
0.000000 0.000000 0.000000
0.000000 0.000000 0.000000
0.000000 0.000000 0.000000
0.000000 0.000000 0.000000
0.000000 0.000000 0.000000
0.000000 0.000000 0.000000
0.000000 0.000000 0.000000
0.000000 0.000000 0.000000
0.000000 0.000000 0.000000
0.000000 0.000000 0.000000
0.000000 0.000000 0.000000
0.000000 0.000000 0.000000
0.000000 0.000000 0.000000
0.000000 0.000000 0.000000
0.000000 0.000000 0.000000
0.000000 0.000000 0.000000
0.000000 0.000000 0.000000
0.000000 0.000000 0.000000
0.000000 0.000000 0.000000
0.000000 0.000000 0.000000
0.000000 0.000000 0.000000
0.000000 0.000000 0.000000
0.000000 0.000000 0.000000
0.000000 0.000000 0.000000
0.000000 0.000000 0.000000
0.000000 0.000000 0.000000
0.000000 0.000000 0.000000
0.000000 0.000000 0.000000
0.000000 0.000000 0.000000
0.000000 0.000000 0.000000
0.000000 0.000000 0.000000
0.000000 0.000000 0.000000
0.000000 0.000000 0.000000
0.000000 0.000000 0.000000
0.000000 0.000000 0.000000
0.000000 0.000000 0.000000
0.000000 0.000000 0.000000
0.000000 0.000000 0.000000
0.000000 0.000000 0.000000
0.000000 0.000000 0.000000
0.000000 0.000000 0.000000
0.000000 0.000000 0.000000
0.000000 0.000000 0.000000
0.000000 0.000000 0.000000
0.000000 0.000000 0.000000
0.000000 0.000000 0.000000
0.000000 0.000000 0.000000
0.000000 0.000000 0.000000
0.000000 0.000000 0.000000
0.000000 0.000000 0.000000
0.000000 0.000000 0.000000
0.000000 0.000000 0.000000
0.000000 0.000000 0.000000
0.000000 0.000000 0.000000
0.000000 0.000000 0.000000
0.000000 0.000000 0.000000
0.000000 0.000000 0.000000
0.000000 0.000000 0.000000
0.000000 0.000000 0.000000
0.000000 0.000000 0.000000
0.000000 0.000000 0.000000
0.000000 0.000000 0.000000
0.000000 0.000000 0.000000
0.000000 0.000000 0.000000
0.000000 0.000000 0.000000
0.000000 0.000000 0.000000
0.000000 0.000000 0.000000
0.000000 0.000000 0.000000
0.000000 0.000000 0.000000
0.000000 0.000000 0.000000
0.000000 0.000000 0.000000
0.000000 0.000000 0.000000
0.000000 0.000000 0.007800
0.000000 0.000000 0.017050
0.000000 0.000000 0.025351
0.000000 0.000000 0.032496
0.000000 0.000000 0.038288
0.000000 0.000000 0.042538
0.000000 0.000000 0.045066
0.000000 0.000000 0.045705
0.000000 0.000000 0.044292
0.000000 0.000000 0.040678
0.000000 0.000000 0.034722
0.000000 0.000000 0.026291
0.000000 0.000000 0.015264
0.000000 0.000000 0.001526
0.000000 0.000000 0.000000
0.000000 0.000000 0.000000
0.000000 0.000000 0.000000
0.000000 0.000000 0.000000
0.000000 0.000000 0.000000
0.000000 0.000000 0.000000
0.000000 0.000000 0.000000
0.000000 0.000000 0.000000
0.000000 0.000000 0.000000
0.000000 0.000000 0.000000
0.000000 0.000000 0.000000
0.000000 0.000000 0.000000
0.000000 0.000000 0.000000
0.000000 0.000000 0.000000
0.000000 0.000000 0.000000
0.000000 0.000000 0.000000
0.000000 0.000000 0.000956
0.000000 0.000000 0.015755
0.000000 0.000000 0.030119
0.000000 0.000000 0.043793
0.000000 0.000000 0.056530
0.000000 0.000000 0.068095
0.000000 0.000000 0.078260
0.000000 0.000000 0.086808
0.000000 0.000000 0.093530
0.000000 0.000000 0.098229
0.000000 0.000000 0.100714
0.000000 0.000000 0.100806
0.000000 0.000000 0.098335
0.000000 0.000000 0.093139
0.000000 0.000000 0.085067
0.000000 0.000000 0.073978
0.000000 0.000000 0.059737
0.000000 0.000000 0.042223
0.000000 0.000000 0.021321
0.000000 0.000000 0.000000
0.000000 0.000000 0.000000
0.000000 0.000000 0.000000
0.000000 0.000000 0.000000
0.000000 0.000000 0.000000
0.000000 0.000000 0.000000
0.000000 0.000000 0.000000
0.000000 0.000000 0.000000
0.000000 0.000000 0.000000
0.000000 0.000000 0.000000
0.000000 0.000000 0.000000
0.000000 0.000000 0.000000
0.000000 0.000000 0.000000
0.000000 0.000000 0.000000
0.000000 0.000000 0.018343
0.000000 0.000000 0.037104
0.000000 0.000000 0.055251
0.000000 0.000000 0.072510
0.000000 0.000000 0.088616
0.000000 0.000000 0.103311
0.000000 0.000000 0.116349
0.000000 0.000000 0.127493
0.000000 0.000000 0.136516
0.000000 0.000000 0.143198
0.000000 0.000000 0.147331
0.000000 0.000000 0.148715
0.000000 0.000000 0.147161
0.000000 0.000000 0.142487
0.000000 0.000000 0.134522
0.000000 0.000000 0.123106
0.000000 0.000000 0.108084
0.000000 0.000000 0.089315
0.000000 0.000000 0.066664
0.000000 0.000000 0.040009
0.000000 0.000000 0.009234
0.000000 0.000000 0.000000
0.000000 0.000000 0.000000
0.000000 0.000000 0.000000
0.000000 0.000000 0.000000
0.000000 0.000000 0.000000
0.000000 0.000000 0.000000
0.000000 0.000000 0.000000
0.000000 0.000000 0.000000
0.000000 0.000000 0.000000
0.000000 0.000000 0.000000
0.000000 0.000000 0.000000
0.000000 0.000000 0.005341
0.000000 0.000000 0.028489
0.000000 0.000000 0.051137
0.000000 0.000000 0.072979
0.000000 0.000000 0.093722
0.000000 0.000000 0.113080
0.000000 0.000000 0.130778
0.000000 0.000000 0.146548
0.000000 0.000000 0.160135
0.000000 0.000000 0.171289
0.000000 0.000000 0.179775
0.000000 0.000000 0.185361
0.000000 0.000000 0.187831
0.000000 0.000000 0.186973
0.000000 0.000000 0.182587
0.000000 0.000000 0.174483
0.000000 0.000000 0.162479
0.000000 0.000000 0.146403
0.000000 0.000000 0.126093
0.000000 0.000000 0.101394
0.000000 0.000000 0.072165
0.000000 0.000000 0.038269
0.000000 0.000000 0.000000
0.000000 0.000000 0.000000
0.000000 0.046110 0.000000
0.000000 0.046643 0.000000
0.000000 0.038895 0.000000
0.000000 0.023109 0.000000
0.000000 0.000000 0.000000
0.000000 0.000000 0.000000
0.000000 0.000000 0.000000
0.000000 0.000000 0.000000
0.000000 0.000000 0.000000
0.000000 0.000000 0.004066
0.000000 0.000000 0.031216
0.000000 0.000000 0.057680
0.000000 0.000000 0.083135
0.000000 0.000000 0.107265
0.000000 0.000000 0.129767
0.000000 0.000000 0.150344
0.000000 0.000000 0.168710
0.000000 0.000000 0.184590
0.000000 0.000000 0.197715
0.000000 0.000000 0.207827
0.000000 0.000000 0.214679
0.000000 0.000000 0.218032
0.000000 0.000000 0.217655
0.000000 0.000000 0.213330
0.000000 0.000000 0.204845
0.000000 0.000000 0.191999
0.000000 0.000000 0.174601
0.000000 0.000000 0.152468
0.000000 0.000000 0.125427
0.000000 0.000000 0.093315
0.000000 0.000000 0.055978
0.000000 0.000000 0.013272
0.000000 0.000000 0.000000
0.000000 0.122736 0.000000
0.000000 0.118721 0.000000
0.000000 0.107007 0.000000
0.000000 0.087819 0.000000
0.000000 0.061410 0.000000
0.000000 0.028064 0.000000
0.000000 0.000000 0.000000
0.000000 0.000000 0.000000
0.000000 0.000000 0.000000
0.000000 0.000000 0.000000
0.000000 0.000000 0.026414
0.000000 0.000000 0.056630
0.000000 0.000000 0.085618
0.000000 0.000000 0.113045
0.000000 0.000000 0.138586
0.000000 0.000000 0.161925
0.000000 0.000000 0.182757
0.000000 0.000000 0.200785
0.000000 0.000000 0.215723
0.000000 0.000000 0.227293
0.000000 0.000000 0.235226
0.000000 0.000000 0.239265
0.000000 0.000000 0.239160
0.000000 0.000000 0.234672
0.000000 0.000000 0.225570
0.000000 0.000000 0.211633
0.000000 0.000000 0.192649
0.000000 0.000000 0.168418
0.000000 0.000000 0.138746
0.000000 0.000000 0.103450
0.000000 0.000000 0.062357
0.000000 0.000000 0.015301
0.000000 0.000000 0.000000
0.009619 0.201734 0.000000
0.002533 0.193290 0.000000
0.000000 0.177693 0.000000
0.000000 0.155150 0.000000
0.000000 0.125895 0.000000
0.000000 0.090191 0.000000
0.000000 0.048331 0.000000
0.000000 0.000636 0.000000
0.000000 0.000000 0.000000
0.000000 0.000000 0.000000
0.000000 0.000000 0.014041
0.000000 0.000000 0.047949
0.000000 0.000000 0.080398
0.000000 0.000000 0.111036
0.000000 0.000000 0.139516
0.000000 0.000000 0.165505
0.000000 0.000000 0.188677
0.000000 0.000000 0.208715
0.000000 0.000000 0.225314
0.000000 0.000000 0.238176
0.000000 0.000000 0.247013
0.000000 0.000000 0.251547
0.000000 0.000000 0.251509
0.000000 0.000000 0.246639
0.000000 0.000000 0.236689
0.000000 0.000000 0.221416
0.000000 0.000000 0.200591
0.000000 0.000000 0.173991
0.000000 0.000000 0.141403
0.000000 0.000000 0.102626
0.000000 0.000000 0.057466
0.000000 0.000000 0.005739
0.000000 0.000000 0.000000
0.030005 0.283415 0.000000
0.021761 0.270649 0.000000
0.009602 0.251241 0.000000
0.000000 0.225378 0.000000
0.000000 0.193276 0.000000
0.000000 0.155178 0.000000
0.000000 0.111360 0.000000
0.000000 0.062122 0.000000
0.000000 0.007795 0.000000
0.000000 0.000000 0.000000
0.000000 0.000000 0.000000
0.000000 0.000000 0.031668
0.000000 0.000000 0.067511
0.000000 0.000000 0.101278
0.000000 0.000000 0.132604
0.000000 0.000000 0.161136
0.000000 0.000000 0.186527
0.000000 0.000000 0.208442
0.000000 0.000000 0.226556
0.000000 0.000000 0.240549
0.000000 0.000000 0.250117
0.000000 0.000000 0.254960
0.000000 0.000000 0.254789
0.000000 0.000000 0.249326
0.000000 0.000000 0.238302
0.000000 0.000000 0.221455
0.000000 0.000000 0.198535
0.000000 0.000000 0.169300
0.000000 0.000000 0.133519
0.000000 0.000000 0.090969
0.000000 0.000000 0.041437
0.000000 0.000000 0.000000
0.000000 0.000000 0.000000
0.050345 0.368080 0.000000
0.040828 0.351087 0.000000
0.027842 0.327927 0.000000
0.010841 0.298768 0.000000
0.000000 0.263807 0.000000
0.000000 0.223268 0.000000
0.000000 0.177406 0.000000
0.000000 0.126505 0.000000
0.000000 0.070877 0.000000
0.000000 0.010862 0.000000
0.000000 0.000000 0.000000
0.000000 0.000000 0.007887
0.000000 0.000000 0.047061
0.000000 0.000000 0.083883
0.000000 0.000000 0.117966
0.000000 0.000000 0.148939
0.000000 0.000000 0.176434
0.000000 0.000000 0.200098
0.000000 0.000000 0.219584
0.000000 0.000000 0.234556
0.000000 0.000000 0.244685
0.000000 0.000000 0.249656
0.000000 0.000000 0.249159
0.000000 0.000000 0.242895
0.000000 0.000000 0.230576
0.000000 0.000000 0.211921
0.000000 0.000000 0.186659
0.000000 0.000000 0.154530
0.000000 0.000000 0.115282
0.000000 0.000000 0.068673
0.000000 0.000000 0.014470
0.000000 0.000000 0.000000
0.000000 0.000000 0.000000
0.071379 0.456025 0.000000
0.060461 0.434888 0.000000
0.046482 0.408023 0.000000
0.028877 0.375579 0.000000
0.007149 0.337734 0.000000
0.000000 0.294693 0.000000
0.000000 0.246693 0.000000
0.000000 0.193997 0.000000
0.000000 0.136899 0.000000
0.000000 0.075720 0.000000
0.000000 0.010811 0.000000
0.000000 0.000000 0.000000
0.000000 0.000000 0.019223
0.000000 0.000000 0.059028
0.000000 0.000000 0.095785
0.000000 0.000000 0.129102
0.000000 0.000000 0.158592
0.000000 0.000000 0.183881
0.000000 0.000000 0.204604
0.000000 0.000000 0.220404
0.000000 0.000000 0.230933
0.000000 0.000000 0.235856
0.000000 0.000000 0.234843
0.000000 0.000000 0.227577
0.000000 0.000000 0.213747
0.000000 0.000000 0.193055
0.000000 0.000000 0.165210
0.000000 0.000000 0.129932
0.000000 0.000000 0.086949
0.000000 0.000000 0.035999
0.000000 0.000000 0.000000
0.000000 0.000000 0.000000
0.000000 0.000000 0.000000
0.093932 0.547536 0.000000
0.081468 0.522326 0.000000
0.066315 0.491791 0.000000
0.047889 0.456061 0.000000
0.025674 0.415295 0.000000
0.000000 0.369680 0.000000
0.000000 0.319433 0.000000
0.000000 0.264799 0.000000
0.000000 0.206051 0.000000
0.000000 0.143493 0.000000
0.000000 0.077456 0.000000
0.000000 0.008301 0.000000
0.000000 0.000000 0.000000
0.000000 0.000000 0.026959
0.000000 0.000000 0.066313
0.000000 0.000000 0.101882
0.000000 0.000000 0.133262
0.000000 0.000000 0.160059
0.000000 0.000000 0.181888
0.000000 0.000000 0.198371
0.000000 0.000000 0.209144
0.000000 0.000000 0.213848
0.000000 0.000000 0.212135
0.000000 0.000000 0.203669
0.000000 0.000000 0.188119
0.000000 0.000000 0.165167
0.000000 0.000000 0.134503
0.000000 0.000000 0.095826
0.000000 0.000000 0.048844
0.000000 0.000000 0.000000
0.000000 0.000000 0.000000
0.000000 0.000000 0.000000
0.000000 0.000000 0.000000
0.118911 0.642892 0.000000
0.104741 0.613667 0.000000
0.088217 0.579485 0.000000
0.068736 0.540456 0.000000
0.045764 0.496721 0.000000
0.018833 0.448448 0.000000
0.000000 0.395833 0.000000
0.000000 0.339104 0.000000
0.000000 0.278515 0.000000
0.000000 0.214350 0.000000
0.000000 0.146921 0.000000
0.000000 0.076571 0.000000
0.000000 0.003670 0.000000
0.000000 0.000000 0.000000
0.000000 0.000000 0.029869
0.000000 0.000000 0.067604
0.000000 0.000000 0.100776
0.000000 0.000000 0.128968
0.000000 0.000000 0.151776
0.000000 0.000000 0.168805
0.000000 0.000000 0.179667
0.000000 0.000000 0.183987
0.000000 0.000000 0.181397
0.000000 0.000000 0.171539
0.000000 0.000000 0.154065
0.000000 0.000000 0.128634
0.000000 0.000000 0.094919
0.000000 0.000000 0.052598
0.000000 0.000000 0.001361
0.000000 0.000000 0.000000
0.000000 0.000000 0.000000
0.000000 0.000000 0.000000
0.000000 0.000000 0.000000
0.147306 0.742365 0.000000
0.131253 0.709171 0.000000
0.113146 0.671352 0.000000
0.092362 0.629000 0.000000
0.068349 0.582234 0.000000
0.040619 0.531206 0.000000
0.008752 0.476092 0.000000
0.000000 0.417100 0.000000
0.000000 0.354465 0.000000
0.000000 0.288454 0.000000
0.000000 0.219358 0.000000
0.000000 0.147501 0.000000
0.000000 0.073235 0.000000
0.000000 0.000000 0.000000
0.000000 0.000000 0.000000
0.000000 0.000000 0.026663
0.000000 0.000000 0.061530
0.000000 0.000000 0.091011
0.000000 0.000000 0.114678
0.000000 0.000000 0.132118
0.000000 0.000000 0.142924
0.000000 0.000000 0.146700
0.000000 0.000000 0.143059
0.000000 0.000000 0.131623
0.000000 0.000000 0.112023
0.000000 0.000000 0.083902
0.000000 0.000000 0.046910
0.000000 0.000000 0.000706
0.000000 0.000000 0.000000
0.000000 0.000000 0.000000
0.000000 0.000000 0.000000
0.000000 0.000000 0.000000
0.000000 0.000000 0.000000
0.180190 0.846216 0.000000
0.162063 0.809088 0.000000
0.142144 0.767631 0.000000
0.119794 0.721918 0.000000
0.094439 0.672050 0.000000
0.065573 0.618157 0.000000
0.032757 0.560399 0.000000
0.000000 0.498964 0.000000
0.000000 0.434068 0.000000
0.000000 0.365958 0.000000
0.000000 0.294908 0.000000
0.000000 0.221221 0.000000
0.000000 0.145231 0.000000
0.000000 0.067298 0.000000
0.000000 0.000000 0.000000
0.000000 0.000000 0.000000
0.000000 0.000000 0.015993
0.000000 0.000000 0.046659
0.000000 0.000000 0.071071
0.000000 0.000000 0.088794
0.000000 0.000000 0.099402
0.000000 0.000000 0.102479
0.000000 0.000000 0.097618
0.000000 0.000000 0.084423
0.000000 0.000000 0.062504
0.000000 0.000000 0.031484
0.000000 0.000000 0.000000
0.000000 0.000000 0.000000
0.000000 0.000000 0.000000
0.000000 0.000000 0.000000
0.000000 0.000000 0.000000
0.000000 0.000000 0.000000
0.000000 0.000000 0.000000
0.218720 0.954702 0.000000
0.198310 0.913662 0.000000
0.176337 0.868553 0.000000
0.152141 0.819430 0.000000
0.125128 0.766373 0.000000
0.094773 0.709496 0.000000
0.060620 0.648937 0.000000
0.022276 0.584866 0.000000
0.000000 0.517481 0.000000
0.000000 0.447008 0.000000
0.000000 0.373704 0.000000
0.000000 0.297852 0.000000
0.000000 0.219767 0.000000
0.000000 0.139790 0.000000
0.000000 0.058293 0.000000
0.000000 0.000000 0.000000
0.000000 0.000000 0.000000
0.000000 0.000000 0.000000
0.000000 0.000000 0.021500
0.000000 0.000000 0.039383
0.000000 0.000000 0.049656
0.000000 0.000000 0.051884
0.000000 0.000000 0.045642
0.000000 0.000000 0.030511
0.000000 0.000000 0.006084
0.000000 0.000000 0.000000
0.000000 0.000000 0.000000
0.000000 0.000000 0.000000
0.000000 0.000000 0.000000
0.000000 0.000000 0.000000
0.000000 0.000000 0.000000
0.000000 0.000000 0.000000
0.000000 0.000000 0.000000
0.264134 1.000000 0.000000
0.241220 1.000000 0.000000
0.216934 0.974342 0.000000
0.190595 0.921746 0.000000
0.161593 0.865405 0.000000
0.129382 0.805409 0.000000
0.093487 0.741881 0.000000
0.053496 0.674970 0.000000
0.009069 0.604855 0.000000
0.000000 0.531744 0.000000
0.000000 0.455873 0.000000
0.000000 0.377509 0.000000
0.000000 0.296945 0.000000
0.000000 0.214504 0.000000
0.000000 0.130540 0.000000
0.000000 0.045432 0.000000
0.000000 0.000000 0.000000
0.000000 0.000000 0.000000
0.000000 0.000000 0.000000
0.000000 0.000000 0.000000
0.000000 0.000000 0.000000
0.000000 0.000000 0.000000
0.000000 0.000000 0.000000
0.000000 0.000000 0.000000
0.000000 0.000000 0.000000
0.000000 0.000000 0.000000
0.000000 0.000000 0.000000
0.000000 0.000000 0.000000
0.000000 0.000000 0.000000
0.000000 0.000000 0.000000
0.000000 0.000000 0.000000
0.000000 0.000000 0.000000
0.000000 0.000000 0.000000
0.317757 1.000000 0.000000
0.292099 1.000000 0.000000
0.265224 1.000000 0.000000
0.236432 1.000000 0.000000
0.205093 0.969335 0.000000
0.170643 0.906076 0.000000
0.132586 0.839397 0.000000
0.090493 0.769430 0.000000
0.044003 0.696333 0.000000
0.000000 0.620295 0.000000
0.000000 0.541534 0.000000
0.000000 0.460297 0.000000
0.000000 0.376859 0.000000
0.000000 0.291524 0.000000
0.000000 0.204625 0.000000
0.000000 0.116524 0.000000
0.000000 0.027613 0.000000
0.000000 0.000000 0.000000
0.000000 0.000000 0.000000
0.000000 0.000000 0.000000
0.000000 0.000000 0.000000
0.000000 0.000000 0.000000
0.000000 0.000000 0.000000
0.000000 0.000000 0.000000
0.000000 0.000000 0.000000
0.000000 0.000000 0.000000
0.000000 0.000000 0.000000
0.000000 0.000000 0.000000
0.000000 0.000000 0.000000
0.000000 0.000000 0.000000
0.000000 0.000000 0.000000
0.000000 0.000000 0.000000
0.000000 0.000000 0.000000
0.380992 1.000000 0.000000
0.352337 1.000000 0.000000
0.322583 1.000000 0.000000
0.291011 1.000000 0.000000
0.256973 1.000000 0.000000
0.219884 1.000000 0.000000
0.179230 0.941645 0.000000
0.134563 0.868392 0.000000
0.085502 0.792048 0.000000
0.031734 0.712784 0.000000
0.000000 0.630797 0.000000
0.000000 0.546315 0.000000
0.000000 0.459595 0.000000
0.000000 0.370922 0.000000
0.000000 0.280610 0.000000
0.000000 0.189002 0.000000
0.000000 0.096469 0.000000
0.000000 0.003413 0.000000
0.000000 0.000000 0.000000
0.000000 0.000000 0.000000
0.000000 0.000000 0.000000
0.000000 0.000000 0.000000
0.000000 0.000000 0.000000
0.000000 0.000000 0.000000
0.000000 0.000000 0.000000
0.000000 0.000000 0.000000
0.000000 0.000000 0.000000
0.000000 0.000000 0.000000
0.000000 0.000000 0.000000
0.000000 0.000000 0.000000
0.000000 0.000000 0.000000
0.000000 0.000000 0.000000
0.000000 0.000000 0.000000
0.455329 1.000000 0.000000
0.423407 1.000000 0.000000
0.390468 1.000000 0.000000
0.355774 1.000000 0.000000
0.318658 1.000000 0.000000
0.278516 1.000000 0.000000
0.234815 1.000000 0.000000
0.187086 0.971996 0.000000
0.134931 0.892129 0.000000
0.078017 0.809325 0.000000
0.016079 0.723764 0.000000
0.000000 0.635654 0.000000
0.000000 0.545233 0.000000
0.000000 0.452766 0.000000
0.000000 0.358549 0.000000
0.000000 0.262906 0.000000
0.000000 0.166189 0.000000
0.000000 0.068780 0.000000
0.000000 0.000000 0.000000
0.000000 0.000000 0.000000
0.000000 0.000000 0.000000
0.000000 0.000000 0.000000
0.000000 0.000000 0.000000
0.000000 0.000000 0.000000
0.000000 0.000000 0.000000
0.000000 0.000000 0.000000
0.000000 0.000000 0.000000
0.000000 0.000000 0.000000
0.000000 0.000000 0.000000
0.000000 0.000000 0.000000
0.000000 0.000000 0.000000
0.000000 0.000000 0.000000
0.000000 0.000000 0.000000
0.542340 1.000000 0.000000
0.506865 1.000000 0.000000
0.470419 1.000000 0.000000
0.432246 1.000000 0.000000
0.391658 1.000000 0.000000
0.348032 1.000000 0.000000
0.300816 1.000000 0.000000
0.249524 1.000000 0.000000
0.193736 0.996694 0.000000
0.133101 0.910026 0.000000
0.067334 0.820530 0.000000
0.000000 0.728396 0.000000
0.000000 0.633841 0.000000
0.000000 0.537113 0.000000
0.000000 0.438488 0.000000
0.000000 0.338271 0.000000
0.000000 0.236795 0.000000
0.000000 0.134424 0.000000
0.000000 0.031548 0.000000
0.000000 0.000000 0.000000
0.000000 0.000000 0.000000
0.000000 0.000000 0.000000
0.000000 0.000000 0.000000
0.000000 0.000000 0.000000
0.000000 0.000000 0.000000
0.000000 0.000000 0.000000
0.000000 0.000000 0.000000
0.000000 0.000000 0.000000
0.000000 0.000000 0.000000
0.000000 0.000000 0.000000
0.000000 0.000000 0.000000
0.000000 0.000000 0.000000
0.000000 0.000000 0.000000
0.643680 1.000000 0.000000
0.604351 1.000000 0.000000
0.564061 1.000000 0.000000
0.522035 1.000000 0.000000
0.477564 1.000000 0.000000
0.430010 1.000000 0.000000
0.378797 1.000000 0.000000
0.323423 1.000000 0.000000
0.263447 1.000000 0.000000
0.198499 1.000000 0.000000
0.128277 0.921182 0.000000
0.052544 0.824615 0.000000
0.000000 0.725483 0.000000
0.000000 0.624015 0.000000
0.000000 0.520466 0.000000
0.000000 0.415123 0.000000
0.000000 0.308302 0.000000
0.000000 0.200345 0.000000
0.000000 0.091624 0.000000
0.000000 0.000000 0.000000
0.000000 0.000000 0.000000
0.000000 0.000000 0.000000
0.000000 0.000000 0.000000
0.000000 0.000000 0.000000
0.000000 0.000000 0.000000
0.000000 0.000000 0.000000
0.000000 0.000000 0.000000
0.000000 0.000000 0.000000
0.000000 0.000000 0.000000
0.000000 0.000000 0.000000
0.000000 0.000000 0.000000
0.000000 0.000000 0.000000
0.000000 0.000000 0.000000
0.761086 1.000000 0.000000
0.717587 1.000000 0.000000
0.673100 1.000000 0.000000
0.626831 1.000000 0.000000
0.578054 1.000000 0.000000
0.526108 1.000000 0.000000
0.470402 1.000000 0.000000
0.410410 1.000000 0.000000
0.345677 1.000000 0.000000
0.275811 1.000000 0.000000
0.200490 1.000000 0.000000
0.119460 0.924379 0.000000
0.032531 0.820214 0.000000
0.000000 0.713513 0.000000
0.000000 0.604513 0.000000
0.000000 0.493482 0.000000
0.000000 0.380715 0.000000
0.000000 0.266537 0.000000
0.000000 0.151301 0.000000
0.000000 0.035391 0.000000
0.000000 0.000000 0.000000
0.000000 0.000000 0.000000
0.000000 0.000000 0.000000
0.000000 0.000000 0.000000
0.000000 0.000000 0.000000
0.000000 0.000000 0.000000
0.000000 0.000000 0.000000
0.000000 0.000000 0.000000
0.000000 0.000000 0.000000
0.000000 0.000000 0.000000
0.000000 0.000000 0.000000
0.000000 0.000000 0.000000
0.000000 0.000000 0.000000
0.896379 1.000000 0.000000
0.848378 1.000000 0.000000
0.799326 1.000000 0.000000
0.748410 1.000000 0.000000
0.694885 1.000000 0.000000
0.638070 1.000000 0.000000
0.577357 1.000000 0.000000
0.512199 1.000000 0.000000
0.442122 1.000000 0.000000
0.366716 1.000000 0.000000
0.285639 1.000000 0.000000
0.198616 1.000000 0.000000
0.105442 0.918080 0.000000
0.005975 0.805642 0.000000
0.000000 0.690651 0.000000
0.000000 0.573356 0.000000
0.000000 0.454033 0.000000
0.000000 0.332987 0.000000
0.000000 0.210554 0.000000
0.000000 0.087096 0.000000
0.000000 0.000000 0.000000
0.000000 0.000000 0.000000
0.000000 0.000000 0.000000
0.000000 0.000000 0.000000
0.000000 0.000000 0.000000
0.000000 0.000000 0.000000
0.000000 0.000000 0.000000
0.000000 0.000000 0.000000
0.000000 0.000000 0.000000
0.000000 0.000000 0.000000
0.000000 0.000000 0.000000
0.000000 0.000000 0.000000
0.000000 0.000000 0.000000
1.000000 1.000000 0.000000
0.998613 1.000000 0.000000
0.944612 1.000000 0.000000
0.888628 1.000000 0.000000
0.829898 1.000000 0.000000
0.767723 1.000000 0.000000
0.701473 1.000000 0.000000
0.630584 1.000000 0.000000
0.554562 1.000000 0.000000
0.472978 1.000000 0.000000
0.385470 1.000000 0.000000
0.291746 1.000000 0.000000
0.191579 1.000000 0.000000
0.084810 0.900430 0.000000
0.000000 0.778896 0.000000
0.000000 0.654749 0.000000
0.000000 0.528246 0.000000
0.000000 0.399674 0.000000
0.000000 0.269347 0.000000
0.000000 0.137611 0.000000
0.000000 0.004839 0.000000
0.000000 0.000000 0.000000
0.000000 0.000000 0.000000
0.000000 0.000000 0.000000
0.000000 0.000000 0.000000
0.000000 0.000000 0.000000
0.000000 0.000000 0.000000
0.000000 0.000000 0.000000
0.000000 0.000000 0.000000
0.000000 0.000000 0.000000
0.000000 0.000000 0.000000
0.000000 0.000000 0.000000
0.000000 0.000000 0.000000
1.000000 1.000000 0.000000
1.000000 1.000000 0.000000
1.000000 1.000000 0.000000
1.000000 1.000000 0.000000
0.985019 1.000000 0.000000
0.916975 1.000000 0.000000
0.844644 1.000000 0.000000
0.767443 1.000000 0.000000
0.684859 1.000000 0.000000
0.596443 1.000000 0.000000
0.501815 1.000000 0.000000
0.400664 1.000000 0.000000
0.292742 1.000000 0.000000
0.177873 0.997895 0.000000
0.055946 0.869254 0.000000
0.000000 0.737656 0.000000
0.000000 0.603337 0.000000
0.000000 0.466567 0.000000
0.000000 0.327640 0.000000
0.000000 0.186883 0.000000
0.000000 0.044650 0.000000
0.000000 0.000000 0.000000
0.000000 0.000000 0.000000
0.000000 0.000000 0.000000
0.000000 0.000000 0.000000
0.000000 0.000000 0.000000
0.000000 0.000000 0.000000
