lrplugin/MindfulLensFilmEngine.lrplugin/profiles/luts/zetra_100.cube
# Generated from ColorChecker fit
LUT_3D_SIZE 9
DOMAIN_MIN 0.0 0.0 0.0
DOMAIN_MAX 1.0 1.0 1.0
0.000000 0.000000 0.000000
0.000000 0.000000 0.000000
0.000000 0.000000 0.000000
0.000000 0.000000 0.000000
0.000000 0.000000 0.000000
0.000000 0.000000 0.000000
0.000000 0.000000 0.000000
0.000000 0.000000 0.000000
0.000000 0.000000 0.000000
0.000000 0.000000 0.000000
0.000000 0.000000 0.000000
0.000000 0.000000 0.000000
0.000000 0.000000 0.055251
0.000000 0.000000 0.116349
0.000000 0.000000 0.147331
0.000000 0.000000 0.134522
0.000000 0.000000 0.066664
0.000000 0.000000 0.000000
0.009619 0.201734 0.000000
0.000000 0.125895 0.000000
0.000000 0.000000 0.000000
0.000000 0.000000 0.080398
0.000000 0.000000 0.188677
0.000000 0.000000 0.247013
0.000000 0.000000 0.236689
0.000000 0.000000 0.141403
0.000000 0.000000 0.000000
0.093932 0.547536 0.000000
0.025674 0.415295 0.000000
0.000000 0.206051 0.000000
0.000000 0.000000 0.000000
0.000000 0.000000 0.133262
0.000000 0.000000 0.209144
0.000000 0.000000 0.188119
0.000000 0.000000 0.048844
0.000000 0.000000 0.000000
0.218720 0.954702 0.000000
0.125128 0.766373 0.000000
0.000000 0.517481 0.000000
0.000000 0.219767 0.000000
0.000000 0.000000 0.000000
0.000000 0.000000 0.049656
0.000000 0.000000 0.006084
0.000000 0.000000 0.000000
0.000000 0.000000 0.000000
0.455329 1.000000 0.000000
0.318658 1.000000 0.000000
0.134931 0.892129 0.000000
0.000000 0.545233 0.000000
0.000000 0.166189 0.000000
0.000000 0.000000 0.000000
0.000000 0.000000 0.000000
0.000000 0.000000 0.000000
0.000000 0.000000 0.000000
0.896379 1.000000 0.000000
0.694885 1.000000 0.000000
0.442122 1.000000 0.000000
0.105442 0.918080 0.000000
0.000000 0.454033 0.000000
0.000000 0.000000 0.000000
0.000000 0.000000 0.000000
0.000000 0.000000 0.000000
0.000000 0.000000 0.000000
1.000000 1.000000 0.000000
1.000000 1.000000 0.000000
1.000000 1.000000 0.000000
0.547763 1.000000 0.000000
0.000000 0.756046 0.000000
0.000000 0.117905 0.000000
0.000000 0.000000 0.000000
0.000000 0.000000 0.000000
0.000000 0.000000 0.000000
1.000000 1.000000 0.000000
1.000000 1.000000 0.000000
1.000000 1.000000 0.000000
1.000000 1.000000 0.000000
0.541488 1.000000 0.000000
0.000000 0.236386 0.000000
0.000000 0.000000 0.000000
0.000000 0.000000 0.000000
0.000000 0.000000 0.000000
0.023584 0.000000 0.139501
0.000000 0.000000 0.051889
0.000000 0.000000 0.001944
0.000000 0.000000 0.000000
0.000000 0.000000 0.000000
0.000000 0.000000 0.006197
0.000000 0.000000 0.047086
0.000000 0.000000 0.107803
0.000000 0.000000 0.192028
0.127832 0.063491 0.122507
0.091606 0.078159 0.108897
0.000000 0.011266 0.132011
0.000000 0.000000 0.178408
0.000000 0.000000 0.237061
0.000000 0.000000 0.299359
0.000000 0.000000 0.359109
0.000000 0.000000 0.412529
0.000000 0.000000 0.458258
0.186548 0.308048 0.008814
0.149016 0.265785 0.071870
0.086640 0.176539 0.167331
0.000000 0.048941 0.276713
0.000000 0.000000 0.383945
0.000000 0.000000 0.475376
0.000000 0.000000 0.539767
0.000000 0.000000 0.568296
0.000000 0.000000 0.554557
0.232274 0.585391 0.000000
0.188394 0.495751 0.000000
0.142578 0.384547 0.105941
0.065911 0.255538 0.275556
0.000000 0.119881 0.425241
0.000000 0.000000 0.536300
0.000000 0.000000 0.592452
0.000000 0.000000 0.579832
0.000000 0.000000 0.486990
0.318822 0.915624 0.000000
0.259553 0.785055 0.000000
0.211986 0.649184 0.000000
0.142295 0.506902 0.191776
0.033904 0.364489 0.379124
0.000000 0.235623 0.501645
0.000000 0.141374 0.538015
0.000000 0.110207 0.469326
0.000000 0.177978 0.279086
0.521274 1.000000 0.000000
0.433581 1.000000 0.000000
0.361951 0.982333 0.000000
0.267653 0.811809 0.059671
0.129201 0.638518 0.281230
0.000000 0.471265 0.408385
0.000000 0.326247 0.414768
0.000000 0.227056 0.276430
0.000000 0.204679 0.000000
0.935985 1.000000 0.000000
0.802833 1.000000 0.000000
0.680834 1.000000 0.000000
0.526348 1.000000 0.000000
0.312981 0.945629 0.184658
0.031587 0.703606 0.310957
0.000000 0.462280 0.278487
0.000000 0.240373 0.058255
0.000000 0.063996 0.000000
1.000000 1.000000 0.000000
1.000000 1.000000 0.000000
1.000000 1.000000 0.000000
1.000000 1.000000 0.000000
0.686881 1.000000 0.159968
0.252812 0.931190 0.281259
0.000000 0.544916 0.202407
0.000000 0.142494 0.000000
0.000000 0.000000 0.000000
1.000000 1.000000 0.000000
1.000000 1.000000 0.000000
1.000000 1.000000 0.000000
1.000000 1.000000 0.000000
1.000000 1.000000 0.295181
0.724942 1.000000 0.408650
0.000000 0.567582 0.277227
0.000000 0.000000 0.000000
0.000000 0.000000 0.000000
0.234233 0.000000 0.251878
0.181967 0.072181 0.110876
0.083875 0.069518 0.009793
0.000000 0.000000 0.000000
0.000000 0.000000 0.000000
0.000000 0.000000 0.000000
0.000000 0.000000 0.022502
0.000000 0.000000 0.155540
0.000000 0.000000 0.359216
0.308435 0.182512 0.273787
0.249872 0.189901 0.202732
0.186240 0.157073 0.171033
0.087451 0.084679 0.172727
0.000000 0.000000 0.204268
0.000000 0.000000 0.264525
0.000000 0.000000 0.354784
0.000000 0.000000 0.478743
0.000000 0.000000 0.642521
0.325120 0.368398 0.213892
0.263924 0.320857 0.215754
0.229145 0.267497 0.253031
0.185783 0.204099 0.314718
0.116092 0.133837 0.392225
0.019567 0.067281 0.479380
0.000000 0.022391 0.572424
0.000000 0.024525 0.670015
0.000000 0.106433 0.773226
0.320564 0.572344 0.071138
0.256404 0.485558 0.150223
0.240870 0.418197 0.257406
0.234058 0.361169 0.376638
0.213310 0.312777 0.494290
0.173214 0.278716 0.599142
0.125607 0.272076 0.682396
0.099573 0.313341 0.737665
0.141442 0.430390 0.760980
0.352315 0.815951 0.000000
0.280860 0.702502 0.023881
0.270970 0.624566 0.203238
0.277831 0.568179 0.378909
0.273877 0.526771 0.532218
0.248788 0.501165 0.646907
0.209491 0.499578 0.709132
0.180163 0.537623 0.707464
0.202224 0.638303 0.632891
0.499191 1.000000 0.000000
0.412114 0.988174 0.000000
0.390268 0.899987 0.127071
0.383929 0.835407 0.359409
0.360623 0.782994 0.545230
0.305121 0.738698 0.663231
0.219443 0.705864 0.694527
0.122854 0.695231 0.622645
0.051870 0.724933 0.433532
0.861283 1.000000 0.000000
0.746259 1.000000 0.000000
0.690858 1.000000 0.082908
0.640449 1.000000 0.373481
0.557647 1.000000 0.590004
0.422316 0.993373 0.706133
0.231566 0.889887 0.697937
0.000000 0.782018 0.543904
0.000000 0.683024 0.224934
1.000000 1.000000 0.000000
1.000000 1.000000 0.000000
1.000000 1.000000 0.142215
1.000000 1.000000 0.493929
0.970320 1.000000 0.740684
0.701746 1.000000 0.851092
0.343237 1.000000 0.796181
0.000000 0.791818 0.549395
0.000000 0.503310 0.086592
1.000000 1.000000 0.000000
1.000000 1.000000 0.000000
1.000000 1.000000 0.393918
1.000000 1.000000 0.811017
1.000000 1.000000 1.000000
1.000000 1.000000 1.000000
0.673105 1.000000 1.000000
0.000000 0.716456 0.734737
0.000000 0.174510 0.115461
0.428709 0.120590 0.292808
0.347009 0.182890 0.124312
0.258185 0.188486 0.000000
0.126069 0.130051 0.000000
0.000000 0.007650 0.000000
0.000000 0.000000 0.000000
0.000000 0.000000 0.000000
0.000000 0.000000 0.130591
0.000000 0.000000 0.418777
0.483944 0.286127 0.340025
0.388059 0.269680 0.233410
0.325111 0.239907 0.160090
0.254021 0.184611 0.121582
0.150958 0.098983 0.121822
0.009340 0.000000 0.167157
0.000000 0.000000 0.266353
0.000000 0.000000 0.430588
0.000000 0.000000 0.673460
0.464814 0.425130 0.317879
0.363119 0.354858 0.276417
0.325147 0.305485 0.264689
0.304911 0.259940 0.279170
0.273672 0.208542 0.318750
0.219938 0.149009 0.384735
0.149463 0.086449 0.480847
0.085249 0.033366 0.613224
0.067546 0.009658 0.790419
0.411331 0.562711 0.228893
0.308203 0.460435 0.257196
0.290311 0.404126 0.308295
0.306761 0.371840 0.373621
0.323904 0.349026 0.447023
0.325339 0.328526 0.524763
0.311912 0.310578 0.605521
0.301717 0.302812 0.690390
0.330095 0.320255 0.782882
0.384778 0.721972 0.093055
0.280597 0.606409 0.197072
0.273893 0.552724 0.313570
0.308862 0.534103 0.428938
0.346947 0.531120 0.531981
0.366838 0.531746 0.613919
0.364474 0.531347 0.668388
0.353040 0.532681 0.691440
0.362967 0.545900 0.681541
0.467711 0.924002 0.000000
0.358859 0.810763 0.134831
0.350451 0.766160 0.320639
0.381775 0.758503 0.486583
0.409365 0.763497 0.616424
0.407004 0.764240 0.696340
0.365721 0.751224 0.714925
0.293791 0.722334 0.663187
0.216737 0.682852 0.534550
0.763954 1.000000 0.000000
0.642815 1.000000 0.126720
0.615816 1.000000 0.387087
0.617334 1.000000 0.605479
0.598996 1.000000 0.760614
0.529675 1.000000 0.833628
0.395491 0.970660 0.808071
0.199813 0.869122 0.669908
0.000000 0.725357 0.407522
1.000000 1.000000 0.000000
1.000000 1.000000 0.246449
1.000000 1.000000 0.587962
1.000000 1.000000 0.862012
1.000000 1.000000 1.000000
0.839960 1.000000 1.000000
0.554898 1.000000 1.000000
0.168220 0.968381 0.793341
0.000000 0.665648 0.383533
1.000000 1.000000 0.092060
1.000000 1.000000 0.585188
1.000000 1.000000 1.000000
1.000000 1.000000 1.000000
1.000000 1.000000 1.000000
1.000000 1.000000 1.000000
0.966325 1.000000 1.000000
0.317400 1.000000 1.000000
0.000000 0.493945 0.563121
0.592410 0.208551 0.282530
0.494113 0.257778 0.132912
0.413443 0.262923 0.001645
0.303242 0.203805 0.000000
0.133596 0.067637 0.000000
0.000000 0.000000 0.000000
0.000000 0.000000 0.000000
0.000000 0.000000 0.196534
0.000000 0.000000 0.554767
0.652806 0.376695 0.342845
0.530585 0.341256 0.243028
0.465353 0.304938 0.161757
0.405043 0.242688 0.108027
0.314833 0.136847 0.093252
0.177150 0.000000 0.131262
0.000000 0.000000 0.238299
0.000000 0.000000 0.433025
0.000000 0.000000 0.736515
0.617128 0.492571 0.343778
0.484068 0.403523 0.297340
0.438085 0.347644 0.266264
0.422204 0.295008 0.254504
0.396694 0.223086 0.268431
0.339074 0.116738 0.316830
0.244108 0.000000 0.410903
0.123809 0.000000 0.564268
0.007434 0.000000 0.792956
0.529124 0.582792 0.291435
0.394310 0.468089 0.303292
0.367390 0.411448 0.323950
0.386479 0.378069 0.352323
0.406937 0.340551 0.389737
0.401375 0.278883 0.439935
0.359649 0.180448 0.509076
0.288861 0.040026 0.605735
0.213362 0.000000 0.740901
0.453813 0.671960 0.209385
0.322335 0.556452 0.285790
0.310294 0.514742 0.361060
0.350896 0.507160 0.429066
0.394593 0.501429 0.486090
0.409086 0.472667 0.530835
0.379322 0.403386 0.564415
0.307497 0.283492 0.590362
0.213053 0.110283 0.614624
0.477484 0.782662 0.138658
0.350435 0.688096 0.287202
0.345091 0.673909 0.421300
0.389752 0.695558 0.529776
0.429960 0.715893 0.603874
0.428508 0.705162 0.637250
0.365435 0.641002 0.625978
0.238026 0.508447 0.568546
0.060816 0.299924 0.465858
0.707699 0.935474 0.137745
0.582172 0.880493 0.367359
0.571348 0.903316 0.565836
0.598616 0.954526 0.716961
0.604610 0.992104 0.806931
0.547216 0.981422 0.824363
0.401562 0.895247 0.760285
0.160027 0.713740 0.608143
0.000000 0.424455 0.363800
1.000000 1.000000 0.282598
1.000000 1.000000 0.603549
1.000000 1.000000 0.873298
1.000000 1.000000 1.000000
1.000000 1.000000 1.000000
0.874055 1.000000 1.000000
0.592553 1.000000 1.000000
0.174350 0.896209 0.794474
0.000000 0.477611 0.395107
1.000000 1.000000 0.666633
1.000000 1.000000 1.000000
1.000000 1.000000 1.000000
1.000000 1.000000 1.000000
1.000000 1.000000 1.000000
1.000000 1.000000 1.000000
1.000000 1.000000 1.000000
0.403116 1.000000 1.000000
0.000000 0.451110 0.663899
0.682753 0.217325 0.240960
0.606666 0.280623 0.177072
0.559005 0.298011 0.107714
0.481621 0.236456 0.054406
0.333611 0.070320 0.041085
0.091320 0.000000 0.094101
0.000000 0.000000 0.242221
0.000000 0.000000 0.516628
0.000000 0.000000 0.950920
0.785490 0.428559 0.303545
0.673888 0.400379 0.273365
0.629377 0.369318 0.238289
0.588897 0.297470 0.214792
0.506638 0.154323 0.221768
0.354036 0.000000 0.280525
0.119774 0.000000 0.414787
0.000000 0.000000 0.650695
0.000000 0.000000 1.000000
0.765583 0.557038 0.314272
0.636260 0.474572 0.321683
0.603418 0.423098 0.321393
0.599090 0.359836 0.324835
0.572556 0.249403 0.345861
0.490345 0.063808 0.400735
0.336230 0.000000 0.508138
0.111233 0.000000 0.689169
0.000000 0.000000 0.967338
0.670514 0.630875 0.282830
0.537266 0.528213 0.333052
0.520617 0.481258 0.369392
0.547691 0.442359 0.398240
0.562860 0.371260 0.428405
0.527743 0.235099 0.471110
0.421206 0.008406 0.539992
0.239363 0.000000 0.651105
0.000000 0.000000 0.822920
0.569038 0.676173 0.236370
0.441664 0.584297 0.335960
0.441734 0.563690 0.412111
0.491463 0.561827 0.466170
0.530314 0.533580 0.501904
0.514999 0.441213 0.525490
0.419474 0.254386 0.545525
0.234944 0.000000 0.573021
0.000000 0.000000 0.621403
0.551181 0.717017 0.219501
0.435483 0.663809 0.376356
0.448799 0.688274 0.496838
0.508439 0.733017 0.577252
0.548955 0.748034 0.616319
0.522151 0.690720 0.615178
0.397074 0.525861 0.577380
0.160022 0.225636 0.508893
0.000000 0.000000 0.418103
0.728240 0.775485 0.294298
0.626021 0.785722 0.517652
0.645115 0.870880 0.688323
0.697923 0.968693 0.797572
0.714090 1.000000 0.839078
0.640509 0.990177 0.808936
0.441319 0.826283 0.705656
0.097910 0.499911 0.530163
0.000000 0.000000 0.285798
1.000000 0.871637 0.540294
1.000000 0.966992 0.840721
1.000000 1.000000 1.000000
1.000000 1.000000 1.000000
1.000000 1.000000 1.000000
0.982652 1.000000 1.000000
0.660792 1.000000 1.000000
0.153194 0.771312 0.725731
0.000000 0.156613 0.314727
1.000000 1.000000 1.000000
1.000000 1.000000 1.000000
1.000000 1.000000 1.000000
1.000000 1.000000 1.000000
1.000000 1.000000 1.000000
1.000000 1.000000 1.000000
1.000000 1.000000 1.000000
0.451732 1.000000 1.000000
0.000000 0.275393 0.612592
0.629175 0.081270 0.187695
0.640076 0.207185 0.296864
0.676250 0.270917 0.368052
0.668556 0.226579 0.430258
0.565101 0.035678 0.514897
0.331242 0.000000 0.655802
0.000000 0.000000 0.889218
0.000000 0.000000 1.000000
0.000000 0.000000 1.000000
0.824484 0.388047 0.243105
0.786427 0.414783 0.365877
0.811609 0.422187 0.451619
0.825980 0.359501 0.524288
0.772740 0.183360 0.610256
0.612335 0.000000 0.738311
0.322459 0.000000 0.939658
0.000000 0.000000 1.000000
0.000000 0.000000 1.000000
0.865715 0.576831 0.251724
0.801204 0.547713 0.392286
0.828623 0.532960 0.493393
0.869018 0.476940 0.573957
0.860677 0.331417 0.655310
0.759138 0.055547 0.761196
0.537185 0.000000 0.917777
0.184851 0.000000 1.000000
0.000000 0.000000 1.000000
0.804088 0.677233 0.226823
0.731628 0.632484 0.390700
0.770519 0.626640 0.509318
0.836896 0.599198 0.596550
0.864140 0.497048 0.668682
0.802881 0.274474 0.744417
0.620994 0.000000 0.844873
0.303602 0.000000 0.993585
0.000000 0.000000 1.000000
0.712094 0.716855 0.199134
0.646193 0.693593 0.393187
0.701791 0.724621 0.532804
0.790112 0.744563 0.626812
0.839632 0.695437 0.686456
0.796068 0.526655 0.725397
0.622389 0.195022 0.759708
0.298810 0.000000 0.807882
0.000000 0.000000 0.890824
0.683493 0.721285 0.216850
0.634662 0.753525 0.449280
0.708205 0.846283 0.614719
0.810437 0.929313 0.716951
0.864922 0.939758 0.762179
0.812474 0.822159 0.759018
0.611150 0.528449 0.718503
0.236256 0.017956 0.654080
0.000000 0.000000 0.581613
0.833317 0.714098 0.345625
0.808071 0.832750 0.625972
0.896799 1.000000 0.823394
1.000000 1.000000 0.936636
1.000000 1.000000 0.966856
0.947144 1.000000 0.917628
0.678323 0.898388 0.794940
0.202990 0.383660 0.607200
0.000000 0.000000 0.365227
1.000000 0.716855 0.668576
1.000000 0.949728 1.000000
1.000000 1.000000 1.000000
1.000000 1.000000 1.000000
1.000000 1.000000 1.000000
1.000000 1.000000 1.000000
0.936227 1.000000 1.000000
0.307333 0.761689 0.759726
0.000000 0.000000 0.335487
1.000000 0.749108 1.000000
1.000000 1.000000 1.000000
1.000000 1.000000 1.000000
1.000000 1.000000 1.000000
1.000000 1.000000 1.000000
1.000000 1.000000 1.000000
1.000000 1.000000 1.000000
0.678878 1.000000 1.000000
0.000000 0.168170 0.603676
0.333135 0.000000 0.142012
0.521771 0.000000 0.532043
0.718574 0.130796 0.842889
0.843412 0.144730 1.000000
0.833404 0.000000 1.000000
0.642913 0.000000 1.000000
0.243553 0.000000 1.000000
0.000000 0.000000 1.000000
0.000000 0.000000 1.000000
0.684295 0.173476 0.182184
0.808679 0.324189 0.561700
0.978497 0.424672 0.863361
1.000000 0.411313 1.000000
1.000000 0.227895 1.000000
0.996406 0.000000 1.000000
0.670047 0.000000 1.000000
0.136403 0.000000 1.000000
0.000000 0.000000 1.000000
0.845085 0.482236 0.178175
0.932428 0.574636 0.551667
1.000000 0.650326 0.845258
1.000000 0.640823 1.000000
1.000000 0.485035 1.000000
1.000000 0.129268 1.000000
0.930353 0.000000 1.000000
0.454010 0.000000 1.000000
0.000000 0.000000 1.000000
0.870457 0.664124 0.146838
0.943976 0.744566 0.520135
1.000000 0.832664 0.808107
1.000000 0.855060 1.000000
1.000000 0.745793 1.000000
1.000000 0.446293 1.000000
1.000000 0.000000 1.000000
0.603976 0.000000 1.000000
0.000000 0.000000 1.000000
0.836640 0.748238 0.122486
0.915552 0.859976 0.502755
1.000000 0.994578 0.788899
1.000000 1.000000 0.997228
1.000000 1.000000 1.000000
1.000000 0.790249 1.000000
1.000000 0.307958 1.000000
0.634544 0.000000 1.000000
0.000000 0.000000 1.000000
0.841129 0.761668 0.156894
0.940655 0.944850 0.552640
1.000000 1.000000 0.842085
1.000000 1.000000 1.000000
1.000000 1.000000 1.000000
1.000000 1.000000 1.000000
1.000000 0.743401 1.000000
0.615230 0.001446 1.000000
0.000000 0.000000 1.000000
1.000000 0.729487 0.319299
1.000000 1.000000 0.740365
1.000000 1.000000 1.000000
1.000000 1.000000 1.000000
1.000000 1.000000 1.000000
1.000000 1.000000 1.000000
1.000000 1.000000 1.000000
0.636819 0.492999 1.000000
0.000000 0.000000 0.793475
1.000000 0.674758 0.696399
1.000000 1.000000 1.000000
1.000000 1.000000 1.000000
1.000000 1.000000 1.000000
1.000000 1.000000 1.000000
1.000000 1.000000 1.000000
1.000000 1.000000 1.000000
0.811369 1.000000 1.000000
0.000000 0.000000 0.650157
1.000000 0.618531 1.000000
1.000000 1.000000 1.000000
1.000000 1.000000 1.000000
1.000000 1.000000 1.000000
1.000000 1.000000 1.000000
1.000000 1.000000 1.000000
1.000000 1.000000 1.000000
1.000000 1.000000 1.000000
0.000000 0.302800 0.831304
0.000000 0.000000 0.122864
0.151198 0.000000 0.922039
0.611394 0.000000 1.000000
0.957577 0.000000 1.000000
1.000000 0.000000 1.000000
1.000000 0.000000 1.000000
0.659558 0.000000 1.000000
0.000000 0.000000 1.000000
0.000000 0.000000 1.000000
0.251453 0.000000 0.141118
0.653142 0.040302 0.901647
1.000000 0.309883 1.000000
1.000000 0.407423 1.000000
1.000000 0.263850 1.000000
1.000000 0.000000 1.000000
1.000000 0.000000 1.000000
0.593158 0.000000 1.000000
0.000000 0.000000 1.000000
0.603269 0.175528 0.115345
0.955481 0.479020 0.842023
1.000000 0.720281 1.000000
1.000000 0.817972 1.000000
1.000000 0.698152 1.000000
1.000000 0.294270 1.000000
1.000000 0.000000 1.000000
1.000000 0.000000 1.000000
0.123087 0.000000 1.000000
0.782250 0.505792 0.065977
1.000000 0.800110 0.764938
1.000000 1.000000 1.000000
1.000000 1.000000 1.000000
1.000000 1.000000 1.000000
1.000000 0.771826 1.000000
1.000000 0.087774 1.000000
1.000000 0.000000 1.000000
0.359450 0.000000 1.000000
0.868356 0.696538 0.030911
1.000000 1.000000 0.709626
1.000000 1.000000 1.000000
1.000000 1.000000 1.000000
1.000000 1.000000 1.000000
1.000000 1.000000 1.000000
1.000000 0.647840 1.000000
1.000000 0.000000 1.000000
0.434715 0.000000 1.000000
0.962819 0.776353 0.065503
1.000000 1.000000 0.732782
1.000000 1.000000 1.000000
1.000000 1.000000 1.000000
1.000000 1.000000 1.000000
1.000000 1.000000 1.000000
1.000000 1.000000 1.000000
1.000000 0.264130 1.000000
0.418135 0.000000 1.000000
1.000000 0.771812 0.242571
1.000000 1.000000 0.908561
1.000000 1.000000 1.000000
1.000000 1.000000 1.000000
1.000000 1.000000 1.000000
1.000000 1.000000 1.000000
1.000000 1.000000 1.000000
1.000000 0.927924 1.000000
0.400235 0.000000 1.000000
1.000000 0.707477 0.652396
1.000000 1.000000 1.000000
1.000000 1.000000 1.000000
1.000000 1.000000 1.000000
1.000000 1.000000 1.000000
1.000000 1.000000 1.000000
1.000000 1.000000 1.000000
1.000000 1.000000 1.000000
0.492809 0.149819 1.000000
1.000000 0.605898 1.000000
1.000000 1.000000 1.000000
1.000000 1.000000 1.000000
1.000000 1.000000 1.000000
1.000000 1.000000 1.000000
1.000000 1.000000 1.000000
1.000000 1.000000 1.000000
1.000000 1.000000 1.000000
0.828925 0.824630 1.000000
