lrplugin/MindfulLensFilmEngine.lrplugin/profiles/luts/zetra_100.cube
# Generated from ColorChecker fit
LUT_3D_SIZE 5
DOMAIN_MIN 0.0 0.0 0.0
DOMAIN_MAX 1.0 1.0 1.0
0.000000 0.000000 0.000000
0.000000 0.000000 0.000000
0.000000 0.000000 0.000000
0.000000 0.000000 0.000000
0.000000 0.000000 0.000000
0.009619 0.201734 0.000000
0.000000 0.000000 0.000000
0.000000 0.000000 0.188677
0.000000 0.000000 0.236689
0.000000 0.000000 0.000000
0.218720 0.954702 0.000000
0.000000 0.517481 0.000000
0.000000 0.000000 0.000000
0.000000 0.000000 0.006084
0.000000 0.000000 0.000000
0.896379 1.000000 0.000000
0.442122 1.000000 0.000000
0.000000 0.454033 0.000000
0.000000 0.000000 0.000000
0.000000 0.000000 0.000000
1.000000 1.000000 0.000000
1.000000 1.000000 0.000000
0.541488 1.000000 0.000000
0.000000 0.000000 0.000000
0.000000 0.000000 0.000000
0.234233 0.000000 0.251878
0.083875 0.069518 0.009793
0.000000 0.000000 0.000000
0.000000 0.000000 0.022502
0.000000 0.000000 0.359216
0.325120 0.368398 0.213892
0.229145 0.267497 0.253031
0.116092 0.133837 0.392225
0.000000 0.022391 0.572424
0.000000 0.106433 0.773226
0.352315 0.815951 0.000000
0.270970 0.624566 0.203238
0.273877 0.526771 0.532218
0.209491 0.499578 0.709132
0.202224 0.638303 0.632891
0.861283 1.000000 0.000000
0.690858 1.000000 0.082908
0.557647 1.000000 0.590004
0.231566 0.889887 0.697937
0.000000 0.683024 0.224934
1.000000 1.000000 0.000000
1.000000 1.000000 0.393918
1.000000 1.000000 1.000000
0.673105 1.000000 1.000000
0.000000 0.174510 0.115461
0.592410 0.208551 0.282530
0.413443 0.262923 0.001645
0.133596 0.067637 0.000000
0.000000 0.000000 0.000000
0.000000 0.000000 0.554767
0.617128 0.492571 0.343778
0.438085 0.347644 0.266264
0.396694 0.223086 0.268431
0.244108 0.000000 0.410903
0.007434 0.000000 0.792956
0.453813 0.671960 0.209385
0.310294 0.514742 0.361060
0.394593 0.501429 0.486090
0.379322 0.403386 0.564415
0.213053 0.110283 0.614624
0.707699 0.935474 0.137745
0.571348 0.903316 0.565836
0.604610 0.992104 0.806931
0.401562 0.895247 0.760285
0.000000 0.424455 0.363800
1.000000 1.000000 0.666633
1.000000 1.000000 1.000000
1.000000 1.000000 1.000000
1.000000 1.000000 1.000000
0.000000 0.451110 0.663899
0.629175 0.081270 0.187695
0.676250 0.270917 0.368052
0.565101 0.035678 0.514897
0.000000 0.000000 0.889218
0.000000 0.000000 1.000000
0.865715 0.576831 0.251724
0.828623 0.532960 0.493393
0.860677 0.331417 0.655310
0.537185 0.000000 0.917777
0.000000 0.000000 1.000000
0.712094 0.716855 0.199134
0.701791 0.724621 0.532804
0.839632 0.695437 0.686456
0.622389 0.195022 0.759708
0.000000 0.000000 0.890824
0.833317 0.714098 0.345625
0.896799 1.000000 0.823394
1.000000 1.000000 0.966856
0.678323 0.898388 0.794940
0.000000 0.000000 0.365227
1.000000 0.749108 1.000000
1.000000 1.000000 1.000000
1.000000 1.000000 1.000000
1.000000 1.000000 1.000000
0.000000 0.168170 0.603676
0.000000 0.000000 0.122864
0.611394 0.000000 1.000000
1.000000 0.000000 1.000000
0.659558 0.000000 1.000000
0.000000 0.000000 1.000000
0.603269 0.175528 0.115345
1.000000 0.720281 1.000000
1.000000 0.698152 1.000000
1.000000 0.000000 1.000000
0.123087 0.000000 1.000000
0.868356 0.696538 0.030911
1.000000 1.000000 1.000000
1.000000 1.000000 1.000000
1.000000 0.647840 1.000000
0.434715 0.000000 1.000000
1.000000 0.771812 0.242571
1.000000 1.000000 1.000000
1.000000 1.000000 1.000000
1.000000 1.000000 1.000000
0.400235 0.000000 1.000000
1.000000 0.605898 1.000000
1.000000 1.000000 1.000000
1.000000 1.000000 1.000000
1.000000 1.000000 1.000000
0.828925 0.824630 1.000000
