lrplugin/MindfulLensFilmEngine.lrplugin/profiles/modular/optics/bloom_strong.xmp
<x:xmpmeta xmlns:x="adobe:ns:meta/" x:xmptk="Adobe XMP Core 7.0-c000 1.000000, 0000/00/00-00:00:00        ">
 <rdf:RDF xmlns:rdf="http://www.w3.org/1999/02/22-rdf-syntax-ns#">
  <rdf:Description rdf:about="" xmlns:crs="http://ns.adobe.com/camera-raw-settings/1.0/"
   crs:PresetType="Normal"
   crs:Cluster="MindfulLens Modular"
   crs:Group="MindfulLens / Optics"
   crs:UUID="0D4C4F2911114E53A13D000000000204"
   crs:SupportsAmount2="True"
   crs:SupportsAmount="True"
   crs:SupportsColor="True"
   crs:SupportsMonochrome="True"
   crs:SupportsHighDynamicRange="True"
   crs:SupportsNormalDynamicRange="True"
   crs:SupportsSceneReferred="True"
   crs:SupportsOutputReferred="True"
   crs:RequiresRGBTables="False"
   crs:ShowInPresets="False"
   crs:ShowInQuickActions="False"
   crs:CameraModelRestriction=""
   crs:Version="18.2.2"
   crs:CompatibleVersion="285212672"
   crs:ProcessVersion="15.4"
   crs:Texture="-10"
   crs:Clarity2012="-22"
   crs:Dehaze="-8"
   crs:Highlights2012="-14"
   crs:Whites2012="+14"
   crs:Shadows2012="+4"
   crs:ColorGradeHighlightsHue="38"
   crs:ColorGradeHighlightsSat="9"
   crs:ColorGradeBalance="24"
   crs:HasSettings="True"
   crs:Name="[ML Optics] Bloom Strong">
   <crs:Name>[ML Optics] Bloom Strong</crs:Name>
   <crs:Group>MindfulLens / Optics</crs:Group>
  </rdf:Description>
 </rdf:RDF>
</x:xmpmeta>
