lrplugin/MindfulLensFilmEngine.lrplugin/profiles/dcp/AI_KM_GAF_500.xml
<?xml version="1.0" encoding="UTF-8"?>
<dcpData>
  <ProfileName>GAF 500</ProfileName>
  <CalibrationIlluminant1>17</CalibrationIlluminant1>
  <CalibrationIlluminant2>21</CalibrationIlluminant2>
  <ColorMatrix1 Rows="3" Cols="3">
    <Element Row="2" Col="2">0.612000</Element>
    <Element Row="2" Col="1">0.136200</Element>
    <Element Row="2" Col="0">-0.040500</Element>
    <Element Row="1" Col="2">0.337800</Element>
    <Element Row="1" Col="1">1.082500</Element>
    <Element Row="1" Col="0">-0.374600</Element>
    <Element Row="0" Col="2">-0.057500</Element>
    <Element Row="0" Col="1">-0.168900</Element>
    <Element Row="0" Col="0">0.795200</Element>
  </ColorMatrix1>
  <ColorMatrix2 Rows="3" Cols="3">
    <Element Row="2" Col="2">0.553800</Element>
    <Element Row="2" Col="1">0.191800</Element>
    <Element Row="2" Col="0">-0.067300</Element>
    <Element Row="1" Col="2">0.254900</Element>
    <Element Row="1" Col="1">1.198100</Element>
    <Element Row="1" Col="0">-0.423500</Element>
    <Element Row="0" Col="2">-0.099800</Element>
    <Element Row="0" Col="1">-0.074200</Element>
    <Element Row="0" Col="0">0.737700</Element>
  </ColorMatrix2>
  <ForwardMatrix1 Rows="3" Cols="3">
    <Element Row="2" Col="2">0.639200</Element>
    <Element Row="2" Col="1">0.000700</Element>
    <Element Row="2" Col="0">0.185200</Element>
    <Element Row="1" Col="2">0.055800</Element>
    <Element Row="1" Col="1">0.613600</Element>
    <Element Row="1" Col="0">0.330600</Element>
    <Element Row="0" Col="2">0.173000</Element>
    <Element Row="0" Col="1">0.250600</Element>
    <Element Row="0" Col="0">0.540700</Element>
  </ForwardMatrix1>
  <ForwardMatrix2 Rows="3" Cols="3">
    <Element Row="2" Col="2">0.681200</Element>
    <Element Row="2" Col="1">0.000100</Element>
    <Element Row="2" Col="0">0.143800</Element>
    <Element Row="1" Col="2">0.080200</Element>
    <Element Row="1" Col="1">0.610700</Element>
    <Element Row="1" Col="0">0.309100</Element>
    <Element Row="0" Col="2">0.245700</Element>
    <Element Row="0" Col="1">0.179900</Element>
    <Element Row="0" Col="0">0.538800</Element>
  </ForwardMatrix2>
  <ReductionMatrix1 Rows="0" Cols="0"/>
  <ReductionMatrix2 Rows="0" Cols="0"/>
  <Copyright>Copyright 2017 Adobe Systems, Inc.</Copyright>
  <EmbedPolicy>0</EmbedPolicy>
  <ProfileHueSatMapEncoding>0</ProfileHueSatMapEncoding>
  <HueSatDeltas1 hueDivisions="90" satDivisions="30" valDivisions="1">
    <Element HueDiv="0" SatDiv="0" ValDiv="0" HueShift="2.000000" SatScale="1.000000" ValScale="1.000000"/>
    <Element HueDiv="0" SatDiv="1" ValDiv="0" HueShift="2.000000" SatScale="2.359260" ValScale="1.028791"/>
    <Element HueDiv="0" SatDiv="2" ValDiv="0" HueShift="2.000000" SatScale="2.295029" ValScale="1.057583"/>
    <Element HueDiv="0" SatDiv="3" ValDiv="0" HueShift="2.000000" SatScale="2.234206" ValScale="1.086374"/>
    <Element HueDiv="0" SatDiv="4" ValDiv="0" HueShift="2.000000" SatScale="2.176524" ValScale="1.115166"/>
    <Element HueDiv="0" SatDiv="5" ValDiv="0" HueShift="2.000000" SatScale="2.121744" ValScale="1.143957"/>
    <Element HueDiv="0" SatDiv="6" ValDiv="0" HueShift="2.000000" SatScale="2.069655" ValScale="1.172749"/>
    <Element HueDiv="0" SatDiv="7" ValDiv="0" HueShift="2.000000" SatScale="2.020061" ValScale="1.201540"/>
    <Element HueDiv="0" SatDiv="8" ValDiv="0" HueShift="2.000000" SatScale="1.972789" ValScale="1.230332"/>
    <Element HueDiv="0" SatDiv="9" ValDiv="0" HueShift="2.000000" SatScale="1.927679" ValScale="1.259123"/>
    <Element HueDiv="0" SatDiv="10" ValDiv="0" HueShift="2.000000" SatScale="1.884585" ValScale="1.287914"/>
    <Element HueDiv="0" SatDiv="11" ValDiv="0" HueShift="2.000000" SatScale="1.843377" ValScale="1.316706"/>
    <Element HueDiv="0" SatDiv="12" ValDiv="0" HueShift="2.000000" SatScale="1.803931" ValScale="1.345497"/>
    <Element HueDiv="0" SatDiv="13" ValDiv="0" HueShift="2.000000" SatScale="1.766139" ValScale="1.374289"/>
    <Element HueDiv="0" SatDiv="14" ValDiv="0" HueShift="2.000000" SatScale="1.658871" ValScale="1.403080"/>
    <Element HueDiv="0" SatDiv="15" ValDiv="0" HueShift="2.000000" SatScale="1.554714" ValScale="1.431871"/>
    <Element HueDiv="0" SatDiv="16" ValDiv="0" HueShift="2.000000" SatScale="1.468175" ValScale="1.460663"/>
    <Element HueDiv="0" SatDiv="17" ValDiv="0" HueShift="2.000000" SatScale="1.396088" ValScale="1.489454"/>
    <Element HueDiv="0" SatDiv="18" ValDiv="0" HueShift="2.000000" SatScale="1.335925" ValScale="1.518246"/>
    <Element HueDiv="0" SatDiv="19" ValDiv="0" HueShift="2.000000" SatScale="1.285613" ValScale="1.547037"/>
    <Element HueDiv="0" SatDiv="20" ValDiv="0" HueShift="2.000000" SatScale="1.243400" ValScale="1.575829"/>
    <Element HueDiv="0" SatDiv="21" ValDiv="0" HueShift="2.000000" SatScale="1.207761" ValScale="1.604620"/>
    <Element HueDiv="0" SatDiv="22" ValDiv="0" HueShift="2.000000" SatScale="1.177319" ValScale="1.633412"/>
    <Element HueDiv="0" SatDiv="23" ValDiv="0" HueShift="2.000000" SatScale="1.150784" ValScale="1.662203"/>
    <Element HueDiv="0" SatDiv="24" ValDiv="0" HueShift="2.000000" SatScale="1.126902" ValScale="1.690994"/>
    <Element HueDiv="0" SatDiv="25" ValDiv="0" HueShift="2.000000" SatScale="1.104409" ValScale="1.719786"/>
    <Element HueDiv="0" SatDiv="26" ValDiv="0" HueShift="2.000000" SatScale="1.081980" ValScale="1.748577"/>
    <Element HueDiv="0" SatDiv="27" ValDiv="0" HueShift="2.000000" SatScale="1.058190" ValScale="1.777369"/>
    <Element HueDiv="0" SatDiv="28" ValDiv="0" HueShift="2.000000" SatScale="1.031459" ValScale="1.806160"/>
    <Element HueDiv="0" SatDiv="29" ValDiv="0" HueShift="2.000000" SatScale="1.000000" ValScale="1.834952"/>
    <Element HueDiv="1" SatDiv="0" ValDiv="0" HueShift="1.644567" SatScale="1.000000" ValScale="1.000000"/>
    <Element HueDiv="1" SatDiv="1" ValDiv="0" HueShift="1.644567" SatScale="2.362590" ValScale="1.027341"/>
    <Element HueDiv="1" SatDiv="2" ValDiv="0" HueShift="1.644421" SatScale="2.301342" ValScale="1.054681"/>
    <Element HueDiv="1" SatDiv="3" ValDiv="0" HueShift="1.644410" SatScale="2.243192" ValScale="1.082022"/>
    <Element HueDiv="1" SatDiv="4" ValDiv="0" HueShift="1.644419" SatScale="2.187908" ValScale="1.109363"/>
    <Element HueDiv="1" SatDiv="5" ValDiv="0" HueShift="1.644437" SatScale="2.135284" ValScale="1.136703"/>
    <Element HueDiv="1" SatDiv="6" ValDiv="0" HueShift="1.644463" SatScale="2.085131" ValScale="1.164044"/>
    <Element HueDiv="1" SatDiv="7" ValDiv="0" HueShift="1.644460" SatScale="2.037280" ValScale="1.191385"/>
    <Element HueDiv="1" SatDiv="8" ValDiv="0" HueShift="1.644451" SatScale="1.991576" ValScale="1.218726"/>
    <Element HueDiv="1" SatDiv="9" ValDiv="0" HueShift="1.644448" SatScale="1.947878" ValScale="1.246066"/>
    <Element HueDiv="1" SatDiv="10" ValDiv="0" HueShift="1.644448" SatScale="1.906056" ValScale="1.273407"/>
    <Element HueDiv="1" SatDiv="11" ValDiv="0" HueShift="1.644451" SatScale="1.865992" ValScale="1.300748"/>
    <Element HueDiv="1" SatDiv="12" ValDiv="0" HueShift="1.644441" SatScale="1.827577" ValScale="1.328088"/>
    <Element HueDiv="1" SatDiv="13" ValDiv="0" HueShift="1.644446" SatScale="1.784626" ValScale="1.355429"/>
    <Element HueDiv="1" SatDiv="14" ValDiv="0" HueShift="1.644449" SatScale="1.660100" ValScale="1.382770"/>
    <Element HueDiv="1" SatDiv="15" ValDiv="0" HueShift="1.644437" SatScale="1.557086" ValScale="1.410111"/>
    <Element HueDiv="1" SatDiv="16" ValDiv="0" HueShift="1.644445" SatScale="1.471502" ValScale="1.437451"/>
    <Element HueDiv="1" SatDiv="17" ValDiv="0" HueShift="1.644443" SatScale="1.400170" ValScale="1.464792"/>
    <Element HueDiv="1" SatDiv="18" ValDiv="0" HueShift="1.644446" SatScale="1.340551" ValScale="1.492133"/>
    <Element HueDiv="1" SatDiv="19" ValDiv="0" HueShift="1.644444" SatScale="1.290564" ValScale="1.519473"/>
    <Element HueDiv="1" SatDiv="20" ValDiv="0" HueShift="1.644442" SatScale="1.248454" ValScale="1.546814"/>
    <Element HueDiv="1" SatDiv="21" ValDiv="0" HueShift="1.644442" SatScale="1.212696" ValScale="1.574155"/>
    <Element HueDiv="1" SatDiv="22" ValDiv="0" HueShift="1.644444" SatScale="1.181921" ValScale="1.601495"/>
    <Element HueDiv="1" SatDiv="23" ValDiv="0" HueShift="1.644442" SatScale="1.154856" ValScale="1.628836"/>
    <Element HueDiv="1" SatDiv="24" ValDiv="0" HueShift="1.644442" SatScale="1.130280" ValScale="1.656177"/>
    <Element HueDiv="1" SatDiv="25" ValDiv="0" HueShift="1.644446" SatScale="1.106973" ValScale="1.683517"/>
    <Element HueDiv="1" SatDiv="26" ValDiv="0" HueShift="1.644443" SatScale="1.083683" ValScale="1.710858"/>
    <Element HueDiv="1" SatDiv="27" ValDiv="0" HueShift="1.644442" SatScale="1.059079" ValScale="1.738199"/>
    <Element HueDiv="1" SatDiv="28" ValDiv="0" HueShift="1.644446" SatScale="1.031719" ValScale="1.765540"/>
    <Element HueDiv="1" SatDiv="29" ValDiv="0" HueShift="1.644444" SatScale="1.000000" ValScale="1.792880"/>
    <Element HueDiv="2" SatDiv="0" ValDiv="0" HueShift="1.288956" SatScale="1.000000" ValScale="1.000000"/>
    <Element HueDiv="2" SatDiv="1" ValDiv="0" HueShift="1.288956" SatScale="2.365931" ValScale="1.025890"/>
    <Element HueDiv="2" SatDiv="2" ValDiv="0" HueShift="1.288841" SatScale="2.307691" ValScale="1.051780"/>
    <Element HueDiv="2" SatDiv="3" ValDiv="0" HueShift="1.288880" SatScale="2.252251" ValScale="1.077670"/>
    <Element HueDiv="2" SatDiv="4" ValDiv="0" HueShift="1.288912" SatScale="2.199414" ValScale="1.103560"/>
    <Element HueDiv="2" SatDiv="5" ValDiv="0" HueShift="1.288896" SatScale="2.148997" ValScale="1.129450"/>
    <Element HueDiv="2" SatDiv="6" ValDiv="0" HueShift="1.288905" SatScale="2.100841" ValScale="1.155340"/>
    <Element HueDiv="2" SatDiv="7" ValDiv="0" HueShift="1.288895" SatScale="2.054795" ValScale="1.181230"/>
    <Element HueDiv="2" SatDiv="8" ValDiv="0" HueShift="1.288905" SatScale="2.010724" ValScale="1.207120"/>
    <Element HueDiv="2" SatDiv="9" ValDiv="0" HueShift="1.288900" SatScale="1.968504" ValScale="1.233010"/>
    <Element HueDiv="2" SatDiv="10" ValDiv="0" HueShift="1.288894" SatScale="1.928021" ValScale="1.258900"/>
    <Element HueDiv="2" SatDiv="11" ValDiv="0" HueShift="1.288901" SatScale="1.889169" ValScale="1.284790"/>
    <Element HueDiv="2" SatDiv="12" ValDiv="0" HueShift="1.288889" SatScale="1.851852" ValScale="1.310680"/>
    <Element HueDiv="2" SatDiv="13" ValDiv="0" HueShift="1.288890" SatScale="1.784869" ValScale="1.336570"/>
    <Element HueDiv="2" SatDiv="14" ValDiv="0" HueShift="1.288891" SatScale="1.661601" ValScale="1.362460"/>
    <Element HueDiv="2" SatDiv="15" ValDiv="0" HueShift="1.288893" SatScale="1.559664" ValScale="1.388350"/>
    <Element HueDiv="2" SatDiv="16" ValDiv="0" HueShift="1.288889" SatScale="1.474965" ValScale="1.414240"/>
    <Element HueDiv="2" SatDiv="17" ValDiv="0" HueShift="1.288890" SatScale="1.404316" ValScale="1.440130"/>
    <Element HueDiv="2" SatDiv="18" ValDiv="0" HueShift="1.288888" SatScale="1.345172" ValScale="1.466019"/>
    <Element HueDiv="2" SatDiv="19" ValDiv="0" HueShift="1.288889" SatScale="1.295447" ValScale="1.491909"/>
    <Element HueDiv="2" SatDiv="20" ValDiv="0" HueShift="1.288886" SatScale="1.253384" ValScale="1.517799"/>
    <Element HueDiv="2" SatDiv="21" ValDiv="0" HueShift="1.288888" SatScale="1.217463" ValScale="1.543689"/>
    <Element HueDiv="2" SatDiv="22" ValDiv="0" HueShift="1.288888" SatScale="1.186326" ValScale="1.569579"/>
    <Element HueDiv="2" SatDiv="23" ValDiv="0" HueShift="1.288888" SatScale="1.158722" ValScale="1.595469"/>
    <Element HueDiv="2" SatDiv="24" ValDiv="0" HueShift="1.288888" SatScale="1.133460" ValScale="1.621359"/>
    <Element HueDiv="2" SatDiv="25" ValDiv="0" HueShift="1.288886" SatScale="1.109368" ValScale="1.647249"/>
    <Element HueDiv="2" SatDiv="26" ValDiv="0" HueShift="1.288888" SatScale="1.085260" ValScale="1.673139"/>
    <Element HueDiv="2" SatDiv="27" ValDiv="0" HueShift="1.288889" SatScale="1.059896" ValScale="1.699029"/>
    <Element HueDiv="2" SatDiv="28" ValDiv="0" HueShift="1.288888" SatScale="1.031957" ValScale="1.724919"/>
    <Element HueDiv="2" SatDiv="29" ValDiv="0" HueShift="1.288888" SatScale="1.000000" ValScale="1.750809"/>
    <Element HueDiv="3" SatDiv="0" ValDiv="0" HueShift="0.933393" SatScale="1.000000" ValScale="1.000000"/>
    <Element HueDiv="3" SatDiv="1" ValDiv="0" HueShift="0.933393" SatScale="2.369283" ValScale="1.024439"/>
    <Element HueDiv="3" SatDiv="2" ValDiv="0" HueShift="0.933268" SatScale="2.314074" ValScale="1.048879"/>
    <Element HueDiv="3" SatDiv="3" ValDiv="0" HueShift="0.933309" SatScale="2.261384" ValScale="1.073318"/>
    <Element HueDiv="3" SatDiv="4" ValDiv="0" HueShift="0.933318" SatScale="2.211039" ValScale="1.097757"/>
    <Element HueDiv="3" SatDiv="5" ValDiv="0" HueShift="0.933345" SatScale="2.162888" ValScale="1.122196"/>
    <Element HueDiv="3" SatDiv="6" ValDiv="0" HueShift="0.933324" SatScale="2.116789" ValScale="1.146636"/>
    <Element HueDiv="3" SatDiv="7" ValDiv="0" HueShift="0.933352" SatScale="2.072613" ValScale="1.171075"/>
    <Element HueDiv="3" SatDiv="8" ValDiv="0" HueShift="0.933342" SatScale="2.030244" ValScale="1.195514"/>
    <Element HueDiv="3" SatDiv="9" ValDiv="0" HueShift="0.933335" SatScale="1.989572" ValScale="1.219953"/>
    <Element HueDiv="3" SatDiv="10" ValDiv="0" HueShift="0.933327" SatScale="1.950498" ValScale="1.244392"/>
    <Element HueDiv="3" SatDiv="11" ValDiv="0" HueShift="0.933331" SatScale="1.912929" ValScale="1.268832"/>
    <Element HueDiv="3" SatDiv="12" ValDiv="0" HueShift="0.933325" SatScale="1.876780" ValScale="1.293271"/>
    <Element HueDiv="3" SatDiv="13" ValDiv="0" HueShift="0.933336" SatScale="1.785417" ValScale="1.317710"/>
    <Element HueDiv="3" SatDiv="14" ValDiv="0" HueShift="0.933340" SatScale="1.663347" ValScale="1.342149"/>
    <Element HueDiv="3" SatDiv="15" ValDiv="0" HueShift="0.933332" SatScale="1.562422" ValScale="1.366589"/>
    <Element HueDiv="3" SatDiv="16" ValDiv="0" HueShift="0.933334" SatScale="1.478541" ValScale="1.391028"/>
    <Element HueDiv="3" SatDiv="17" ValDiv="0" HueShift="0.933333" SatScale="1.408509" ValScale="1.415467"/>
    <Element HueDiv="3" SatDiv="18" ValDiv="0" HueShift="0.933329" SatScale="1.349776" ValScale="1.439906"/>
    <Element HueDiv="3" SatDiv="19" ValDiv="0" HueShift="0.933333" SatScale="1.300253" ValScale="1.464346"/>
    <Element HueDiv="3" SatDiv="20" ValDiv="0" HueShift="0.933335" SatScale="1.258187" ValScale="1.488785"/>
    <Element HueDiv="3" SatDiv="21" ValDiv="0" HueShift="0.933331" SatScale="1.222065" ValScale="1.513224"/>
    <Element HueDiv="3" SatDiv="22" ValDiv="0" HueShift="0.933330" SatScale="1.190544" ValScale="1.537663"/>
    <Element HueDiv="3" SatDiv="23" ValDiv="0" HueShift="0.933330" SatScale="1.162394" ValScale="1.562102"/>
    <Element HueDiv="3" SatDiv="24" ValDiv="0" HueShift="0.933331" SatScale="1.136457" ValScale="1.586542"/>
    <Element HueDiv="3" SatDiv="25" ValDiv="0" HueShift="0.933332" SatScale="1.111608" ValScale="1.610981"/>
    <Element HueDiv="3" SatDiv="26" ValDiv="0" HueShift="0.933331" SatScale="1.086723" ValScale="1.635420"/>
    <Element HueDiv="3" SatDiv="27" ValDiv="0" HueShift="0.933333" SatScale="1.060648" ValScale="1.659860"/>
    <Element HueDiv="3" SatDiv="28" ValDiv="0" HueShift="0.933334" SatScale="1.032173" ValScale="1.684299"/>
    <Element HueDiv="3" SatDiv="29" ValDiv="0" HueShift="0.933334" SatScale="1.000000" ValScale="1.708738"/>
    <Element HueDiv="4" SatDiv="0" ValDiv="0" HueShift="0.577838" SatScale="1.000000" ValScale="1.000000"/>
    <Element HueDiv="4" SatDiv="1" ValDiv="0" HueShift="0.577838" SatScale="2.372643" ValScale="1.022989"/>
    <Element HueDiv="4" SatDiv="2" ValDiv="0" HueShift="0.577743" SatScale="2.320494" ValScale="1.045977"/>
    <Element HueDiv="4" SatDiv="3" ValDiv="0" HueShift="0.577779" SatScale="2.270591" ValScale="1.068966"/>
    <Element HueDiv="4" SatDiv="4" ValDiv="0" HueShift="0.577793" SatScale="2.222790" ValScale="1.091954"/>
    <Element HueDiv="4" SatDiv="5" ValDiv="0" HueShift="0.577782" SatScale="2.176959" ValScale="1.114943"/>
    <Element HueDiv="4" SatDiv="6" ValDiv="0" HueShift="0.577764" SatScale="2.132981" ValScale="1.137931"/>
    <Element HueDiv="4" SatDiv="7" ValDiv="0" HueShift="0.577795" SatScale="2.090744" ValScale="1.160920"/>
    <Element HueDiv="4" SatDiv="8" ValDiv="0" HueShift="0.577775" SatScale="2.050146" ValScale="1.183908"/>
    <Element HueDiv="4" SatDiv="9" ValDiv="0" HueShift="0.577784" SatScale="2.011096" ValScale="1.206897"/>
    <Element HueDiv="4" SatDiv="10" ValDiv="0" HueShift="0.577788" SatScale="1.973505" ValScale="1.229885"/>
    <Element HueDiv="4" SatDiv="11" ValDiv="0" HueShift="0.577775" SatScale="1.937294" ValScale="1.252874"/>
    <Element HueDiv="4" SatDiv="12" ValDiv="0" HueShift="0.577773" SatScale="1.902388" ValScale="1.275862"/>
    <Element HueDiv="4" SatDiv="13" ValDiv="0" HueShift="0.577775" SatScale="1.786242" ValScale="1.298851"/>
    <Element HueDiv="4" SatDiv="14" ValDiv="0" HueShift="0.577782" SatScale="1.665312" ValScale="1.321839"/>
    <Element HueDiv="4" SatDiv="15" ValDiv="0" HueShift="0.577771" SatScale="1.565337" ValScale="1.344828"/>
    <Element HueDiv="4" SatDiv="16" ValDiv="0" HueShift="0.577773" SatScale="1.482210" ValScale="1.367816"/>
    <Element HueDiv="4" SatDiv="17" ValDiv="0" HueShift="0.577777" SatScale="1.412731" ValScale="1.390805"/>
    <Element HueDiv="4" SatDiv="18" ValDiv="0" HueShift="0.577775" SatScale="1.354349" ValScale="1.413793"/>
    <Element HueDiv="4" SatDiv="19" ValDiv="0" HueShift="0.577773" SatScale="1.304975" ValScale="1.436782"/>
    <Element HueDiv="4" SatDiv="20" ValDiv="0" HueShift="0.577777" SatScale="1.262862" ValScale="1.459770"/>
    <Element HueDiv="4" SatDiv="21" ValDiv="0" HueShift="0.577775" SatScale="1.226507" ValScale="1.482759"/>
    <Element HueDiv="4" SatDiv="22" ValDiv="0" HueShift="0.577773" SatScale="1.194582" ValScale="1.505747"/>
    <Element HueDiv="4" SatDiv="23" ValDiv="0" HueShift="0.577779" SatScale="1.165882" ValScale="1.528736"/>
    <Element HueDiv="4" SatDiv="24" ValDiv="0" HueShift="0.577777" SatScale="1.139283" ValScale="1.551724"/>
    <Element HueDiv="4" SatDiv="25" ValDiv="0" HueShift="0.577779" SatScale="1.113704" ValScale="1.574713"/>
    <Element HueDiv="4" SatDiv="26" ValDiv="0" HueShift="0.577777" SatScale="1.088083" ValScale="1.597701"/>
    <Element HueDiv="4" SatDiv="27" ValDiv="0" HueShift="0.577779" SatScale="1.061343" ValScale="1.620690"/>
    <Element HueDiv="4" SatDiv="28" ValDiv="0" HueShift="0.577777" SatScale="1.032372" ValScale="1.643678"/>
    <Element HueDiv="4" SatDiv="29" ValDiv="0" HueShift="0.577779" SatScale="1.000000" ValScale="1.666667"/>
    <Element HueDiv="5" SatDiv="0" ValDiv="0" HueShift="0.222223" SatScale="1.000000" ValScale="1.000000"/>
    <Element HueDiv="5" SatDiv="1" ValDiv="0" HueShift="0.222223" SatScale="2.376013" ValScale="1.021538"/>
    <Element HueDiv="5" SatDiv="2" ValDiv="0" HueShift="0.222173" SatScale="2.326947" ValScale="1.043076"/>
    <Element HueDiv="5" SatDiv="3" ValDiv="0" HueShift="0.222248" SatScale="2.279873" ValScale="1.064613"/>
    <Element HueDiv="5" SatDiv="4" ValDiv="0" HueShift="0.222242" SatScale="2.234665" ValScale="1.086151"/>
    <Element HueDiv="5" SatDiv="5" ValDiv="0" HueShift="0.222203" SatScale="2.191215" ValScale="1.107689"/>
    <Element HueDiv="5" SatDiv="6" ValDiv="0" HueShift="0.222232" SatScale="2.149422" ValScale="1.129227"/>
    <Element HueDiv="5" SatDiv="7" ValDiv="0" HueShift="0.222230" SatScale="2.109193" ValScale="1.150764"/>
    <Element HueDiv="5" SatDiv="8" ValDiv="0" HueShift="0.222230" SatScale="2.070443" ValScale="1.172302"/>
    <Element HueDiv="5" SatDiv="9" ValDiv="0" HueShift="0.222216" SatScale="2.033090" ValScale="1.193840"/>
    <Element HueDiv="5" SatDiv="10" ValDiv="0" HueShift="0.222232" SatScale="1.997062" ValScale="1.215378"/>
    <Element HueDiv="5" SatDiv="11" ValDiv="0" HueShift="0.222228" SatScale="1.962288" ValScale="1.236916"/>
    <Element HueDiv="5" SatDiv="12" ValDiv="0" HueShift="0.222214" SatScale="1.928704" ValScale="1.258453"/>
    <Element HueDiv="5" SatDiv="13" ValDiv="0" HueShift="0.222226" SatScale="1.787320" ValScale="1.279991"/>
    <Element HueDiv="5" SatDiv="14" ValDiv="0" HueShift="0.222225" SatScale="1.667473" ValScale="1.301529"/>
    <Element HueDiv="5" SatDiv="15" ValDiv="0" HueShift="0.222225" SatScale="1.568388" ValScale="1.323067"/>
    <Element HueDiv="5" SatDiv="16" ValDiv="0" HueShift="0.222219" SatScale="1.485954" ValScale="1.344604"/>
    <Element HueDiv="5" SatDiv="17" ValDiv="0" HueShift="0.222225" SatScale="1.416969" ValScale="1.366142"/>
    <Element HueDiv="5" SatDiv="18" ValDiv="0" HueShift="0.222223" SatScale="1.358881" ValScale="1.387680"/>
    <Element HueDiv="5" SatDiv="19" ValDiv="0" HueShift="0.222226" SatScale="1.309608" ValScale="1.409218"/>
    <Element HueDiv="5" SatDiv="20" ValDiv="0" HueShift="0.222223" SatScale="1.267409" ValScale="1.430755"/>
    <Element HueDiv="5" SatDiv="21" ValDiv="0" HueShift="0.222225" SatScale="1.230792" ValScale="1.452293"/>
    <Element HueDiv="5" SatDiv="22" ValDiv="0" HueShift="0.222225" SatScale="1.198448" ValScale="1.473831"/>
    <Element HueDiv="5" SatDiv="23" ValDiv="0" HueShift="0.222228" SatScale="1.169198" ValScale="1.495369"/>
    <Element HueDiv="5" SatDiv="24" ValDiv="0" HueShift="0.222226" SatScale="1.141950" ValScale="1.516907"/>
    <Element HueDiv="5" SatDiv="25" ValDiv="0" HueShift="0.222228" SatScale="1.115670" ValScale="1.538444"/>
    <Element HueDiv="5" SatDiv="26" ValDiv="0" HueShift="0.222225" SatScale="1.089349" ValScale="1.559982"/>
    <Element HueDiv="5" SatDiv="27" ValDiv="0" HueShift="0.222225" SatScale="1.061984" ValScale="1.581520"/>
    <Element HueDiv="5" SatDiv="28" ValDiv="0" HueShift="0.222225" SatScale="1.032554" ValScale="1.603058"/>
    <Element HueDiv="5" SatDiv="29" ValDiv="0" HueShift="0.222225" SatScale="1.000000" ValScale="1.624595"/>
    <Element HueDiv="6" SatDiv="0" ValDiv="0" HueShift="-0.133392" SatScale="1.000000" ValScale="1.000000"/>
    <Element HueDiv="6" SatDiv="1" ValDiv="0" HueShift="-0.133392" SatScale="2.379392" ValScale="1.020087"/>
    <Element HueDiv="6" SatDiv="2" ValDiv="0" HueShift="-0.133387" SatScale="2.333439" ValScale="1.040174"/>
    <Element HueDiv="6" SatDiv="3" ValDiv="0" HueShift="-0.133342" SatScale="2.289232" ValScale="1.060261"/>
    <Element HueDiv="6" SatDiv="4" ValDiv="0" HueShift="-0.133354" SatScale="2.246669" ValScale="1.080348"/>
    <Element HueDiv="6" SatDiv="5" ValDiv="0" HueShift="-0.133329" SatScale="2.205659" ValScale="1.100435"/>
    <Element HueDiv="6" SatDiv="6" ValDiv="0" HueShift="-0.133326" SatScale="2.166119" ValScale="1.120522"/>
    <Element HueDiv="6" SatDiv="7" ValDiv="0" HueShift="-0.133337" SatScale="2.127972" ValScale="1.140609"/>
    <Element HueDiv="6" SatDiv="8" ValDiv="0" HueShift="-0.133322" SatScale="2.091146" ValScale="1.160696"/>
    <Element HueDiv="6" SatDiv="9" ValDiv="0" HueShift="-0.133329" SatScale="2.055571" ValScale="1.180783"/>
    <Element HueDiv="6" SatDiv="10" ValDiv="0" HueShift="-0.133337" SatScale="2.021188" ValScale="1.200871"/>
    <Element HueDiv="6" SatDiv="11" ValDiv="0" HueShift="-0.133328" SatScale="1.987936" ValScale="1.220958"/>
    <Element HueDiv="6" SatDiv="12" ValDiv="0" HueShift="-0.133329" SatScale="1.933426" ValScale="1.241045"/>
    <Element HueDiv="6" SatDiv="13" ValDiv="0" HueShift="-0.133335" SatScale="1.788628" ValScale="1.261132"/>
    <Element HueDiv="6" SatDiv="14" ValDiv="0" HueShift="-0.133338" SatScale="1.669809" ValScale="1.281219"/>
    <Element HueDiv="6" SatDiv="15" ValDiv="0" HueShift="-0.133335" SatScale="1.571556" ValScale="1.301306"/>
    <Element HueDiv="6" SatDiv="16" ValDiv="0" HueShift="-0.133335" SatScale="1.489756" ValScale="1.321393"/>
    <Element HueDiv="6" SatDiv="17" ValDiv="0" HueShift="-0.133333" SatScale="1.421209" ValScale="1.341480"/>
