lrplugin/MindfulLensFilmEngine.lrplugin/profiles/foundation/senova_light_foundation.xmp
<x:xmpmeta xmlns:x="adobe:ns:meta/" x:xmptk="Adobe XMP Core 7.0-c000 1.000000, 0000/00/00-00:00:00        ">
 <rdf:RDF xmlns:rdf="http://www.w3.org/1999/02/22-rdf-syntax-ns#">
  <rdf:Description rdf:about=""
    xmlns:crs="http://ns.adobe.com/camera-raw-settings/1.0/"
   crs:PresetType="Normal"
   crs:Cluster=""
   crs:UUID="9CB8F8565FEE4B17A4A47FE66B050D76"
   crs:SupportsAmount2="True"
   crs:SupportsAmount="True"
   crs:SupportsColor="True"
   crs:SupportsMonochrome="True"
   crs:SupportsHighDynamicRange="True"
   crs:SupportsNormalDynamicRange="True"
   crs:SupportsSceneReferred="True"
   crs:SupportsOutputReferred="True"
   crs:RequiresRGBTables="False"
   crs:ShowInPresets="True"
   crs:ShowInQuickActions="False"
   crs:Version="18.2.2"
   crs:ProcessVersion="15.4"
   crs:WhiteBalance="Custom"
   crs:Temperature="5600"
   crs:Tint="+1"
   crs:Exposure2012="+0.05"
   crs:Contrast2012="-8"
   crs:Highlights2012="-24"
   crs:Shadows2012="+18"
   crs:Whites2012="-10"
   crs:Blacks2012="-3"
   crs:Texture="-2"
   crs:Clarity2012="-2"
   crs:Dehaze="-1"
   crs:Vibrance="-2"
   crs:Saturation="-3"
   crs:HueAdjustmentOrange="+1"
   crs:HueAdjustmentYellow="-2"
   crs:HueAdjustmentGreen="+3"
   crs:HueAdjustmentBlue="+2"
   crs:SaturationAdjustmentOrange="+1"
   crs:SaturationAdjustmentGreen="-2"
   crs:SaturationAdjustmentBlue="-2"
   crs:LuminanceAdjustmentOrange="+4"
   crs:LuminanceAdjustmentBlue="+1"
   crs:ColorGradeMidtoneHue="34"
   crs:ColorGradeMidtoneSat="2"
   crs:ColorGradeHighlightsHue="44"
   crs:ColorGradeHighlightsSat="1"
   crs:ColorGradeBlending="42"
   crs:GrainAmount="12"
   crs:GrainSize="13"
   crs:GrainFrequency="22"
   crs:ToneCurveName2012="Custom"
   crs:HasSettings="True">
   <crs:Name><rdf:Alt><rdf:li xml:lang="x-default">4.ML_SenovaLight</rdf:li></rdf:Alt></crs:Name>
   <crs:Group><rdf:Alt><rdf:li xml:lang="x-default">[01] The Foundation</rdf:li></rdf:Alt></crs:Group>
   <crs:Description><rdf:Alt><rdf:li xml:lang="x-default">Senova Light baseline with airy contrast, lighter density and softly lifted warm tones.</rdf:li></rdf:Alt></crs:Description>
   <crs:ToneCurvePV2012><rdf:Seq><rdf:li>0, 9</rdf:li><rdf:li>32, 34</rdf:li><rdf:li>64, 66</rdf:li><rdf:li>128, 143</rdf:li><rdf:li>192, 204</rdf:li><rdf:li>224, 218</rdf:li><rdf:li>255, 236</rdf:li></rdf:Seq></crs:ToneCurvePV2012>
   <crs:ToneCurvePV2012Red><rdf:Seq><rdf:li>0, 6</rdf:li><rdf:li>128, 134</rdf:li><rdf:li>255, 248</rdf:li></rdf:Seq></crs:ToneCurvePV2012Red>
   <crs:ToneCurvePV2012Green><rdf:Seq><rdf:li>0, 0</rdf:li><rdf:li>128, 126</rdf:li><rdf:li>255, 244</rdf:li></rdf:Seq></crs:ToneCurvePV2012Green>
   <crs:ToneCurvePV2012Blue><rdf:Seq><rdf:li>0, 4</rdf:li><rdf:li>128, 122</rdf:li><rdf:li>255, 234</rdf:li></rdf:Seq></crs:ToneCurvePV2012Blue>
  </rdf:Description>
 </rdf:RDF>
</x:xmpmeta>
