lrplugin/MindfulLensFilmEngine.lrplugin/profiles/foundation/zetra_100_foundation.xmp
<x:xmpmeta xmlns:x="adobe:ns:meta/" x:xmptk="Adobe XMP Core 7.0-c000 1.000000, 0000/00/00-00:00:00        ">
 <rdf:RDF xmlns:rdf="http://www.w3.org/1999/02/22-rdf-syntax-ns#">
  <rdf:Description rdf:about=""
    xmlns:crs="http://ns.adobe.com/camera-raw-settings/1.0/"
   crs:PresetType="Normal"
   crs:Cluster=""
   crs:UUID="7D0D411D45E64915B5B175FF461EC341"
   crs:SupportsAmount2="True"
   crs:SupportsAmount="True"
   crs:SupportsColor="True"
   crs:SupportsMonochrome="True"
   crs:SupportsHighDynamicRange="True"
   crs:SupportsNormalDynamicRange="True"
   crs:SupportsSceneReferred="True"
   crs:SupportsOutputReferred="True"
   crs:RequiresRGBTables="False"
   crs:ShowInPresets="True"
   crs:ShowInQuickActions="False"
   crs:Version="18.2.2"
   crs:ProcessVersion="15.4"
   crs:WhiteBalance="Custom"
   crs:Temperature="5625"
   crs:Tint="0"
   crs:Exposure2012="+0.03"
   crs:Contrast2012="+2"
   crs:Highlights2012="-24"
   crs:Shadows2012="+14"
   crs:Whites2012="-7"
   crs:Blacks2012="-8"
   crs:Texture="+1"
   crs:Clarity2012="+1"
   crs:Vibrance="+2"
   crs:Saturation="0"
   crs:HueAdjustmentOrange="-1"
   crs:HueAdjustmentYellow="-2"
   crs:HueAdjustmentBlue="+1"
   crs:SaturationAdjustmentOrange="+2"
   crs:SaturationAdjustmentYellow="+1"
   crs:SaturationAdjustmentBlue="+1"
   crs:LuminanceAdjustmentOrange="+2"
   crs:LuminanceAdjustmentBlue="-1"
   crs:ColorGradeShadowsHue="220"
   crs:ColorGradeShadowsSat="2"
   crs:ColorGradeMidtoneHue="36"
   crs:ColorGradeMidtoneSat="2"
   crs:ColorGradeHighlightsHue="46"
   crs:ColorGradeHighlightsSat="1"
   crs:ColorGradeBalance="-1"
   crs:ColorGradeBlending="44"
   crs:GrainAmount="12"
   crs:GrainSize="13"
   crs:GrainFrequency="22"
   crs:ToneCurveName2012="Custom"
   crs:HasSettings="True">
   <crs:Name><rdf:Alt><rdf:li xml:lang="x-default">5.ML_Zetra100</rdf:li></rdf:Alt></crs:Name>
   <crs:Group><rdf:Alt><rdf:li xml:lang="x-default">[01] The Foundation</rdf:li></rdf:Alt></crs:Group>
   <crs:Description><rdf:Alt><rdf:li xml:lang="x-default">Zetra 100 baseline with cleaner daylight contrast, quiet skin balance and tidy highlights.</rdf:li></rdf:Alt></crs:Description>
   <crs:ToneCurvePV2012><rdf:Seq><rdf:li>0, 8</rdf:li><rdf:li>32, 31</rdf:li><rdf:li>64, 63</rdf:li><rdf:li>128, 139</rdf:li><rdf:li>192, 204</rdf:li><rdf:li>224, 219</rdf:li><rdf:li>255, 236</rdf:li></rdf:Seq></crs:ToneCurvePV2012>
   <crs:ToneCurvePV2012Red><rdf:Seq><rdf:li>0, 5</rdf:li><rdf:li>128, 133</rdf:li><rdf:li>255, 246</rdf:li></rdf:Seq></crs:ToneCurvePV2012Red>
   <crs:ToneCurvePV2012Green><rdf:Seq><rdf:li>0, 1</rdf:li><rdf:li>128, 126</rdf:li><rdf:li>255, 242</rdf:li></rdf:Seq></crs:ToneCurvePV2012Green>
   <crs:ToneCurvePV2012Blue><rdf:Seq><rdf:li>0, 4</rdf:li><rdf:li>128, 122</rdf:li><rdf:li>255, 234</rdf:li></rdf:Seq></crs:ToneCurvePV2012Blue>
  </rdf:Description>
 </rdf:RDF>
</x:xmpmeta>
