public/luts/acros_xg.cube
# Generated from ColorChecker fit
LUT_3D_SIZE 9
DOMAIN_MIN 0.0 0.0 0.0
DOMAIN_MAX 1.0 1.0 1.0
0.191484 0.304006 0.188124
0.210570 0.259977 0.192114
0.237933 0.247371 0.224756
0.269083 0.255136 0.264665
0.301078 0.274923 0.298732
0.332522 0.301086 0.322130
0.363572 0.330684 0.338306
0.395931 0.363481 0.358986
0.432851 0.401945 0.404174
0.210570 0.259977 0.192114
0.234672 0.233727 0.214684
0.265297 0.234766 0.257398
0.298340 0.252716 0.300940
0.331247 0.279905 0.334272
0.363010 0.311363 0.354634
0.394173 0.344825 0.367544
0.426825 0.380732 0.386798
0.464606 0.422227 0.434468
0.237933 0.247371 0.224756
0.265297 0.234766 0.257398
0.297686 0.245765 0.303055
0.331384 0.270667 0.344481
0.364222 0.302475 0.372708
0.395582 0.336895 0.387046
0.426392 0.372340 0.395081
0.459130 0.409925 0.412678
0.497824 0.453470 0.463979
0.269083 0.255136 0.264665
0.298340 0.252716 0.300940
0.331384 0.270667 0.344481
0.364884 0.299963 0.380113
0.397061 0.334282 0.400936
0.427681 0.370009 0.408328
0.458061 0.406231 0.411947
0.491067 0.444739 0.429727
0.531112 0.490031 0.487879
0.301078 0.274923 0.298732
0.331247 0.279905 0.334272
0.364222 0.302475 0.372708
0.397061 0.334282 0.400936
0.428369 0.369683 0.414124
0.458301 0.405736 0.415721
0.488561 0.442205 0.417453
0.522402 0.481558 0.439324
0.564625 0.528968 0.509615
0.332522 0.301086 0.322130
0.363010 0.311363 0.354634
0.395582 0.336895 0.387046
0.427681 0.370009 0.408328
0.458301 0.405736 0.415721
0.487984 0.441811 0.414741
0.518822 0.478674 0.419185
0.554453 0.519469 0.451126
0.600066 0.570045 0.540913
0.363572 0.330684 0.338306
0.394173 0.344825 0.367544
0.426392 0.372340 0.395081
0.458061 0.406231 0.411947
0.488561 0.442205 0.417453
0.518822 0.478674 0.419185
0.551321 0.516754 0.433009
0.590084 0.560264 0.483066
0.640688 0.615730 0.601777
0.395931 0.363481 0.358986
0.426825 0.380732 0.386798
0.459130 0.409925 0.412678
0.491067 0.444739 0.429727
0.522402 0.481558 0.439324
0.554453 0.519469 0.451126
0.590084 0.560264 0.483066
0.633710 0.608440 0.561357
0.691293 0.671196 0.720488
0.432851 0.401945 0.404174
0.464606 0.422227 0.434468
0.497824 0.453470 0.463979
0.531112 0.490031 0.487879
0.564625 0.528968 0.509615
0.600066 0.570045 0.540913
0.640688 0.615730 0.601777
0.691293 0.671196 0.720488
0.758229 0.744319 0.933605
0.210570 0.259977 0.192114
0.234672 0.233727 0.214684
0.265297 0.234766 0.257398
0.298340 0.252716 0.300940
0.331247 0.279905 0.334272
0.363010 0.311363 0.354634
0.394173 0.344825 0.367544
0.426825 0.380732 0.386798
0.464606 0.422227 0.434468
0.234672 0.233727 0.214684
0.262848 0.223076 0.251235
0.295921 0.235805 0.300111
0.330174 0.262211 0.344067
0.363439 0.295298 0.374134
0.395095 0.330772 0.389621
0.426073 0.367045 0.398116
0.458850 0.405232 0.415483
0.497453 0.449155 0.465865
0.265297 0.234766 0.257398
0.295921 0.235805 0.300111
0.330075 0.256764 0.348712
0.364427 0.288618 0.388023
0.397197 0.325044 0.411145
0.428153 0.362427 0.419458
0.458611 0.399855 0.422617
0.491436 0.439118 0.438558
0.531042 0.484713 0.493491
0.298340 0.252716 0.300940
0.330174 0.262211 0.344067
0.364427 0.288618 0.388023
0.398156 0.323586 0.419699
0.429967 0.361471 0.434268
0.460016 0.399332 0.435175
0.490005 0.436934 0.434149
0.523188 0.476743 0.451191
0.564365 0.523933 0.514585
0.331247 0.279905 0.334272
0.363439 0.295298 0.374134
0.397197 0.325044 0.411145
0.429967 0.361471 0.434268
0.460742 0.399609 0.440741
0.490064 0.437194 0.436083
0.520024 0.474665 0.434089
0.554262 0.515167 0.456833
0.597965 0.564548 0.534664
0.363010 0.311363 0.354634
0.395095 0.330772 0.389621
0.428153 0.362427 0.419458
0.460016 0.399332 0.435175
0.490064 0.437194 0.436083
0.519228 0.474423 0.429768
0.549984 0.512136 0.432096
0.586360 0.554154 0.467207
0.633931 0.606999 0.567524
0.394173 0.344825 0.367544
0.426073 0.367045 0.398116
0.458611 0.399855 0.422617
0.490005 0.436934 0.434149
0.520024 0.474665 0.434089
0.549984 0.512136 0.432096
0.582750 0.551140 0.446102
0.622736 0.596171 0.502319
0.675905 0.654431 0.635239
0.426825 0.380732 0.386798
0.458850 0.405232 0.415483
0.491436 0.439118 0.438558
0.523188 0.476743 0.451191
0.554262 0.515167 0.456833
0.586360 0.554154 0.467208
0.622736 0.596171 0.502319
0.668191 0.646391 0.590450
0.729074 0.712691 0.768158
0.464606 0.422227 0.434468
0.497453 0.449155 0.465865
0.531042 0.484713 0.493491
0.564365 0.523933 0.514585
0.597965 0.564548 0.534664
0.633931 0.606999 0.567524
0.675905 0.654431 0.635239
0.729074 0.712691 0.768158
0.800175 0.790332 1.000000
0.237933 0.247371 0.224756
0.265297 0.234766 0.257398
0.297686 0.245765 0.303055
0.331384 0.270667 0.344481
0.364222 0.302475 0.372708
0.395582 0.336895 0.387046
0.426392 0.372340 0.395081
0.459130 0.409925 0.412678
0.497824 0.453470 0.463979
0.265297 0.234766 0.257398
0.295921 0.235805 0.300111
0.330075 0.256764 0.348712
0.364427 0.288618 0.388023
0.397197 0.325044 0.411145
0.428153 0.362427 0.419458
0.458611 0.399855 0.422617
0.491436 0.439118 0.438558
0.531042 0.484713 0.493491
0.297686 0.245765 0.303055
0.330075 0.256764 0.348712
0.364754 0.284449 0.394507
0.398779 0.320471 0.427334
0.430759 0.359184 0.442362
0.460846 0.397649 0.443040
0.490745 0.435627 0.441094
0.523708 0.475589 0.456527
0.564537 0.522705 0.517621
0.331384 0.270667 0.344481
0.364427 0.288618 0.388023
0.398779 0.320471 0.427334
0.431885 0.358554 0.451376
0.462738 0.397898 0.457390
0.491879 0.436237 0.450893
0.521400 0.474013 0.445680
0.554940 0.514368 0.463825
0.597688 0.563152 0.535678
0.364222 0.302475 0.372708
0.397197 0.325044 0.411145
0.430759 0.359184 0.442362
0.462738 0.397898 0.457390
0.492515 0.436891 0.455539
0.521020 0.474577 0.444396
0.550731 0.512070 0.439825
0.585674 0.553192 0.465970
0.631426 0.604465 0.555250
0.395582 0.336895 0.387046
0.428153 0.362427 0.419458
0.460846 0.397649 0.443040
0.491879 0.436237 0.450893
0.521020 0.474577 0.444396
0.549586 0.511755 0.433205
0.580442 0.549564 0.435255
0.618002 0.592499 0.476757
0.668228 0.647761 0.592202
0.426392 0.372340 0.395081
0.458611 0.399855 0.422617
0.490745 0.435627 0.441094
0.521400 0.474013 0.445680
0.550731 0.512070 0.439825
0.580442 0.549564 0.435255
0.613785 0.588961 0.451973
0.655561 0.635434 0.518260
0.712121 0.696860 0.670675
0.459130 0.409925 0.412678
0.491436 0.439118 0.438558
0.523708 0.475589 0.456527
0.554940 0.514368 0.463825
0.585674 0.553192 0.465970
0.618002 0.592499 0.476757
0.655561 0.635434 0.518260
0.703542 0.687846 0.620828
0.768680 0.758286 0.823091
0.497824 0.453470 0.463979
0.531042 0.484713 0.493491
0.564537 0.522705 0.517621
0.597688 0.563152 0.535678
0.631426 0.604465 0.555250
0.668228 0.647761 0.592202
0.712121 0.696860 0.670675
0.768680 0.758286 0.823091
0.845030 0.841269 1.000000
0.269083 0.255136 0.264665
0.298340 0.252716 0.300940
0.331384 0.270667 0.344481
0.364884 0.299963 0.380113
0.397061 0.334282 0.400936
0.427681 0.370009 0.408328
0.458061 0.406231 0.411947
0.491067 0.444739 0.429727
0.531112 0.490031 0.487879
0.298340 0.252716 0.300940
0.330174 0.262211 0.344067
0.364427 0.288618 0.388023
0.398156 0.323586 0.419699
0.429967 0.361471 0.434268
0.460016 0.399332 0.435175
0.490005 0.436934 0.434149
0.523188 0.476743 0.451191
0.564365 0.523933 0.514585
0.331384 0.270667 0.344481
0.364427 0.288618 0.388023
0.398779 0.320471 0.427334
0.431885 0.358554 0.451376
0.462738 0.397898 0.457390
0.491879 0.436237 0.450893
0.521400 0.474013 0.445680
0.554940 0.514368 0.463825
0.597688 0.563152 0.535678
0.364884 0.299963 0.380113
0.398156 0.323586 0.419699
0.431885 0.358554 0.451376
0.463903 0.397870 0.466174
0.493590 0.437241 0.463404
0.521876 0.475079 0.450651
0.551238 0.512499 0.443782
0.585704 0.553322 0.466937
0.630849 0.604071 0.552539
0.397061 0.334282 0.400936
0.429967 0.361471 0.434268
0.462738 0.397898 0.457390
0.493590 0.437241 0.463404
0.522292 0.475885 0.453688
0.550161 0.512917 0.437899
0.580062 0.550128 0.433971
0.616409 0.592015 0.468115
0.665163 0.645779 0.574822
0.427681 0.370009 0.408328
0.460016 0.399332 0.435175
0.491879 0.436237 0.450893
0.521876 0.475079 0.450651
0.550161 0.512917 0.437899
0.578440 0.549514 0.424361
0.609963 0.587339 0.430042
0.649532 0.631564 0.483224
0.703497 0.690066 0.620464
0.458061 0.406231 0.411947
0.490005 0.436934 0.434149
0.521400 0.474013 0.445680
0.551238 0.512499 0.443782
0.580062 0.550128 0.433971
0.609963 0.587339 0.430042
0.644580 0.627277 0.454070
0.689101 0.675789 0.536405
0.750265 0.741430 0.715674
0.491067 0.444739 0.429727
0.523188 0.476743 0.451191
0.554940 0.514368 0.463825
0.585704 0.553322 0.466937
0.616409 0.592015 0.468115
0.649532 0.631564 0.483224
0.689101 0.675789 0.536405
0.740692 0.731215 0.660079
0.811428 0.807070 0.894944
0.531112 0.490031 0.487879
0.564365 0.523933 0.514585
0.597688 0.563152 0.535678
0.630849 0.604071 0.552539
0.665163 0.645779 0.574822
0.703497 0.690066 0.620464
0.750265 0.741430 0.715674
0.811428 0.807070 0.894944
0.894499 0.896892 1.000000
0.301078 0.274923 0.298732
0.331247 0.279905 0.334272
0.364222 0.302475 0.372708
0.397061 0.334282 0.400936
0.428369 0.369683 0.414124
0.458301 0.405736 0.415721
0.488561 0.442205 0.417453
0.522402 0.481558 0.439324
0.564625 0.528968 0.509615
0.331247 0.279905 0.334272
0.363439 0.295298 0.374134
0.397197 0.325044 0.411145
0.429967 0.361471 0.434268
0.460742 0.399609 0.440741
0.490064 0.437194 0.436083
0.520024 0.474665 0.434089
0.554262 0.515167 0.456833
0.597965 0.564548 0.534664
0.364222 0.302475 0.372708
0.397197 0.325044 0.411145
0.430759 0.359184 0.442362
0.462738 0.397898 0.457390
0.492515 0.436891 0.455539
0.521020 0.474577 0.444396
0.550731 0.512070 0.439825
0.585674 0.553192 0.465970
0.631426 0.604465 0.555250
0.397061 0.334282 0.400936
0.429967 0.361471 0.434268
0.462738 0.397898 0.457390
0.493590 0.437241 0.463404
0.522292 0.475885 0.453688
0.550161 0.512917 0.437899
0.580062 0.550128 0.433971
0.616409 0.592015 0.468115
0.665163 0.645779 0.574822
0.428369 0.369683 0.414124
0.460742 0.399609 0.440741
0.492515 0.436891 0.455539
0.522292 0.475885 0.453688
0.550230 0.513650 0.438636
0.578030 0.549948 0.422110
0.608947 0.587249 0.424112
0.647781 0.630725 0.472924
0.700881 0.688252 0.605106
0.458301 0.405736 0.415721
0.490064 0.437194 0.436083
0.521020 0.474577 0.444396
0.550161 0.512917 0.437899
0.578030 0.549948 0.422110
0.606718 0.586111 0.410824
0.639864 0.624550 0.426114
0.682656 0.671113 0.498332
0.741831 0.734354 0.666105
0.488561 0.442205 0.417453
0.520024 0.474665 0.434089
0.550731 0.512070 0.439825
0.580062 0.550128 0.433971
0.608947 0.587249 0.424112
0.639864 0.624550 0.426114
0.676839 0.665851 0.464120
0.725448 0.717677 0.570549
0.792815 0.789255 0.786100
0.522402 0.481558 0.439324
0.554262 0.515167 0.456833
0.585674 0.553192 0.465970
0.616409 0.592015 0.468115
0.647781 0.630725 0.472924
0.682656 0.671113 0.498332
0.725448 0.717677 0.570549
0.782120 0.777615 0.724067
0.860183 0.860834 1.000000
0.564625 0.528968 0.509615
0.597965 0.564548 0.534664
0.631426 0.604465 0.555250
0.665163 0.645779 0.574822
0.700881 0.688252 0.605106
0.741831 0.734354 0.666105
0.792815 0.789255 0.786100
0.860183 0.860834 1.000000
0.951832 0.959670 1.000000
0.332522 0.301086 0.322130
0.363010 0.311363 0.354634
0.395582 0.336895 0.387046
0.427681 0.370009 0.408328
0.458301 0.405736 0.415721
0.487984 0.441811 0.414741
0.518822 0.478674 0.419185
0.554453 0.519469 0.451126
0.600066 0.570045 0.540913
0.363010 0.311363 0.354634
0.395095 0.330772 0.389621
0.428153 0.362427 0.419458
0.460016 0.399332 0.435175
0.490064 0.437194 0.436083
0.519228 0.474423 0.429768
0.549984 0.512136 0.432096
0.586360 0.554154 0.467208
0.633931 0.606999 0.567524
0.395582 0.336895 0.387046
0.428153 0.362427 0.419458
0.460846 0.397649 0.443040
0.491879 0.436237 0.450893
0.521020 0.474577 0.444396
0.549586 0.511755 0.433205
0.580442 0.549564 0.435255
0.618002 0.592499 0.476757
0.668228 0.647761 0.592202
0.427681 0.370009 0.408328
0.460016 0.399332 0.435175
0.491879 0.436237 0.450893
0.521876 0.475079 0.450651
0.550161 0.512917 0.437899
0.578440 0.549514 0.424361
0.609963 0.587339 0.430042
0.649532 0.631564 0.483224
0.703497 0.690066 0.620464
0.458301 0.405736 0.415721
0.490064 0.437194 0.436083
0.521020 0.474577 0.444396
0.550161 0.512917 0.437899
0.578030 0.549948 0.422110
0.606718 0.586111 0.410824
0.639864 0.624550 0.426114
0.682656 0.671113 0.498332
0.741831 0.734354 0.666105
0.487984 0.441811 0.414741
0.519228 0.474423 0.429768
0.549586 0.511755 0.433205
0.578440 0.549514 0.424361
0.606718 0.586111 0.410824
0.636899 0.622663 0.408457
0.673009 0.662989 0.441405
0.720625 0.713614 0.542086
0.786869 0.783768 0.751199
0.518822 0.478674 0.419185
0.549984 0.512136 0.432096
0.580442 0.549564 0.435255
0.609963 0.587339 0.430042
0.639864 0.624550 0.426114
0.673009 0.662989 0.441405
0.713814 0.707152 0.502126
0.768240 0.764240 0.642767
0.843799 0.844157 0.906096
0.554453 0.519469 0.451126
0.586360 0.554154 0.467208
0.618002 0.592499 0.476757
0.649532 0.631564 0.483224
0.682656 0.671113 0.498332
0.720625 0.713614 0.542086
0.768240 0.764240 0.642767
0.831852 0.830866 0.836934
0.919358 0.924074 1.000000
0.600066 0.570045 0.540913
0.633931 0.606999 0.567524
0.668228 0.647761 0.592202
0.703497 0.690066 0.620464
0.741831 0.734354 0.666105
0.786869 0.783768 0.751199
0.843799 0.844157 0.906096
0.919358 0.924074 1.000000
1.000000 1.000000 1.000000
0.363572 0.330684 0.338306
0.394173 0.344825 0.367544
0.426392 0.372340 0.395081
0.458061 0.406231 0.411947
0.488561 0.442205 0.417453
0.518822 0.478674 0.419185
0.551321 0.516754 0.433009
0.590084 0.560264 0.483066
0.640688 0.615730 0.601777
0.394173 0.344825 0.367544
0.426073 0.367045 0.398116
0.458611 0.399855 0.422617
0.490005 0.436934 0.434149
0.520024 0.474665 0.434089
0.549984 0.512136 0.432096
0.582750 0.551140 0.446102
0.622736 0.596171 0.502319
0.675905 0.654431 0.635239
0.426392 0.372340 0.395081
0.458611 0.399855 0.422617
0.490745 0.435627 0.441094
0.521400 0.474013 0.445680
0.550731 0.512070 0.439825
0.580442 0.549564 0.435255
0.613785 0.588961 0.451973
0.655561 0.635434 0.518260
0.712121 0.696860 0.670675
0.458061 0.406231 0.411947
0.490005 0.436934 0.434149
0.521400 0.474013 0.445680
0.551238 0.512499 0.443782
0.580062 0.550128 0.433971
0.609963 0.587339 0.430042
0.644580 0.627277 0.454070
0.689101 0.675789 0.536405
0.750265 0.741430 0.715674
0.488561 0.442205 0.417453
0.520024 0.474665 0.434089
0.550731 0.512070 0.439825
0.580062 0.550128 0.433971
0.608947 0.587249 0.424112
0.639864 0.624550 0.426114
0.676839 0.665851 0.464120
0.725448 0.717677 0.570549
0.792815 0.789255 0.786100
0.518822 0.478674 0.419185
0.549984 0.512136 0.432096
0.580442 0.549564 0.435255
0.609963 0.587339 0.430042
0.639864 0.624550 0.426114
0.673009 0.662989 0.441405
0.713814 0.707152 0.502126
0.768240 0.764240 0.642767
0.843799 0.844157 0.906096
0.551321 0.516754 0.433009
0.582750 0.551140 0.446102
0.613785 0.588961 0.451973
0.644580 0.627277 0.454070
0.676839 0.665851 0.464120
0.713814 0.707152 0.502126
0.760306 0.756352 0.596369
0.822666 0.821327 0.783408
0.908792 0.912659 1.000000
0.590084 0.560264 0.483066
0.622736 0.596171 0.502319
0.655561 0.635434 0.518260
0.689101 0.675789 0.536405
0.725448 0.717677 0.570549
0.768240 0.764240 0.642767
0.822666 0.821327 0.783408
0.895463 0.897492 1.000000
0.994918 1.000000 1.000000
0.640688 0.615730 0.601777
0.675905 0.654431 0.635239
0.712121 0.696860 0.670675
0.750265 0.741430 0.715674
0.792815 0.789255 0.786100
0.843799 0.844157 0.906096
0.908792 0.912659 1.000000
0.994918 1.000000 1.000000
1.000000 1.000000 1.000000
0.395931 0.363481 0.358986
0.426825 0.380732 0.386798
0.459130 0.409925 0.412678
0.491067 0.444739 0.429727
0.522402 0.481558 0.439324
0.554453 0.519469 0.451126
0.590084 0.560264 0.483066
0.633710 0.608440 0.561357
0.691293 0.671196 0.720488
0.426825 0.380732 0.386798
0.458850 0.405232 0.415483
0.491436 0.439118 0.438558
0.523188 0.476743 0.451191
0.554262 0.515167 0.456833
0.586360 0.554154 0.467208
0.622736 0.596171 0.502319
0.668191 0.646391 0.590450
0.729074 0.712691 0.768158
0.459130 0.409925 0.412678
0.491436 0.439118 0.438558
0.523708 0.475589 0.456527
0.554940 0.514368 0.463825
0.585674 0.553192 0.465970
0.618002 0.592499 0.476757
0.655561 0.635434 0.518260
0.703542 0.687846 0.620828
0.768680 0.758286 0.823091
0.491067 0.444739 0.429727
0.523188 0.476743 0.451191
0.554940 0.514368 0.463825
0.585704 0.553322 0.466937
0.616409 0.592015 0.468115
0.649532 0.631564 0.483224
0.689101 0.675789 0.536405
0.740692 0.731215 0.660079
0.811428 0.807070 0.894944
0.522402 0.481558 0.439324
0.554262 0.515167 0.456833
0.585674 0.553192 0.465970
0.616409 0.592015 0.468115
0.647781 0.630725 0.472924
0.682656 0.671113 0.498332
0.725448 0.717677 0.570549
0.782120 0.777615 0.724067
0.860183 0.860834 1.000000
0.554453 0.519469 0.451126
0.586360 0.554154 0.467208
0.618002 0.592499 0.476757
0.649532 0.631564 0.483224
0.682656 0.671113 0.498332
0.720625 0.713614 0.542086
0.768240 0.764240 0.642767
0.831852 0.830866 0.836934
0.919358 0.924074 1.000000
0.590084 0.560264 0.483066
0.622736 0.596171 0.502319
0.655561 0.635434 0.518260
0.689101 0.675789 0.536405
0.725448 0.717677 0.570549
0.768240 0.764240 0.642767
0.822666 0.821327 0.783408
0.895463 0.897492 1.000000
0.994918 1.000000 1.000000
0.633710 0.608440 0.561357
0.668191 0.646391 0.590450
0.703542 0.687846 0.620828
0.740692 0.731215 0.660079
0.782120 0.777615 0.724067
0.831852 0.830866 0.836934
0.895463 0.897492 1.000000
0.980079 0.986722 1.000000
1.000000 1.000000 1.000000
0.691293 0.671196 0.720488
0.729074 0.712691 0.768158
0.768680 0.758286 0.823091
0.811428 0.807070 0.894944
0.860183 0.860834 1.000000
0.919358 0.924074 1.000000
0.994918 1.000000 1.000000
1.000000 1.000000 1.000000
1.000000 1.000000 1.000000
0.432851 0.401945 0.404174
0.464606 0.422227 0.434468
0.497824 0.453470 0.463979
0.531112 0.490031 0.487879
0.564625 0.528968 0.509615
0.600066 0.570045 0.540913
0.640688 0.615730 0.601777
0.691293 0.671196 0.720488
0.758229 0.744319 0.933605
0.464606 0.422227 0.434468
0.497453 0.449155 0.465865
0.531042 0.484713 0.493491
0.564365 0.523933 0.514585
0.597965 0.564548 0.534664
0.633931 0.606999 0.567524
0.675905 0.654431 0.635239
0.729074 0.712691 0.768158
0.800175 0.790332 1.000000
0.497824 0.453470 0.463979
0.531042 0.484713 0.493491
0.564537 0.522705 0.517621
0.597688 0.563152 0.535678
0.631426 0.604465 0.555250
0.668228 0.647761 0.592202
0.712121 0.696860 0.670675
0.768680 0.758286 0.823091
0.845030 0.841269 1.000000
0.531112 0.490031 0.487879
0.564365 0.523933 0.514585
0.597688 0.563152 0.535678
0.630849 0.604071 0.552539
0.665163 0.645779 0.574823
0.703497 0.690066 0.620464
0.750265 0.741430 0.715674
0.811428 0.807070 0.894944
0.894499 0.896892 1.000000
0.564625 0.528968 0.509615
0.597965 0.564548 0.534664
0.631426 0.604465 0.555250
0.665163 0.645779 0.574823
0.700881 0.688252 0.605106
0.741831 0.734354 0.666105
0.792815 0.789255 0.786100
0.860183 0.860834 1.000000
0.951832 0.959670 1.000000
0.600066 0.570045 0.540913
0.633931 0.606999 0.567524
0.668228 0.647761 0.592202
0.703497 0.690066 0.620464
0.741831 0.734354 0.666105
0.786869 0.783768 0.751199
0.843799 0.844157 0.906096
0.919358 0.924074 1.000000
1.000000 1.000000 1.000000
0.640688 0.615730 0.601777
0.675905 0.654431 0.635239
0.712121 0.696860 0.670675
0.750265 0.741430 0.715674
0.792815 0.789255 0.786100
0.843799 0.844157 0.906096
0.908792 0.912659 1.000000
0.994918 1.000000 1.000000
1.000000 1.000000 1.000000
0.691293 0.671196 0.720488
0.729074 0.712691 0.768158
0.768680 0.758286 0.823091
0.811428 0.807070 0.894944
0.860183 0.860834 1.000000
0.919358 0.924074 1.000000
0.994918 1.000000 1.000000
1.000000 1.000000 1.000000
1.000000 1.000000 1.000000
0.758229 0.744319 0.933605
0.800175 0.790332 1.000000
0.845030 0.841269 1.000000
0.894499 0.896892 1.000000
0.951832 0.959670 1.000000
1.000000 1.000000 1.000000
1.000000 1.000000 1.000000
1.000000 1.000000 1.000000
1.000000 1.000000 1.000000
