public/luts/acros_xg.cube
# Generated from ColorChecker fit
LUT_3D_SIZE 5
DOMAIN_MIN 0.0 0.0 0.0
DOMAIN_MAX 1.0 1.0 1.0
0.191484 0.304006 0.188124
0.237933 0.247371 0.224756
0.301078 0.274923 0.298732
0.363572 0.330684 0.338306
0.432851 0.401945 0.404174
0.237933 0.247371 0.224756
0.297686 0.245765 0.303055
0.364222 0.302475 0.372708
0.426392 0.372340 0.395081
0.497824 0.453470 0.463979
0.301078 0.274923 0.298732
0.364222 0.302475 0.372708
0.428369 0.369683 0.414124
0.488561 0.442205 0.417453
0.564625 0.528968 0.509615
0.363572 0.330684 0.338306
0.426392 0.372340 0.395081
0.488561 0.442205 0.417453
0.551321 0.516754 0.433009
0.640688 0.615730 0.601777
0.432851 0.401945 0.404174
0.497824 0.453470 0.463979
0.564625 0.528968 0.509615
0.640688 0.615730 0.601777
0.758229 0.744319 0.933605
0.237933 0.247371 0.224756
0.297686 0.245765 0.303055
0.364222 0.302475 0.372708
0.426392 0.372340 0.395081
0.497824 0.453470 0.463979
0.297686 0.245765 0.303055
0.364754 0.284449 0.394507
0.430759 0.359184 0.442362
0.490745 0.435627 0.441094
0.564537 0.522705 0.517621
0.364222 0.302475 0.372708
0.430759 0.359184 0.442362
0.492515 0.436891 0.455539
0.550731 0.512070 0.439825
0.631426 0.604465 0.555250
0.426392 0.372340 0.395081
0.490745 0.435627 0.441094
0.550731 0.512070 0.439825
0.613785 0.588961 0.451973
0.712121 0.696860 0.670675
0.497824 0.453470 0.463979
0.564537 0.522705 0.517621
0.631426 0.604465 0.555250
0.712121 0.696860 0.670675
0.845030 0.841269 1.000000
0.301078 0.274923 0.298732
0.364222 0.302475 0.372708
0.428369 0.369683 0.414124
0.488561 0.442205 0.417453
0.564625 0.528968 0.509615
0.364222 0.302475 0.372708
0.430759 0.359184 0.442362
0.492515 0.436891 0.455539
0.550731 0.512070 0.439825
0.631426 0.604465 0.555250
0.428369 0.369683 0.414124
0.492515 0.436891 0.455539
0.550230 0.513650 0.438636
0.608947 0.587249 0.424112
0.700881 0.688252 0.605106
0.488561 0.442205 0.417453
0.550731 0.512070 0.439825
0.608947 0.587249 0.424112
0.676839 0.665851 0.464120
0.792815 0.789255 0.786100
0.564625 0.528968 0.509615
0.631426 0.604465 0.555250
0.700881 0.688252 0.605106
0.792815 0.789255 0.786100
0.951832 0.959670 1.000000
0.363572 0.330684 0.338306
0.426392 0.372340 0.395081
0.488561 0.442205 0.417453
0.551321 0.516754 0.433009
0.640688 0.615730 0.601777
0.426392 0.372340 0.395081
0.490745 0.435627 0.441094
0.550731 0.512070 0.439825
0.613785 0.588961 0.451973
0.712121 0.696860 0.670675
0.488561 0.442205 0.417453
0.550731 0.512070 0.439825
0.608947 0.587249 0.424112
0.676839 0.665851 0.464120
0.792815 0.789255 0.786100
0.551321 0.516754 0.433009
0.613785 0.588961 0.451973
0.676839 0.665851 0.464120
0.760306 0.756352 0.596369
0.908792 0.912659 1.000000
0.640688 0.615730 0.601777
0.712121 0.696860 0.670675
0.792815 0.789255 0.786100
0.908792 0.912659 1.000000
1.000000 1.000000 1.000000
0.432851 0.401945 0.404174
0.497824 0.453470 0.463979
0.564625 0.528968 0.509615
0.640688 0.615730 0.601777
0.758229 0.744319 0.933605
0.497824 0.453470 0.463979
0.564537 0.522705 0.517621
0.631426 0.604465 0.555250
0.712121 0.696860 0.670675
0.845030 0.841269 1.000000
0.564625 0.528968 0.509615
0.631426 0.604465 0.555250
0.700881 0.688252 0.605106
0.792815 0.789255 0.786100
0.951832 0.959670 1.000000
0.640688 0.615730 0.601777
0.712121 0.696860 0.670675
0.792815 0.789255 0.786100
0.908792 0.912659 1.000000
1.000000 1.000000 1.000000
0.758229 0.744319 0.933605
0.845030 0.841269 1.000000
0.951832 0.959670 1.000000
1.000000 1.000000 1.000000
1.000000 1.000000 1.000000
