public/luts/acros_xg.cube
# Generated from ColorChecker fit
LUT_3D_SIZE 33
DOMAIN_MIN 0.0 0.0 0.0
DOMAIN_MAX 1.0 1.0 1.0
0.191484 0.304006 0.188124
0.195176 0.289347 0.184955
0.199651 0.277267 0.184878
0.204813 0.267547 0.187413
0.210570 0.259977 0.192114
0.216836 0.254357 0.198566
0.223534 0.250500 0.206384
0.230588 0.248227 0.215221
0.237933 0.247371 0.224756
0.245507 0.247775 0.234705
0.253255 0.249293 0.244815
0.261128 0.251788 0.254864
0.269083 0.255136 0.264665
0.277084 0.259223 0.274059
0.285098 0.263943 0.282924
0.293103 0.269204 0.291168
0.301078 0.274923 0.298732
0.309011 0.281027 0.305589
0.316895 0.287454 0.311743
0.324731 0.294154 0.317234
0.332522 0.301086 0.322130
0.340282 0.308218 0.326534
0.348026 0.315533 0.330582
0.355780 0.323021 0.334439
0.363572 0.330684 0.338306
0.371439 0.338533 0.342414
0.379421 0.346592 0.347027
0.387567 0.354893 0.352441
0.395931 0.363481 0.358986
0.404572 0.372410 0.367022
0.413557 0.381745 0.376943
0.422958 0.391561 0.389174
0.432851 0.401945 0.404174
0.195176 0.289347 0.184955
0.199276 0.276015 0.183414
0.204126 0.265187 0.184801
0.209631 0.256647 0.188643
0.215701 0.250187 0.194501
0.222252 0.245610 0.201968
0.229205 0.242731 0.210670
0.236490 0.241374 0.220265
0.244041 0.241375 0.230442
0.251799 0.242579 0.240924
0.259708 0.244842 0.251466
0.267723 0.248032 0.261855
0.275802 0.252026 0.271911
0.283909 0.256713 0.281484
0.292016 0.261989 0.290460
0.300097 0.267766 0.298755
0.308138 0.273961 0.306317
0.316125 0.280507 0.313128
0.324055 0.287343 0.319202
0.331928 0.294421 0.324583
0.339751 0.301703 0.329350
0.347537 0.309162 0.333613
0.355305 0.316780 0.337516
0.363080 0.324552 0.341234
0.370894 0.332481 0.344973
0.378783 0.340582 0.348974
0.386791 0.348881 0.353510
0.394967 0.357414 0.358883
0.403366 0.366227 0.365431
0.412051 0.375376 0.373524
0.421088 0.384931 0.383563
0.430550 0.394968 0.395981
0.440518 0.405578 0.411245
0.199651 0.277267 0.184878
0.204126 0.265187 0.184801
0.209320 0.255539 0.187491
0.215136 0.248107 0.192485
0.221488 0.242686 0.199351
0.228293 0.239084 0.207691
0.235475 0.237117 0.217138
0.242963 0.236611 0.227358
0.250694 0.237406 0.238049
0.258609 0.239349 0.248942
0.266656 0.242299 0.259800
0.274790 0.246126 0.270417
0.282970 0.250710 0.280622
0.291162 0.255942 0.290274
0.299340 0.261723 0.299265
0.307480 0.267964 0.307521
0.315567 0.274588 0.314997
0.323592 0.281528 0.321684
0.331551 0.288728 0.327602
0.339446 0.296141 0.332805
0.347286 0.303732 0.337380
0.355085 0.311477 0.341446
0.362864 0.319360 0.345152
0.370649 0.327379 0.348683
0.378474 0.335540 0.352254
0.386377 0.343860 0.356112
0.394402 0.352369 0.360539
0.402601 0.361103 0.365846
0.411030 0.370113 0.372379
0.419752 0.379458 0.380514
0.428836 0.389208 0.390662
0.438358 0.399444 0.403263
0.448398 0.410257 0.418793
0.204813 0.267547 0.187413
0.209631 0.256647 0.188643
0.215136 0.248107 0.192485
0.221235 0.241714 0.198484
0.227840 0.237266 0.206217
0.234872 0.234573 0.215294
0.242255 0.233453 0.225355
0.249920 0.233738 0.236076
0.257805 0.235266 0.247162
0.265854 0.237889 0.258351
0.274016 0.241470 0.269416
0.282246 0.245879 0.280159
0.290507 0.251000 0.290415
0.298765 0.256726 0.300053
0.306994 0.262960 0.308973
0.315175 0.269619 0.317107
0.323293 0.276625 0.324421
0.331339 0.283916 0.330912
0.339312 0.291436 0.336609
0.347215 0.299143 0.341575
0.355059 0.307004 0.345903
0.362860 0.314997 0.349721
0.370639 0.323110 0.353187
0.378425 0.331342 0.356493
0.386252 0.339703 0.359862
0.394160 0.348213 0.363550
0.402196 0.356902 0.367846
0.410412 0.365811 0.373070
0.418865 0.374993 0.379575
0.427622 0.384509 0.387746
0.436751 0.394433 0.398001
0.446330 0.404849 0.410791
0.456441 0.415849 0.426597
0.210570 0.259977 0.192114
0.215701 0.250187 0.194501
0.221488 0.242686 0.199351
0.227840 0.237266 0.206217
0.234672 0.233727 0.214684
0.241903 0.231880 0.224370
0.249462 0.231547 0.234924
0.257280 0.232561 0.246029
0.265297 0.234766 0.257398
0.273457 0.238014 0.268778
0.281712 0.242170 0.279949
0.290019 0.247109 0.290722
0.298340 0.252716 0.300940
0.306645 0.258888 0.310479
0.314910 0.265530 0.319248
0.323115 0.272560 0.327188
0.331247 0.279905 0.334272
0.339300 0.287504 0.340504
0.347274 0.295305 0.345923
0.355174 0.303268 0.350599
0.363010 0.311363 0.354634
0.370802 0.319570 0.358163
0.378572 0.327879 0.361352
0.386351 0.336294 0.364402
0.394173 0.344825 0.367544
0.402080 0.353496 0.371042
0.410121 0.362340 0.375192
0.418349 0.371400 0.380324
0.426825 0.380732 0.386798
0.435613 0.390399 0.395007
0.444786 0.400478 0.405378
0.454422 0.411055 0.418368
0.464606 0.422227 0.434468
0.216836 0.254357 0.198566
0.222252 0.245610 0.201968
0.228293 0.239084 0.207691
0.234872 0.234573 0.215294
0.241903 0.231880 0.224370
0.249310 0.230819 0.234546
0.257020 0.231215 0.245479
0.264968 0.232902 0.256858
0.273094 0.235728 0.268407
0.281345 0.239548 0.279880
0.289674 0.244228 0.291065
0.298038 0.249647 0.301780
0.306403 0.255693 0.311878
0.314738 0.262264 0.321243
0.323022 0.269269 0.329790
0.331236 0.276628 0.337470
0.339369 0.284271 0.344263
0.347417 0.292139 0.350182
0.355379 0.300184 0.355273
0.363264 0.308367 0.359615
0.371084 0.316662 0.363318
0.378858 0.325050 0.366525
0.386612 0.333526 0.369410
0.394376 0.342095 0.372182
0.402187 0.350770 0.375080
0.410089 0.359577 0.378376
0.418132 0.368552 0.382375
0.426370 0.377742 0.387413
0.434865 0.387203 0.393860
0.443684 0.397004 0.402117
0.452901 0.407222 0.412618
0.462596 0.417947 0.425829
0.472854 0.429276 0.442249
0.223534 0.250500 0.206384
0.229205 0.242731 0.210670
0.235475 0.237117 0.217138
0.242255 0.233453 0.225355
0.249462 0.231547 0.234924
0.257020 0.231215 0.245479
0.264860 0.232283 0.256684
0.272916 0.234590 0.268238
0.281132 0.237985 0.279871
0.289454 0.242325 0.291348
0.297837 0.247482 0.302461
0.306242 0.253334 0.313040
0.314633 0.259773 0.322945
0.322984 0.266699 0.332066
0.331272 0.274026 0.340329
0.339482 0.281674 0.347691
0.347604 0.289577 0.354141
0.355635 0.297678 0.359700
0.363576 0.305932 0.364423
0.371437 0.314302 0.368395
0.379232 0.322765 0.371735
0.386981 0.331306 0.374594
0.394711 0.339921 0.377156
0.402455 0.348617 0.379635
0.410252 0.357412 0.382280
0.418145 0.366333 0.385370
0.426187 0.375419 0.389219
0.434434 0.384719 0.394172
0.442949 0.394294 0.400604
0.451800 0.404212 0.408927
0.461063 0.414556 0.419582
0.470819 0.425416 0.433043
0.481155 0.436894 0.449817
0.230588 0.248227 0.215221
0.236490 0.241374 0.220265
0.242963 0.236611 0.227358
0.249920 0.233738 0.236076
0.257280 0.232561 0.246029
0.264968 0.232902 0.256858
0.272916 0.234590 0.268238
0.281061 0.237465 0.279874
0.289347 0.241379 0.291505
0.297723 0.246193 0.302903
0.306144 0.251779 0.313869
0.314573 0.258020 0.324241
0.322976 0.264809 0.333886
0.331328 0.272051 0.342704
0.339608 0.279659 0.350628
0.347803 0.287559 0.357623
0.355903 0.295686 0.363686
0.363906 0.303987 0.368847
0.371818 0.312417 0.373167
0.379647 0.320945 0.376741
0.387410 0.329548 0.379697
0.395128 0.338214 0.382191
0.402831 0.346943 0.384417
0.410551 0.355744 0.386597
0.418330 0.364636 0.388988
0.426214 0.373652 0.391878
0.434254 0.382831 0.395587
0.442510 0.392226 0.400468
0.451045 0.401899 0.406908
0.459931 0.411923 0.415322
0.469243 0.422381 0.426162
0.479065 0.433367 0.439910
0.489485 0.444986 0.457080
0.237933 0.247371 0.224756
0.244041 0.241375 0.230442
0.250694 0.237406 0.238049
0.257805 0.235266 0.247162
0.265297 0.234766 0.257398
0.273094 0.235728 0.268407
0.281132 0.237985 0.279871
0.289347 0.241379 0.291505
0.297686 0.245765 0.303055
0.306099 0.251007 0.314300
0.314543 0.256979 0.325051
0.322982 0.263567 0.335153
0.331384 0.270667 0.344481
0.339724 0.278185 0.352944
0.347985 0.286039 0.360482
0.356153 0.294156 0.367068
0.364222 0.302475 0.372708
0.372191 0.310943 0.377440
0.380065 0.319521 0.381333
0.387856 0.328178 0.384490
0.395582 0.336895 0.387046
0.403265 0.345663 0.389167
0.410937 0.354483 0.391054
0.418632 0.363368 0.392937
0.426392 0.372340 0.395081
0.434265 0.381432 0.397782
0.442305 0.390689 0.401369
0.450571 0.400165 0.406203
0.459130 0.409925 0.412678
0.468054 0.420044 0.421218
0.477421 0.430608 0.432283
0.487314 0.441714 0.446363
0.497824 0.453470 0.463979
0.245507 0.247775 0.234705
0.251799 0.242579 0.240924
0.258609 0.239349 0.248942
0.265854 0.237889 0.258351
0.273457 0.238014 0.268778
0.281345 0.239548 0.279880
0.289454 0.242325 0.291348
0.297723 0.246193 0.302903
0.306099 0.251007 0.314300
0.314534 0.256634 0.325327
0.322987 0.262951 0.335803
0.331423 0.269847 0.345580
0.339812 0.277220 0.354542
0.348131 0.284980 0.362605
0.356363 0.293046 0.369718
0.364496 0.301348 0.375863
0.372525 0.309827 0.381052
0.380452 0.318435 0.385333
0.388283 0.327134 0.388781
0.396032 0.335895 0.391509
0.403717 0.344703 0.393659
0.411363 0.353551 0.395406
0.419001 0.362443 0.396958
0.426670 0.371394 0.398554
0.434411 0.380429 0.400466
0.442275 0.389584 0.403000
0.450317 0.398906 0.406491
0.458597 0.408452 0.411309
0.467185 0.418289 0.417856
0.476152 0.428496 0.426564
0.485579 0.439160 0.437901
0.495551 0.450383 0.452366
0.506160 0.462273 0.470487
0.253255 0.249293 0.244815
0.259708 0.244842 0.251466
0.266656 0.242299 0.259800
0.274016 0.241470 0.269416
0.281712 0.242170 0.279949
0.289674 0.244228 0.291065
0.297837 0.247482 0.302461
0.306144 0.251779 0.313869
0.314543 0.256979 0.325051
0.322987 0.262951 0.335803
0.331437 0.269576 0.345951
0.339859 0.276743 0.355357
0.348224 0.284355 0.363911
0.356512 0.292323 0.371539
0.364707 0.300570 0.378197
0.372798 0.309027 0.383875
0.380782 0.317640 0.388594
0.388662 0.326361 0.392408
0.396446 0.335157 0.395404
0.404148 0.344000 0.397699
0.411789 0.352878 0.399445
0.419397 0.361787 0.400825
0.427003 0.370734 0.402054
0.434645 0.379735 0.403381
0.442370 0.388820 0.405085
0.450228 0.398026 0.407479
0.458275 0.407403 0.410909
0.466574 0.417011 0.415750
0.475196 0.426919 0.422414
0.484213 0.437208 0.431341
0.493708 0.447971 0.443006
0.503768 0.459308 0.457916
0.514486 0.471333 0.476609
0.261128 0.251788 0.254864
0.267723 0.248032 0.261855
0.274790 0.246126 0.270417
0.282246 0.245879 0.280159
0.290019 0.247109 0.290722
0.298038 0.249647 0.301780
0.306242 0.253334 0.313040
0.314573 0.258020 0.324241
0.322982 0.263567 0.335153
0.331423 0.269847 0.345580
0.339859 0.276743 0.355357
0.348257 0.284149 0.364352
0.356590 0.291967 0.372465
0.364839 0.300113 0.379630
0.372989 0.308512 0.385811
0.381032 0.317098 0.391005
0.388966 0.325819 0.395242
0.396795 0.334631 0.398583
0.404529 0.343501 0.401125
0.412184 0.352407 0.402992
0.419782 0.361338 0.404343
0.427351 0.370292 0.405371
0.434925 0.379278 0.406299
0.442544 0.388318 0.407383
0.450256 0.397441 0.408910
0.458111 0.406689 0.411202
0.466169 0.416114 0.414612
0.474494 0.425777 0.419525
0.483156 0.435753 0.426359
0.492233 0.446123 0.435563
0.501806 0.456983 0.447620
0.511964 0.468436 0.463044
0.522801 0.480599 0.482383
0.269083 0.255136 0.264665
0.275802 0.252026 0.271911
0.282970 0.250710 0.280622
0.290507 0.251000 0.290415
0.298340 0.252716 0.300940
0.306403 0.255693 0.311878
0.314633 0.259773 0.322945
0.322976 0.264809 0.333886
0.331384 0.270667 0.344481
0.339812 0.277220 0.354542
0.348224 0.284355 0.363911
0.356590 0.291967 0.372465
0.364884 0.299963 0.380113
0.373088 0.308259 0.386794
0.381189 0.316784 0.392483
0.389180 0.325475 0.397184
0.397061 0.334282 0.400936
0.404837 0.343164 0.403807
0.412519 0.352090 0.405901
0.420126 0.361042 0.407352
0.427681 0.370009 0.408328
0.435213 0.378994 0.409028
0.442758 0.388010 0.409683
0.450358 0.397077 0.410557
0.458061 0.406231 0.411947
0.465920 0.415514 0.414182
0.473996 0.424982 0.417623
0.482354 0.434698 0.422662
0.491067 0.444739 0.429727
0.500212 0.455191 0.439274
0.509873 0.466150 0.451795
0.520141 0.477724 0.467811
0.531112 0.490031 0.487879
0.277084 0.259223 0.274059
0.283909 0.256713 0.281484
0.291162 0.255942 0.290274
0.298765 0.256726 0.300053
0.306645 0.258888 0.310479
0.314738 0.262264 0.321243
0.322984 0.266699 0.332066
0.331328 0.272051 0.342704
0.339724 0.278185 0.352944
0.348131 0.284980 0.362605
0.356512 0.292323 0.371539
0.364839 0.300113 0.379630
0.373088 0.308259 0.386794
0.381242 0.316681 0.392981
0.389289 0.325309 0.398172
0.397226 0.334084 0.402379
0.405051 0.342957 0.405649
0.412774 0.351890 0.408060
0.420406 0.360857 0.409722
0.427966 0.369839 0.410779
0.435480 0.378831 0.411404
0.442979 0.387836 0.411807
0.450499 0.396871 0.412226
0.458085 0.405959 0.412933
0.465786 0.415137 0.414234
0.473657 0.424452 0.416464
0.481758 0.433960 0.419994
0.490159 0.443729 0.425224
0.498932 0.453838 0.432589
0.508157 0.464374 0.442554
0.517919 0.475438 0.455618
0.528311 0.487139 0.472312
0.539429 0.499597 0.493199
0.285098 0.263943 0.282924
0.292016 0.261989 0.290460
0.299340 0.261723 0.299265
0.306994 0.262960 0.308973
0.314910 0.265530 0.319248
0.323022 0.269269 0.329790
0.331272 0.274026 0.340329
0.339608 0.279659 0.350628
0.347985 0.286039 0.360482
0.356363 0.293046 0.369718
0.364707 0.300570 0.378197
0.372989 0.308512 0.385811
0.381189 0.316784 0.392483
0.389289 0.325309 0.398172
0.397282 0.334019 0.402866
0.405162 0.342858 0.406587
0.412933 0.351781 0.409388
0.420602 0.360751 0.411356
0.428185 0.369743 0.412610
0.435701 0.378745 0.413300
0.443178 0.387751 0.413610
0.450648 0.396769 0.413755
0.458151 0.405816 0.413982
0.465729 0.414920 0.414573
0.473436 0.424120 0.415840
0.481326 0.433465 0.418127
0.489464 0.443015 0.421813
0.497918 0.452839 0.427305
0.506764 0.463019 0.435047
0.516082 0.473645 0.445513
0.525959 0.484821 0.459209
0.536489 0.496658 0.476674
0.547770 0.509280 0.498479
0.293103 0.269204 0.291168
0.300097 0.267766 0.298755
0.307480 0.267964 0.307521
0.315175 0.269619 0.317107
0.323115 0.272560 0.327188
0.331236 0.276628 0.337470
0.339482 0.281674 0.347691
0.347803 0.287559 0.357623
0.356153 0.294156 0.367068
0.364496 0.301348 0.375863
0.372798 0.309027 0.383875
0.381032 0.317098 0.391005
0.389180 0.325475 0.397184
0.397226 0.334084 0.402379
0.405162 0.342858 0.406587
0.412986 0.351746 0.409836
0.420703 0.360703 0.412189
0.428322 0.369697 0.413741
0.435859 0.378705 0.414618
0.443336 0.387716 0.414979
0.450781 0.396729 0.415015
0.458229 0.405754 0.414949
0.465720 0.414810 0.415039
0.473300 0.423928 0.415572
0.481022 0.433149 0.416868
0.488943 0.442526 0.419282
0.497128 0.452120 0.423197
0.505648 0.462004 0.429032
0.514579 0.472262 0.437237
0.524004 0.482987 0.448293
0.534012 0.494285 0.462717
0.544696 0.506271 0.481054
0.556159 0.519070 0.503884
0.301078 0.274923 0.298732
0.308138 0.273961 0.306317
0.315567 0.274588 0.314997
0.323293 0.276625 0.324421
0.331247 0.279905 0.334272
0.339369 0.284271 0.344263
0.347604 0.289577 0.354141
0.355903 0.295686 0.363686
0.364222 0.302475 0.372708
0.372525 0.309827 0.381052
0.380782 0.317640 0.388594
0.388966 0.325819 0.395242
0.397061 0.334282 0.400936
0.405051 0.342957 0.405649
0.412933 0.351781 0.409388
0.420703 0.360703 0.412189
0.428369 0.369683 0.414124
0.435941 0.378691 0.415293
0.443437 0.387706 0.415832
0.450880 0.396721 0.415908
0.458301 0.405736 0.415721
0.465735 0.414764 0.415501
0.473223 0.423828 0.415514
0.480814 0.432960 0.416055
0.488561 0.442205 0.417453
0.496525 0.451617 0.420070
0.504771 0.461261 0.424298
0.513370 0.471213 0.430563
0.522402 0.481558 0.439324
0.531951 0.492394 0.451071
0.542105 0.503827 0.466326
0.552963 0.515975 0.485645
0.564625 0.528968 0.509615
0.309011 0.281027 0.305589
0.316125 0.280507 0.313128
0.323592 0.281528 0.321684
0.331339 0.283916 0.330912
0.339300 0.287504 0.340504
0.347417 0.292139 0.350182
0.355635 0.297678 0.359700
0.363906 0.303987 0.368847
0.372191 0.310943 0.377440
0.380452 0.318435 0.385333
0.388662 0.326361 0.392408
0.396795 0.334631 0.398583
0.404837 0.343164 0.403807
0.412774 0.351890 0.408060
0.420602 0.360751 0.411356
0.428322 0.369697 0.413741
0.435941 0.378691 0.415293
0.443471 0.387705 0.416122
0.450933 0.396722 0.416371
0.458350 0.405736 0.416216
0.465754 0.414751 0.415863
0.473183 0.423783 0.415553
0.480680 0.432855 0.415558
0.488293 0.442005 0.416182
0.496079 0.451279 0.417762
0.504098 0.460733 0.420667
0.512418 0.470436 0.425298
0.521113 0.480465 0.432090
0.530262 0.490910 0.441509
0.539951 0.501869 0.454052
0.550272 0.513453 0.470252
0.561321 0.525782 0.490670
0.573204 0.538986 0.515903
0.316895 0.287454 0.311743
0.324055 0.287343 0.319202
0.331551 0.288728 0.327602
0.339312 0.291436 0.336609
0.347274 0.295305 0.345923
0.355379 0.300184 0.355273
0.363576 0.305932 0.364423
0.371818 0.312417 0.373167
0.380065 0.319521 0.381333
0.388283 0.327134 0.388781
0.396446 0.335157 0.395404
0.404529 0.343501 0.401125
0.412519 0.352090 0.405901
0.420406 0.360857 0.409722
0.428185 0.369743 0.412610
0.435859 0.378705 0.414618
0.443437 0.387706 0.415832
0.450933 0.396722 0.416371
0.458367 0.405738 0.416387
0.465767 0.414750 0.416061
0.473165 0.423766 0.415609
0.480600 0.432803 0.415281
0.488117 0.441889 0.415355
0.495765 0.451062 0.416144
0.503603 0.460371 0.417993
0.511693 0.469878 0.421280
0.520104 0.479650 0.426414
0.528911 0.489770 0.433837
0.538195 0.500329 0.444022
0.548044 0.511428 0.457478
0.558550 0.523180 0.474742
0.569813 0.535709 0.496385
0.581938 0.549148 0.523012
0.324731 0.294154 0.317234
0.331928 0.294421 0.324583
0.339446 0.296141 0.332805
0.347215 0.299143 0.341575
0.355174 0.303268 0.350599
0.363264 0.308367 0.359615
0.371437 0.314302 0.368395
0.379647 0.320945 0.376741
0.387856 0.328178 0.384490
0.396032 0.335895 0.391509
0.404148 0.344000 0.397699
0.412184 0.352407 0.402992
0.420126 0.361042 0.407352
0.427966 0.369839 0.410779
0.435701 0.378745 0.413300
0.443336 0.387716 0.414979
0.450880 0.396721 0.415908
0.458350 0.405736 0.416216
0.465767 0.414750 0.416061
0.473160 0.423762 0.415634
0.480563 0.432782 0.415158
0.488017 0.441829 0.414891
0.495566 0.450935 0.415119
0.503265 0.460140 0.416165
0.511170 0.469496 0.418380
0.519347 0.479065 0.422150
0.527866 0.488921 0.427893
0.536804 0.499147 0.436059
0.546243 0.509837 0.447129
0.556272 0.521096 0.461619
0.566985 0.533038 0.480076
0.578483 0.545789 0.503079
0.590874 0.559486 0.531239
0.332522 0.301086 0.322130
0.339751 0.301703 0.329350
0.347286 0.303732 0.337380
0.355059 0.307004 0.345903
0.363010 0.311363 0.354634
0.371084 0.316662 0.363318
0.379232 0.322765 0.371735
0.387410 0.329548 0.379697
0.395582 0.336895 0.387046
0.403717 0.344703 0.393659
0.411789 0.352878 0.399445
0.419782 0.361338 0.404343
0.427681 0.370009 0.408328
0.435480 0.378831 0.411404
0.443178 0.387751 0.413610
0.450781 0.396729 0.415015
0.458301 0.405736 0.415721
0.465754 0.414751 0.415863
0.473165 0.423766 0.415609
0.480563 0.432782 0.415158
0.487984 0.441811 0.414741
0.495470 0.450876 0.414623
0.503068 0.460011 0.415100
0.510832 0.469259 0.416500
0.518822 0.478674 0.419185
0.527104 0.488322 0.423548
0.535750 0.498278 0.430015
0.544839 0.508628 0.439044
0.554453 0.519469 0.451126
0.564684 0.530908 0.466782
0.575627 0.543063 0.486568
0.587385 0.556062 0.511072
0.600066 0.570045 0.540913
0.340282 0.308218 0.326534
0.347537 0.309162 0.333613
0.355085 0.311477 0.341446
0.362860 0.314997 0.349721
0.370802 0.319570 0.358163
0.378858 0.325050 0.366525
0.386981 0.331306 0.374594
0.395128 0.338214 0.382191
0.403265 0.345663 0.389167
0.411363 0.353551 0.395406
0.419397 0.361787 0.400825
0.427351 0.370292 0.405371
0.435213 0.378994 0.409028
0.442979 0.387836 0.411807
0.450648 0.396769 0.413755
0.458229 0.405754 0.414949
0.465735 0.414764 0.415501
0.473183 0.423783 0.415553
0.480600 0.432803 0.415281
0.488017 0.441829 0.414891
0.495470 0.450876 0.414623
0.503003 0.459970 0.414750
0.510666 0.469146 0.415577
0.518513 0.478450 0.417439
0.526606 0.487940 0.420706
0.535013 0.497684 0.425780
0.543806 0.507758 0.433094
0.553067 0.518254 0.443115
0.562879 0.529268 0.456340
0.573336 0.540912 0.473302
0.584533 0.553306 0.494562
0.596577 0.566581 0.520717
0.609575 0.580878 0.552394
0.348026 0.315533 0.330582
0.355305 0.316780 0.337516
0.362864 0.319360 0.345152
0.370639 0.323110 0.353187
0.378572 0.327879 0.361352
0.386612 0.333526 0.369410
0.394711 0.339921 0.377156
0.402831 0.346943 0.384417
0.410937 0.354483 0.391054
0.419001 0.362443 0.396958
0.427003 0.370734 0.402054
0.434925 0.379278 0.406299
0.442758 0.388010 0.409683
0.450499 0.396871 0.412226
0.458151 0.405816 0.413982
0.465720 0.414810 0.415039
0.473223 0.423828 0.415514
0.480680 0.432855 0.415558
0.488117 0.441889 0.415355
0.495566 0.450935 0.415119
0.503068 0.460011 0.415100
0.510666 0.469146 0.415577
0.518411 0.478377 0.416862
0.526360 0.487754 0.419301
0.534576 0.497337 0.423271
0.543128 0.507196 0.429181
0.552092 0.517412 0.437473
0.561547 0.528075 0.448622
0.571581 0.539289 0.463134
0.582288 0.551165 0.481548
0.593767 0.563826 0.504435
0.606122 0.577407 0.532399
0.619466 0.592052 0.566076
0.355780 0.323021 0.334439
0.363080 0.324552 0.341234
0.370649 0.327379 0.348683
0.378425 0.331342 0.356493
0.386351 0.336294 0.364402
0.394376 0.342095 0.372182
0.402455 0.348617 0.379635
0.410551 0.355744 0.386597
0.418632 0.363368 0.392937
0.426670 0.371394 0.398554
0.434645 0.379735 0.403381
0.442544 0.388318 0.407383
0.450358 0.397077 0.410557
0.458085 0.405959 0.412933
0.465729 0.414920 0.414573
0.473300 0.423928 0.415572
0.480814 0.432960 0.416055
0.488293 0.442005 0.416182
0.495765 0.451062 0.416144
0.503265 0.460140 0.416165
0.510832 0.469259 0.416500
0.518513 0.478450 0.417439
0.526360 0.487754 0.419301
0.534432 0.497224 0.422440
0.542792 0.506920 0.427240
0.551513 0.516917 0.434121
0.560669 0.527297 0.443531
0.570344 0.538155 0.455952
0.580626 0.549595 0.471901
0.591610 0.561733 0.491923
0.603397 0.574694 0.516597
0.616093 0.588614 0.546536
0.629811 0.603640 0.582384
0.363572 0.330684 0.338306
0.370894 0.332481 0.344973
0.378474 0.335540 0.352254
0.386252 0.339703 0.359862
0.394173 0.344825 0.367544
0.402187 0.350770 0.375080
0.410252 0.357412 0.382280
0.418330 0.364636 0.388988
0.426392 0.372340 0.395081
0.434411 0.380429 0.400466
0.442370 0.388820 0.405085
0.450256 0.397441 0.408910
0.458061 0.406231 0.411947
0.465786 0.415137 0.414234
0.473436 0.424120 0.415840
0.481022 0.433149 0.416868
0.488561 0.442205 0.417453
0.496079 0.451279 0.417762
0.503603 0.460371 0.417993
0.511170 0.469496 0.418380
0.518822 0.478674 0.419185
0.526606 0.487940 0.420706
0.534576 0.497337 0.423271
0.542792 0.506920 0.427240
0.551321 0.516754 0.433009
0.560233 0.526914 0.441001
0.569607 0.537486 0.451676
0.579527 0.548567 0.465523
0.590084 0.560264 0.483066
0.601373 0.572696 0.504859
0.613497 0.585989 0.531490
0.626564 0.600284 0.563578
0.640688 0.615730 0.601777
0.371439 0.338533 0.342414
0.378783 0.340582 0.348974
0.386377 0.343860 0.356112
0.394160 0.348213 0.363550
0.402080 0.353496 0.371042
0.410089 0.359577 0.378376
0.418145 0.366333 0.385370
0.426214 0.373652 0.391878
0.434265 0.381432 0.397782
0.442275 0.389584 0.403000
0.450228 0.398026 0.407479
0.458111 0.406689 0.411202
0.465920 0.415514 0.414182
0.473657 0.424452 0.416464
0.481326 0.433465 0.418127
0.488943 0.442526 0.419282
0.496525 0.451617 0.420070
0.504098 0.460733 0.420667
0.511693 0.469878 0.421280
0.519347 0.479065 0.422150
0.527104 0.488322 0.423548
0.535013 0.497684 0.425780
0.543128 0.507196 0.429181
0.551513 0.516917 0.434121
0.560233 0.526914 0.441001
0.569363 0.537264 0.450256
0.578981 0.548058 0.462350
0.589175 0.559394 0.477784
0.600035 0.571381 0.497087
0.611659 0.584141 0.520823
0.624150 0.597805 0.549588
0.637619 0.612513 0.584008
0.652182 0.628418 0.624745
0.379421 0.346592 0.347027
0.386791 0.348881 0.353510
0.394402 0.352369 0.360539
0.402196 0.356902 0.367846
0.410121 0.362340 0.375193
0.418132 0.368552 0.382375
0.426187 0.375419 0.389219
0.434254 0.382831 0.395587
0.442305 0.390689 0.401369
0.450317 0.398906 0.406491
0.458275 0.407403 0.410909
0.466169 0.416114 0.414612
0.473996 0.424982 0.417623
0.481758 0.433960 0.419994
0.489464 0.443015 0.421813
0.497128 0.452120 0.423197
0.504771 0.461261 0.424298
0.512418 0.470436 0.425298
0.520104 0.479650 0.426414
0.527866 0.488921 0.427893
0.535750 0.498278 0.430015
0.543806 0.507758 0.433094
0.552092 0.517412 0.437473
0.560669 0.527297 0.443531
0.569607 0.537486 0.451676
0.578981 0.548058 0.462350
0.588873 0.559105 0.476029
