public/luts/amarelo_30d.cube
# Generated from ColorChecker fit
LUT_3D_SIZE 5
DOMAIN_MIN 0.0 0.0 0.0
DOMAIN_MAX 1.0 1.0 1.0
0.018459 0.000000 0.162318
0.000000 0.000000 0.362659
0.000000 0.000000 0.541616
0.000000 0.000000 0.568806
0.000000 0.000000 0.228586
0.000000 0.000000 0.028221
0.000000 0.000000 0.363798
0.044628 0.033648 0.661670
0.202107 0.253681 0.774404
0.502658 0.663663 0.469309
0.054276 0.000000 0.000000
0.131501 0.220206 0.395701
0.186606 0.368861 0.728181
0.182417 0.500892 0.777901
0.026748 0.615571 0.295119
0.176931 0.259234 0.000000
0.169026 0.206641 0.380972
0.010216 0.006266 0.717030
0.000000 0.000000 0.608449
0.000000 0.000000 0.000000
0.027073 0.000000 0.000000
0.000000 0.000000 0.260729
0.000000 0.000000 0.622604
0.000000 0.000000 0.313710
0.000000 0.000000 0.000000
0.382673 0.560151 0.193583
0.276262 0.651702 0.218911
0.115111 0.405182 0.326666
0.000000 0.000000 0.453490
0.000000 0.000000 0.450765
0.207420 0.067037 0.140810
0.230430 0.248453 0.274480
0.293387 0.327738 0.465148
0.347790 0.317476 0.632409
0.290125 0.170682 0.610595
0.246053 0.469132 0.151117
0.298104 0.565289 0.395812
0.393557 0.671796 0.607825
0.355414 0.672012 0.689699
0.000000 0.389726 0.458720
0.350234 0.797197 0.077818
0.381900 0.714576 0.489496
0.369195 0.631323 0.714555
0.006621 0.301574 0.638493
0.000000 0.000000 0.061544
0.200593 0.000000 0.000000
0.213405 0.000000 0.480630
0.002841 0.000000 0.763711
0.000000 0.000000 0.510434
0.000000 0.000000 0.000000
0.654056 0.939781 0.307491
0.581691 1.000000 0.215587
0.479471 0.761460 0.289903
0.287568 0.123490 0.534107
0.000000 0.000000 0.866608
0.426742 0.309635 0.265588
0.360613 0.294578 0.242702
0.400328 0.233372 0.351501
0.357560 0.000000 0.578607
0.000000 0.000000 0.825377
0.429802 0.702312 0.310080
0.347173 0.536648 0.381631
0.414856 0.498646 0.486080
0.316026 0.296184 0.592999
0.000000 0.000000 0.586697
0.495041 1.000000 0.278262
0.424133 0.766048 0.522944
0.456774 0.656394 0.637481
0.147641 0.303404 0.574398
0.000000 0.000000 0.200955
0.283234 0.000000 0.025943
0.303221 0.000000 0.575719
0.288766 0.000000 0.768055
0.000000 0.000000 0.538427
0.000000 0.000000 0.000000
0.811212 1.000000 0.395057
0.873927 1.000000 0.357532
0.973058 1.000000 0.550006
0.908953 0.783572 1.000000
0.426948 0.000000 1.000000
0.632170 0.341875 0.308464
0.545296 0.311113 0.288206
0.671549 0.321678 0.454305
0.682777 0.035189 0.860408
0.195820 0.000000 1.000000
0.658075 0.739795 0.342631
0.476521 0.451912 0.387793
0.593575 0.440501 0.511420
0.552585 0.237955 0.750107
0.000000 0.000000 1.000000
0.700876 1.000000 0.318834
0.530508 0.698650 0.530845
0.652997 0.692527 0.649172
0.483195 0.477728 0.693364
0.000000 0.000000 0.597705
0.401491 0.000000 0.076862
0.399131 0.000000 0.610422
0.592647 0.000000 0.813896
0.268392 0.000000 0.689785
0.000000 0.000000 0.155325
0.696349 0.777396 0.347752
1.000000 1.000000 0.650054
1.000000 1.000000 1.000000
1.000000 1.000000 1.000000
1.000000 1.000000 1.000000
0.702884 0.045951 0.175805
0.808920 0.453708 0.431192
1.000000 1.000000 0.907593
1.000000 1.000000 1.000000
1.000000 0.523752 1.000000
0.847024 0.483737 0.170031
0.747562 0.486697 0.449395
1.000000 0.946433 0.832771
1.000000 1.000000 1.000000
0.937996 0.604307 1.000000
0.920864 0.836944 0.135688
0.799415 0.707955 0.563191
1.000000 1.000000 0.913453
1.000000 1.000000 1.000000
0.621461 0.950910 1.000000
0.545466 0.000000 0.000000
0.636495 0.000000 0.649624
1.000000 0.000000 1.000000
1.000000 0.489612 1.000000
0.246172 0.000000 1.000000
