public/luts/amarelo_30d.cube
# Generated from ColorChecker fit
LUT_3D_SIZE 33
DOMAIN_MIN 0.0 0.0 0.0
DOMAIN_MAX 1.0 1.0 1.0
0.018459 0.000000 0.162318
0.006330 0.000000 0.186168
0.000000 0.000000 0.210483
0.000000 0.000000 0.235227
0.000000 0.000000 0.260343
0.000000 0.000000 0.285753
0.000000 0.000000 0.311359
0.000000 0.000000 0.337041
0.000000 0.000000 0.362659
0.000000 0.000000 0.388052
0.000000 0.000000 0.413039
0.000000 0.000000 0.437416
0.000000 0.000000 0.460961
0.000000 0.000000 0.483429
0.000000 0.000000 0.504554
0.000000 0.000000 0.524052
0.000000 0.000000 0.541616
0.000000 0.000000 0.556917
0.000000 0.000000 0.569608
0.000000 0.000000 0.579319
0.000000 0.000000 0.585661
0.000000 0.000000 0.588223
0.000000 0.000000 0.586573
0.000000 0.000000 0.580258
0.000000 0.000000 0.568806
0.000000 0.000000 0.551723
0.000000 0.000000 0.528493
0.000000 0.000000 0.498581
0.000000 0.000000 0.461431
0.000000 0.000000 0.416465
0.000000 0.000000 0.363085
0.000000 0.000000 0.300672
0.000000 0.000000 0.228586
0.002287 0.000000 0.137856
0.000000 0.000000 0.164031
0.000000 0.000000 0.190722
0.000000 0.000000 0.217891
0.000000 0.000000 0.245475
0.000000 0.000000 0.273393
0.000000 0.000000 0.301542
0.000000 0.000000 0.329799
0.000000 0.000000 0.358019
0.000000 0.000000 0.386037
0.000000 0.000000 0.413668
0.000000 0.000000 0.440704
0.000000 0.000000 0.466918
0.000000 0.000000 0.492061
0.000000 0.000000 0.515864
0.000000 0.000000 0.538038
0.000000 0.000000 0.558271
0.000000 0.000000 0.576232
0.000000 0.000000 0.591568
0.000000 0.000000 0.603906
0.000000 0.000000 0.612851
0.000000 0.000000 0.617990
0.000000 0.000000 0.618885
0.000000 0.000000 0.615081
0.000000 0.000000 0.606100
0.000000 0.000000 0.591444
0.000000 0.000000 0.570594
0.000000 0.000000 0.543010
0.000000 0.000000 0.508131
0.000000 0.000000 0.465377
0.000000 0.000000 0.414144
0.000000 0.000000 0.353809
0.020228 0.000000 0.283730
0.000000 0.000000 0.116188
0.000000 0.000000 0.144612
0.000000 0.000000 0.173589
0.000000 0.000000 0.203075
0.000000 0.000000 0.233005
0.000000 0.000000 0.263293
0.000000 0.000000 0.293832
0.000000 0.000000 0.324494
0.000000 0.000000 0.355131
0.000000 0.000000 0.385574
0.000000 0.000000 0.415632
0.000000 0.000000 0.445094
0.000000 0.000000 0.473729
0.000000 0.000000 0.501285
0.000000 0.000000 0.527487
0.000000 0.000000 0.552041
0.000000 0.000000 0.574634
0.000000 0.000000 0.594927
0.000000 0.000000 0.612566
0.000000 0.000000 0.627173
0.000000 0.000000 0.638349
0.000000 0.000000 0.645675
0.000000 0.000000 0.648711
0.000000 0.000000 0.646997
0.000000 0.000000 0.640051
0.000000 0.000000 0.627371
0.000000 0.000000 0.608433
0.000000 0.000000 0.582693
0.000000 0.000000 0.549587
0.000000 0.000000 0.508530
0.024674 0.000000 0.458914
0.082191 0.000000 0.400112
0.145639 0.000000 0.331477
0.000000 0.000000 0.097012
0.000000 0.000000 0.127622
0.000000 0.000000 0.158806
0.000000 0.000000 0.190517
0.000000 0.000000 0.222683
0.000000 0.000000 0.255216
0.000000 0.000000 0.288004
0.000000 0.000000 0.320915
0.000000 0.000000 0.353797
0.000000 0.000000 0.386476
0.000000 0.000000 0.418758
0.000000 0.000000 0.450428
0.000000 0.000000 0.481250
0.000000 0.000000 0.510966
0.000000 0.000000 0.539301
0.000000 0.000000 0.565954
0.000000 0.000000 0.590608
0.000000 0.000000 0.612922
0.000000 0.000000 0.632535
0.000000 0.000000 0.649065
0.000000 0.000000 0.662111
0.000000 0.000000 0.671249
0.000000 0.000000 0.676034
0.000000 0.000000 0.676003
0.000000 0.000000 0.670668
0.000000 0.000000 0.659525
0.000000 0.000000 0.642045
0.000000 0.000000 0.617680
0.031369 0.000000 0.585861
0.078534 0.000000 0.545999
0.130860 0.000000 0.497482
0.188447 0.030496 0.439681
0.251382 0.082817 0.371941
0.000000 0.000000 0.080028
0.000000 0.000000 0.112776
0.000000 0.000000 0.146103
0.000000 0.000000 0.179957
0.000000 0.000000 0.214264
0.000000 0.000000 0.248929
0.000000 0.000000 0.283838
0.000000 0.000000 0.318855
0.000000 0.000000 0.353823
0.000000 0.000000 0.388564
0.000000 0.000000 0.422879
0.000000 0.000000 0.456550
0.000000 0.000000 0.489336
0.000000 0.000000 0.520977
0.000000 0.000000 0.551190
0.000000 0.000000 0.579674
0.000000 0.000000 0.606105
0.000000 0.000000 0.630138
0.000000 0.000000 0.651409
0.000000 0.000000 0.669532
0.000000 0.000000 0.684100
0.000000 0.000000 0.694687
0.000000 0.000000 0.700843
0.000000 0.000000 0.702099
0.000000 0.000000 0.697967
0.005386 0.000000 0.687934
0.039430 0.000000 0.671470
0.077806 0.001800 0.648023
0.120622 0.037645 0.617018
0.167974 0.078589 0.577863
0.219944 0.124887 0.529942
0.276601 0.176778 0.472620
0.338001 0.234486 0.405240
0.000000 0.000000 0.064944
0.000000 0.000000 0.099793
0.000000 0.000000 0.135211
0.000000 0.000000 0.171140
0.000000 0.000000 0.207504
0.000000 0.000000 0.244204
0.000000 0.000000 0.281119
0.000000 0.000000 0.318111
0.000000 0.000000 0.355019
0.000000 0.000000 0.391659
0.000000 0.000000 0.427831
0.000000 0.000000 0.463310
0.000000 0.000000 0.497852
0.000000 0.000000 0.531192
0.000000 0.000000 0.563044
0.000000 0.000000 0.593102
0.000000 0.000000 0.621038
0.000000 0.000000 0.646503
0.000000 0.000000 0.669130
0.000000 0.000000 0.688526
0.000000 0.000000 0.704283
0.000000 0.000000 0.715968
0.000000 0.000000 0.723129
0.020725 0.000000 0.725292
0.048087 0.015164 0.721964
0.079114 0.043408 0.712630
0.113910 0.075694 0.696754
0.152566 0.112287 0.673779
0.195160 0.153439 0.643129
0.241756 0.199386 0.604205
0.292405 0.250349 0.556388
0.347145 0.306538 0.499039
0.405999 0.368144 0.431497
0.000000 0.000000 0.051471
0.000000 0.000000 0.088397
0.000000 0.000000 0.125867
0.000000 0.000000 0.163817
0.000000 0.000000 0.202168
0.000000 0.000000 0.240815
0.000000 0.000000 0.279636
0.000000 0.000000 0.318486
0.000000 0.000000 0.357199
0.000000 0.000000 0.395591
0.000000 0.000000 0.433454
0.000000 0.000000 0.470561
0.000000 0.000000 0.506663
0.000000 0.000000 0.541491
0.000000 0.000000 0.574755
0.000000 0.000000 0.606144
0.000000 0.000000 0.635327
0.000000 0.000000 0.661950
0.000000 0.000000 0.685642
0.000000 0.000000 0.706006
0.015722 0.002215 0.722630
0.034736 0.022660 0.735076
0.056683 0.045825 0.742889
0.081678 0.072002 0.745591
0.109820 0.101469 0.742684
0.141196 0.134487 0.733648
0.175879 0.171308 0.717944
0.213929 0.212163 0.695012
0.255392 0.257274 0.664269
0.300302 0.306844 0.625114
0.348677 0.361065 0.576923
0.400524 0.420112 0.519053
0.455836 0.484147 0.450839
0.000000 0.000000 0.039323
0.000000 0.000000 0.078317
0.000000 0.000000 0.117812
0.000000 0.000000 0.157742
0.000000 0.000000 0.198022
0.000000 0.000000 0.238544
0.000000 0.000000 0.279181
0.000000 0.000000 0.319784
0.000000 0.000000 0.360185
0.000000 0.000000 0.400192
0.000000 0.000000 0.439595
0.000000 0.000000 0.478162
0.000000 0.000000 0.515641
0.000000 0.000000 0.551759
0.000000 0.000000 0.586220
0.000000 0.000000 0.618711
0.007682 0.000000 0.648894
0.018630 0.003938 0.676415
0.031690 0.022671 0.700894
0.046997 0.043111 0.721935
0.064675 0.065560 0.739117
0.084832 0.090309 0.752001
0.107564 0.117633 0.760126
0.132953 0.147793 0.763011
0.161068 0.181035 0.760153
0.191964 0.217591 0.751029
0.225682 0.257677 0.735095
0.262253 0.301496 0.711787
0.301689 0.349237 0.680518
0.343994 0.401072 0.640682
0.389155 0.457161 0.591652
0.437146 0.517647 0.532781
0.487929 0.582661 0.463398
0.000000 0.000000 0.028221
0.000000 0.000000 0.069286
0.000000 0.000000 0.110793
0.000000 0.000000 0.152675
0.000000 0.000000 0.194839
0.000000 0.000000 0.237176
0.000000 0.000000 0.279553
0.000000 0.000000 0.321819
0.000000 0.000000 0.363798
0.000000 0.000000 0.405298
0.000634 0.000000 0.446103
0.005014 0.000000 0.485977
0.010342 0.000000 0.524663
0.016802 0.000000 0.561884
0.024567 0.000000 0.597342
0.033794 0.013749 0.630717
0.044628 0.033648 0.661670
0.057201 0.054584 0.689838
0.071631 0.076858 0.714842
0.088021 0.100757 0.736278
0.106464 0.126556 0.753724
0.127036 0.154511 0.766734
0.149802 0.184866 0.774845
0.174814 0.217851 0.777571
0.202107 0.253681 0.774404
0.231706 0.292554 0.764818
0.263622 0.334658 0.748265
0.297851 0.380162 0.724175
0.334377 0.429224 0.691959
0.373171 0.481985 0.651006
0.414189 0.538572 0.600685
0.457375 0.599099 0.540344
0.502658 0.663663 0.469309
0.000000 0.000000 0.017890
0.000000 0.000000 0.061040
0.000000 0.000000 0.104561
0.000000 0.000000 0.148377
0.000000 0.000000 0.192395
0.000000 0.000000 0.236500
0.002656 0.000000 0.280555
0.007417 0.000000 0.324404
0.012286 0.000000 0.367869
0.017472 0.000000 0.410752
0.023169 0.000000 0.452833
0.029556 0.000000 0.493872
0.036801 0.000000 0.533609
0.045058 0.015995 0.571761
0.054466 0.037463 0.608027
0.065154 0.059335 0.642083
0.077234 0.081913 0.673584
0.090806 0.105480 0.702166
0.105957 0.130307 0.727443
0.122760 0.156649 0.749009
0.141275 0.184749 0.766435
0.161547 0.214832 0.779275
0.183610 0.247110 0.787057
0.207484 0.281783 0.789294
0.233173 0.319031 0.785474
0.260671 0.359024 0.775065
0.289957 0.401917 0.757516
0.320997 0.447847 0.732253
0.353742 0.496941 0.698682
0.388131 0.549309 0.656188
0.424091 0.605046 0.604137
0.461533 0.664233 0.541871
0.500355 0.726938 0.468713
0.000000 0.000000 0.008057
0.000000 0.000000 0.053323
0.000000 0.000000 0.098869
0.000000 0.000000 0.144618
0.004315 0.000000 0.190471
0.011073 0.000000 0.236310
0.017561 0.000000 0.281993
0.023982 0.000000 0.327360
0.030526 0.000000 0.372229
0.037368 0.000000 0.416398
0.044671 0.000000 0.459643
0.052585 0.012759 0.501720
0.061246 0.036136 0.542363
0.070774 0.059326 0.581288
0.081281 0.082624 0.618186
0.092860 0.106314 0.652732
0.105594 0.130662 0.684576
0.119552 0.155923 0.713349
0.134788 0.182335 0.738661
0.151345 0.210123 0.760102
0.169251 0.239496 0.777241
0.188521 0.270649 0.789623
0.209156 0.303763 0.796777
0.231144 0.339003 0.798209
0.254461 0.376522 0.793403
0.279066 0.416457 0.781824
0.304908 0.458929 0.762915
0.331921 0.504048 0.736100
0.360026 0.551905 0.700779
0.389131 0.602580 0.656335
0.419129 0.656137 0.602126
0.449901 0.712626 0.537494
0.481314 0.772082 0.461756
0.000000 0.000000 0.000000
0.000000 0.000000 0.045880
0.000025 0.000000 0.093478
0.008987 0.000000 0.141170
0.017350 0.000000 0.188853
0.025313 0.000000 0.236404
0.033060 0.000000 0.283679
0.040763 0.000000 0.330512
0.048580 0.000000 0.376717
0.056655 0.005826 0.422089
0.065121 0.031394 0.466398
0.074094 0.056218 0.509397
0.083679 0.080593 0.550816
0.093968 0.104799 0.590366
0.105037 0.129101 0.627735
0.116951 0.153750 0.662593
0.129760 0.178982 0.694585
0.143502 0.205020 0.723340
0.158201 0.232070 0.748463
0.173867 0.260325 0.769539
0.190496 0.289963 0.786133
0.208073 0.321148 0.797787
0.226567 0.354029 0.804025
0.245935 0.388740 0.804348
0.266121 0.425401 0.798237
0.287054 0.464118 0.785153
0.308650 0.504982 0.764535
0.330813 0.548068 0.735801
0.353432 0.593440 0.698348
0.376383 0.641143 0.651555
0.399529 0.691211 0.594777
0.422719 0.743662 0.527350
0.445788 0.798500 0.448587
0.000000 0.000000 0.000000
0.002288 0.000000 0.038462
0.012660 0.000000 0.088151
0.022348 0.000000 0.137809
0.031531 0.000000 0.187330
0.040377 0.000000 0.236586
0.049039 0.000000 0.285429
0.057658 0.000000 0.333688
0.066360 0.024664 0.381175
0.075258 0.051380 0.427678
0.084452 0.077126 0.472965
0.094030 0.102180 0.516784
0.104063 0.126806 0.558861
0.114611 0.151251 0.598903
0.125722 0.175750 0.636594
0.137426 0.200521 0.671599
0.149744 0.225770 0.703560
0.162682 0.251686 0.732100
0.176231 0.278446 0.756822
0.190372 0.306211 0.777305
0.205069 0.335126 0.793111
0.220275 0.365325 0.803778
0.235928 0.396924 0.808824
0.251954 0.430027 0.807749
0.268265 0.464722 0.800027
0.284758 0.501083 0.785116
0.301320 0.539169 0.762450
0.317821 0.579026 0.731445
0.334120 0.620682 0.691492
0.350061 0.664155 0.641966
0.365476 0.709444 0.582218
0.380183 0.756538 0.511580
0.393986 0.805407 0.429360
0.004610 0.000000 0.000000
0.016083 0.000000 0.030825
0.026813 0.000000 0.082657
0.036961 0.000000 0.134319
0.046678 0.000000 0.185698
0.056098 0.000000 0.236664
0.065344 0.017080 0.287063
0.074524 0.045882 0.336723
0.083735 0.073232 0.385449
0.093058 0.099406 0.433026
0.102561 0.124664 0.479217
0.112299 0.149252 0.523767
0.122315 0.173401 0.566398
0.132637 0.197329 0.606811
0.143278 0.221237 0.644687
0.154242 0.245313 0.679687
0.165514 0.269731 0.711449
0.177071 0.294648 0.739592
0.188873 0.320211 0.763713
0.200868 0.346547 0.783389
0.212990 0.373771 0.798177
0.225159 0.401986 0.807610
0.237284 0.431275 0.811204
0.249257 0.461712 0.808452
0.260960 0.493352 0.798827
0.272260 0.526238 0.781780
0.283010 0.560398 0.756743
0.293050 0.595844 0.723125
0.302208 0.632577 0.680317
0.310296 0.670579 0.627686
0.317114 0.709821 0.564581
0.322450 0.750257 0.490329
0.326075 0.791828 0.404235
0.019890 0.000000 0.000000
0.031378 0.000000 0.022730
0.042235 0.000000 0.076770
0.052592 0.000000 0.130483
0.062567 0.009477 0.183755
0.072265 0.040499 0.236448
0.081776 0.069625 0.288407
0.091177 0.097128 0.339454
0.100533 0.123266 0.389390
0.109895 0.148282 0.437996
0.119298 0.172405 0.485032
0.128768 0.195849 0.530236
0.138314 0.218815 0.573329
0.147934 0.241488 0.614006
0.157610 0.264038 0.651944
0.167312 0.286622 0.686800
0.176998 0.309381 0.718209
0.186610 0.332442 0.745783
0.196078 0.355919 0.769118
0.205319 0.379908 0.787786
0.214234 0.404494 0.801338
0.222715 0.429746 0.809305
0.230635 0.455717 0.811198
0.237859 0.482449 0.806505
0.244235 0.509965 0.794696
0.249598 0.538277 0.775218
0.253772 0.567382 0.747498
0.256565 0.597260 0.710941
0.257772 0.627879 0.664934
0.257176 0.659191 0.608840
0.254544 0.691135 0.542004
0.249633 0.723634 0.463748
0.242183 0.756598 0.373373
0.036564 0.000000 0.000000
0.047871 0.000000 0.013940
0.058638 0.002398 0.070266
0.068964 0.035712 0.126094
0.078936 0.066724 0.181305
0.088627 0.095703 0.235757
0.098096 0.122906 0.289291
0.107390 0.148574 0.341724
0.116541 0.172932 0.392854
0.125567 0.196193 0.442457
0.134476 0.218554 0.490290
0.143259 0.240199 0.536086
0.151896 0.261294 0.579561
0.160351 0.281995 0.620408
0.168576 0.302439 0.658298
0.176511 0.322753 0.692885
0.184081 0.343046 0.723798
0.191197 0.363413 0.750648
0.197757 0.383936 0.773024
0.203648 0.404681 0.790494
0.208739 0.425700 0.802606
0.212889 0.447031 0.808887
0.215943 0.468695 0.808843
0.217731 0.490703 0.801958
0.218072 0.513047 0.787698
0.216771 0.535706 0.765506
0.213616 0.558646 0.734804
0.208388 0.581816 0.694995
0.200848 0.605152 0.645459
0.190748 0.628576 0.585557
0.177826 0.651993 0.514628
0.161804 0.675295 0.431991
0.142393 0.698361 0.336944
0.054276 0.000000 0.000000
0.065220 0.031701 0.004225
0.075692 0.064647 0.062929
0.085760 0.095190 0.120947
0.095479 0.123583 0.178155
0.104892 0.150065 0.234411
0.114025 0.174858 0.289547
0.122895 0.198174 0.343380
0.131501 0.220206 0.395701
0.139833 0.241136 0.446283
0.147863 0.261128 0.494878
0.155554 0.280335 0.541216
0.162853 0.298893 0.585008
0.169694 0.316924 0.625942
0.175997 0.334536 0.663688
0.181670 0.351822 0.697892
0.186606 0.368861 0.728181
0.190687 0.385716 0.754162
0.193779 0.402438 0.775419
0.195735 0.419060 0.791516
0.196396 0.435604 0.801997
0.195588 0.452075 0.806385
0.193125 0.468464 0.804181
0.188805 0.484749 0.794866
0.182417 0.500892 0.777901
0.173732 0.516839 0.752725
0.162511 0.532526 0.718757
0.148498 0.547869 0.675393
0.131428 0.562773 0.622012
0.111019 0.577127 0.557969
0.086976 0.590807 0.482600
0.058993 0.603673 0.395219
0.026748 0.615571 0.295119
0.072630 0.063222 0.000000
0.083040 0.095354 0.000000
0.093024 0.124999 0.054543
0.102619 0.152395 0.114840
0.111849 0.177763 0.174120
0.120724 0.201310 0.232235
0.129240 0.223228 0.289016
0.137381 0.243695 0.344273
0.145118 0.262874 0.397795
0.152405 0.280916 0.449350
0.159187 0.297953 0.498686
0.165393 0.314105 0.545529
0.170939 0.329478 0.589585
0.175728 0.344163 0.630539
0.179648 0.358234 0.668056
0.182577 0.371755 0.701778
0.184377 0.384772 0.731328
0.184896 0.397317 0.756308
0.183970 0.409409 0.776298
0.181421 0.421050 0.790860
0.177058 0.432230 0.799532
0.170676 0.442923 0.801833
0.162057 0.453089 0.797259
0.150970 0.462672 0.785289
0.137170 0.471605 0.765378
0.120398 0.479801 0.736962
0.100381 0.487165 0.699454
0.076836 0.493581 0.652249
0.049463 0.498924 0.594719
0.017951 0.503050 0.526215
0.000000 0.505803 0.446070
0.000000 0.507013 0.353594
0.000000 0.506493 0.248075
0.091185 0.126560 0.000000
0.100904 0.154910 0.000000
0.110220 0.180929 0.044901
0.119140 0.204822 0.107578
0.127656 0.226778 0.169015
0.135746 0.246974 0.229060
0.143376 0.265570 0.287540
0.150498 0.282712 0.344261
0.157050 0.298532 0.399007
0.162958 0.313148 0.451542
0.168133 0.326663 0.501610
0.172473 0.339163 0.548934
0.175864 0.350724 0.593214
0.178175 0.361404 0.634133
0.179267 0.371248 0.671349
0.178982 0.380286 0.704502
0.177152 0.388533 0.733210
0.173595 0.395990 0.757071
0.168115 0.402644 0.775662
0.160502 0.408466 0.788539
0.150534 0.413414 0.795236
0.137976 0.417430 0.795269
0.122576 0.420443 0.788129
0.104074 0.422367 0.773292
0.082191 0.423100 0.750207
0.056639 0.422527 0.718306
0.027113 0.420518 0.677000
0.000000 0.416928 0.625677
0.000000 0.411599 0.563707
0.000000 0.404357 0.490437
0.000000 0.395014 0.405194
0.000000 0.383367 0.307285
0.000000 0.369199 0.195994
0.109463 0.183344 0.000000
0.118345 0.207636 0.000000
0.126826 0.229722 0.033799
0.134880 0.249776 0.098969
0.142470 0.267955 0.162662
0.149541 0.284403 0.224721
0.156028 0.299250 0.284967
0.161851 0.312611 0.343203
0.166918 0.324585 0.399208
0.171123 0.335259 0.452745
0.174345 0.344703 0.503550
0.176451 0.352975 0.551343
0.177296 0.360116 0.595821
0.176718 0.366155 0.636661
0.174545 0.371103 0.673519
0.170589 0.374960 0.706029
0.164651 0.377709 0.733806
0.156516 0.379320 0.756443
0.145957 0.379748 0.773514
0.132735 0.378932 0.784569
0.116594 0.376800 0.789139
0.097267 0.373261 0.786735
0.074474 0.368212 0.776847
0.047920 0.361537 0.758942
0.017298 0.353101 0.732468
0.000000 0.342759 0.696853
0.000000 0.330348 0.651502
0.000000 0.315693 0.595800
0.000000 0.298603 0.529112
0.000000 0.278873 0.450782
0.000000 0.256284 0.360132
0.000000 0.230600 0.256464
0.000000 0.201574 0.139060
0.126939 0.230628 0.000000
0.134852 0.250607 0.000000
0.142342 0.268475 0.021036
0.149354 0.284373 0.088828
0.155817 0.298428 0.154888
0.161648 0.310752 0.219056
0.166747 0.321444 0.281149
0.171006 0.330586 0.340964
0.174299 0.338247 0.398279
0.176489 0.344482 0.452849
0.177425 0.349330 0.504410
0.176942 0.352815 0.552674
0.174862 0.354950 0.597336
0.170995 0.355728 0.638068
0.165134 0.355134 0.674522
0.157063 0.353132 0.706329
0.146549 0.349675 0.733098
0.133347 0.344702 0.754419
0.117199 0.338135 0.769861
0.097833 0.329883 0.778971
0.074962 0.319841 0.781275
0.048290 0.307888 0.776281
0.017502 0.293890 0.763472
0.000000 0.277696 0.742313
0.000000 0.259142 0.712249
0.000000 0.238052 0.672701
0.000000 0.214230 0.623071
0.000000 0.187470 0.562741
0.000000 0.157549 0.491071
0.000000 0.124232 0.407400
0.000000 0.087266 0.311048
0.000000 0.046385 0.201310
0.000000 0.001310 0.077466
0.143051 0.265279 0.000000
0.149873 0.280709 0.000000
0.156231 0.294092 0.006417
0.162035 0.305539 0.076971
0.167185 0.315143 0.145524
0.171564 0.322987 0.211909
0.175045 0.329137 0.275942
0.177484 0.333643 0.337415
0.178727 0.336545 0.396101
0.178604 0.337863 0.451752
0.176933 0.337606 0.504097
0.173517 0.335768 0.552848
0.168148 0.332328 0.597693
0.160603 0.327250 0.638301
0.150646 0.320484 0.674320
0.138027 0.311965 0.705375
0.122483 0.301615 0.731073
0.103737 0.289339 0.750999
0.081500 0.275029 0.764717
0.055468 0.258563 0.771771
0.025325 0.239803 0.771683
0.000000 0.218597 0.763956
0.000000 0.194779 0.748069
0.000000 0.168168 0.723484
0.000000 0.138568 0.689640
0.000000 0.105769 0.645955
0.000000 0.069547 0.591826
0.000000 0.029662 0.526632
0.000000 0.000000 0.449728
0.000000 0.000000 0.360449
0.000000 0.000000 0.258110
0.000000 0.000000 0.142004
0.000000 0.000000 0.011405
0.157192 0.283973 0.000000
0.162816 0.294637 0.000000
0.167910 0.303289 0.000000
0.172355 0.310007 0.063221
0.176016 0.314855 0.134404
0.178748 0.317882 0.203130
0.180390 0.319123 0.269209
0.180768 0.318597 0.332430
0.179697 0.316311 0.392562
0.176974 0.312256 0.449352
0.172387 0.306408 0.502527
0.165709 0.298729 0.551792
0.156698 0.289166 0.596833
0.145100 0.277653 0.637313
0.130648 0.264108 0.672877
0.113061 0.248435 0.703146
0.092045 0.230522 0.727722
0.067291 0.210245 0.746186
0.038478 0.187465 0.758099
0.005272 0.162025 0.763000
0.000000 0.133758 0.760407
0.000000 0.102481 0.749817
0.000000 0.067994 0.730709
0.000000 0.030086 0.702536
0.000000 0.000000 0.664736
0.000000 0.000000 0.616722
0.000000 0.000000 0.557888
0.000000 0.000000 0.487606
0.000000 0.000000 0.405229
0.000000 0.000000 0.310088
0.000000 0.000000 0.201492
0.000000 0.000000 0.078733
0.000000 0.000000 0.000000
0.168715 0.283193 0.000000
0.173046 0.288896 0.000000
0.176758 0.292591 0.000000
0.179702 0.294324 0.047405
0.181713 0.294129 0.121368
0.182612 0.292022 0.192569
0.182209 0.288007 0.260814
0.180297 0.282072 0.325888
0.176660 0.274192 0.387554
0.171064 0.264326 0.445556
0.163266 0.252419 0.499616
0.153006 0.238401 0.549436
0.140011 0.222189 0.594698
0.123998 0.203683 0.635060
0.104667 0.182771 0.670163
0.081704 0.159324 0.699624
0.054786 0.133201 0.723041
0.023572 0.104245 0.739991
0.000000 0.072284 0.750030
0.000000 0.037133 0.752692
0.000000 0.000000 0.747493
0.000000 0.000000 0.733926
0.000000 0.000000 0.711463
0.000000 0.000000 0.679557
0.000000 0.000000 0.637638
0.000000 0.000000 0.585116
0.000000 0.000000 0.521382
0.000000 0.000000 0.445803
0.000000 0.000000 0.357727
0.000000 0.000000 0.256482
0.000000 0.000000 0.141373
0.000000 0.000000 0.011686
0.000000 0.000000 0.000000
0.176931 0.259234 0.000000
0.179884 0.259800 0.000000
0.182110 0.258331 0.000000
0.183426 0.254844 0.029354
0.183636 0.249338 0.106261
0.182531 0.241801 0.180086
0.179887 0.232203 0.250629
0.175469 0.220502 0.317671
0.169026 0.206641 0.380972
0.160297 0.190546 0.440271
0.149003 0.172133 0.495287
0.134855 0.151299 0.545716
0.117550 0.127928 0.591237
0.096770 0.101892 0.631504
0.072186 0.073045 0.666152
0.043454 0.041227 0.694796
0.010216 0.006266 0.717030
0.000000 0.000000 0.732425
0.000000 0.000000 0.740534
0.000000 0.000000 0.740887
0.000000 0.000000 0.732995
0.000000 0.000000 0.716348
0.000000 0.000000 0.690412
0.000000 0.000000 0.654637
0.000000 0.000000 0.608449
0.000000 0.000000 0.551254
0.000000 0.000000 0.482438
0.000000 0.000000 0.401365
0.000000 0.000000 0.307378
0.000000 0.000000 0.199800
0.000000 0.000000 0.077934
0.000000 0.000000 0.000000
0.000000 0.000000 0.000000
0.181107 0.208203 0.000000
0.182613 0.203474 0.000000
0.183259 0.196655 0.000000
0.182832 0.187730 0.008903
0.181104 0.176668 0.088932
0.177834 0.163423 0.165541
0.172768 0.147936 0.238527
0.165639 0.130131 0.307667
0.156165 0.109921 0.372718
0.144052 0.087201 0.433412
0.128992 0.061853 0.489466
0.110663 0.033745 0.540572
0.088731 0.002730 0.586403
0.062848 0.000000 0.626610
0.032651 0.000000 0.660824
0.000000 0.000000 0.688656
0.000000 0.000000 0.709694
0.000000 0.000000 0.723507
0.000000 0.000000 0.729643
0.000000 0.000000 0.727629
0.000000 0.000000 0.716970
0.000000 0.000000 0.697151
0.000000 0.000000 0.667638
0.000000 0.000000 0.627873
0.000000 0.000000 0.577279
0.000000 0.000000 0.515259
0.000000 0.000000 0.441192
0.000000 0.000000 0.354441
0.000000 0.000000 0.254343
0.000000 0.000000 0.140218
0.000000 0.000000 0.011363
0.000000 0.000000 0.000000
0.000000 0.000000 0.000000
0.180472 0.126011 0.000000
0.180472 0.115852 0.000000
0.179458 0.103517 0.000000
0.177185 0.088958 0.000000
0.173393 0.072112 0.069233
0.167812 0.052903 0.148800
0.160154 0.031239 0.224389
0.150122 0.007014 0.295770
0.137402 0.000000 0.362696
0.121669 0.000000 0.424898
0.102584 0.000000 0.482086
0.079793 0.000000 0.533948
0.052931 0.000000 0.580153
0.021618 0.000000 0.620349
0.000000 0.000000 0.654162
0.000000 0.000000 0.681198
0.000000 0.000000 0.701043
0.000000 0.000000 0.713260
0.000000 0.000000 0.717393
0.000000 0.000000 0.712965
0.000000 0.000000 0.699478
0.000000 0.000000 0.676412
0.000000 0.000000 0.643228
0.000000 0.000000 0.599365
0.000000 0.000000 0.544241
0.000000 0.000000 0.477255
0.000000 0.000000 0.397784
