public/luts/amarelo_30d.cube
# Generated from ColorChecker fit
LUT_3D_SIZE 9
DOMAIN_MIN 0.0 0.0 0.0
DOMAIN_MAX 1.0 1.0 1.0
0.018459 0.000000 0.162318
0.000000 0.000000 0.260343
0.000000 0.000000 0.362659
0.000000 0.000000 0.460961
0.000000 0.000000 0.541616
0.000000 0.000000 0.585661
0.000000 0.000000 0.568806
0.000000 0.000000 0.461431
0.000000 0.000000 0.228586
0.000000 0.000000 0.080028
0.000000 0.000000 0.214264
0.000000 0.000000 0.353823
0.000000 0.000000 0.489336
0.000000 0.000000 0.606105
0.000000 0.000000 0.684100
0.000000 0.000000 0.697967
0.120622 0.037645 0.617018
0.338001 0.234486 0.405240
0.000000 0.000000 0.028221
0.000000 0.000000 0.194839
0.000000 0.000000 0.363798
0.010342 0.000000 0.524663
0.044628 0.033648 0.661670
0.106464 0.126556 0.753724
0.202107 0.253681 0.774404
0.334377 0.429224 0.691959
0.502658 0.663663 0.469309
0.000000 0.000000 0.000000
0.031531 0.000000 0.187330
0.066360 0.024664 0.381175
0.104063 0.126806 0.558861
0.149744 0.225770 0.703560
0.205069 0.335126 0.793111
0.268265 0.464722 0.800027
0.334120 0.620682 0.691492
0.393986 0.805407 0.429360
0.054276 0.000000 0.000000
0.095479 0.123583 0.178155
0.131501 0.220206 0.395701
0.162853 0.298893 0.585008
0.186606 0.368861 0.728181
0.196396 0.435604 0.801997
0.182417 0.500892 0.777901
0.131428 0.562773 0.622012
0.026748 0.615571 0.295119
0.126939 0.230628 0.000000
0.155817 0.298428 0.154888
0.174299 0.338247 0.398279
0.174862 0.354950 0.597336
0.146549 0.349675 0.733098
0.074962 0.319841 0.781275
0.000000 0.259142 0.712249
0.000000 0.157549 0.491071
0.000000 0.001310 0.077466
0.176931 0.259234 0.000000
0.183636 0.249338 0.106261
0.169026 0.206641 0.380972
0.117550 0.127928 0.591237
0.010216 0.006266 0.717030
0.000000 0.000000 0.732995
0.000000 0.000000 0.608449
0.000000 0.000000 0.307378
0.000000 0.000000 0.000000
0.161467 0.000000 0.000000
0.139336 0.000000 0.022162
0.079270 0.000000 0.336997
0.000000 0.000000 0.563258
0.000000 0.000000 0.679854
0.000000 0.000000 0.660364
0.000000 0.000000 0.473038
0.000000 0.000000 0.080798
0.000000 0.000000 0.000000
0.027073 0.000000 0.000000
0.000000 0.000000 0.000000
0.000000 0.000000 0.260729
0.000000 0.000000 0.511103
0.000000 0.000000 0.622604
0.000000 0.000000 0.567745
0.000000 0.000000 0.313710
0.000000 0.000000 0.000000
0.000000 0.000000 0.000000
0.216161 0.276570 0.160791
0.168667 0.380603 0.210302
0.085221 0.370391 0.273517
0.000000 0.280213 0.346321
0.000000 0.140625 0.419267
0.000000 0.000000 0.477585
0.000000 0.000000 0.501171
0.000000 0.000000 0.464595
0.000000 0.000000 0.337097
0.128874 0.000000 0.102606
0.126289 0.085890 0.184929
0.107906 0.153828 0.281419
0.089591 0.171317 0.386896
0.083770 0.160837 0.490849
0.099431 0.141144 0.577441
0.142125 0.127270 0.625503
0.213963 0.130524 0.608540
0.313620 0.158493 0.494725
0.093008 0.000000 0.077093
0.117597 0.019214 0.189820
0.140842 0.126820 0.313163
0.170576 0.205778 0.440874
0.211194 0.270493 0.561380
0.263654 0.331642 0.657775
0.325475 0.396182 0.707828
0.390738 0.467346 0.683974
0.450086 0.544642 0.553325
0.107296 0.004994 0.065183
0.144510 0.143498 0.209236
0.189131 0.257390 0.356338
0.240961 0.356721 0.499175
0.296363 0.447816 0.625108
0.348265 0.533277 0.716166
0.386154 0.611984 0.749051
0.396080 0.679094 0.695136
0.360655 0.726040 0.520463
0.159780 0.270900 0.048962
0.198255 0.372964 0.228594
0.247185 0.464863 0.399690
0.298342 0.548568 0.553874
0.340059 0.622330 0.677438
0.357230 0.680673 0.751348
0.331313 0.714402 0.751238
0.240326 0.710596 0.647418
0.058851 0.652611 0.404863
0.227816 0.522978 0.011674
0.259371 0.573138 0.234466
0.298729 0.619862 0.433123
0.329629 0.657045 0.598202
0.332374 0.674860 0.714932
0.283827 0.659756 0.763211
0.157414 0.594459 0.717610
0.000000 0.457974 0.547371
0.000000 0.225580 0.216405
0.278068 0.572952 0.000000
0.297708 0.560845 0.214583
0.316796 0.544313 0.447696
0.311040 0.509177 0.626551
0.252712 0.437531 0.735310
0.110644 0.307750 0.752806
0.000000 0.094482 0.652545
0.000000 0.000000 0.402702
0.000000 0.000000 0.000000
0.266510 0.183847 0.000000
0.272424 0.104208 0.157833
0.263730 0.011441 0.435627
0.208104 0.000000 0.634466
0.069787 0.000000 0.737447
0.000000 0.000000 0.722338
0.000000 0.000000 0.561578
0.000000 0.000000 0.222278
0.000000 0.000000 0.000000
0.138427 0.000000 0.000000
0.131990 0.000000 0.054260
0.091186 0.000000 0.390289
0.000000 0.000000 0.618651
0.000000 0.000000 0.721377
0.000000 0.000000 0.675169
0.000000 0.000000 0.451401
0.000000 0.000000 0.016118
0.000000 0.000000 0.000000
0.382673 0.560151 0.193583
0.343459 0.659376 0.195315
0.276262 0.651702 0.218911
0.196240 0.560442 0.264447
0.115111 0.405182 0.326666
0.041156 0.201786 0.394985
0.000000 0.000000 0.453490
0.000000 0.000000 0.480941
0.000000 0.000000 0.450765
0.265720 0.171553 0.149420
0.255369 0.286025 0.179787
0.239753 0.335027 0.231914
0.225998 0.333792 0.304809
0.217792 0.293832 0.392151
0.215384 0.222935 0.482291
0.215586 0.125165 0.558251
0.211770 0.000864 0.597723
0.193872 0.000000 0.573071
0.207420 0.067037 0.140810
0.213049 0.173625 0.198825
0.230430 0.248453 0.274480
0.258658 0.298679 0.365716
0.293387 0.327738 0.465148
0.326838 0.335341 0.560060
0.347790 0.317476 0.632409
0.341584 0.266409 0.658821
0.290125 0.170682 0.610595
0.205263 0.198499 0.147680
0.217177 0.279170 0.235688
0.252157 0.354075 0.333198
0.301265 0.422297 0.437087
0.352129 0.479194 0.538905
0.388934 0.516400 0.624869
0.392429 0.521826 0.675871
0.339925 0.479663 0.667471
0.205296 0.370375 0.569904
0.246053 0.469132 0.151117
0.257739 0.510954 0.274790
0.298104 0.565289 0.395812
0.350178 0.623143 0.509996
0.393557 0.671796 0.607825
0.404397 0.694807 0.674450
0.355414 0.672012 0.689699
0.215890 0.579522 0.628066
0.000000 0.389726 0.458720
0.305902 0.733433 0.133363
0.314034 0.728574 0.301704
0.350754 0.746791 0.451226
0.391063 0.771011 0.576675
0.406525 0.780440 0.667469
0.365265 0.750560 0.707695
0.231968 0.653128 0.676114
0.000000 0.456182 0.546155
0.000000 0.124033 0.285921
0.350234 0.797197 0.077818
0.354669 0.742926 0.303159
0.381900 0.714576 0.489496
0.398898 0.686999 0.630511
0.369195 0.631323 0.714555
0.252884 0.514954 0.724651
0.006621 0.301574 0.638493
0.000000 0.000000 0.428445
0.000000 0.000000 0.061544
0.333783 0.417520 0.000000
0.337563 0.316205 0.267041
0.352646 0.235942 0.501840
0.337971 0.143503 0.666051
0.249039 0.001942 0.746959
0.037913 0.000000 0.726522
0.000000 0.000000 0.581369
0.000000 0.000000 0.282798
0.000000 0.000000 0.000000
0.200593 0.000000 0.000000
0.209945 0.000000 0.182394
0.213405 0.000000 0.480630
0.161881 0.000000 0.678995
0.002841 0.000000 0.763711
0.000000 0.000000 0.715670
0.000000 0.000000 0.510434
0.000000 0.000000 0.118237
0.000000 0.000000 0.000000
0.528109 0.779564 0.247029
0.490352 0.866557 0.208829
0.435170 0.855966 0.199404
0.368980 0.760134 0.223018
0.294761 0.587682 0.278604
0.212056 0.343507 0.359768
0.116966 0.028781 0.454786
0.002158 0.000000 0.546605
0.000000 0.000000 0.612843
0.390720 0.342642 0.207737
0.363740 0.417001 0.193218
0.344615 0.439038 0.206802
0.331733 0.413018 0.251683
0.320040 0.339485 0.325733
0.301049 0.215260 0.421489
0.262830 0.033439 0.526162
0.190018 0.000000 0.621634
0.063808 0.000000 0.684459
0.316594 0.212815 0.207567
0.292362 0.259042 0.217165
0.295565 0.290490 0.250175
0.316557 0.303350 0.308728
0.342257 0.290088 0.389628
0.356143 0.239448 0.484347
0.338257 0.136451 0.579031
0.265201 0.000000 0.654497
0.110141 0.000000 0.686232
0.301984 0.336052 0.225446
0.275656 0.343746 0.262926
0.290639 0.366490 0.315111
0.329259 0.392397 0.383069
0.370401 0.405857 0.462535
0.389514 0.387538 0.543919
0.358607 0.314383 0.612300
0.246253 0.159614 0.647428
0.017584 0.000000 0.623727
0.332450 0.609616 0.241461
0.302366 0.573479 0.313916
0.321770 0.574504 0.388354
0.364954 0.592726 0.464778
0.402774 0.604460 0.537857
0.402647 0.582297 0.596936
0.328551 0.495103 0.626028
0.141027 0.308024 0.603818
0.000000 0.000000 0.503664
0.382863 0.882077 0.236851
0.350550 0.801909 0.354705
0.370198 0.773298 0.457805
0.408069 0.768204 0.545086
0.426987 0.754864 0.610155
0.386337 0.697792 0.641288
0.242068 0.557780 0.621436
0.000000 0.291894 0.528216
0.000000 0.000000 0.333920
0.417408 0.953300 0.194016
0.387576 0.834003 0.371021
0.406476 0.772942 0.512520
0.432340 0.734000 0.616380
0.419960 0.677338 0.675144
0.320691 0.559393 0.676022
0.082449 0.332880 0.600898
0.000000 0.000000 0.426327
0.000000 0.000000 0.123532
0.389576 0.574453 0.096511
0.370119 0.426029 0.349751
0.390465 0.334802 0.542714
0.400813 0.256581 0.672205
0.347925 0.143449 0.729698
0.175125 0.000000 0.701340
0.000000 0.000000 0.567949
0.000000 0.000000 0.305012
0.000000 0.000000 0.000000
0.242171 0.000000 0.000000
0.244170 0.000000 0.278935
0.271340 0.000000 0.539760
0.265848 0.000000 0.707261
0.166426 0.000000 0.771848
0.000000 0.000000 0.718603
0.000000 0.000000 0.527277
0.000000 0.000000 0.172293
0.000000 0.000000 0.000000
0.654056 0.939781 0.307491
0.620015 1.000000 0.244321
0.581691 1.000000 0.215587
0.536763 0.935533 0.229739
0.479471 0.761460 0.289903
0.400618 0.494044 0.393870
0.287568 0.123490 0.534107
0.124248 0.000000 0.697751
0.000000 0.000000 0.866608
0.507771 0.460786 0.264848
0.464380 0.502126 0.219630
0.444551 0.506259 0.207605
0.437931 0.466484 0.236158
0.430729 0.372377 0.307346
0.405717 0.209791 0.417900
0.342228 0.000000 0.559217
0.216157 0.000000 0.717370
0.000000 0.000000 0.873100
0.426742 0.309635 0.265588
0.370826 0.300021 0.240178
0.360613 0.294578 0.242702
0.377721 0.278529 0.279479
0.400328 0.233372 0.351501
0.403173 0.136884 0.454433
0.357560 0.000000 0.578607
0.231351 0.000000 0.709030
0.000000 0.000000 0.825377
0.405979 0.426364 0.287637
0.337546 0.363030 0.287221
0.331257 0.337529 0.305463
0.360699 0.327005 0.347618
0.396017 0.304882 0.413612
0.403922 0.240859 0.498044
0.347683 0.100913 0.590181
0.187134 0.000000 0.673964
0.000000 0.000000 0.728003
0.429802 0.702312 0.310080
0.352046 0.587591 0.343172
0.347173 0.536648 0.381631
0.380738 0.518551 0.429647
0.414856 0.498646 0.486080
0.408206 0.438557 0.544464
0.316026 0.296184 0.592999
0.090119 0.025702 0.614562
0.000000 0.000000 0.586697
0.471842 0.980116 0.313156
0.391142 0.821443 0.391601
0.388361 0.744775 0.458106
0.421024 0.711105 0.515796
0.443215 0.677704 0.562465
0.405580 0.598116 0.590581
0.255329 0.422167 0.587280
0.000000 0.095956 0.534372
0.000000 0.000000 0.408337
0.495041 1.000000 0.278262
0.420959 0.863623 0.417234
0.424133 0.766048 0.522944
0.454053 0.713907 0.597449
0.456774 0.656394 0.637481
0.374911 0.538977 0.634440
0.147641 0.303404 0.574398
0.000000 0.000000 0.438098
0.000000 0.000000 0.200955
0.451651 0.668350 0.187954
0.396936 0.464472 0.405956
0.413109 0.355908 0.565358
0.441631 0.287497 0.667151
0.420524 0.200356 0.707001
0.284373 0.031878 0.675244
0.000000 0.000000 0.556884
0.000000 0.000000 0.331601
0.000000 0.000000 0.000000
0.283234 0.000000 0.025943
0.263818 0.000000 0.344808
0.303221 0.000000 0.575719
0.334874 0.000000 0.718601
0.288766 0.000000 0.768055
0.091452 0.000000 0.713350
0.000000 0.000000 0.538427
0.000000 0.000000 0.221899
0.000000 0.000000 0.000000
0.753577 1.000000 0.361361
0.734587 1.000000 0.295298
0.727044 1.000000 0.268080
0.719888 1.000000 0.292347
0.698619 0.990974 0.375410
0.645301 0.734949 0.519255
0.538560 0.345166 0.720534
0.353583 0.000000 0.970573
0.062118 0.000000 1.000000
0.612248 0.523327 0.308076
0.561742 0.555831 0.253460
0.553091 0.568213 0.235875
0.567202 0.542805 0.266897
0.581547 0.458215 0.352772
0.570157 0.289326 0.494419
0.503627 0.007302 0.687426
0.349112 0.000000 0.922053
0.070331 0.000000 1.000000
0.535547 0.356084 0.303127
0.455202 0.312241 0.263232
0.441418 0.293488 0.254542
0.467071 0.274078 0.287564
0.501600 0.224543 0.367480
0.511008 0.111692 0.494143
0.457856 0.000000 0.662076
0.301269 0.000000 0.860473
0.000000 0.000000 1.000000
0.517243 0.469272 0.323437
0.411921 0.353949 0.304871
0.392163 0.301209 0.307665
0.422816 0.277231 0.341262
0.465286 0.244469 0.409779
0.477545 0.161656 0.512001
0.414124 0.000000 0.641386
0.226116 0.000000 0.786063
0.000000 0.000000 0.928833
0.540416 0.748302 0.347089
0.418164 0.571464 0.359788
0.394777 0.486987 0.379987
0.427071 0.452974 0.416063
0.468424 0.423803 0.471067
0.468773 0.350128 0.542721
0.374620 0.178883 0.623415
0.129026 0.000000 0.700214
0.000000 0.000000 0.754852
0.577456 1.000000 0.353322
0.449504 0.806596 0.410552
0.428018 0.697733 0.457405
0.461782 0.653318 0.501194
0.496142 0.619654 0.543904
0.473005 0.539319 0.582191
0.330841 0.351169 0.607381
0.004682 0.000000 0.605471
0.000000 0.000000 0.557132
0.590063 1.000000 0.322533
0.470828 0.852455 0.440888
0.459957 0.731656 0.526974
0.498202 0.681574 0.587039
0.522880 0.640434 0.622003
0.467866 0.542740 0.627454
0.263598 0.319270 0.593655
0.000000 0.000000 0.505538
0.000000 0.000000 0.342705
0.529248 0.704036 0.236275
0.436330 0.453453 0.435679
0.447973 0.338267 0.576907
0.496898 0.292352 0.665142
0.512388 0.245855 0.700235
0.420289 0.125203 0.676713
0.143009 0.000000 0.583770
0.000000 0.000000 0.405273
0.000000 0.000000 0.119761
0.335332 0.000000 0.077258
0.289518 0.000000 0.380966
0.338758 0.000000 0.596574
0.407743 0.000000 0.728199
0.417726 0.000000 0.774630
0.286521 0.000000 0.729324
0.000000 0.000000 0.580412
0.000000 0.000000 0.310695
0.000000 0.000000 0.000000
0.811212 1.000000 0.395057
0.827688 1.000000 0.355294
0.873927 1.000000 0.357532
0.930129 1.000000 0.418603
0.973058 1.000000 0.550006
0.976037 1.000000 0.757915
0.908953 0.783572 1.000000
0.738253 0.230391 1.000000
0.426948 0.000000 1.000000
0.691001 0.518729 0.324772
0.651754 0.583673 0.289171
0.675242 0.647549 0.293191
0.733633 0.681719 0.352595
0.795659 0.653826 0.477819
0.826613 0.527784 0.673971
0.788349 0.263790 0.940827
0.639286 0.000000 1.000000
0.334401 0.000000 1.000000
0.632170 0.341875 0.308464
0.543731 0.302506 0.281723
0.545296 0.311113 0.288206
0.601002 0.330982 0.342609
0.671549 0.321678 0.454305
0.714200 0.239041 0.627334
0.682777 0.035189 0.860408
0.527668 0.000000 1.000000
0.195820 0.000000 1.000000
0.627249 0.455737 0.322056
0.499332 0.324553 0.312203
0.482986 0.282674 0.325160
0.534317 0.285308 0.374559
0.605995 0.283943 0.468705
0.647249 0.226343 0.610575
0.603874 0.056550 0.797815
0.418222 0.000000 1.000000
0.029212 0.000000 1.000000
0.658075 0.739795 0.342631
0.503580 0.534396 0.361022
0.476521 0.451912 0.387793
0.524973 0.439477 0.435513
0.593575 0.440501 0.511420
0.623525 0.394673 0.617424
0.552585 0.237955 0.750107
0.315080 0.000000 0.900720
0.000000 0.000000 1.000000
0.695797 1.000000 0.348425
0.530809 0.767916 0.409747
0.503419 0.659810 0.461004
0.553672 0.639572 0.513699
0.618176 0.642535 0.574004
0.630098 0.600311 0.642766
0.519170 0.440787 0.715499
0.211683 0.088128 0.782390
0.000000 0.000000 0.828298
0.700876 1.000000 0.318834
0.544662 0.812294 0.441102
0.530508 0.698650 0.530845
0.590428 0.682975 0.598499
0.652997 0.692527 0.649172
0.643353 0.650841 0.682644
0.483195 0.477728 0.693364
0.090784 0.089276 0.670453
0.000000 0.000000 0.597705
0.623080 0.677462 0.234410
0.498095 0.406012 0.438970
0.513929 0.312013 0.584529
0.594565 0.318368 0.680456
0.660548 0.344260 0.730794
0.628983 0.305146 0.734257
0.413540 0.112761 0.684230
0.000000 0.000000 0.568768
0.000000 0.000000 0.370599
0.401491 0.000000 0.076862
0.333373 0.000000 0.388389
0.399131 0.000000 0.610422
0.514718 0.000000 0.751265
0.592647 0.000000 0.813896
0.541992 0.000000 0.795963
0.268392 0.000000 0.689785
0.000000 0.000000 0.482351
0.000000 0.000000 0.155325
0.802973 0.981798 0.395028
0.884408 1.000000 0.417871
1.000000 1.000000 0.484621
1.000000 1.000000 0.616300
1.000000 1.000000 0.828596
1.000000 1.000000 1.000000
1.000000 1.000000 1.000000
1.000000 1.000000 1.000000
1.000000 0.262769 1.000000
0.722352 0.426580 0.302315
0.721819 0.582331 0.321260
0.807486 0.758035 0.381162
0.942784 0.914089 0.501976
1.000000 1.000000 0.698325
1.000000 0.990211 0.979507
1.000000 0.812455 1.000000
1.000000 0.419400 1.000000
0.843123 0.000000 1.000000
0.697246 0.247844 0.269910
0.626127 0.268742 0.291076
0.671041 0.362472 0.346233
0.787386 0.481352 0.454269
0.927124 0.573978 0.628744
1.000000 0.585223 0.877887
1.000000 0.456236 1.000000
0.954734 0.124445 1.000000
0.638891 0.000000 1.000000
0.718940 0.367840 0.272738
0.591803 0.274018 0.305573
0.604829 0.298188 0.361417
0.705386 0.384593 0.458092
0.837404 0.473752 0.608092
0.941375 0.502461 0.818581
0.954351 0.403793 1.000000
0.809949 0.107100 1.000000
0.438347 0.000000 1.000000
0.768033 0.660121 0.286878
0.602631 0.476811 0.344160
0.595819 0.448936 0.409453
0.686936 0.512664 0.499513
0.811880 0.600438 0.625768
0.903112 0.640978 0.794318
0.889653 0.559279 1.000000
0.697089 0.276616 1.000000
0.247566 0.000000 1.000000
0.814433 0.949540 0.289566
0.631702 0.707072 0.387403
0.620288 0.649768 0.474236
0.711498 0.705719 0.565757
0.833199 0.799291 0.672327
0.909821 0.851127 0.798982
0.862355 0.778147 0.945426
0.608354 0.493549 1.000000
0.061934 0.000000 1.000000
0.817358 1.000000 0.259198
0.641420 0.746056 0.417026
0.643824 0.687039 0.540820
0.747845 0.755211 0.645207
0.873319 0.866864 0.739482
0.936646 0.934563 0.827615
0.850784 0.867152 0.908244
0.525257 0.569752 0.974680
0.000000 0.000000 1.000000
0.725338 0.575702 0.175323
0.583499 0.326315 0.415909
0.621325 0.298400 0.595415
0.754059 0.403894 0.727402
0.893508 0.551011 0.820101
0.948037 0.644239 0.876414
0.822577 0.584347 0.893917
0.418618 0.268379 0.864853
0.000000 0.000000 0.776138
0.476211 0.000000 0.018650
0.398962 0.000000 0.368089
0.496999 0.000000 0.625387
0.677535 0.000000 0.803039
0.844343 0.000000 0.908210
0.897760 0.000000 0.942737
0.734683 0.000000 0.903129
0.248572 0.000000 0.780565
0.000000 0.000000 0.560896
0.696349 0.777396 0.347752
0.881316 1.000000 0.476621
1.000000 1.000000 0.650054
1.000000 1.000000 0.893259
1.000000 1.000000 1.000000
1.000000 1.000000 1.000000
1.000000 1.000000 1.000000
1.000000 1.000000 1.000000
1.000000 1.000000 1.000000
0.676103 0.217594 0.228112
0.750815 0.539609 0.344247
0.937781 0.904568 0.501425
1.000000 1.000000 0.723790
1.000000 1.000000 1.000000
1.000000 1.000000 1.000000
1.000000 1.000000 1.000000
1.000000 1.000000 1.000000
1.000000 0.903493 1.000000
0.702884 0.045951 0.175805
0.683578 0.200002 0.286744
0.808920 0.453708 0.431192
1.000000 0.748420 0.632226
1.000000 1.000000 0.907593
1.000000 1.000000 1.000000
1.000000 1.000000 1.000000
1.000000 1.000000 1.000000
1.000000 0.523752 1.000000
0.766739 0.178791 0.164751
0.672834 0.192643 0.281365
0.750272 0.355143 0.419936
0.937680 0.599568 0.602475
1.000000 0.855468 0.845666
1.000000 1.000000 1.000000
1.000000 1.000000 1.000000
1.000000 0.931692 1.000000
1.000000 0.454549 1.000000
0.847024 0.483737 0.170031
0.701126 0.390253 0.306518
0.747562 0.486697 0.449395
0.916929 0.698265 0.619607
1.000000 0.946433 0.832771
1.000000 1.000000 1.000000
1.000000 1.000000 1.000000
1.000000 1.000000 1.000000
0.937996 0.604307 1.000000
0.912407 0.779713 0.167879
0.740305 0.616859 0.341767
0.775827 0.677492 0.502462
0.941539 0.878736 0.669844
1.000000 1.000000 0.858463
1.000000 1.000000 1.000000
1.000000 1.000000 1.000000
1.000000 1.000000 1.000000
0.772119 0.832752 1.000000
0.920864 0.836944 0.135688
0.751534 0.647783 0.367836
0.799415 0.707955 0.563191
0.979042 0.926506 0.740568
1.000000 1.000000 0.913453
1.000000 1.000000 1.000000
1.000000 1.000000 1.000000
1.000000 1.000000 1.000000
0.621461 0.950910 1.000000
0.819685 0.376954 0.052008
0.685284 0.209651 0.366603
0.771981 0.309811 0.616790
0.986280 0.578401 0.820317
1.000000 0.912669 0.989607
1.000000 1.000000 1.000000
1.000000 1.000000 1.000000
1.000000 1.000000 1.000000
0.458786 0.721109 1.000000
0.545466 0.000000 0.000000
0.481340 0.000000 0.321105
0.636495 0.000000 0.649624
0.909405 0.000000 0.898788
1.000000 0.000000 1.000000
1.000000 0.300726 1.000000
1.000000 0.489612 1.000000
1.000000 0.383602 1.000000
0.246172 0.000000 1.000000
