public/luts/asteroid_city_kodak_vision_t200_v2.cube
# Generated from ColorChecker fit
LUT_3D_SIZE 5
DOMAIN_MIN 0.0 0.0 0.0
DOMAIN_MAX 1.0 1.0 1.0
0.000000 0.000000 0.000000
0.000000 0.000000 0.000000
0.000000 0.000000 0.000000
0.000000 0.000000 0.000000
0.000000 0.598390 0.000000
0.000000 0.000000 0.410850
0.000000 0.000000 0.552884
0.000000 0.000000 0.696973
0.000000 0.084126 0.559690
0.000000 0.614324 0.000000
0.000000 0.277497 0.415219
0.100497 0.386588 0.741538
0.015303 0.325194 0.796975
0.000000 0.132796 0.256681
0.000000 0.001027 0.000000
0.238331 0.310430 1.000000
0.374323 0.403089 1.000000
0.000000 0.100636 1.000000
0.000000 0.000000 0.000000
0.000000 0.000000 0.000000
1.000000 0.000000 1.000000
1.000000 0.000000 1.000000
0.014032 0.000000 1.000000
0.000000 0.000000 0.890115
0.000000 0.000000 0.000000
0.279924 0.099025 0.000000
0.012086 0.061983 0.000000
0.000000 0.042387 0.000000
0.081566 0.102747 0.058578
0.776044 0.457721 0.541711
0.233804 0.323642 0.273803
0.247344 0.281313 0.296801
0.328745 0.273900 0.485326
0.512340 0.231976 0.796886
0.927649 0.238264 0.844024
0.211045 0.592554 0.267514
0.343631 0.645030 0.508176
0.345775 0.632829 0.620477
0.155156 0.354590 0.520503
0.000000 0.000000 0.000000
0.782909 0.631999 1.000000
0.762680 0.803188 1.000000
0.305598 0.693047 1.000000
0.000000 0.000000 0.354823
0.000000 0.000000 0.000000
1.000000 0.000000 1.000000
1.000000 0.123998 1.000000
0.847420 0.000000 1.000000
0.000000 0.000000 1.000000
0.000000 0.000000 0.000000
0.603219 0.310121 0.170141
0.221338 0.147694 0.000000
0.275224 0.167602 0.000000
0.878659 0.191512 0.616787
1.000000 0.193239 1.000000
0.532246 0.541802 0.295519
0.369971 0.280255 0.294691
0.537460 0.226486 0.516014
1.000000 0.070227 1.000000
1.000000 0.000000 1.000000
0.470588 0.687178 0.198767
0.382327 0.523479 0.414755
0.409720 0.475941 0.538055
0.473240 0.102357 0.725692
0.588548 0.000000 0.789722
1.000000 0.559765 1.000000
0.822798 0.614699 1.000000
0.346864 0.577114 1.000000
0.000000 0.000000 0.603158
0.000000 0.000000 0.000000
1.000000 0.000000 1.000000
1.000000 0.009401 1.000000
1.000000 0.000000 1.000000
0.000000 0.000000 1.000000
0.000000 0.000000 0.000000
0.842811 0.347630 0.309042
0.498051 0.249702 0.032783
0.890147 0.574028 0.203545
1.000000 0.901428 1.000000
1.000000 0.964874 1.000000
0.853398 0.765284 0.349462
0.659021 0.439178 0.464208
1.000000 0.568742 0.750884
1.000000 0.602861 1.000000
1.000000 0.142570 1.000000
0.798241 0.851418 0.218356
0.625394 0.590978 0.514844
0.837675 0.702564 0.647474
1.000000 0.503123 1.000000
1.000000 0.000000 1.000000
1.000000 0.506822 1.000000
1.000000 0.529710 1.000000
0.721627 0.723917 1.000000
0.232745 0.274457 0.838930
0.000000 0.000000 0.114208
1.000000 0.000000 1.000000
1.000000 0.000000 1.000000
1.000000 0.099383 1.000000
0.000000 0.000000 1.000000
0.000000 0.000000 0.679215
0.550684 0.000000 0.000000
0.615938 0.088153 0.033788
1.000000 1.000000 0.417359
1.000000 1.000000 1.000000
1.000000 1.000000 1.000000
0.849981 0.558286 0.157929
0.988944 0.601273 0.571842
1.000000 1.000000 1.000000
1.000000 1.000000 1.000000
1.000000 1.000000 1.000000
0.947463 0.772514 0.184497
1.000000 0.813761 0.710853
1.000000 1.000000 0.895334
1.000000 1.000000 1.000000
1.000000 1.000000 1.000000
1.000000 0.283455 1.000000
1.000000 0.637500 1.000000
1.000000 1.000000 1.000000
1.000000 1.000000 1.000000
1.000000 0.689563 0.731063
1.000000 0.000000 1.000000
1.000000 0.000000 1.000000
1.000000 0.808116 1.000000
1.000000 0.926326 1.000000
0.000000 0.000000 1.000000
