public/luts/asteroid_city_kodak_vision_t200_v2.cube
# Generated from ColorChecker fit
LUT_3D_SIZE 9
DOMAIN_MIN 0.0 0.0 0.0
DOMAIN_MAX 1.0 1.0 1.0
0.000000 0.000000 0.000000
0.000000 0.000000 0.000000
0.000000 0.000000 0.000000
0.000000 0.000000 0.000000
0.000000 0.000000 0.000000
0.000000 0.000000 0.000000
0.000000 0.000000 0.000000
0.000000 0.056074 0.000000
0.000000 0.598390 0.000000
0.000000 0.000000 0.272661
0.000000 0.000000 0.250781
0.000000 0.000000 0.263730
0.000000 0.000000 0.311010
0.000000 0.000000 0.370562
0.000000 0.000000 0.398765
0.000000 0.000000 0.330440
0.000000 0.189419 0.078846
0.000000 0.654410 0.000000
0.000000 0.000000 0.410850
0.000000 0.000000 0.477371
0.000000 0.000000 0.552884
0.000000 0.000000 0.634300
0.000000 0.000000 0.696973
0.000000 0.004840 0.694693
0.000000 0.084126 0.559690
0.000000 0.269050 0.202636
0.000000 0.614324 0.000000
0.000000 0.119074 0.420516
0.000000 0.175071 0.558505
0.051401 0.204257 0.675855
0.069722 0.205547 0.766888
0.021884 0.187369 0.804367
0.000000 0.167659 0.739495
0.000000 0.173862 0.501915
0.000000 0.242932 0.000000
0.000000 0.421334 0.000000
0.000000 0.277497 0.415219
0.004122 0.349877 0.605411
0.100497 0.386588 0.741538
0.107096 0.378300 0.815335
0.015303 0.325194 0.796975
0.000000 0.236959 0.635073
0.000000 0.132796 0.256681
0.000000 0.041413 0.000000
0.000000 0.001027 0.000000
0.000000 0.365133 0.551304
0.112818 0.448434 0.772102
0.184208 0.479891 0.901616
0.132873 0.441928 0.928993
0.000000 0.326482 0.821817
0.000000 0.134995 0.526113
0.000000 0.000000 0.000000
0.000000 0.000000 0.000000
0.000000 0.000000 0.000000
0.238331 0.310430 1.000000
0.374219 0.394427 1.000000
0.374323 0.403089 1.000000
0.211999 0.310596 1.000000
0.000000 0.100636 1.000000
0.000000 0.000000 0.600092
0.000000 0.000000 0.000000
0.000000 0.000000 0.000000
0.000000 0.000000 0.000000
0.833020 0.024221 1.000000
0.884898 0.093928 1.000000
0.760572 0.057493 1.000000
0.427358 0.000000 1.000000
0.000000 0.000000 1.000000
0.000000 0.000000 1.000000
0.000000 0.000000 0.033735
0.000000 0.000000 0.000000
0.000000 0.000000 0.000000
1.000000 0.000000 1.000000
1.000000 0.000000 1.000000
1.000000 0.000000 1.000000
0.879769 0.000000 1.000000
0.014032 0.000000 1.000000
0.000000 0.000000 1.000000
0.000000 0.000000 0.890115
0.000000 0.000000 0.000000
0.000000 0.000000 0.000000
0.108324 0.000000 0.000000
0.000000 0.000000 0.000000
0.000000 0.000000 0.000000
0.000000 0.000000 0.000000
0.000000 0.000000 0.000000
0.000000 0.000000 0.000000
0.000000 0.039549 0.000000
0.000000 0.252533 0.000000
0.035993 0.639575 0.000000
0.116036 0.045900 0.210941
0.090883 0.055535 0.142646
0.061843 0.058564 0.119205
0.031399 0.055343 0.155177
0.007985 0.055738 0.243562
0.005983 0.079125 0.355797
0.045724 0.154387 0.441762
0.153491 0.319919 0.429774
0.361512 0.623623 0.226591
0.083055 0.187917 0.320477
0.131835 0.207130 0.348312
0.169104 0.226009 0.393854
0.191305 0.236666 0.469072
0.200830 0.240720 0.564378
0.206020 0.249301 0.648620
0.221167 0.283047 0.669089
0.266510 0.372105 0.551513
0.368238 0.556133 0.200062
0.047466 0.350991 0.321688
0.152220 0.389896 0.427499
0.231082 0.427424 0.520074
0.274455 0.447441 0.608797
0.278689 0.443320 0.681489
0.246085 0.417945 0.704409
0.184894 0.383707 0.622260
0.109314 0.362509 0.358180
0.039493 0.385762 0.000000
0.065291 0.504255 0.337988
0.201214 0.568205 0.501287
0.290108 0.622420 0.616617
0.316334 0.642518 0.690771
0.270202 0.613626 0.708981
0.147973 0.530382 0.634920
0.000000 0.396933 0.410698
0.000000 0.226933 0.000000
0.000000 0.043550 0.000000
0.210490 0.599226 0.535579
0.345932 0.688814 0.733549
0.406451 0.752990 0.845022
0.370366 0.759128 0.874202
0.221947 0.684108 0.803732
0.000000 0.514323 0.594696
0.000000 0.245672 0.186616
0.000000 0.000000 0.000000
0.000000 0.000000 0.000000
0.574962 0.569806 1.000000
0.671427 0.680862 1.000000
0.658317 0.743514 1.000000
0.507912 0.716890 1.000000
0.198440 0.569624 1.000000
0.000000 0.279862 0.781069
0.000000 0.000000 0.145014
0.000000 0.000000 0.000000
0.000000 0.000000 0.000000
1.000000 0.332282 1.000000
1.000000 0.455875 1.000000
1.000000 0.500756 1.000000
0.818271 0.417806 1.000000
0.282134 0.167414 1.000000
0.000000 0.000000 1.000000
0.000000 0.000000 0.523682
0.000000 0.000000 0.000000
0.000000 0.000000 0.000000
1.000000 0.000000 1.000000
1.000000 0.000000 1.000000
1.000000 0.000000 1.000000
1.000000 0.000000 1.000000
0.573421 0.000000 1.000000
0.000000 0.000000 1.000000
0.000000 0.000000 1.000000
0.000000 0.000000 0.000000
0.000000 0.000000 0.000000
0.279924 0.099025 0.000000
0.130717 0.076287 0.000000
0.012086 0.061983 0.000000
0.000000 0.049664 0.000000
0.000000 0.042387 0.000000
0.000000 0.052722 0.000000
0.081566 0.102747 0.058578
0.346549 0.224048 0.328795
0.776044 0.457721 0.541711
0.278437 0.199696 0.206766
0.207224 0.159956 0.106674
0.164733 0.142738 0.054783
0.152374 0.133346 0.080708
0.177502 0.126593 0.192508
0.253427 0.126801 0.376681
0.399404 0.147803 0.598163
0.640638 0.212939 0.800331
1.000000 0.355060 0.905001
0.233804 0.323642 0.273803
0.230519 0.287831 0.275431
0.247344 0.281313 0.296801
0.279647 0.281147 0.364944
0.328745 0.273900 0.485326
0.401904 0.255647 0.641858
0.512340 0.231976 0.796886
0.679217 0.217980 0.891199
0.927649 0.238264 0.844024
0.190527 0.463066 0.249629
0.238256 0.447353 0.333600
0.290727 0.460389 0.405063
0.337267 0.470986 0.488459
0.373150 0.457464 0.586668
0.399604 0.407655 0.681008
0.423803 0.318898 0.731239
0.458869 0.198042 0.675560
0.523876 0.061446 0.430610
0.211045 0.592554 0.267514
0.286030 0.608348 0.412121
0.343631 0.645030 0.508176
0.367135 0.663165 0.577531
0.345775 0.632829 0.620477
0.274738 0.533606 0.615744
0.155156 0.354590 0.520503
0.000000 0.094384 0.270363
0.000000 0.000000 0.000000
0.375734 0.669080 0.503518
0.447371 0.723027 0.684721
0.472741 0.782685 0.777535
0.429091 0.800372 0.801222
0.299614 0.737919 0.753485
0.073454 0.566664 0.610466
0.000000 0.267454 0.326745
0.000000 0.000000 0.000000
0.000000 0.000000 0.000000
0.782909 0.631999 1.000000
0.813747 0.725985 1.000000
0.762680 0.803188 1.000000
0.600913 0.807680 1.000000
0.305598 0.693047 1.000000
0.000000 0.422379 0.872362
0.000000 0.000000 0.354823
0.000000 0.000000 0.000000
0.000000 0.000000 0.000000
1.000000 0.403054 1.000000
1.000000 0.534203 1.000000
1.000000 0.618758 1.000000
0.978316 0.592547 1.000000
0.452597 0.400907 1.000000
0.000000 0.000000 1.000000
0.000000 0.000000 0.852382
0.000000 0.000000 0.000000
0.000000 0.000000 0.000000
1.000000 0.000000 1.000000
1.000000 0.047044 1.000000
1.000000 0.123998 1.000000
1.000000 0.044813 1.000000
0.847420 0.000000 1.000000
0.000000 0.000000 1.000000
0.000000 0.000000 1.000000
0.000000 0.000000 0.590550
0.000000 0.000000 0.000000
0.440972 0.214891 0.053293
0.243206 0.140997 0.000000
0.111075 0.108857 0.000000
0.050955 0.096968 0.000000
0.075168 0.093337 0.000000
0.201987 0.095478 0.000000
0.455634 0.110416 0.310130
0.866280 0.154687 0.775000
1.000000 0.254333 1.000000
0.432901 0.319090 0.249996
0.305612 0.214289 0.135487
0.241115 0.165829 0.065845
0.239745 0.143959 0.085747
0.307783 0.128441 0.218309
0.457462 0.108544 0.465087
0.706962 0.083046 0.806076
1.000000 0.060237 1.000000
1.000000 0.057914 1.000000
0.375420 0.428366 0.269181
0.309587 0.319644 0.259842
0.296946 0.274533 0.265603
0.331791 0.255036 0.328554
0.414363 0.232668 0.469220
0.550853 0.188453 0.686569
0.753401 0.112924 0.958008
1.000000 0.006123 1.000000
1.000000 0.000000 1.000000
0.319445 0.540377 0.211188
0.299201 0.449958 0.286421
0.315793 0.423103 0.343195
0.357473 0.413571 0.421009
0.418442 0.384629 0.537802
0.498849 0.309055 0.689951
0.604794 0.169137 0.852275
0.748326 0.000000 0.978030
0.947441 0.000000 0.998913
0.333832 0.635164 0.219142
0.336465 0.580512 0.356018
0.352820 0.582060 0.437082
0.365109 0.585322 0.499244
0.361492 0.545320 0.557853
0.336077 0.426585 0.606700
0.288923 0.203159 0.618011
0.226038 0.000000 0.542457
0.159377 0.000000 0.309145
0.505374 0.675155 0.478958
0.501325 0.668970 0.652217
0.481129 0.704307 0.728516
0.420956 0.718432 0.742179
0.302924 0.658122 0.705964
0.115102 0.479663 0.611072
0.000000 0.148849 0.427144
0.000000 0.000000 0.102258
0.000000 0.000000 0.000000
0.938802 0.605161 1.000000
0.891668 0.655384 1.000000
0.791760 0.725133 1.000000
0.609206 0.743429 1.000000
0.320086 0.648802 1.000000
0.000000 0.389293 0.920113
0.000000 0.000000 0.494385
0.000000 0.000000 0.000000
0.000000 0.000000 0.000000
1.000000 0.352378 1.000000
1.000000 0.462188 1.000000
1.000000 0.562211 1.000000
1.000000 0.573224 1.000000
0.508264 0.425511 1.000000
0.000000 0.058864 1.000000
0.000000 0.000000 1.000000
0.000000 0.000000 0.100295
0.000000 0.000000 0.000000
1.000000 0.000000 1.000000
1.000000 0.000000 1.000000
1.000000 0.115600 1.000000
1.000000 0.103115 1.000000
0.980683 0.000000 1.000000
0.000000 0.000000 1.000000
0.000000 0.000000 1.000000
0.000000 0.000000 1.000000
0.000000 0.000000 0.000000
0.603219 0.310121 0.170141
0.361201 0.189026 0.000000
0.221338 0.147694 0.000000
0.188930 0.149568 0.000000
0.275224 0.167602 0.000000
0.497419 0.184260 0.133207
0.878659 0.191512 0.616787
1.000000 0.190842 1.000000
1.000000 0.193239 1.000000
0.597478 0.436104 0.321042
0.417953 0.267995 0.212257
0.336753 0.194734 0.138329
0.353135 0.171518 0.158993
0.472307 0.163054 0.312424
0.705426 0.143560 0.615236
1.000000 0.096762 1.000000
1.000000 0.015896 1.000000
1.000000 0.000000 1.000000
0.532246 0.541802 0.295519
0.407240 0.359721 0.293215
0.369971 0.280255 0.294691
0.413656 0.250356 0.357096
0.537460 0.226486 0.516014
0.746501 0.174616 0.785472
1.000000 0.070227 1.000000
1.000000 0.000000 1.000000
1.000000 0.000000 1.000000
0.464860 0.630328 0.203767
0.379552 0.462553 0.286124
0.364636 0.397845 0.337393
0.407288 0.374910 0.412133
0.500635 0.341965 0.543339
0.643750 0.256733 0.742449
0.841658 0.086449 0.999339
1.000000 0.000000 1.000000
1.000000 0.000000 1.000000
0.470588 0.687178 0.198767
0.403312 0.557228 0.341636
0.382327 0.523479 0.414755
0.388768 0.516394 0.470092
0.409720 0.475941 0.538055
0.438216 0.351599 0.627493
0.473240 0.102357 0.725692
0.519724 0.000000 0.798380
0.588548 0.000000 0.789722
0.642642 0.680235 0.476291
0.564886 0.606865 0.653190
0.502562 0.615516 0.717882
0.430766 0.628403 0.719748
0.330541 0.577250 0.686607
0.188880 0.403290 0.624716
0.000000 0.057264 0.518776
0.000000 0.000000 0.331923
0.000000 0.000000 0.005735
1.000000 0.559765 1.000000
0.968574 0.556970 1.000000
0.822798 0.614699 1.000000
0.623894 0.646921 1.000000
0.346864 0.577114 1.000000
0.000000 0.338264 0.961020
0.000000 0.000000 0.603158
0.000000 0.000000 0.105190
0.000000 0.000000 0.000000
1.000000 0.258419 1.000000
1.000000 0.335432 1.000000
1.000000 0.444156 1.000000
1.000000 0.490314 1.000000
0.560391 0.389137 1.000000
0.000000 0.065366 1.000000
0.000000 0.000000 1.000000
0.000000 0.000000 0.383207
0.000000 0.000000 0.000000
1.000000 0.000000 1.000000
1.000000 0.000000 1.000000
1.000000 0.009401 1.000000
1.000000 0.059334 1.000000
1.000000 0.000000 1.000000
0.036937 0.000000 1.000000
0.000000 0.000000 1.000000
0.000000 0.000000 1.000000
0.000000 0.000000 0.000000
0.751316 0.371374 0.271051
0.483211 0.224468 0.064531
0.355242 0.200023 0.000000
0.371633 0.246430 0.000000
0.542557 0.321589 0.013506
0.884136 0.392911 0.372084
1.000000 0.437315 0.957590
1.000000 0.441230 1.000000
1.000000 0.400593 1.000000
0.763112 0.545085 0.390870
0.549051 0.332858 0.310711
0.470307 0.258675 0.248722
0.525064 0.262680 0.279695
0.717453 0.294528 0.456865
1.000000 0.313384 0.811904
1.000000 0.287921 1.000000
1.000000 0.196321 1.000000
1.000000 0.026278 1.000000
0.701526 0.665987 0.332276
0.534580 0.427534 0.357770
0.491377 0.335391 0.369048
0.564057 0.321457 0.438315
0.750711 0.327141 0.616216
1.000000 0.303361 0.931834
1.000000 0.210544 1.000000
1.000000 0.018628 1.000000
1.000000 0.000000 1.000000
0.630308 0.742647 0.215319
0.496704 0.512302 0.323425
0.468510 0.429216 0.381138
0.531825 0.417045 0.458072
0.678701 0.408949 0.602283
0.907136 0.347602 0.840267
1.000000 0.185184 1.000000
1.000000 0.000000 1.000000
1.000000 0.000000 1.000000
0.631147 0.766015 0.202838
0.510264 0.573351 0.368186
0.469702 0.521580 0.443167
0.489519 0.526110 0.494809
0.555726 0.511858 0.568579
0.660280 0.413251 0.688383
0.801089 0.174223 0.856566
0.982011 0.000000 1.000000
1.000000 0.000000 1.000000
0.803667 0.709430 0.500461
0.668041 0.579257 0.695346
0.580888 0.576295 0.756100
0.516228 0.607705 0.747160
0.454029 0.590160 0.711405
0.380209 0.449838 0.670151
0.286635 0.122429 0.623156
0.171123 0.000000 0.548615
0.037437 0.000000 0.403166
1.000000 0.528611 1.000000
1.000000 0.480979 1.000000
0.905939 0.539559 1.000000
0.708977 0.603267 1.000000
0.463792 0.580528 1.000000
0.150260 0.389276 1.000000
0.000000 0.000000 0.711152
0.000000 0.000000 0.311927
0.000000 0.000000 0.000000
1.000000 0.161665 1.000000
1.000000 0.211862 1.000000
1.000000 0.339956 1.000000
1.000000 0.436618 1.000000
0.693133 0.402025 1.000000
0.071704 0.145866 1.000000
0.000000 0.000000 1.000000
0.000000 0.000000 0.618732
0.000000 0.000000 0.000000
1.000000 0.000000 1.000000
1.000000 0.000000 1.000000
1.000000 0.000000 1.000000
1.000000 0.013963 1.000000
1.000000 0.000000 1.000000
0.263755 0.000000 1.000000
0.000000 0.000000 1.000000
0.000000 0.000000 1.000000
0.000000 0.000000 0.298824
0.842811 0.347630 0.309042
0.580642 0.213743 0.158560
0.498051 0.249702 0.032783
0.598187 0.388848 0.024150
0.890147 0.574028 0.203545
1.000000 0.757599 0.620285
1.000000 0.901428 1.000000
1.000000 0.976891 1.000000
1.000000 0.964874 1.000000
0.893648 0.602706 0.420995
0.676608 0.382987 0.395128
0.633340 0.349197 0.364064
0.760951 0.426428 0.417656
1.000000 0.549282 0.624196
1.000000 0.661871 1.000000
1.000000 0.717815 1.000000
1.000000 0.680245 1.000000
1.000000 0.521799 1.000000
0.853398 0.765284 0.349462
0.675606 0.504884 0.426280
0.659021 0.439178 0.464208
0.794710 0.485012 0.550508
1.000000 0.568742 0.750884
1.000000 0.626233 1.000000
1.000000 0.602861 1.000000
1.000000 0.453509 1.000000
1.000000 0.142570 1.000000
0.792228 0.849386 0.224351
0.640954 0.588694 0.379593
0.631568 0.524144 0.458457
0.749094 0.564337 0.545617
0.984509 0.627382 0.704187
1.000000 0.640900 0.975720
1.000000 0.542018 1.000000
1.000000 0.277375 1.000000
1.000000 0.000000 1.000000
0.798241 0.851418 0.218356
0.653913 0.626061 0.425430
0.625394 0.590978 0.514844
0.691670 0.646525 0.568684
0.837675 0.702564 0.647474
1.000000 0.678469 0.790180
1.000000 0.503123 1.000000
1.000000 0.114919 1.000000
1.000000 0.000000 1.000000
0.977480 0.750171 0.546961
0.813677 0.591015 0.776943
0.732850 0.608949 0.844189
0.707943 0.696082 0.828197
0.717849 0.754032 0.786903
0.747410 0.693926 0.756683
0.787418 0.436401 0.752352
0.834613 0.000000 0.767165
0.891685 0.000000 0.772818
1.000000 0.506822 1.000000
1.000000 0.439971 1.000000
1.000000 0.529710 1.000000
0.901355 0.659902 1.000000
0.721627 0.723917 1.000000
0.503840 0.624639 1.000000
0.232745 0.274457 0.838930
0.000000 0.000000 0.513350
0.000000 0.000000 0.114208
1.000000 0.064930 1.000000
1.000000 0.111728 1.000000
1.000000 0.287299 1.000000
1.000000 0.467259 1.000000
0.963544 0.536734 1.000000
0.431271 0.390361 1.000000
0.000000 0.000000 1.000000
0.000000 0.000000 0.838689
0.000000 0.000000 0.000000
1.000000 0.000000 1.000000
1.000000 0.000000 1.000000
1.000000 0.000000 1.000000
1.000000 0.029815 1.000000
1.000000 0.099383 1.000000
0.655331 0.000000 1.000000
0.000000 0.000000 1.000000
0.000000 0.000000 1.000000
0.000000 0.000000 0.679215
0.808152 0.150197 0.227691
0.597799 0.085592 0.163812
0.607929 0.242911 0.095904
0.840613 0.540439 0.131466
1.000000 0.905972 0.356437
1.000000 1.000000 0.835196
1.000000 1.000000 1.000000
1.000000 1.000000 1.000000
1.000000 1.000000 1.000000
0.925831 0.527963 0.363486
0.751227 0.354816 0.420337
0.790311 0.420172 0.441949
1.000000 0.634071 0.533232
1.000000 0.916062 0.777535
1.000000 1.000000 1.000000
1.000000 1.000000 1.000000
1.000000 1.000000 1.000000
1.000000 1.000000 1.000000
0.930904 0.766380 0.307641
0.787214 0.535895 0.462072
0.843658 0.553177 0.546259
1.000000 0.720019 0.662525
1.000000 0.947724 0.891630
1.000000 1.000000 1.000000
1.000000 1.000000 1.000000
1.000000 1.000000 1.000000
1.000000 1.000000 1.000000
0.899955 0.884923 0.199920
0.775495 0.643544 0.426448
0.830862 0.651879 0.543935
1.000000 0.803475 0.652113
1.000000 1.000000 0.829157
1.000000 1.000000 1.000000
1.000000 1.000000 1.000000
1.000000 1.000000 1.000000
1.000000 0.650204 1.000000
0.927503 0.885453 0.222874
0.803747 0.674863 0.493684
0.832752 0.708617 0.612863
0.992427 0.872016 0.677554
1.000000 1.000000 0.763341
1.000000 1.000000 0.924248
1.000000 1.000000 1.000000
1.000000 0.860936 1.000000
1.000000 0.284920 1.000000
1.000000 0.752217 0.601842
0.977580 0.609336 0.886789
0.948093 0.698113 0.973721
1.000000 0.895603 0.957192
1.000000 1.000000 0.910196
1.000000 1.000000 0.884169
1.000000 1.000000 0.908984
1.000000 0.646651 0.992955
1.000000 0.000000 1.000000
1.000000 0.451846 1.000000
1.000000 0.408832 1.000000
1.000000 0.577475 1.000000
1.000000 0.826583 1.000000
1.000000 1.000000 1.000000
1.000000 1.000000 1.000000
0.975171 0.887443 0.997607
0.846418 0.336701 0.723337
0.680230 0.000000 0.429265
1.000000 0.000000 1.000000
1.000000 0.017606 1.000000
1.000000 0.286196 1.000000
1.000000 0.599687 1.000000
1.000000 0.828153 1.000000
1.000000 0.851177 1.000000
0.518141 0.557849 1.000000
0.000000 0.000000 1.000000
0.000000 0.000000 0.286062
1.000000 0.000000 1.000000
1.000000 0.000000 1.000000
1.000000 0.000000 1.000000
1.000000 0.132031 1.000000
1.000000 0.381757 1.000000
1.000000 0.366668 1.000000
0.300256 0.000000 1.000000
0.000000 0.000000 1.000000
0.000000 0.000000 1.000000
0.550684 0.000000 0.000000
0.451888 0.000000 0.017175
0.615938 0.088153 0.033788
1.000000 0.627144 0.133516
1.000000 1.000000 0.417359
1.000000 1.000000 0.964753
1.000000 1.000000 1.000000
1.000000 1.000000 1.000000
1.000000 1.000000 1.000000
0.769301 0.202178 0.160964
0.696408 0.147103 0.331724
0.878578 0.387794 0.430522
1.000000 0.819240 0.577328
1.000000 1.000000 0.870551
1.000000 1.000000 1.000000
1.000000 1.000000 1.000000
1.000000 1.000000 1.000000
1.000000 1.000000 1.000000
0.849981 0.558286 0.157929
0.799201 0.427015 0.419023
0.988944 0.601273 0.571842
1.000000 0.967801 0.733767
1.000000 1.000000 1.000000
1.000000 1.000000 1.000000
1.000000 1.000000 1.000000
1.000000 1.000000 1.000000
1.000000 1.000000 1.000000
0.875723 0.745959 0.101638
0.836420 0.590991 0.426362
1.000000 0.743997 0.602705
1.000000 1.000000 0.745458
1.000000 1.000000 0.947852
1.000000 1.000000 1.000000
1.000000 1.000000 1.000000
1.000000 1.000000 1.000000
1.000000 1.000000 1.000000
0.947463 0.772514 0.184497
0.902155 0.641586 0.543816
1.000000 0.813761 0.710853
1.000000 1.000000 0.797812
1.000000 1.000000 0.895334
1.000000 1.000000 1.000000
1.000000 1.000000 1.000000
1.000000 1.000000 1.000000
1.000000 1.000000 1.000000
1.000000 0.627651 0.641702
1.000000 0.563738 1.000000
1.000000 0.790741 1.000000
1.000000 1.000000 1.000000
1.000000 1.000000 1.000000
1.000000 1.000000 1.000000
1.000000 1.000000 1.000000
1.000000 1.000000 1.000000
1.000000 1.000000 1.000000
1.000000 0.283455 1.000000
1.000000 0.324772 1.000000
1.000000 0.637500 1.000000
1.000000 1.000000 1.000000
1.000000 1.000000 1.000000
1.000000 1.000000 1.000000
1.000000 1.000000 1.000000
1.000000 1.000000 0.946316
1.000000 0.689563 0.731063
1.000000 0.000000 1.000000
1.000000 0.000000 1.000000
1.000000 0.298985 1.000000
1.000000 0.813677 1.000000
1.000000 1.000000 1.000000
1.000000 1.000000 1.000000
1.000000 1.000000 1.000000
1.000000 1.000000 1.000000
0.789328 0.000000 0.588854
1.000000 0.000000 1.000000
1.000000 0.000000 1.000000
1.000000 0.000000 1.000000
1.000000 0.308075 1.000000
1.000000 0.808116 1.000000
1.000000 1.000000 1.000000
1.000000 0.926326 1.000000
0.464551 0.285591 1.000000
0.000000 0.000000 1.000000
