public/luts/asteroid_city_kodak_vision_t200_v2.cube
# Generated from ColorChecker fit
LUT_3D_SIZE 33
DOMAIN_MIN 0.0 0.0 0.0
DOMAIN_MAX 1.0 1.0 1.0
0.000000 0.000000 0.000000
0.000000 0.000000 0.000000
0.000000 0.000000 0.000000
0.000000 0.000000 0.000000
0.000000 0.000000 0.000000
0.000000 0.000000 0.000000
0.000000 0.000000 0.000000
0.000000 0.000000 0.000000
0.000000 0.000000 0.000000
0.000000 0.000000 0.000000
0.000000 0.000000 0.000000
0.000000 0.000000 0.000000
0.000000 0.000000 0.000000
0.000000 0.000000 0.000000
0.000000 0.000000 0.000000
0.000000 0.000000 0.000000
0.000000 0.000000 0.000000
0.000000 0.000000 0.000000
0.000000 0.000000 0.000000
0.000000 0.000000 0.000000
0.000000 0.000000 0.000000
0.000000 0.000000 0.000000
0.000000 0.000000 0.000000
0.000000 0.000000 0.000000
0.000000 0.000000 0.000000
0.000000 0.000000 0.000000
0.000000 0.000000 0.000000
0.000000 0.000000 0.000000
0.000000 0.056074 0.000000
0.000000 0.166122 0.000000
0.000000 0.292356 0.000000
0.000000 0.436019 0.000000
0.000000 0.598390 0.000000
0.000000 0.000000 0.040496
0.000000 0.000000 0.012064
0.000000 0.000000 0.000000
0.000000 0.000000 0.000000
0.000000 0.000000 0.000000
0.000000 0.000000 0.000000
0.000000 0.000000 0.000000
0.000000 0.000000 0.000000
0.000000 0.000000 0.000000
0.000000 0.000000 0.000000
0.000000 0.000000 0.000000
0.000000 0.000000 0.000000
0.000000 0.000000 0.000000
0.000000 0.000000 0.000000
0.000000 0.000000 0.000000
0.000000 0.000000 0.000000
0.000000 0.000000 0.000000
0.000000 0.000000 0.000000
0.000000 0.000000 0.000000
0.000000 0.000000 0.000000
0.000000 0.000000 0.000000
0.000000 0.000000 0.000000
0.000000 0.000000 0.000000
0.000000 0.000000 0.000000
0.000000 0.000000 0.000000
0.000000 0.000000 0.000000
0.000000 0.000000 0.000000
0.000000 0.000000 0.000000
0.000000 0.092263 0.000000
0.000000 0.199275 0.000000
0.000000 0.321916 0.000000
0.000000 0.461396 0.000000
0.000000 0.618961 0.000000
0.000000 0.000000 0.131584
0.000000 0.000000 0.110169
0.000000 0.000000 0.090834
0.000000 0.000000 0.073969
0.000000 0.000000 0.059881
0.000000 0.000000 0.048795
0.000000 0.000000 0.040847
0.000000 0.000000 0.036094
0.000000 0.000000 0.034505
0.000000 0.000000 0.035966
0.000000 0.000000 0.040280
0.000000 0.000000 0.047164
0.000000 0.000000 0.056250
0.000000 0.000000 0.067090
0.000000 0.000000 0.079147
0.000000 0.000000 0.091802
0.000000 0.000000 0.104353
0.000000 0.000000 0.116010
0.000000 0.000000 0.125903
0.000000 0.000000 0.133075
0.000000 0.000000 0.136486
0.000000 0.000000 0.135012
0.000000 0.000000 0.127443
0.000000 0.000000 0.112486
0.000000 0.000000 0.088765
0.000000 0.000000 0.054819
0.000000 0.000000 0.009100
0.000000 0.037384 0.000000
0.000000 0.126897 0.000000
0.000000 0.230310 0.000000
0.000000 0.348765 0.000000
0.000000 0.483441 0.000000
0.000000 0.635551 0.000000
0.000000 0.000000 0.208799
0.000000 0.000000 0.194214
0.000000 0.000000 0.181387
0.000000 0.000000 0.170698
0.000000 0.000000 0.162445
0.000000 0.000000 0.156842
0.000000 0.000000 0.154015
0.000000 0.000000 0.154011
0.000000 0.000000 0.156788
0.000000 0.000000 0.162224
0.000000 0.000000 0.170110
0.000000 0.000000 0.180153
0.000000 0.000000 0.191976
0.000000 0.000000 0.205120
0.000000 0.000000 0.219038
0.000000 0.000000 0.233102
0.000000 0.000000 0.246597
0.000000 0.000000 0.258727
0.000000 0.000000 0.268608
0.000000 0.000000 0.275275
0.000000 0.000000 0.277678
0.000000 0.000000 0.274681
0.000000 0.000000 0.265066
0.000000 0.000000 0.247530
0.000000 0.000000 0.220686
0.000000 0.000000 0.183061
0.000000 0.000000 0.133101
0.000000 0.073559 0.069164
0.000000 0.159473 0.000000
0.000000 0.258705 0.000000
0.000000 0.372364 0.000000
0.000000 0.501596 0.000000
0.000000 0.647583 0.000000
0.000000 0.000000 0.272661
0.000000 0.000000 0.264709
0.000000 0.000000 0.258178
0.000000 0.000000 0.253440
0.000000 0.000000 0.250781
0.000000 0.000000 0.250404
0.000000 0.000000 0.252427
0.000000 0.000000 0.256886
0.000000 0.000000 0.263730
0.000000 0.000000 0.272825
0.000000 0.000000 0.283952
0.000000 0.000000 0.296809
0.000000 0.000000 0.311010
0.000000 0.000000 0.326083
0.000000 0.000000 0.341473
0.000000 0.000000 0.356540
0.000000 0.000000 0.370562
0.000000 0.000000 0.382729
0.000000 0.000000 0.392151
0.000000 0.000000 0.397849
0.000000 0.000000 0.398765
0.000000 0.000000 0.393753
0.000000 0.000000 0.381585
0.000000 0.000000 0.360946
0.000000 0.000000 0.330440
0.000000 0.000000 0.288585
0.000000 0.037600 0.233815
0.000000 0.107676 0.164480
0.000000 0.189419 0.078846
0.000000 0.283869 0.000000
0.000000 0.392102 0.000000
0.000000 0.515232 0.000000
0.000000 0.654410 0.000000
0.000000 0.000000 0.323859
0.000000 0.000000 0.322334
0.000000 0.000000 0.321878
0.000000 0.000000 0.322854
0.000000 0.000000 0.325539
0.000000 0.000000 0.330123
0.000000 0.000000 0.336717
0.000000 0.000000 0.345344
0.000000 0.000000 0.355944
0.000000 0.000000 0.368374
0.000000 0.000000 0.382404
0.000000 0.000000 0.397721
0.000000 0.000000 0.413930
0.000000 0.000000 0.430549
0.000000 0.000000 0.447012
0.000000 0.000000 0.462670
0.000000 0.000000 0.476789
0.000000 0.000000 0.488551
0.000000 0.000000 0.497055
0.000000 0.000000 0.501312
0.000000 0.000000 0.500254
0.000000 0.000000 0.492724
0.000000 0.000000 0.477485
0.000000 0.000000 0.453212
0.000000 0.000000 0.418498
0.000000 0.017358 0.371851
0.000000 0.073191 0.311695
0.000000 0.139113 0.236371
0.000000 0.216094 0.144133
0.000000 0.305142 0.033153
0.000000 0.407301 0.000000
0.000000 0.523653 0.000000
0.000000 0.655316 0.000000
0.000000 0.000000 0.363247
0.000000 0.000000 0.367933
0.000000 0.000000 0.373324
0.000000 0.000000 0.379770
0.000000 0.000000 0.387538
0.000000 0.000000 0.396810
0.000000 0.000000 0.407685
0.000000 0.000000 0.420176
0.000000 0.000000 0.434214
0.000000 0.000000 0.449644
0.000000 0.000000 0.466228
0.000000 0.000000 0.483643
0.000000 0.000000 0.501482
0.000000 0.000000 0.519253
0.000000 0.000000 0.536382
0.000000 0.000000 0.552208
0.000000 0.000000 0.565988
0.000000 0.000000 0.576893
0.000000 0.000000 0.584011
0.000000 0.000000 0.586346
0.000000 0.000000 0.582817
0.000000 0.000000 0.572258
0.000000 0.000000 0.553422
0.000000 0.000000 0.524973
0.000000 0.011173 0.485495
0.000000 0.054290 0.433486
0.000000 0.105991 0.367359
0.000000 0.167178 0.285444
0.000000 0.238788 0.185987
0.000000 0.321796 0.067149
0.000000 0.417215 0.000000
0.000000 0.526093 0.000000
0.000000 0.649517 0.000000
0.000000 0.000000 0.391847
0.000000 0.000000 0.402522
0.000000 0.000000 0.413520
0.000000 0.000000 0.425181
0.000000 0.000000 0.437764
0.000000 0.000000 0.451440
0.000000 0.000000 0.466298
0.000000 0.000000 0.482340
0.000000 0.000000 0.499488
0.000000 0.000000 0.517577
0.000000 0.000000 0.536357
0.000000 0.000000 0.555497
0.000000 0.000000 0.574579
0.000000 0.000000 0.593101
0.000000 0.000000 0.610478
0.000000 0.000000 0.626041
0.000000 0.000000 0.639034
0.000000 0.000000 0.648621
0.000000 0.000000 0.653879
0.000000 0.000000 0.653800
0.000000 0.000000 0.647294
0.000000 0.000000 0.633186
0.000000 0.000000 0.610217
0.000000 0.017383 0.577043
0.000000 0.049245 0.532236
0.000000 0.088261 0.474284
0.000000 0.135260 0.401591
0.000000 0.191112 0.312477
0.000000 0.256723 0.205177
0.000000 0.333034 0.077842
0.000000 0.421027 0.000000
0.000000 0.521718 0.000000
0.000000 0.636160 0.000000
0.000000 0.000000 0.410850
0.000000 0.000000 0.427279
0.000000 0.000000 0.443635
0.000000 0.000000 0.460251
0.000000 0.000000 0.477371
0.000000 0.000000 0.495158
0.000000 0.000000 0.513691
0.000000 0.000000 0.532963
0.000000 0.000000 0.552884
0.000000 0.000000 0.573279
0.000000 0.000000 0.593889
0.000000 0.000000 0.614372
0.000000 0.000000 0.634300
0.000000 0.000000 0.653162
0.000000 0.000000 0.670362
0.000000 0.000000 0.685221
0.000000 0.000000 0.696973
0.000000 0.000000 0.704771
0.000000 0.000000 0.707682
0.000000 0.000000 0.704690
0.000000 0.004840 0.694693
0.000000 0.017392 0.676506
0.000000 0.034326 0.648859
0.000000 0.056329 0.610400
0.000000 0.084126 0.559690
0.000000 0.118479 0.495207
0.000000 0.160187 0.415345
0.000000 0.210086 0.318413
0.000000 0.269050 0.202636
0.000000 0.337990 0.066156
0.000000 0.417853 0.000000
0.000000 0.509623 0.000000
0.000000 0.614324 0.000000
0.000000 0.000000 0.421611
0.000000 0.000000 0.443552
0.000000 0.011475 0.465010
0.000000 0.021485 0.486307
0.000000 0.029901 0.507677
0.000000 0.036711 0.529274
0.000000 0.041937 0.551166
0.000000 0.045641 0.573336
0.004224 0.047921 0.595684
0.009011 0.048913 0.618024
0.010742 0.048790 0.640089
0.009434 0.047760 0.661525
0.005130 0.046072 0.681894
0.000000 0.044009 0.700676
0.000000 0.041892 0.717264
0.000000 0.040079 0.730968
0.000000 0.038966 0.741014
0.000000 0.038986 0.746544
0.000000 0.040608 0.746615
0.000000 0.044339 0.740199
0.000000 0.050723 0.726187
0.000000 0.060342 0.703382
0.000000 0.073813 0.670506
0.000000 0.091792 0.626193
0.000000 0.114973 0.568997
0.000000 0.144084 0.497385
0.000000 0.179892 0.409740
0.000000 0.223202 0.304362
0.000000 0.274855 0.179467
0.000000 0.335728 0.033184
0.000000 0.406739 0.000000
0.000000 0.488838 0.000000
0.000000 0.583017 0.000000
0.000000 0.030861 0.425654
0.000000 0.044837 0.452856
0.000000 0.057443 0.479150
0.000000 0.068560 0.504846
0.000000 0.078106 0.530171
0.000000 0.086035 0.555267
0.000000 0.092339 0.580192
0.011657 0.097047 0.604920
0.022304 0.100225 0.629339
0.029607 0.101976 0.653255
0.033540 0.102440 0.676389
0.034097 0.101796 0.698378
0.031297 0.100257 0.718775
0.025182 0.098075 0.737046
0.015816 0.095541 0.752578
0.003289 0.092978 0.764669
0.000000 0.090752 0.772536
0.000000 0.089261 0.775309
0.000000 0.088945 0.772036
0.000000 0.090277 0.761679
0.000000 0.093769 0.743119
0.000000 0.099970 0.715148
0.000000 0.109466 0.676478
0.000000 0.122882 0.625735
0.000000 0.140876 0.561460
0.000000 0.164146 0.482112
0.000000 0.193428 0.386063
0.000000 0.229493 0.271603
0.000000 0.273151 0.136937
0.000000 0.325246 0.000000
0.000000 0.386663 0.000000
0.000000 0.458322 0.000000
0.000000 0.541180 0.000000
0.000000 0.075115 0.424670
0.000000 0.090126 0.456872
0.000000 0.103826 0.487726
0.000000 0.116063 0.517532
0.000000 0.126722 0.546507
0.000000 0.135725 0.574782
0.008329 0.143034 0.602406
0.024872 0.148643 0.629341
0.037830 0.152587 0.655468
0.047129 0.154937 0.680580
0.052715 0.155801 0.704390
0.054562 0.155325 0.726523
0.052664 0.153690 0.746523
0.047040 0.151117 0.763847
0.037731 0.147862 0.777869
0.024802 0.144219 0.787879
0.008341 0.140519 0.793082
0.000000 0.137131 0.792601
0.000000 0.134459 0.785472
0.000000 0.132946 0.770647
0.000000 0.133072 0.746996
0.000000 0.135353 0.713303
0.000000 0.140344 0.668268
0.000000 0.148635 0.610508
0.000000 0.160855 0.538553
0.000000 0.177669 0.450852
0.000000 0.199779 0.345768
0.000000 0.227925 0.221580
0.000000 0.262884 0.076483
0.000000 0.305470 0.000000
0.000000 0.356534 0.000000
0.000000 0.416964 0.000000
0.000000 0.487685 0.000000
0.000000 0.119074 0.420516
0.000000 0.135170 0.457449
0.000000 0.149985 0.492578
0.000000 0.163334 0.526195
0.000000 0.175071 0.558505
0.000000 0.185086 0.589631
0.018002 0.193306 0.619609
0.036654 0.199696 0.648394
0.051401 0.204257 0.675855
0.062145 0.207028 0.701776
0.068810 0.208085 0.725858
0.071346 0.207541 0.747718
0.069722 0.205547 0.766888
0.063935 0.202290 0.782816
0.054002 0.197994 0.794866
0.039963 0.192921 0.802318
0.021884 0.187369 0.804367
0.000000 0.181676 0.800124
0.000000 0.176213 0.788617
0.000000 0.171392 0.768788
0.000000 0.167659 0.739495
0.000000 0.165500 0.699514
0.000000 0.165435 0.647533
0.000000 0.168024 0.582160
0.000000 0.173862 0.501915
0.000000 0.183583 0.405236
0.000000 0.197858 0.290476
0.000000 0.217393 0.155905
0.000000 0.242932 0.000000
0.000000 0.275259 0.000000
0.000000 0.315191 0.000000
0.000000 0.363585 0.000000
0.000000 0.421334 0.000000
0.000000 0.162065 0.415219
0.000000 0.179279 0.456603
0.000000 0.195212 0.495714
0.000000 0.209649 0.532833
0.000000 0.222410 0.568156
0.003113 0.233353 0.601794
0.027457 0.242374 0.633774
0.047695 0.249405 0.664041
0.063682 0.254414 0.692452
0.075296 0.257410 0.718784
0.082438 0.258435 0.742727
0.085034 0.257570 0.763886
0.083030 0.254934 0.781785
0.076399 0.250681 0.795861
0.065133 0.245004 0.805468
0.049251 0.238133 0.809875
0.028794 0.230333 0.808269
0.003826 0.221910 0.799749
0.000000 0.213203 0.783333
0.000000 0.204590 0.757954
0.000000 0.196488 0.722459
0.000000 0.189347 0.675614
0.000000 0.183659 0.616097
0.000000 0.179948 0.542506
0.000000 0.178780 0.453351
0.000000 0.180755 0.347060
0.000000 0.186511 0.221975
0.000000 0.196723 0.076357
0.000000 0.212104 0.000000
0.000000 0.233403 0.000000
0.000000 0.261407 0.000000
0.000000 0.296940 0.000000
0.000000 0.340862 0.000000
0.000000 0.203350 0.410970
0.000000 0.221694 0.456517
0.000000 0.238731 0.499308
0.000000 0.254211 0.539611
0.000000 0.267924 0.577614
0.011754 0.279695 0.613416
0.037483 0.289387 0.647037
0.058758 0.296900 0.678409
0.075409 0.302172 0.707380
0.087291 0.305176 0.733716
0.094282 0.305925 0.757098
0.096282 0.304467 0.777121
0.093217 0.300887 0.793297
0.085033 0.295310 0.805055
0.071702 0.287894 0.811738
0.053216 0.278837 0.812606
0.029594 0.268374 0.806834
0.000876 0.256776 0.793512
0.000000 0.244352 0.771647
0.000000 0.231447 0.740163
0.000000 0.218445 0.697897
0.000000 0.205766 0.643604
0.000000 0.193867 0.575952
0.000000 0.183242 0.493529
0.000000 0.174423 0.394836
0.000000 0.167979 0.278288
0.000000 0.164515 0.142221
0.000000 0.164675 0.000000
0.000000 0.169139 0.000000
0.000000 0.178624 0.000000
0.000000 0.193884 0.000000
0.000000 0.215711 0.000000
0.000000 0.244934 0.000000
0.000000 0.242119 0.410127
0.000000 0.261589 0.459542
0.000000 0.279695 0.505700
0.000000 0.296157 0.548861
0.000000 0.310730 0.589202
0.022377 0.323209 0.626813
0.048941 0.333424 0.661703
0.070676 0.341243 0.693793
0.087388 0.346572 0.722924
0.098909 0.349351 0.748849
0.105093 0.349561 0.771239
0.105817 0.347218 0.789680
0.100982 0.342376 0.803675
0.090512 0.335125 0.812640
0.074353 0.325594 0.815910
0.052477 0.313947 0.812733
0.024876 0.300386 0.802276
0.000000 0.285151 0.783617
0.000000 0.268519 0.755756
0.000000 0.250802 0.717603
0.000000 0.232352 0.667987
0.000000 0.213557 0.605652
0.000000 0.194842 0.529258
0.000000 0.176668 0.437380
0.000000 0.159536 0.328510
0.000000 0.143982 0.201054
0.000000 0.130579 0.053336
0.000000 0.119938 0.000000
0.000000 0.112708 0.000000
0.000000 0.109573 0.000000
0.000000 0.111255 0.000000
0.000000 0.118514 0.000000
0.000000 0.132146 0.000000
0.000000 0.277497 0.415219
0.000000 0.298068 0.468194
0.000000 0.317191 0.517399
0.000000 0.334553 0.563082
0.004122 0.349877 0.605411
0.035937 0.362926 0.644466
0.062761 0.373497 0.680244
0.084353 0.381427 0.712658
0.100497 0.386588 0.741538
0.111002 0.388890 0.766627
0.115697 0.388280 0.787586
0.114436 0.384743 0.803992
0.107096 0.378300 0.815335
0.093577 0.369009 0.821023
0.073804 0.356966 0.820381
0.047723 0.342304 0.812647
0.015303 0.325194 0.796975
0.000000 0.305841 0.772438
0.000000 0.284490 0.738021
0.000000 0.261424 0.692626
0.000000 0.236959 0.635073
0.000000 0.211453 0.564094
0.000000 0.185297 0.478339
0.000000 0.158923 0.376375
0.000000 0.132796 0.256681
0.000000 0.107422 0.117655
0.000000 0.083341 0.000000
0.000000 0.061133 0.000000
0.000000 0.041413 0.000000
0.000000 0.024833 0.000000
0.000000 0.012085 0.000000
0.000000 0.003895 0.000000
0.000000 0.001027 0.000000
0.000000 0.308536 0.428938
0.000000 0.330167 0.485159
0.000000 0.350235 0.537080
0.000000 0.368398 0.584941
0.021587 0.384345 0.628897
0.053463 0.397806 0.669021
0.079942 0.408549 0.705298
0.100761 0.416375 0.737633
0.115682 0.421126 0.765843
0.124487 0.422679 0.789662
0.126984 0.420950 0.808742
0.123003 0.415891 0.822648
0.112397 0.407489 0.830862
0.095043 0.395773 0.832780
0.070840 0.380805 0.827718
0.039713 0.362686 0.814903
0.001607 0.341554 0.793481
0.000000 0.317583 0.762512
0.000000 0.290987 0.720972
0.000000 0.262013 0.667754
0.000000 0.230948 0.601666
0.000000 0.198116 0.521432
0.000000 0.163878 0.425691
0.000000 0.128631 0.312998
0.000000 0.092810 0.181824
0.000000 0.056887 0.030557
0.000000 0.021372 0.000000
0.000000 0.000000 0.000000
0.000000 0.000000 0.000000
0.000000 0.000000 0.000000
0.000000 0.000000 0.000000
0.000000 0.000000 0.000000
0.000000 0.000000 0.000000
0.000000 0.334222 0.454146
0.000000 0.356851 0.513287
0.000000 0.377776 0.567585
0.007867 0.396620 0.617270
0.044717 0.413044 0.662486
0.076050 0.426743 0.703295
0.101554 0.437452 0.739673
0.120945 0.444942 0.771514
0.133959 0.449022 0.798626
0.140356 0.449537 0.820733
0.139920 0.446370 0.837476
0.132456 0.439441 0.848410
0.117795 0.428707 0.853007
0.095790 0.414161 0.850654
0.066318 0.395835 0.840654
0.029277 0.373798 0.822227
0.000000 0.348154 0.794507
0.000000 0.319048 0.756545
0.000000 0.286658 0.707306
0.000000 0.251201 0.645674
0.000000 0.212932 0.570446
0.000000 0.172143 0.480335
0.000000 0.129160 0.373972
0.000000 0.084351 0.249900
0.000000 0.038117 0.106582
0.000000 0.000000 0.000000
0.000000 0.000000 0.000000
0.000000 0.000000 0.000000
0.000000 0.000000 0.000000
0.000000 0.000000 0.000000
0.000000 0.000000 0.000000
0.000000 0.000000 0.000000
0.000000 0.000000 0.000000
0.000000 0.353472 0.493869
0.000000 0.377019 0.555598
0.000000 0.398692 0.611926
0.038596 0.418082 0.663070
0.074706 0.434816 0.709168
0.104865 0.448558 0.750269
0.128739 0.459012 0.786341
0.146018 0.465915 0.817266
0.156416 0.469044 0.842843
0.159668 0.468213 0.862786
0.155536 0.463271 0.876725
0.143801 0.454107 0.884205
0.124271 0.440645 0.884689
0.096774 0.422847 0.877552
0.061163 0.400712 0.862090
0.017314 0.374277 0.837509
0.000000 0.343614 0.802936
0.000000 0.308834 0.757410
0.000000 0.270085 0.699887
0.000000 0.227552 0.629241
0.000000 0.181456 0.544257
0.000000 0.132057 0.443640
0.000000 0.079651 0.326010
0.000000 0.024571 0.189901
0.000000 0.000000 0.033764
0.000000 0.000000 0.000000
0.000000 0.000000 0.000000
0.000000 0.000000 0.000000
0.000000 0.000000 0.000000
0.000000 0.000000 0.000000
0.000000 0.000000 0.000000
0.000000 0.000000 0.000000
0.000000 0.000000 0.000000
0.000000 0.365133 0.551304
0.000000 0.389500 0.615278
0.037308 0.411794 0.673277
0.078079 0.431574 0.725510
0.112818 0.448434 0.772102
0.141146 0.462008 0.813094
0.162705 0.471964 0.848442
0.177163 0.478010 0.878020
0.184208 0.479891 0.901616
0.183554 0.477386 0.918934
0.174936 0.470314 0.929592
0.158115 0.458531 0.933128
0.132873 0.441928 0.928993
0.099016 0.420437 0.916553
0.056372 0.394023 0.895092
0.004794 0.362691 0.863809
0.000000 0.326482 0.821817
0.000000 0.285474 0.768148
0.000000 0.239782 0.701747
0.000000 0.189559 0.621476
0.000000 0.134995 0.526113
0.000000 0.076317 0.414352
0.000000 0.013788 0.284800
0.000000 0.000000 0.135985
0.000000 0.000000 0.000000
0.000000 0.000000 0.000000
0.000000 0.000000 0.000000
0.000000 0.000000 0.000000
0.000000 0.000000 0.000000
0.000000 0.000000 0.000000
0.000000 0.000000 0.000000
0.000000 0.000000 0.000000
0.000000 0.000000 0.000000
0.000000 0.367984 0.629812
0.043198 0.393054 0.695680
0.088470 0.415824 0.754984
0.127676 0.435819 0.807923
0.160387 0.452603 0.854613
0.186199 0.465776 0.895085
0.204734 0.474976 0.929285
0.215633 0.479878 0.957075
0.218563 0.480192 0.978234
0.213212 0.475668 0.992456
0.199294 0.466092 0.999350
0.176545 0.451287 0.998442
0.144722 0.431113 0.989173
0.103609 0.405468 0.970900
0.053011 0.374287 0.942897
0.000000 0.337542 0.904351
0.000000 0.295240 0.854367
0.000000 0.247429 0.791966
0.000000 0.194192 0.716082
0.000000 0.135648 0.625569
0.000000 0.071956 0.519194
0.000000 0.003310 0.395639
0.000000 0.000000 0.253505
0.000000 0.000000 0.091305
0.000000 0.000000 0.000000
0.000000 0.000000 0.000000
0.000000 0.000000 0.000000
0.000000 0.000000 0.000000
0.000000 0.000000 0.000000
0.000000 0.000000 0.000000
0.000000 0.000000 0.000000
0.000000 0.000000 0.000000
0.000000 0.000000 0.000000
0.058746 0.360734 0.732923
0.108320 0.386372 0.800323
0.151835 0.409453 0.860557
0.188817 0.429472 0.913813
0.218815 0.445959 0.960196
0.241403 0.458482 0.999727
0.256176 0.466647 1.000000
0.262753 0.470096 1.000000
0.260777 0.468508 1.000000
0.249914 0.461601 1.000000
0.229853 0.449128 1.000000
0.200306 0.430880 1.000000
0.161008 0.406685 1.000000
0.111718 0.376409 1.000000
0.052218 0.339954 1.000000
0.000000 0.297259 0.962528
0.000000 0.248301 0.903969
0.000000 0.193095 0.832238
0.000000 0.131690 0.746260
0.000000 0.064176 0.644877
0.000000 0.000000 0.526847
0.000000 0.000000 0.390842
0.000000 0.000000 0.235452
0.000000 0.000000 0.059181
0.000000 0.000000 0.000000
0.000000 0.000000 0.000000
0.000000 0.000000 0.000000
0.000000 0.000000 0.000000
0.000000 0.000000 0.000000
0.000000 0.000000 0.000000
0.000000 0.000000 0.000000
0.000000 0.000000 0.000000
0.000000 0.000000 0.000000
0.140203 0.342026 0.864333
0.187830 0.368077 0.932896
0.228929 0.391287 0.993674
0.263003 0.411118 1.000000
0.289578 0.427067 1.000000
0.308203 0.438672 1.000000
0.318450 0.445505 1.000000
0.319916 0.447176 1.000000
0.312219 0.443333 1.000000
0.295000 0.433660 1.000000
0.267927 0.417879 1.000000
0.230686 0.395748 1.000000
0.182990 0.367063 1.000000
0.124575 0.331658 1.000000
0.055197 0.289403 1.000000
0.000000 0.240205 1.000000
0.000000 0.184008 0.974174
0.000000 0.120795 0.892506
0.000000 0.050584 0.795812
0.000000 0.000000 0.682922
0.000000 0.000000 0.552586
0.000000 0.000000 0.403465
0.000000 0.000000 0.234138
0.000000 0.000000 0.043101
0.000000 0.000000 0.000000
0.000000 0.000000 0.000000
0.000000 0.000000 0.000000
0.000000 0.000000 0.000000
0.000000 0.000000 0.000000
0.000000 0.000000 0.000000
0.000000 0.000000 0.000000
0.000000 0.000000 0.000000
0.000000 0.000000 0.000000
0.238331 0.310430 1.000000
0.283352 0.336723 1.000000
0.321350 0.359860 1.000000
0.351805 0.379273 1.000000
0.374219 0.394427 1.000000
0.388117 0.404827 1.000000
0.393049 0.410012 1.000000
0.388586 0.409561 1.000000
0.374323 0.403089 1.000000
0.349880 0.390249 1.000000
0.314898 0.370730 1.000000
0.269042 0.344257 1.000000
0.211999 0.310596 1.000000
0.143483 0.269547 1.000000
0.063227 0.220948 1.000000
0.000000 0.164673 1.000000
0.000000 0.100636 1.000000
0.000000 0.028786 0.976479
0.000000 0.000000 0.868437
0.000000 0.000000 0.743396
0.000000 0.000000 0.600092
0.000000 0.000000 0.437179
0.000000 0.000000 0.253226
0.000000 0.000000 0.046717
0.000000 0.000000 0.000000
0.000000 0.000000 0.000000
0.000000 0.000000 0.000000
0.000000 0.000000 0.000000
0.000000 0.000000 0.000000
0.000000 0.000000 0.000000
0.000000 0.000000 0.000000
0.000000 0.000000 0.000000
0.000000 0.000000 0.000000
0.354851 0.264452 1.000000
0.396580 0.290794 1.000000
0.430766 0.313639 1.000000
0.456864 0.332386 1.000000
0.474352 0.346467 1.000000
0.482733 0.355355 1.000000
0.481532 0.358559 1.000000
0.470296 0.355624 1.000000
0.448599 0.346132 1.000000
0.416034 0.329705 1.000000
0.372221 0.305998 1.000000
0.316800 0.274708 1.000000
0.249435 0.235564 1.000000
0.169816 0.188336 1.000000
0.077653 0.132830 1.000000
0.000000 0.068888 1.000000
0.000000 0.000000 1.000000
0.000000 0.000000 1.000000
0.000000 0.000000 0.968003
0.000000 0.000000 0.830155
0.000000 0.000000 0.673215
0.000000 0.000000 0.495826
0.000000 0.000000 0.296547
0.000000 0.000000 0.073852
0.000000 0.000000 0.000000
0.000000 0.000000 0.000000
0.000000 0.000000 0.000000
0.000000 0.000000 0.000000
0.000000 0.000000 0.000000
0.000000 0.000000 0.000000
0.000000 0.000000 0.000000
0.000000 0.000000 0.000000
0.000000 0.000000 0.000000
0.491553 0.202525 1.000000
0.529280 0.228707 1.000000
0.558915 0.251021 1.000000
0.579891 0.268834 1.000000
0.591662 0.281548 1.000000
0.593708 0.288601 1.000000
0.585529 0.289470 1.000000
0.566652 0.283668 1.000000
0.536622 0.270747 1.000000
0.495013 0.250294 1.000000
0.441419 0.221934 1.000000
0.375457 0.185329 1.000000
0.296769 0.140179 1.000000
0.205018 0.086220 1.000000
0.099893 0.023225 1.000000
0.000000 0.000000 1.000000
0.000000 0.000000 1.000000
0.000000 0.000000 1.000000
0.000000 0.000000 1.000000
0.000000 0.000000 0.947225
0.000000 0.000000 0.775970
0.000000 0.000000 0.583411
0.000000 0.000000 0.368098
0.000000 0.000000 0.128494
0.000000 0.000000 0.000000
0.000000 0.000000 0.000000
0.000000 0.000000 0.000000
