public/luts/ayon_200.cube
# Generated from ColorChecker fit
LUT_3D_SIZE 33
DOMAIN_MIN 0.0 0.0 0.0
DOMAIN_MAX 1.0 1.0 1.0
0.012071 0.000000 0.020252
0.011978 0.000000 0.020520
0.011314 0.000000 0.020052
0.010257 0.000000 0.019154
0.009029 0.000433 0.018170
0.007834 0.001571 0.017360
0.006800 0.002662 0.016814
0.005968 0.003584 0.016439
0.005300 0.004229 0.016017
0.004719 0.004535 0.015308
0.004151 0.004488 0.014150
0.003554 0.004135 0.012515
0.002927 0.003560 0.010517
0.002298 0.002872 0.008359
0.001711 0.002174 0.006268
0.001204 0.001545 0.004428
0.000800 0.001032 0.002943
0.000500 0.000648 0.001841
0.000295 0.000383 0.001083
0.000164 0.000213 0.000599
0.000086 0.000111 0.000312
0.000042 0.000055 0.000153
0.000020 0.000026 0.000070
0.000009 0.000011 0.000031
0.000004 0.000005 0.000013
0.000001 0.000002 0.000005
0.000001 0.000001 0.000002
0.000000 0.000000 0.000001
0.000000 0.000000 0.000000
0.000000 0.000000 0.000000
0.000000 0.000000 0.000000
0.000000 0.000000 0.000000
0.000000 0.000000 0.000000
0.015370 0.000000 0.025841
0.015327 0.000000 0.026455
0.014596 0.000000 0.026265
0.013403 0.000009 0.025667
0.012025 0.001520 0.025079
0.010705 0.003152 0.024780
0.009587 0.004729 0.024805
0.008695 0.006064 0.024940
0.007956 0.006994 0.024817
0.007256 0.007410 0.024063
0.006495 0.007288 0.022450
0.005627 0.006692 0.019972
0.004670 0.005753 0.016845
0.003686 0.004640 0.013422
0.002755 0.003513 0.010082
0.001945 0.002500 0.007131
0.001295 0.001672 0.004747
0.000813 0.001053 0.002973
0.000481 0.000623 0.001752
0.000268 0.000348 0.000971
0.000141 0.000183 0.000507
0.000070 0.000091 0.000249
0.000033 0.000042 0.000115
0.000015 0.000019 0.000050
0.000006 0.000008 0.000021
0.000002 0.000003 0.000008
0.000001 0.000001 0.000003
0.000000 0.000000 0.000001
0.000000 0.000000 0.000000
0.000000 0.000000 0.000000
0.000000 0.000000 0.000000
0.000000 0.000000 0.000000
0.000000 0.000000 0.000000
0.018422 0.000000 0.031101
0.018485 0.000000 0.032248
0.017779 0.000000 0.032632
0.016577 0.001178 0.032733
0.015201 0.003241 0.033022
0.013922 0.005485 0.033758
0.012880 0.007668 0.034864
0.012063 0.009522 0.035943
0.011348 0.010803 0.036413
0.010571 0.011347 0.035730
0.009605 0.011111 0.033587
0.008406 0.010179 0.030022
0.007023 0.008744 0.025398
0.005571 0.007053 0.020279
0.004180 0.005345 0.015258
0.002961 0.003809 0.010809
0.001979 0.002554 0.007207
0.001247 0.001611 0.004522
0.000741 0.000958 0.002670
0.000416 0.000536 0.001485
0.000220 0.000283 0.000777
0.000110 0.000141 0.000384
0.000052 0.000067 0.000178
0.000023 0.000030 0.000078
0.000010 0.000012 0.000032
0.000004 0.000005 0.000013
0.000002 0.000002 0.000005
0.000001 0.000001 0.000002
0.000000 0.000000 0.000001
0.000000 0.000000 0.000000
0.000000 0.000000 0.000000
0.000000 0.000000 0.000000
0.000000 0.000000 0.000000
0.020790 0.000000 0.035343
0.021019 0.000000 0.037226
0.020460 0.000707 0.038527
0.019421 0.002935 0.039798
0.018256 0.005638 0.041527
0.017239 0.008592 0.043898
0.016482 0.011481 0.046660
0.015919 0.013940 0.049163
0.015357 0.015629 0.050558
0.014573 0.016313 0.050093
0.013413 0.015921 0.047376
0.011843 0.014565 0.042511
0.009957 0.012510 0.036057
0.007935 0.010096 0.028847
0.005978 0.007662 0.021742
0.004252 0.005472 0.015430
0.002853 0.003679 0.010308
0.001807 0.002330 0.006483
0.001080 0.001391 0.003840
0.000610 0.000783 0.002142
0.000325 0.000417 0.001127
0.000164 0.000209 0.000559
0.000079 0.000100 0.000262
0.000036 0.000045 0.000116
0.000015 0.000019 0.000048
0.000006 0.000008 0.000019
0.000002 0.000003 0.000007
0.000001 0.000001 0.000003
0.000000 0.000000 0.000001
0.000000 0.000000 0.000000
0.000000 0.000000 0.000000
0.000000 0.000000 0.000000
0.000000 0.000000 0.000000
0.022091 0.000000 0.037977
0.022539 0.000369 0.040776
0.022253 0.002443 0.043326
0.021565 0.005237 0.046225
0.020834 0.008628 0.049929
0.020314 0.012348 0.054495
0.020067 0.015998 0.059434
0.019948 0.019108 0.063791
0.019684 0.021232 0.066410
0.018988 0.022054 0.066310
0.017676 0.021473 0.063018
0.015732 0.019629 0.056725
0.013306 0.016864 0.048224
0.010657 0.013627 0.038654
0.008066 0.010363 0.029189
0.005765 0.007422 0.020758
0.003890 0.005009 0.013903
0.002479 0.003187 0.008771
0.001492 0.001914 0.005214
0.000850 0.001086 0.002922
0.000458 0.000582 0.001545
0.000234 0.000296 0.000772
0.000113 0.000142 0.000364
0.000052 0.000065 0.000163
0.000023 0.000028 0.000069
0.000009 0.000012 0.000028
0.000004 0.000005 0.000011
0.000001 0.000002 0.000004
0.000001 0.000001 0.000001
0.000000 0.000000 0.000000
0.000000 0.000000 0.000000
0.000000 0.000000 0.000000
0.000000 0.000000 0.000000
0.022092 0.000356 0.038663
0.022785 0.002056 0.042498
0.022870 0.004577 0.046547
0.022686 0.007938 0.051415
0.022576 0.012010 0.057480
0.022751 0.016482 0.064616
0.023198 0.020877 0.072061
0.023687 0.024621 0.078527
0.023855 0.027160 0.082546
0.023352 0.028100 0.082916
0.021966 0.027308 0.079096
0.019701 0.024953 0.071381
0.016767 0.021455 0.060807
0.013504 0.017367 0.048836
0.010279 0.013245 0.036958
0.007392 0.009521 0.026351
0.005022 0.006457 0.017705
0.003226 0.004134 0.011213
0.001960 0.002501 0.006699
0.001128 0.001432 0.003777
0.000615 0.000776 0.002012
0.000319 0.000399 0.001013
0.000157 0.000194 0.000483
0.000073 0.000090 0.000218
0.000033 0.000040 0.000094
0.000014 0.000017 0.000038
0.000006 0.000007 0.000015
0.000002 0.000003 0.000005
0.000001 0.000001 0.000002
0.000000 0.000000 0.000001
0.000000 0.000000 0.000000
0.000000 0.000000 0.000000
0.000000 0.000000 0.000000
0.020767 0.001955 0.037413
0.021684 0.004002 0.042318
0.022175 0.006949 0.047974
0.022570 0.010830 0.054948
0.023177 0.015509 0.063497
0.024146 0.020638 0.073277
0.025385 0.025672 0.083242
0.026575 0.029949 0.091796
0.027273 0.032823 0.097193
0.027066 0.033834 0.098051
0.025720 0.032825 0.093788
0.023254 0.029989 0.084809
0.019930 0.025813 0.072379
0.016160 0.020945 0.058250
0.012388 0.016030 0.044194
0.008978 0.011580 0.031612
0.006153 0.007902 0.021325
0.003992 0.005099 0.013575
0.002454 0.003114 0.008160
0.001430 0.001802 0.004636
0.000792 0.000989 0.002491
0.000416 0.000515 0.001268
0.000208 0.000255 0.000612
0.000099 0.000120 0.000280
0.000045 0.000054 0.000122
0.000019 0.000023 0.000050
0.000008 0.000009 0.000020
0.000003 0.000004 0.000007
0.000001 0.000001 0.000003
0.000000 0.000000 0.000001
0.000000 0.000000 0.000000
0.000000 0.000000 0.000000
0.000000 0.000000 0.000000
0.018289 0.003693 0.034596
0.019356 0.006072 0.040516
0.020203 0.009398 0.047723
0.021139 0.013709 0.056703
0.022428 0.018859 0.067547
0.024158 0.024471 0.079689
0.026166 0.029950 0.091826
0.028058 0.034572 0.102119
0.029325 0.037635 0.108628
0.029506 0.038637 0.109869
0.028343 0.037411 0.105262
0.025862 0.034171 0.095316
0.022353 0.029452 0.081479
0.018280 0.023966 0.065718
0.014140 0.018423 0.050009
0.010349 0.013389 0.035912
0.007172 0.009207 0.024350
0.004711 0.005997 0.015599
0.002936 0.003703 0.009450
0.001738 0.002171 0.005419
0.000978 0.001209 0.002945
0.000523 0.000640 0.001518
0.000266 0.000323 0.000743
0.000129 0.000155 0.000346
0.000060 0.000071 0.000153
0.000026 0.000031 0.000064
0.000011 0.000013 0.000026
0.000004 0.000005 0.000010
0.000002 0.000002 0.000004
0.000001 0.000001 0.000001
0.000000 0.000000 0.000000
0.000000 0.000000 0.000000
0.000000 0.000000 0.000000
0.014981 0.005479 0.030853
0.016069 0.008170 0.037670
0.017131 0.011815 0.046235
0.018452 0.016441 0.056905
0.020254 0.021887 0.069582
0.022577 0.027751 0.083487
0.025207 0.033414 0.097124
0.027706 0.038126 0.108513
0.029523 0.041174 0.115643
0.030164 0.042053 0.117030
0.029347 0.040604 0.112153
0.027082 0.037062 0.101616
0.023663 0.031986 0.086977
0.019565 0.026112 0.070311
0.015310 0.020177 0.053688
0.011347 0.014768 0.038738
0.007973 0.010248 0.026430
0.005316 0.006749 0.017065
0.003367 0.004222 0.010437
0.002027 0.002511 0.006052
0.001161 0.001421 0.003331
0.000633 0.000765 0.001742
0.000328 0.000392 0.000866
0.000162 0.000192 0.000410
0.000076 0.000089 0.000185
0.000034 0.000039 0.000079
0.000014 0.000016 0.000032
0.000006 0.000007 0.000013
0.000002 0.000002 0.000005
0.000001 0.000001 0.000002
0.000000 0.000000 0.000001
0.000000 0.000000 0.000000
0.000000 0.000000 0.000000
0.011228 0.007269 0.026944
0.012172 0.010258 0.034517
0.013239 0.014168 0.044169
0.014696 0.018999 0.056088
0.016737 0.024559 0.069969
0.019377 0.030428 0.084847
0.022390 0.035984 0.099113
0.025326 0.040499 0.110768
0.027625 0.043292 0.117872
0.028775 0.043902 0.119058
0.028464 0.042207 0.113926
0.026667 0.038459 0.103165
0.023640 0.033219 0.088364
0.019830 0.027208 0.071587
0.015752 0.021144 0.054870
0.011860 0.015601 0.039811
0.008472 0.010939 0.027363
0.005749 0.007294 0.017832
0.003708 0.004628 0.011028
0.002275 0.002796 0.006479
0.001328 0.001609 0.003619
0.000737 0.000882 0.001923
0.000389 0.000460 0.000973
0.000195 0.000228 0.000469
0.000093 0.000108 0.000215
0.000042 0.000048 0.000094
0.000018 0.000020 0.000039
0.000007 0.000008 0.000015
0.000003 0.000003 0.000006
0.000001 0.000001 0.000002
0.000000 0.000000 0.000001
0.000000 0.000000 0.000000
0.000000 0.000000 0.000000
0.007403 0.009050 0.023565
0.008024 0.012339 0.031770
0.008856 0.016482 0.042236
0.010154 0.021431 0.054943
0.012110 0.026951 0.069372
0.014747 0.032605 0.084406
0.017861 0.037787 0.098403
0.021030 0.041825 0.109464
0.023714 0.044122 0.115851
0.025395 0.044304 0.116429
0.025726 0.042312 0.110980
0.024622 0.038424 0.100271
0.022266 0.033179 0.085854
0.019043 0.027250 0.069672
0.015420 0.021298 0.053610
0.011837 0.015849 0.039136
0.008624 0.011235 0.027125
0.005969 0.007591 0.017864
0.003927 0.004888 0.011188
0.002457 0.003001 0.006668
0.001461 0.001756 0.003784
0.000826 0.000978 0.002045
0.000443 0.000518 0.001052
0.000226 0.000261 0.000516
0.000109 0.000125 0.000240
0.000050 0.000057 0.000107
0.000022 0.000024 0.000045
0.000009 0.000010 0.000018
0.000003 0.000004 0.000007
0.000001 0.000001 0.000002
0.000000 0.000000 0.000001
0.000000 0.000000 0.000000
0.000000 0.000000 0.000000
0.003808 0.010805 0.021188
0.003952 0.014406 0.029941
0.004326 0.018773 0.040989
0.005189 0.023789 0.054087
0.006753 0.029166 0.068502
0.009082 0.034444 0.082998
0.012029 0.039046 0.095963
0.015232 0.042385 0.105693
0.018192 0.043982 0.110755
0.020395 0.043587 0.110333
0.021453 0.041229 0.104441
0.021203 0.037220 0.093926
0.019729 0.032069 0.080256
0.017320 0.026378 0.065175
0.014374 0.020719 0.050324
0.011298 0.015544 0.036967
0.008420 0.011140 0.025851
0.005956 0.007624 0.017218
0.004000 0.004982 0.010929
0.002552 0.003105 0.006612
0.001545 0.001845 0.003813
0.000888 0.001044 0.002095
0.000484 0.000561 0.001097
0.000249 0.000286 0.000546
0.000122 0.000139 0.000258
0.000056 0.000064 0.000116
0.000024 0.000028 0.000049
0.000010 0.000011 0.000020
0.000004 0.000004 0.000008
0.000001 0.000002 0.000003
0.000000 0.000001 0.000001
0.000000 0.000000 0.000000
0.000000 0.000000 0.000000
0.000663 0.012472 0.019971
0.000228 0.016389 0.029202
0.000000 0.020976 0.040649
0.000207 0.026037 0.053838
0.001150 0.031217 0.067834
0.002940 0.036031 0.081307
0.005513 0.039936 0.092721
0.008587 0.042440 0.100620
0.011715 0.043206 0.103934
0.014393 0.042126 0.102216
0.016191 0.039339 0.095741
0.016857 0.035195 0.085442
0.016364 0.030177 0.072679
0.014893 0.024804 0.058956
0.012757 0.019546 0.045629
0.010313 0.014764 0.033707
0.007885 0.010683 0.023776
0.005708 0.007398 0.016015
0.003915 0.004898 0.010301
0.002545 0.003095 0.006325
0.001567 0.001864 0.003704
0.000913 0.001068 0.002068
0.000504 0.000581 0.001099
0.000263 0.000300 0.000555
0.000129 0.000147 0.000266
0.000060 0.000068 0.000121
0.000026 0.000030 0.000052
0.000011 0.000012 0.000021
0.000004 0.000005 0.000008
0.000002 0.000002 0.000003
0.000001 0.000001 0.000001
0.000000 0.000000 0.000000
0.000000 0.000000 0.000000
0.000000 0.013915 0.019732
0.000000 0.018125 0.029350
0.000000 0.022910 0.041027
0.000000 0.027994 0.054079
0.000000 0.032954 0.067395
0.000000 0.037278 0.079580
0.000000 0.040457 0.089197
0.001871 0.042094 0.095053
0.005062 0.041994 0.096447
0.008125 0.040195 0.093304
0.010591 0.036950 0.086165
0.012125 0.032658 0.076044
0.012591 0.027776 0.064196
0.012060 0.022745 0.051883
0.010760 0.017933 0.040164
0.008996 0.013603 0.029790
0.007075 0.009916 0.021169
0.005247 0.006933 0.014405
0.003674 0.004640 0.009379
0.002430 0.002966 0.005837
0.001519 0.001807 0.003466
0.000897 0.001046 0.001962
0.000500 0.000575 0.001056
0.000263 0.000299 0.000540
0.000131 0.000147 0.000262
0.000061 0.000068 0.000120
0.000027 0.000030 0.000052
0.000011 0.000012 0.000021
0.000004 0.000005 0.000008
0.000002 0.000002 0.000003
0.000001 0.000001 0.000001
0.000000 0.000000 0.000000
0.000000 0.000000 0.000000
0.000000 0.014948 0.020033
0.000000 0.019374 0.029873
0.000000 0.024290 0.041572
0.000000 0.029348 0.054277
0.000000 0.034070 0.066746
0.000000 0.037917 0.077549
0.000000 0.040411 0.085358
0.000000 0.041243 0.089229
0.000000 0.040344 0.088793
0.002312 0.037886 0.084308
0.005294 0.034225 0.076546
0.007541 0.029803 0.066592
0.008827 0.025063 0.055607
0.009129 0.020377 0.044631
0.008596 0.016017 0.034457
0.007481 0.012162 0.025593
0.006069 0.008902 0.018278
0.004614 0.006265 0.012538
0.003295 0.004227 0.008246
0.002215 0.002725 0.005189
0.001403 0.001674 0.003118
0.000837 0.000977 0.001785
0.000471 0.000541 0.000971
0.000250 0.000283 0.000501
0.000125 0.000140 0.000245
0.000059 0.000066 0.000113
0.000026 0.000029 0.000050
0.000011 0.000012 0.000020
0.000004 0.000005 0.000008
0.000002 0.000002 0.000003
0.000001 0.000001 0.000001
0.000000 0.000000 0.000000
0.000000 0.000000 0.000000
0.000000 0.015381 0.020322
0.000000 0.019886 0.030122
0.000000 0.024807 0.041562
0.000000 0.029748 0.053679
0.000000 0.034189 0.065159
0.000000 0.037582 0.074583
0.000000 0.039479 0.080735
0.000000 0.039643 0.082885
0.000000 0.038105 0.080934
0.000000 0.035141 0.075393
0.000818 0.031184 0.067209
0.003546 0.026714 0.057507
0.005429 0.022154 0.047361
0.006373 0.017822 0.037624
0.006464 0.013916 0.028868
0.005908 0.010536 0.021398
0.004961 0.007716 0.015310
0.003868 0.005447 0.010553
0.002817 0.003692 0.006990
0.001922 0.002394 0.004436
0.001232 0.001479 0.002689
0.000742 0.000868 0.001553
0.000420 0.000483 0.000852
0.000224 0.000254 0.000443
0.000112 0.000126 0.000218
0.000053 0.000059 0.000101
0.000024 0.000026 0.000045
0.000010 0.000011 0.000018
0.000004 0.000004 0.000007
0.000001 0.000002 0.000003
0.000000 0.000001 0.000001
0.000000 0.000000 0.000000
0.000000 0.000000 0.000000
0.000000 0.015085 0.020098
0.000000 0.019486 0.029516
0.000000 0.024238 0.040347
0.000000 0.028925 0.051590
0.000000 0.033015 0.061932
0.000000 0.035970 0.070012
0.000000 0.037376 0.074739
0.000000 0.037052 0.075555
0.000000 0.035097 0.072550
0.000000 0.031851 0.066398
0.000000 0.027793 0.058134
0.000430 0.023413 0.048883
0.002645 0.019117 0.039627
0.003999 0.015176 0.031068
0.004532 0.011730 0.023609
0.004407 0.008821 0.017398
0.003849 0.006438 0.012423
0.003082 0.004542 0.008573
0.002287 0.003083 0.005699
0.001582 0.002004 0.003636
0.001025 0.001243 0.002217
0.000622 0.000732 0.001288
0.000355 0.000409 0.000711
0.000190 0.000216 0.000372
0.000096 0.000108 0.000184
0.000045 0.000051 0.000086
0.000020 0.000022 0.000038
0.000008 0.000009 0.000016
0.000003 0.000004 0.000006
0.000001 0.000001 0.000002
0.000000 0.000000 0.000001
0.000000 0.000000 0.000000
0.000000 0.000000 0.000000
0.000000 0.014044 0.019055
0.000000 0.018142 0.027721
0.000000 0.022534 0.037572
0.000000 0.026812 0.047642
0.000000 0.030464 0.056691
0.000000 0.032985 0.063470
0.000000 0.034002 0.067021
0.000000 0.033379 0.066924
0.000000 0.031250 0.063382
0.000000 0.027980 0.057129
0.000000 0.024049 0.049206
0.000000 0.019937 0.040682
0.000600 0.016019 0.032439
0.002132 0.012526 0.025052
0.002917 0.009557 0.018798
0.003083 0.007115 0.013724
0.002820 0.005157 0.009741
0.002324 0.003624 0.006705
0.001758 0.002456 0.004457
0.001233 0.001596 0.002849
0.000806 0.000991 0.001743
0.000493 0.000585 0.001016
0.000282 0.000327 0.000563
0.000152 0.000173 0.000295
0.000077 0.000086 0.000147
0.000036 0.000041 0.000069
0.000016 0.000018 0.000030
0.000007 0.000008 0.000013
0.000003 0.000003 0.000005
0.000001 0.000001 0.000002
0.000000 0.000000 0.000001
0.000000 0.000000 0.000000
0.000000 0.000000 0.000000
0.000000 0.012375 0.017145
0.000000 0.015994 0.024734
0.000000 0.019854 0.033287
0.000000 0.023582 0.041930
0.000000 0.026715 0.049561
0.000000 0.028804 0.055086
0.000000 0.029524 0.057696
0.000000 0.028772 0.057074
0.000000 0.026693 0.053469
0.000000 0.023637 0.047597
0.000000 0.020055 0.040423
0.000000 0.016384 0.032910
0.000000 0.012958 0.025821
0.000805 0.009973 0.019626
0.001676 0.007496 0.014512
0.002003 0.005510 0.010464
0.001941 0.003954 0.007358
0.001652 0.002758 0.005033
0.001275 0.001861 0.003334
0.000906 0.001207 0.002129
0.000598 0.000748 0.001303
0.000368 0.000441 0.000761
0.000212 0.000247 0.000422
0.000114 0.000131 0.000222
0.000058 0.000065 0.000110
0.000027 0.000031 0.000052
0.000012 0.000014 0.000023
0.000005 0.000006 0.000010
0.000002 0.000002 0.000004
0.000001 0.000001 0.000001
0.000000 0.000000 0.000000
0.000000 0.000000 0.000000
0.000000 0.000000 0.000000
0.000000 0.010299 0.014559
0.000000 0.013319 0.020857
0.000000 0.016532 0.027910
0.000000 0.019617 0.034979
0.000000 0.022182 0.041137
0.000000 0.023847 0.045481
0.000000 0.024344 0.047351
0.000000 0.023597 0.046514
0.000000 0.021739 0.043216
0.000000 0.019081 0.038091
0.000000 0.016014 0.031975
0.000000 0.012914 0.025684
0.000000 0.010063 0.019853
0.000000 0.007623 0.014852
0.000809 0.005639 0.010810
0.001191 0.004084 0.007683
0.001247 0.002894 0.005336
0.001103 0.001999 0.003616
0.000871 0.001339 0.002380
0.000628 0.000864 0.001513
0.000418 0.000534 0.000924
0.000259 0.000315 0.000539
0.000150 0.000176 0.000299
0.000081 0.000093 0.000157
0.000041 0.000047 0.000078
0.000020 0.000022 0.000037
0.000009 0.000010 0.000016
0.000004 0.000004 0.000007
0.000001 0.000002 0.000003
0.000001 0.000001 0.000001
0.000000 0.000000 0.000000
0.000000 0.000000 0.000000
0.000000 0.000000 0.000000
0.000000 0.008082 0.011634
0.000000 0.010461 0.016572
0.000000 0.012986 0.022077
0.000000 0.015401 0.027561
0.000000 0.017394 0.032293
0.000000 0.018662 0.035564
0.000000 0.018996 0.036864
0.000000 0.018339 0.036026
0.000000 0.016805 0.033262
0.000000 0.014646 0.029092
0.000000 0.012181 0.024190
0.000000 0.009712 0.019210
0.000000 0.007467 0.014651
0.000000 0.005569 0.010796
0.000268 0.004053 0.007734
0.000634 0.002889 0.005410
0.000742 0.002018 0.003704
0.000689 0.001377 0.002480
0.000558 0.000914 0.001617
0.000409 0.000586 0.001021
0.000275 0.000361 0.000621
0.000171 0.000212 0.000361
0.000099 0.000118 0.000200
0.000054 0.000063 0.000105
0.000027 0.000031 0.000052
0.000013 0.000015 0.000025
0.000006 0.000007 0.000011
0.000002 0.000003 0.000005
0.000001 0.000001 0.000002
0.000000 0.000000 0.000001
0.000000 0.000000 0.000000
0.000000 0.000000 0.000000
0.000000 0.000000 0.000000
0.000000 0.005975 0.008735
0.000000 0.007739 0.012386
0.000000 0.009609 0.016443
0.000000 0.011394 0.020466
0.000000 0.012858 0.023914
0.000000 0.013777 0.026261
0.000000 0.013994 0.027134
0.000000 0.013469 0.026416
0.000000 0.012291 0.024273
0.000000 0.010652 0.021103
0.000000 0.008792 0.017414
0.000000 0.006942 0.013697
0.000000 0.005273 0.010323
0.000000 0.003877 0.007502
0.000000 0.002776 0.005291
0.000287 0.001946 0.003642
0.000404 0.001338 0.002454
0.000401 0.000900 0.001620
0.000335 0.000591 0.001044
0.000250 0.000376 0.000654
0.000170 0.000230 0.000395
0.000106 0.000134 0.000229
0.000062 0.000075 0.000127
0.000034 0.000040 0.000066
0.000017 0.000020 0.000033
0.000008 0.000009 0.000016
0.000004 0.000004 0.000007
0.000002 0.000002 0.000003
0.000001 0.000001 0.000001
0.000000 0.000000 0.000000
0.000000 0.000000 0.000000
0.000000 0.000000 0.000000
0.000000 0.000000 0.000000
0.000000 0.004158 0.006158
0.000000 0.005389 0.008701
0.000000 0.006694 0.011519
0.000000 0.007936 0.014304
0.000000 0.008951 0.016679
0.000000 0.009581 0.018277
0.000000 0.009717 0.018840
0.000000 0.009331 0.018289
0.000000 0.008487 0.016745
0.000000 0.007321 0.014489
0.000000 0.006006 0.011883
0.000000 0.004703 0.009272
0.000000 0.003533 0.006917
0.000000 0.002564 0.004964
0.000000 0.001808 0.003450
0.000095 0.001246 0.002336
0.000198 0.000842 0.001549
0.000216 0.000558 0.001006
0.000188 0.000362 0.000640
0.000143 0.000228 0.000396
0.000098 0.000138 0.000238
0.000062 0.000080 0.000137
0.000036 0.000045 0.000075
0.000020 0.000024 0.000040
0.000010 0.000012 0.000020
0.000005 0.000006 0.000009
0.000002 0.000002 0.000004
0.000001 0.000001 0.000002
0.000000 0.000000 0.000001
0.000000 0.000000 0.000000
0.000000 0.000000 0.000000
0.000000 0.000000 0.000000
0.000000 0.000000 0.000000
0.000000 0.002723 0.004075
0.000000 0.003531 0.005742
0.000000 0.004386 0.007585
0.000000 0.005200 0.009403
0.000000 0.005863 0.010946
0.000000 0.006272 0.011976
0.000000 0.006353 0.012322
0.000000 0.006090 0.011936
0.000000 0.005524 0.010897
0.000000 0.004748 0.009395
0.000000 0.003875 0.007666
0.000000 0.003012 0.005942
0.000000 0.002242 0.004394
0.000000 0.001607 0.003119
0.000000 0.001117 0.002138
0.000006 0.000757 0.001425
0.000084 0.000503 0.000929
0.000106 0.000328 0.000594
0.000098 0.000210 0.000372
0.000076 0.000130 0.000228
0.000053 0.000078 0.000135
0.000034 0.000045 0.000077
0.000020 0.000025 0.000042
0.000011 0.000013 0.000022
0.000006 0.000007 0.000011
0.000003 0.000003 0.000005
0.000001 0.000001 0.000002
0.000001 0.000001 0.000001
0.000000 0.000000 0.000000
0.000000 0.000000 0.000000
0.000000 0.000000 0.000000
0.000000 0.000000 0.000000
0.000000 0.000000 0.000000
0.000000 0.001677 0.002531
0.000000 0.002175 0.003559
0.000000 0.002703 0.004693
0.000000 0.003205 0.005810
0.000000 0.003612 0.006755
0.000000 0.003862 0.007381
0.000000 0.003908 0.007585
0.000000 0.003741 0.007334
0.000000 0.003387 0.006682
0.000000 0.002902 0.005743
0.000000 0.002358 0.004668
0.000000 0.001822 0.003598
0.000000 0.001345 0.002641
0.000000 0.000954 0.001855
0.000000 0.000654 0.001256
0.000000 0.000436 0.000825
0.000028 0.000285 0.000529
0.000048 0.000183 0.000332
0.000047 0.000115 0.000205
0.000038 0.000071 0.000124
0.000027 0.000042 0.000073
0.000017 0.000024 0.000041
0.000010 0.000013 0.000022
0.000006 0.000007 0.000012
0.000003 0.000003 0.000006
0.000001 0.000002 0.000003
0.000001 0.000001 0.000001
0.000000 0.000000 0.000000
0.000000 0.000000 0.000000
0.000000 0.000000 0.000000
0.000000 0.000000 0.000000
0.000000 0.000000 0.000000
0.000000 0.000000 0.000000
0.000000 0.000971 0.001476
0.000000 0.001260 0.002071
0.000000 0.001566 0.002728
0.000000 0.001857 0.003373
0.000000 0.002092 0.003919
0.000000 0.002236 0.004278
0.000000 0.002261 0.004391
0.000000 0.002162 0.004240
0.000000 0.001954 0.003856
0.000000 0.001670 0.003307
0.000000 0.001352 0.002678
0.000000 0.001039 0.002055
0.000000 0.000762 0.001499
0.000000 0.000535 0.001044
0.000000 0.000362 0.000699
0.000000 0.000238 0.000453
0.000005 0.000153 0.000286
0.000019 0.000096 0.000176
0.000021 0.000060 0.000107
0.000018 0.000036 0.000064
0.000013 0.000021 0.000037
0.000008 0.000012 0.000021
0.000005 0.000007 0.000011
0.000003 0.000003 0.000006
0.000001 0.000002 0.000003
0.000001 0.000001 0.000001
0.000000 0.000000 0.000001
0.000000 0.000000 0.000000
0.000000 0.000000 0.000000
0.000000 0.000000 0.000000
0.000000 0.000000 0.000000
0.000000 0.000000 0.000000
0.000000 0.000000 0.000000
0.000000 0.000528 0.000808
0.000000 0.000686 0.001132
0.000000 0.000853 0.001489
0.000000 0.001011 0.001840
0.000000 0.001139 0.002136
0.000000 0.001217 0.002330
0.000000 0.001230 0.002390
0.000000 0.001175 0.002306
0.000000 0.001060 0.002094
0.000000 0.000904 0.001792
0.000000 0.000730 0.001447
0.000000 0.000559 0.001106
0.000000 0.000407 0.000802
0.000000 0.000283 0.000555
0.000000 0.000190 0.000368
0.000000 0.000123 0.000235
0.000000 0.000078 0.000146
0.000006 0.000048 0.000089
0.000008 0.000029 0.000053
0.000008 0.000017 0.000031
0.000006 0.000010 0.000018
0.000004 0.000006 0.000010
0.000002 0.000003 0.000005
0.000001 0.000002 0.000003
0.000001 0.000001 0.000001
0.000000 0.000000 0.000001
0.000000 0.000000 0.000000
