public/luts/ayon_200.cube
# Generated from ColorChecker fit
LUT_3D_SIZE 5
DOMAIN_MIN 0.0 0.0 0.0
DOMAIN_MAX 1.0 1.0 1.0
0.012071 0.000000 0.020252
0.005300 0.004229 0.016017
0.000800 0.001032 0.002943
0.000004 0.000005 0.000013
0.000000 0.000000 0.000000
0.014981 0.005479 0.030853
0.029523 0.041174 0.115643
0.007973 0.010248 0.026430
0.000076 0.000089 0.000185
0.000000 0.000000 0.000000
0.000000 0.015085 0.020098
0.000000 0.035097 0.072550
0.003849 0.006438 0.012423
0.000096 0.000108 0.000184
0.000000 0.000000 0.000000
0.000000 0.001677 0.002531
0.000000 0.003387 0.006682
0.000028 0.000285 0.000529
0.000003 0.000003 0.000006
0.000000 0.000000 0.000000
0.000000 0.000004 0.000006
0.000000 0.000007 0.000015
0.000000 0.000000 0.000001
0.000000 0.000000 0.000000
0.000000 0.000000 0.000000
0.123381 0.100881 0.107004
0.038848 0.029834 0.066202
0.004245 0.004464 0.012435
0.000028 0.000033 0.000073
0.000000 0.000000 0.000000
0.165892 0.323645 0.108018
0.262710 0.256512 0.582952
0.089347 0.097163 0.200824
0.001592 0.001762 0.003070
0.000001 0.000001 0.000001
0.042339 0.590548 0.016172
0.058057 0.413291 0.670418
0.107664 0.132239 0.228703
0.002645 0.002922 0.004867
0.000001 0.000001 0.000002
0.007635 0.066515 0.020674
0.000000 0.037077 0.058568
0.002782 0.005030 0.008781
0.000085 0.000095 0.000157
0.000000 0.000000 0.000000
0.000019 0.000150 0.000054
0.000000 0.000077 0.000122
0.000000 0.000005 0.000009
0.000000 0.000000 0.000000
0.000000 0.000000 0.000000
0.314063 0.199317 0.105984
0.065681 0.033513 0.026227
0.001576 0.000662 0.001524
0.000010 0.000010 0.000018
0.000000 0.000000 0.000000
0.374975 0.224514 0.380388
0.327458 0.126032 0.276505
0.043874 0.037620 0.067903
0.000792 0.000859 0.001439
0.000000 0.000000 0.000001
0.496437 0.270962 1.000000
0.170779 0.115454 0.467731
0.060282 0.062888 0.114300
0.001372 0.001505 0.002503
0.000001 0.000001 0.000001
0.058108 0.100431 0.095003
0.020729 0.032243 0.057918
0.002320 0.002370 0.005456
0.000044 0.000049 0.000082
0.000000 0.000000 0.000000
0.000258 0.000491 0.000206
0.000281 0.000278 0.000432
0.000008 0.000006 0.000016
0.000000 0.000000 0.000000
0.000000 0.000000 0.000000
0.682716 0.224641 0.216759
0.123089 0.039811 0.054462
0.001018 0.000482 0.000585
0.000000 0.000000 0.000000
0.000000 0.000000 0.000000
0.827745 0.672740 0.435776
0.398532 0.139181 0.347968
0.008132 0.004135 0.006687
0.000011 0.000010 0.000016
0.000000 0.000000 0.000000
0.727977 0.651258 0.660269
0.526926 0.485406 0.657646
0.014865 0.009724 0.027052
0.000020 0.000017 0.000038
0.000000 0.000000 0.000000
0.228398 0.194729 0.226308
0.308119 0.256452 0.392792
0.007756 0.005188 0.012190
0.000004 0.000002 0.000007
0.000000 0.000000 0.000000
0.002198 0.001899 0.002397
0.002984 0.002209 0.004004
0.000070 0.000045 0.000105
0.000000 0.000000 0.000000
0.000000 0.000000 0.000000
0.117034 0.000000 0.383405
0.016952 0.000000 0.056915
0.000071 0.000000 0.000170
0.000000 0.000000 0.000000
0.000000 0.000000 0.000000
0.578334 0.000000 0.554432
0.093606 0.000000 0.125491
0.000589 0.000000 0.000708
0.000000 0.000000 0.000000
0.000000 0.000000 0.000000
0.424270 0.727374 0.001529
0.157740 0.170640 0.130312
0.002823 0.002050 0.003875
0.000001 0.000001 0.000002
0.000000 0.000000 0.000000
0.044354 0.040005 0.046545
0.054755 0.040526 0.072001
0.001256 0.000827 0.001824
0.000001 0.000000 0.000001
0.000000 0.000000 0.000000
0.000367 0.000272 0.000470
0.000462 0.000312 0.000648
0.000010 0.000007 0.000015
0.000000 0.000000 0.000000
0.000000 0.000000 0.000000
