public/luts/ayon_200.cube
# Generated from ColorChecker fit
LUT_3D_SIZE 9
DOMAIN_MIN 0.0 0.0 0.0
DOMAIN_MAX 1.0 1.0 1.0
0.012071 0.000000 0.020252
0.009029 0.000433 0.018170
0.005300 0.004229 0.016017
0.002927 0.003560 0.010517
0.000800 0.001032 0.002943
0.000086 0.000111 0.000312
0.000004 0.000005 0.000013
0.000000 0.000000 0.000000
0.000000 0.000000 0.000000
0.022091 0.000000 0.037977
0.020834 0.008628 0.049929
0.019684 0.021232 0.066410
0.013306 0.016864 0.048224
0.003890 0.005009 0.013903
0.000458 0.000582 0.001545
0.000023 0.000028 0.000069
0.000001 0.000001 0.000001
0.000000 0.000000 0.000000
0.014981 0.005479 0.030853
0.020254 0.021887 0.069582
0.029523 0.041174 0.115643
0.023663 0.031986 0.086977
0.007973 0.010248 0.026430
0.001161 0.001421 0.003331
0.000076 0.000089 0.000185
0.000002 0.000002 0.000005
0.000000 0.000000 0.000000
0.000663 0.012472 0.019971
0.001150 0.031217 0.067834
0.011715 0.043206 0.103934
0.016364 0.030177 0.072679
0.007885 0.010683 0.023776
0.001567 0.001864 0.003704
0.000129 0.000147 0.000266
0.000004 0.000005 0.000008
0.000000 0.000000 0.000000
0.000000 0.015085 0.020098
0.000000 0.033015 0.061932
0.000000 0.035097 0.072550
0.002645 0.019117 0.039627
0.003849 0.006438 0.012423
0.001025 0.001243 0.002217
0.000096 0.000108 0.000184
0.000003 0.000004 0.000006
0.000000 0.000000 0.000000
0.000000 0.008082 0.011634
0.000000 0.017394 0.032293
0.000000 0.016805 0.033262
0.000000 0.007467 0.014651
0.000742 0.002018 0.003704
0.000275 0.000361 0.000621
0.000027 0.000031 0.000052
0.000001 0.000001 0.000002
0.000000 0.000000 0.000000
0.000000 0.001677 0.002531
0.000000 0.003612 0.006755
0.000000 0.003387 0.006682
0.000000 0.001345 0.002641
0.000028 0.000285 0.000529
0.000027 0.000042 0.000073
0.000003 0.000003 0.000006
0.000000 0.000000 0.000000
0.000000 0.000000 0.000000
0.000000 0.000130 0.000200
0.000000 0.000280 0.000527
0.000000 0.000260 0.000513
0.000000 0.000097 0.000192
0.000000 0.000017 0.000032
0.000001 0.000002 0.000003
0.000000 0.000000 0.000000
0.000000 0.000000 0.000000
0.000000 0.000000 0.000000
0.000000 0.000004 0.000006
0.000000 0.000008 0.000015
0.000000 0.000007 0.000015
0.000000 0.000003 0.000005
0.000000 0.000000 0.000001
0.000000 0.000000 0.000000
0.000000 0.000000 0.000000
0.000000 0.000000 0.000000
0.000000 0.000000 0.000000
0.052729 0.011723 0.073097
0.038544 0.013359 0.063541
0.020470 0.016221 0.053248
0.010451 0.011827 0.034652
0.002834 0.003476 0.009824
0.000318 0.000397 0.001076
0.000015 0.000018 0.000046
0.000000 0.000000 0.000001
0.000000 0.000000 0.000000
0.098059 0.044207 0.135848
0.088881 0.056885 0.171667
0.075824 0.076096 0.221865
0.049483 0.057919 0.162870
0.015169 0.018402 0.049014
0.002037 0.002456 0.005980
0.000124 0.000145 0.000314
0.000003 0.000004 0.000007
0.000000 0.000000 0.000000
0.067738 0.074994 0.098210
0.089427 0.112418 0.241605
0.121270 0.155821 0.407833
0.100038 0.124406 0.319540
0.038718 0.046452 0.108361
0.006892 0.007986 0.016459
0.000540 0.000610 0.001133
0.000017 0.000019 0.000034
0.000000 0.000000 0.000000
0.005430 0.112655 0.046285
0.014611 0.172010 0.264621
0.064701 0.197367 0.428034
0.092941 0.148504 0.324211
0.051930 0.064303 0.127153
0.011810 0.013468 0.024371
0.001059 0.001179 0.002030
0.000036 0.000040 0.000067
0.000000 0.000001 0.000001
0.000000 0.128836 0.066868
0.000000 0.192446 0.275367
0.000000 0.180933 0.344447
0.034477 0.109727 0.212173
0.032809 0.045649 0.082121
0.008693 0.010048 0.017207
0.000824 0.000916 0.001537
0.000029 0.000032 0.000053
0.000000 0.000000 0.000001
0.000000 0.067552 0.048862
0.000000 0.100841 0.149800
0.000000 0.086681 0.161265
0.000070 0.042207 0.079655
0.008080 0.014369 0.025358
0.002465 0.002976 0.005027
0.000241 0.000270 0.000450
0.000008 0.000009 0.000016
0.000000 0.000000 0.000000
0.000000 0.013860 0.011557
0.000000 0.020719 0.031646
0.000000 0.017116 0.031967
0.000000 0.007138 0.013640
0.000643 0.001881 0.003375
0.000256 0.000338 0.000574
0.000026 0.000030 0.000049
0.000001 0.000001 0.000002
0.000000 0.000000 0.000000
0.000000 0.001071 0.000944
0.000000 0.001599 0.002473
0.000000 0.001294 0.002427
0.000000 0.000490 0.000951
0.000008 0.000102 0.000188
0.000009 0.000015 0.000025
0.000001 0.000001 0.000002
0.000000 0.000000 0.000000
0.000000 0.000000 0.000000
0.000000 0.000031 0.000028
0.000000 0.000046 0.000071
0.000000 0.000037 0.000069
0.000000 0.000013 0.000026
0.000000 0.000002 0.000004
0.000000 0.000000 0.000000
0.000000 0.000000 0.000000
0.000000 0.000000 0.000000
0.000000 0.000000 0.000000
0.123381 0.100881 0.107004
0.087249 0.068256 0.087737
0.038848 0.029834 0.066202
0.016374 0.014811 0.042352
0.004245 0.004464 0.012435
0.000510 0.000578 0.001473
0.000028 0.000033 0.000073
0.000001 0.000001 0.000002
0.000000 0.000000 0.000000
0.228051 0.244605 0.210017
0.198344 0.183160 0.239479
0.142441 0.115990 0.282981
0.083603 0.077820 0.212320
0.026863 0.028458 0.070334
0.004232 0.004719 0.010180
0.000309 0.000347 0.000664
0.000010 0.000011 0.000019
0.000000 0.000000 0.000000
0.165892 0.323645 0.108018
0.224286 0.293462 0.333937
0.262710 0.256512 0.582952
0.207112 0.211201 0.495880
0.089347 0.097163 0.200824
0.018386 0.020358 0.037743
0.001592 0.001762 0.003070
0.000054 0.000059 0.000100
0.000001 0.000001 0.000001
0.053180 0.486018 0.000000
0.126720 0.487651 0.386380
0.229991 0.412214 0.753536
0.262748 0.331861 0.654300
0.150031 0.170941 0.310450
0.035952 0.039934 0.068789
0.003330 0.003674 0.006185
0.000116 0.000127 0.000212
0.000001 0.000002 0.000003
0.042339 0.590548 0.016172
0.013068 0.578847 0.457677
0.058057 0.413291 0.670418
0.147475 0.270409 0.490871
0.107664 0.132239 0.228703
0.027845 0.031305 0.052648
0.002645 0.002922 0.004867
0.000093 0.000102 0.000169
0.000001 0.000001 0.000002
0.031641 0.319040 0.069571
0.000000 0.304759 0.263273
0.000000 0.193690 0.306776
0.026665 0.099169 0.178212
0.029247 0.041059 0.070634
0.008083 0.009315 0.015594
0.000779 0.000865 0.001437
0.000027 0.000030 0.000050
0.000000 0.000000 0.000001
0.007635 0.066515 0.020674
0.000000 0.062517 0.056431
0.000000 0.037077 0.058568
0.000000 0.015405 0.028073
0.002782 0.005030 0.008781
0.000860 0.001040 0.001747
0.000085 0.000095 0.000157
0.000003 0.000003 0.000005
0.000000 0.000000 0.000000
0.000627 0.005190 0.001800
0.000000 0.004830 0.004418
0.000000 0.002752 0.004341
0.000000 0.000985 0.001824
0.000082 0.000247 0.000442
0.000033 0.000044 0.000074
0.000003 0.000004 0.000006
0.000000 0.000000 0.000000
0.000000 0.000000 0.000000
0.000019 0.000150 0.000054
0.000000 0.000139 0.000127
0.000000 0.000077 0.000122
0.000000 0.000025 0.000047
0.000000 0.000005 0.000009
0.000000 0.000001 0.000001
0.000000 0.000000 0.000000
0.000000 0.000000 0.000000
0.000000 0.000000 0.000000
0.223949 0.205815 0.108471
0.151313 0.128312 0.077067
0.052193 0.033554 0.037955
0.014608 0.007720 0.020052
0.003154 0.002275 0.006233
0.000392 0.000372 0.000863
0.000025 0.000027 0.000053
0.000001 0.000001 0.000001
0.000000 0.000000 0.000000
0.379721 0.407502 0.268461
0.310050 0.264822 0.227913
0.170503 0.091911 0.168159
0.077085 0.044492 0.116346
0.023555 0.019920 0.044742
0.004065 0.004168 0.008048
0.000329 0.000357 0.000633
0.000011 0.000012 0.000020
0.000000 0.000000 0.000000
0.289502 0.426017 0.223973
0.369879 0.330524 0.343377
0.340948 0.203144 0.420302
0.221875 0.167302 0.361500
0.093911 0.091854 0.173335
0.020311 0.021756 0.038036
0.001828 0.002001 0.003387
0.000063 0.000069 0.000116
0.000001 0.000001 0.000001
0.208886 0.671140 0.066209
0.346125 0.574820 0.433288
0.395493 0.394736 0.679693
0.332308 0.328019 0.614908
0.175152 0.186496 0.325391
0.041970 0.045836 0.077351
0.003920 0.004305 0.007183
0.000137 0.000150 0.000250
0.000002 0.000002 0.000003
0.273349 1.000000 0.198276
0.251379 0.794563 0.504902
0.216142 0.423760 0.627242
0.217423 0.277959 0.496485
0.131985 0.149305 0.255021
0.033134 0.036625 0.061208
0.003137 0.003453 0.005737
0.000110 0.000121 0.000200
0.000001 0.000002 0.000003
0.167949 0.633051 0.159149
0.096588 0.464270 0.265443
0.040917 0.200942 0.266995
0.052387 0.096610 0.172025
0.037277 0.045573 0.078158
0.009711 0.010894 0.018197
0.000927 0.001023 0.001699
0.000033 0.000036 0.000059
0.000000 0.000000 0.000001
0.036353 0.143299 0.034137
0.016321 0.102477 0.052032
0.001285 0.039278 0.047920
0.003928 0.013929 0.025177
0.003809 0.005321 0.009326
0.001046 0.001203 0.002020
0.000101 0.000112 0.000186
0.000004 0.000004 0.000006
0.000000 0.000000 0.000000
0.002876 0.011810 0.002436
0.001248 0.008450 0.003908
0.000000 0.003077 0.003569
0.000064 0.000855 0.001584
0.000138 0.000244 0.000447
0.000041 0.000050 0.000084
0.000004 0.000005 0.000008
0.000000 0.000000 0.000000
0.000000 0.000000 0.000000
0.000087 0.000358 0.000065
0.000047 0.000263 0.000120
0.000005 0.000096 0.000112
0.000001 0.000023 0.000044
0.000002 0.000005 0.000009
0.000001 0.000001 0.000001
0.000000 0.000000 0.000000
0.000000 0.000000 0.000000
0.000000 0.000000 0.000000
0.314063 0.199317 0.105984
0.213139 0.128571 0.076275
0.065681 0.033513 0.026227
0.011965 0.004418 0.006499
0.001576 0.000662 0.001524
0.000155 0.000115 0.000237
0.000010 0.000010 0.000018
0.000000 0.000000 0.000001
0.000000 0.000000 0.000000
0.470523 0.314206 0.308165
0.399145 0.225098 0.257271
0.186139 0.078548 0.115231
0.054467 0.021005 0.041939
0.011310 0.007169 0.014289
0.001716 0.001605 0.002890
0.000139 0.000147 0.000252
0.000005 0.000005 0.000009
0.000000 0.000000 0.000000
0.374975 0.224514 0.380388
0.467759 0.204190 0.422890
0.327458 0.126032 0.276505
0.138510 0.074264 0.151317
0.043874 0.037620 0.067903
0.008828 0.009148 0.015610
0.000792 0.000859 0.001439
0.000027 0.000030 0.000050
0.000000 0.000000 0.000001
0.382689 0.142214 0.723102
0.432884 0.143367 0.698825
0.325639 0.142316 0.462907
0.185031 0.134350 0.286749
0.080283 0.079094 0.139670
0.018411 0.019776 0.033268
0.001710 0.001872 0.003114
0.000060 0.000066 0.000109
0.000001 0.000001 0.000001
0.496437 0.270962 1.000000
0.333874 0.194630 0.878078
0.170779 0.115454 0.467731
0.115647 0.103165 0.253159
0.060282 0.062888 0.114300
0.014587 0.015869 0.026759
0.001372 0.001505 0.002503
0.000048 0.000053 0.000088
0.000001 0.000001 0.000001
0.272637 0.293679 0.589652
0.154590 0.213659 0.423014
0.058025 0.081951 0.230050
0.034660 0.036828 0.105325
0.017817 0.018981 0.037509
0.004312 0.004709 0.008073
0.000406 0.000446 0.000743
0.000014 0.000016 0.000026
0.000000 0.000000 0.000000
0.058108 0.100431 0.095003
0.042222 0.082387 0.081423
0.020729 0.032243 0.057918
0.007623 0.008107 0.023100
0.002320 0.002370 0.005456
0.000483 0.000522 0.000935
0.000044 0.000049 0.000082
0.000002 0.000002 0.000003
0.000000 0.000000 0.000000
0.005576 0.011615 0.005890
0.006360 0.011089 0.008343
0.004065 0.004951 0.007541
0.001172 0.001057 0.002658
0.000176 0.000153 0.000411
0.000022 0.000023 0.000045
0.000002 0.000002 0.000003
0.000000 0.000000 0.000000
0.000000 0.000000 0.000000
0.000258 0.000491 0.000206
0.000404 0.000549 0.000468
0.000281 0.000278 0.000432
0.000075 0.000060 0.000137
0.000008 0.000006 0.000016
0.000001 0.000000 0.000001
0.000000 0.000000 0.000000
0.000000 0.000000 0.000000
0.000000 0.000000 0.000000
0.470598 0.202262 0.103309
0.324675 0.137710 0.091101
0.099257 0.043397 0.037028
0.015183 0.006931 0.007140
0.001203 0.000563 0.000683
0.000054 0.000030 0.000046
0.000002 0.000002 0.000003
0.000000 0.000000 0.000000
0.000000 0.000000 0.000000
0.603378 0.327155 0.350319
0.560803 0.258863 0.370767
0.260594 0.118769 0.172769
0.057869 0.027427 0.037370
0.006092 0.003234 0.004605
0.000416 0.000318 0.000512
0.000024 0.000024 0.000040
0.000001 0.000001 0.000001
0.000000 0.000000 0.000000
0.511589 0.473629 0.216178
0.665246 0.349791 0.472950
0.401840 0.180938 0.302157
0.106716 0.051383 0.084629
0.014863 0.009600 0.016072
0.001685 0.001574 0.002645
0.000130 0.000139 0.000231
0.000004 0.000005 0.000008
0.000000 0.000000 0.000000
0.478073 0.669952 0.203378
0.487408 0.397924 0.393620
0.281542 0.152512 0.313597
0.088749 0.046362 0.123419
0.018879 0.014595 0.031190
0.003180 0.003223 0.005675
0.000278 0.000301 0.000504
0.000010 0.000011 0.000017
0.000000 0.000000 0.000000
0.598449 0.268091 1.000000
0.414369 0.276846 0.735435
0.202029 0.156561 0.446643
0.069159 0.044500 0.172783
0.015414 0.011916 0.034758
0.002571 0.002582 0.004978
0.000224 0.000242 0.000412
0.000008 0.000008 0.000014
0.000000 0.000000 0.000000
0.393044 0.083827 0.754956
0.396096 0.310573 0.630508
0.255279 0.229238 0.455744
0.076402 0.056271 0.160823
0.010260 0.007007 0.022934
0.000965 0.000865 0.001971
0.000069 0.000073 0.000129
0.000002 0.000003 0.000004
0.000000 0.000000 0.000000
0.123459 0.080716 0.169140
0.190903 0.183532 0.232197
0.138913 0.123543 0.201940
0.038702 0.028878 0.066311
0.004076 0.002661 0.007785
0.000208 0.000152 0.000414
0.000009 0.000009 0.000017
0.000000 0.000000 0.000000
0.000000 0.000000 0.000000
0.018403 0.017786 0.018469
0.034451 0.033120 0.038911
0.025315 0.021295 0.034378
0.006771 0.004938 0.010501
0.000658 0.000427 0.001119
0.000025 0.000016 0.000046
0.000001 0.000000 0.000001
0.000000 0.000000 0.000000
0.000000 0.000000 0.000000
0.001119 0.001119 0.001086
0.002191 0.001963 0.002555
0.001580 0.001247 0.002129
0.000411 0.000290 0.000611
0.000039 0.000025 0.000062
0.000001 0.000001 0.000002
0.000000 0.000000 0.000000
0.000000 0.000000 0.000000
0.000000 0.000000 0.000000
0.682716 0.224641 0.216759
0.448231 0.137616 0.166579
0.123089 0.039811 0.054462
0.015888 0.006220 0.008256
0.001018 0.000482 0.000585
0.000030 0.000016 0.000019
0.000000 0.000000 0.000000
0.000000 0.000000 0.000000
0.000000 0.000000 0.000000
0.823887 0.560698 0.392995
0.670038 0.327450 0.435426
0.265332 0.114484 0.189391
0.050953 0.023927 0.035385
0.004289 0.002224 0.002878
0.000153 0.000088 0.000112
0.000003 0.000002 0.000003
0.000000 0.000000 0.000000
0.000000 0.000000 0.000000
0.827745 0.672740 0.435776
0.816799 0.326613 0.688021
0.398532 0.139181 0.347968
0.088238 0.038101 0.072464
0.008132 0.004135 0.006687
0.000344 0.000219 0.000348
0.000011 0.000010 0.000016
0.000000 0.000000 0.000000
0.000000 0.000000 0.000000
0.748786 0.602382 0.544791
0.712373 0.344984 0.700844
0.363407 0.175597 0.407115
0.088170 0.046688 0.111904
0.009027 0.004963 0.013014
0.000468 0.000323 0.000768
0.000020 0.000019 0.000036
0.000001 0.000001 0.000001
0.000000 0.000000 0.000000
0.727977 0.651258 0.660269
0.830235 0.815664 0.778273
0.526926 0.485406 0.657646
0.143567 0.111356 0.226207
0.014865 0.009724 0.027052
0.000652 0.000423 0.001280
0.000020 0.000017 0.000038
0.000000 0.000001 0.000001
0.000000 0.000000 0.000000
0.576259 0.457061 0.589599
0.916411 0.889740 0.930005
0.654839 0.587738 0.823049
0.177371 0.137473 0.264870
0.017440 0.011742 0.029238
0.000645 0.000400 0.001172
0.000011 0.000008 0.000022
0.000000 0.000000 0.000000
0.000000 0.000000 0.000000
0.228398 0.194729 0.226308
0.425198 0.387269 0.460642
0.308119 0.256452 0.392792
0.081395 0.060419 0.117364
0.007756 0.005188 0.012190
0.000270 0.000167 0.000452
0.000004 0.000002 0.000007
0.000000 0.000000 0.000000
0.000000 0.000000 0.000000
0.036719 0.032652 0.037170
0.071219 0.060980 0.082259
0.050908 0.039776 0.066496
0.013156 0.009385 0.018783
0.001229 0.000811 0.001870
0.000042 0.000026 0.000067
0.000001 0.000000 0.000001
0.000000 0.000000 0.000000
0.000000 0.000000 0.000000
0.002198 0.001899 0.002397
0.004251 0.003414 0.005213
0.002984 0.002209 0.004004
0.000758 0.000522 0.001085
0.000070 0.000045 0.000105
0.000002 0.000001 0.000004
0.000000 0.000000 0.000000
0.000000 0.000000 0.000000
0.000000 0.000000 0.000000
0.460656 0.000000 0.424946
0.290352 0.000000 0.282420
0.072408 0.000000 0.071737
0.007865 0.000000 0.007403
0.000415 0.000038 0.000343
0.000011 0.000004 0.000008
0.000000 0.000000 0.000000
0.000000 0.000000 0.000000
0.000000 0.000000 0.000000
0.564246 0.000000 0.579363
0.397750 0.000000 0.484345
0.127349 0.000000 0.154215
0.020198 0.000000 0.020590
0.001512 0.000389 0.001247
0.000048 0.000021 0.000034
0.000001 0.000000 0.000000
0.000000 0.000000 0.000000
0.000000 0.000000 0.000000
0.827537 0.479776 0.172614
0.615256 0.106877 0.385376
0.215737 0.014984 0.186333
0.037727 0.008502 0.033888
0.003015 0.001206 0.002611
0.000099 0.000050 0.000085
0.000001 0.000001 0.000001
0.000000 0.000000 0.000000
0.000000 0.000000 0.000000
0.978673 0.896249 0.406859
0.758940 0.487711 0.540904
0.293420 0.162490 0.284226
0.057580 0.033163 0.067129
0.004985 0.002929 0.006548
0.000171 0.000099 0.000246
0.000002 0.000002 0.000004
0.000000 0.000000 0.000000
0.000000 0.000000 0.000000
0.697174 0.654177 0.515857
0.799519 0.714494 0.726600
0.465776 0.390709 0.531175
0.115475 0.088013 0.155667
0.010889 0.007489 0.016409
0.000378 0.000237 0.000616
0.000005 0.000003 0.000009
0.000000 0.000000 0.000000
0.000000 0.000000 0.000000
0.434564 0.396290 0.396820
0.734870 0.664527 0.766821
0.509284 0.422111 0.622618
0.131876 0.098870 0.181170
0.012428 0.008510 0.018517
0.000425 0.000270 0.000672
0.000005 0.000003 0.000009
0.000000 0.000000 0.000000
0.000000 0.000000 0.000000
0.166416 0.145348 0.169931
0.313584 0.264378 0.359750
0.220897 0.171801 0.283111
0.056642 0.040638 0.078767
0.005266 0.003525 0.007765
0.000178 0.000112 0.000274
0.000002 0.000001 0.000003
0.000000 0.000000 0.000000
0.000000 0.000000 0.000000
0.026095 0.021818 0.029047
0.049794 0.039339 0.061133
0.034694 0.025537 0.046131
0.008774 0.006059 0.012368
0.000806 0.000528 0.001186
0.000027 0.000017 0.000041
0.000000 0.000000 0.000001
0.000000 0.000000 0.000000
0.000000 0.000000 0.000000
0.001511 0.001200 0.001809
0.002859 0.002135 0.003695
0.001966 0.001383 0.002692
0.000491 0.000329 0.000702
0.000045 0.000029 0.000066
0.000001 0.000001 0.000002
0.000000 0.000000 0.000000
0.000000 0.000000 0.000000
0.000000 0.000000 0.000000
0.117034 0.000000 0.383405
0.072041 0.000000 0.242890
0.016952 0.000000 0.056915
0.001624 0.000000 0.004995
0.000071 0.000000 0.000170
0.000002 0.000000 0.000002
0.000000 0.000000 0.000000
0.000000 0.000000 0.000000
0.000000 0.000000 0.000000
0.200968 0.000000 0.883890
0.128082 0.000000 0.587572
0.033255 0.000000 0.144740
0.003940 0.000000 0.013532
0.000232 0.000000 0.000508
0.000006 0.000000 0.000008
0.000000 0.000000 0.000000
0.000000 0.000000 0.000000
0.000000 0.000000 0.000000
0.578334 0.000000 0.554432
0.367931 0.000000 0.435826
0.093606 0.000000 0.125491
0.010586 0.000000 0.014248
0.000589 0.000000 0.000708
0.000016 0.000003 0.000017
0.000000 0.000000 0.000000
0.000000 0.000000 0.000000
0.000000 0.000000 0.000000
0.791068 1.000000 0.000000
0.522238 0.615989 0.084342
0.145862 0.143622 0.064632
0.019538 0.015815 0.015788
0.001301 0.000905 0.001465
0.000039 0.000025 0.000051
0.000000 0.000000 0.000001
0.000000 0.000000 0.000000
0.000000 0.000000 0.000000
0.424270 0.727374 0.001529
0.364390 0.515176 0.134668
0.157740 0.170640 0.130312
0.032657 0.027775 0.038300
0.002823 0.002050 0.003875
0.000094 0.000062 0.000139
0.000001 0.000001 0.000002
0.000000 0.000000 0.000000
0.000000 0.000000 0.000000
0.149538 0.191953 0.089770
0.215363 0.216034 0.206258
0.135752 0.113024 0.162699
0.033411 0.024651 0.044881
0.003059 0.002083 0.004391
0.000103 0.000066 0.000154
0.000001 0.000001 0.000002
0.000000 0.000000 0.000000
0.000000 0.000000 0.000000
0.044354 0.040005 0.046545
0.080229 0.064727 0.096613
0.054755 0.040526 0.072001
0.013728 0.009512 0.019137
0.001256 0.000827 0.001824
0.000042 0.000027 0.000063
0.000001 0.000000 0.000001
0.000000 0.000000 0.000000
0.000000 0.000000 0.000000
0.006524 0.005150 0.007852
0.012185 0.009036 0.015775
0.008327 0.005834 0.011380
0.002075 0.001387 0.002949
0.000189 0.000121 0.000276
0.000006 0.000004 0.000009
0.000000 0.000000 0.000000
0.000000 0.000000 0.000000
0.000000 0.000000 0.000000
0.000367 0.000272 0.000470
0.000682 0.000481 0.000920
0.000462 0.000312 0.000648
0.000114 0.000074 0.000165
0.000010 0.000007 0.000015
0.000000 0.000000 0.000001
0.000000 0.000000 0.000000
0.000000 0.000000 0.000000
0.000000 0.000000 0.000000
