public/luts/bw_delta_3200.cube
# Generated from ColorChecker fit
LUT_3D_SIZE 9
DOMAIN_MIN 0.0 0.0 0.0
DOMAIN_MAX 1.0 1.0 1.0
0.000000 0.038167 0.261755
0.041934 0.108489 0.396266
0.101862 0.159186 0.448144
0.154762 0.198302 0.457258
0.202550 0.232086 0.451632
0.247288 0.264998 0.447447
0.291193 0.299704 0.449040
0.336627 0.337076 0.448906
0.386106 0.376197 0.427696
0.041934 0.108489 0.396266
0.105976 0.167509 0.481829
0.161789 0.209883 0.500023
0.211176 0.243208 0.487754
0.256088 0.273285 0.470087
0.298627 0.304126 0.460242
0.341044 0.337947 0.459595
0.385743 0.375174 0.457680
0.435274 0.414441 0.432186
0.101862 0.159186 0.448144
0.161789 0.209883 0.500023
0.214077 0.246616 0.497821
0.260563 0.276533 0.475486
0.303237 0.304986 0.455120
0.344239 0.335540 0.446982
0.385858 0.369963 0.449488
0.430533 0.408232 0.449211
0.480855 0.448534 0.420880
0.154762 0.198302 0.457258
0.211176 0.243208 0.487754
0.260563 0.276533 0.475486
0.304799 0.304975 0.451438
0.345912 0.333440 0.434754
0.386077 0.365043 0.432730
0.427623 0.401106 0.440823
0.473026 0.441157 0.442643
0.524913 0.482934 0.409959
0.202550 0.232086 0.451632
0.256088 0.273285 0.470087
0.303237 0.304986 0.455120
0.345912 0.333440 0.434754
0.386175 0.363105 0.425170
0.426243 0.396647 0.430706
0.468479 0.434939 0.443857
0.515397 0.477063 0.445272
0.569663 0.520307 0.403760
0.247288 0.264998 0.447447
0.298627 0.304126 0.460242
0.344239 0.335540 0.446982
0.386077 0.365043 0.432730
0.426243 0.396647 0.430706
0.466988 0.432567 0.442288
0.510714 0.473231 0.457008
0.559974 0.517271 0.452555
0.617470 0.561528 0.394778
0.291193 0.299704 0.449040
0.341044 0.337947 0.459595
0.385858 0.369963 0.449488
0.427623 0.401106 0.440823
0.468479 0.434939 0.443857
0.510714 0.473231 0.457008
0.556769 0.515960 0.466847
0.609234 0.561311 0.448103
0.670848 0.605676 0.363662
0.336627 0.337076 0.448906
0.385743 0.375174 0.457680
0.430533 0.408232 0.449211
0.473026 0.441157 0.442643
0.515397 0.477063 0.445272
0.559974 0.517271 0.452555
0.609234 0.561311 0.448103
0.665804 0.606919 0.403684
0.732462 0.650041 0.279222
0.386106 0.376197 0.427696
0.435274 0.414441 0.432186
0.480855 0.448534 0.420880
0.524913 0.482934 0.409958
0.569663 0.520307 0.403760
0.617470 0.561528 0.394778
0.670848 0.605676 0.363662
0.732462 0.650041 0.279222
0.805126 0.690119 0.098419
0.041934 0.108489 0.396266
0.105976 0.167509 0.481829
0.161789 0.209883 0.500023
0.211176 0.243208 0.487754
0.256088 0.273285 0.470087
0.298627 0.304126 0.460242
0.341044 0.337947 0.459595
0.385743 0.375174 0.457680
0.435274 0.414441 0.432186
0.105976 0.167509 0.481829
0.165616 0.216791 0.526569
0.217603 0.252258 0.518216
0.263776 0.281058 0.490717
0.306125 0.308544 0.466173
0.346789 0.338280 0.454845
0.388058 0.372034 0.455148
0.432370 0.409785 0.453655
0.482316 0.449717 0.425094
0.161789 0.209883 0.500023
0.217603 0.252258 0.518216
0.266364 0.283350 0.495619
0.309950 0.309857 0.463217
0.350387 0.336687 0.440152
0.389852 0.366954 0.433722
0.430672 0.401978 0.439381
0.475324 0.441290 0.440743
0.526435 0.482627 0.409574
0.211176 0.243208 0.487754
0.263776 0.281058 0.490717
0.309950 0.309857 0.463217
0.351611 0.335858 0.433280
0.390824 0.363517 0.417087
0.429803 0.395502 0.418974
0.470912 0.432685 0.431436
0.516667 0.474149 0.435124
0.569732 0.517180 0.398845
0.256088 0.273285 0.470087
0.306125 0.308544 0.466173
0.350387 0.336687 0.440152
0.390824 0.363517 0.417087
0.429538 0.393045 0.410197
0.468782 0.427487 0.420861
0.510957 0.467269 0.438611
0.558615 0.511026 0.441137
0.614460 0.555596 0.394284
0.298627 0.304126 0.460242
0.346789 0.338280 0.454845
0.389852 0.366954 0.433722
0.429803 0.395502 0.418974
0.468782 0.427487 0.420861
0.509078 0.464678 0.437799
0.553132 0.507052 0.456361
0.603532 0.552795 0.451274
0.663019 0.598299 0.385425
0.341044 0.337947 0.459595
0.388058 0.372034 0.455148
0.430672 0.401978 0.439381
0.470912 0.432685 0.431436
0.510957 0.467269 0.438611
0.553132 0.507052 0.456361
0.599915 0.551563 0.468297
0.653932 0.598538 0.446188
0.717963 0.643923 0.349958
0.385743 0.375174 0.457680
0.432370 0.409785 0.453655
0.475324 0.441290 0.440743
0.516667 0.474149 0.435124
0.558615 0.511026 0.441137
0.603532 0.552795 0.451274
0.653932 0.598538 0.446188
0.712481 0.645544 0.394684
0.781993 0.689308 0.253728
0.435274 0.414441 0.432186
0.482316 0.449717 0.425094
0.526435 0.482627 0.409574
0.569732 0.517180 0.398845
0.614460 0.555596 0.394284
0.663019 0.598299 0.385425
0.717963 0.643923 0.349958
0.781993 0.689308 0.253728
0.857963 0.729502 0.050738
0.101862 0.159186 0.448144
0.161789 0.209883 0.500023
0.214077 0.246616 0.497821
0.260563 0.276533 0.475486
0.303237 0.304986 0.455120
0.344239 0.335540 0.446982
0.385858 0.369963 0.449488
0.430533 0.408232 0.449211
0.480855 0.448534 0.420880
0.161789 0.209883 0.500023
0.217603 0.252258 0.518216
0.266364 0.283350 0.495619
0.309950 0.309857 0.463217
0.350387 0.336687 0.440152
0.389852 0.366954 0.433722
0.430672 0.401978 0.439381
0.475324 0.441290 0.440743
0.526435 0.482627 0.409574
0.214077 0.246616 0.497821
0.266364 0.283350 0.495619
0.312212 0.311182 0.463943
0.353536 0.336365 0.430815
0.392398 0.363356 0.412418
0.431014 0.394822 0.413089
0.471749 0.431636 0.425322
0.517116 0.472879 0.429767
0.569781 0.515839 0.395233
0.260563 0.276533 0.475486
0.309950 0.309857 0.463217
0.353536 0.336365 0.430815
0.393272 0.361858 0.403343
0.431260 0.390348 0.394021
0.469753 0.424050 0.404226
0.511153 0.463393 0.423491
0.558011 0.507007 0.429505
0.613030 0.551734 0.388116
0.303237 0.304986 0.455120
0.350387 0.336687 0.440152
0.392398 0.363356 0.412418
0.431260 0.390348 0.394021
0.469113 0.421223 0.395220
0.508246 0.457753 0.414431
0.551099 0.499915 0.438226
0.600261 0.545893 0.441334
0.658472 0.592081 0.386640
0.344239 0.335540 0.446982
0.389852 0.366954 0.433722
0.431014 0.394822 0.413089
0.469753 0.424050 0.404226
0.508246 0.457753 0.414431
0.548820 0.497252 0.439159
0.593952 0.542077 0.462021
0.646268 0.589963 0.454785
0.708547 0.636857 0.377376
0.385858 0.369963 0.449488
0.430672 0.401978 0.439381
0.471749 0.431636 0.425322
0.511153 0.463393 0.423491
0.551099 0.499915 0.438226
0.593952 0.542077 0.462021
0.642225 0.588959 0.475526
0.698585 0.637850 0.447549
0.765845 0.684247 0.335054
0.430533 0.408232 0.449211
0.475324 0.441290 0.440743
0.517116 0.472879 0.429767
0.558011 0.507007 0.429505
0.600261 0.545893 0.441334
0.646268 0.589963 0.454785
0.698585 0.637850 0.447549
0.759913 0.686394 0.385473
0.833105 0.730644 0.222558
0.480855 0.448534 0.420880
0.526435 0.482627 0.409574
0.569781 0.515839 0.395233
0.613030 0.551734 0.388116
0.658472 0.592081 0.386640
0.708547 0.636857 0.377376
0.765845 0.684247 0.335054
0.833105 0.730644 0.222558
0.913217 0.770648 0.000000
0.154762 0.198302 0.457258
0.211176 0.243208 0.487754
0.260563 0.276533 0.475486
0.304799 0.304975 0.451438
0.345912 0.333440 0.434754
0.386077 0.365043 0.432730
0.427623 0.401106 0.440823
0.473026 0.441157 0.442643
0.524913 0.482934 0.409959
0.211176 0.243208 0.487754
0.263776 0.281058 0.490717
0.309950 0.309857 0.463217
0.351611 0.335858 0.433280
0.390824 0.363517 0.417087
0.429803 0.395502 0.418974
0.470912 0.432685 0.431436
0.516667 0.474149 0.435124
0.569732 0.517180 0.398845
0.260563 0.276533 0.475486
0.309950 0.309857 0.463217
0.353536 0.336365 0.430815
0.393272 0.361858 0.403343
0.431260 0.390348 0.394021
0.469753 0.424050 0.404226
0.511153 0.463393 0.423491
0.558011 0.507007 0.429505
0.613030 0.551734 0.388116
0.304799 0.304975 0.451438
0.351611 0.335858 0.433280
0.393272 0.361858 0.403343
0.431771 0.388331 0.383730
0.469249 0.418837 0.384699
0.507994 0.455146 0.404668
0.550447 0.497237 0.430207
0.599196 0.543294 0.436046
0.656981 0.589710 0.385071
0.345912 0.333440 0.434754
0.390824 0.363517 0.417087
0.431260 0.390348 0.394021
0.469249 0.418837 0.384699
0.506966 0.452099 0.396419
0.546739 0.491456 0.424636
0.591045 0.536438 0.452961
0.642511 0.584780 0.453162
0.703914 0.632428 0.385163
0.386077 0.365043 0.432730
0.429803 0.395502 0.418974
0.469753 0.424050 0.404226
0.507994 0.455146 0.404668
0.546739 0.491456 0.424636
0.588353 0.533853 0.456625
0.635351 0.581419 0.481285
0.690397 0.631442 0.467425
0.756306 0.679418 0.372006
0.427623 0.401106 0.440823
0.470912 0.432685 0.431436
0.511153 0.463393 0.423491
0.550447 0.497237 0.430207
0.591045 0.536438 0.452961
0.635351 0.581419 0.481285
0.685916 0.630814 0.492871
0.745443 0.681464 0.453564
0.816783 0.728418 0.317366
0.473026 0.441157 0.442643
0.516667 0.474149 0.435124
0.558011 0.507007 0.429505
0.599196 0.543294 0.436046
0.642511 0.584780 0.453162
0.690397 0.631442 0.467425
0.745443 0.681464 0.453564
0.810388 0.731241 0.374465
0.888123 0.775371 0.181169
0.524913 0.482934 0.409959
0.569732 0.517180 0.398845
0.613030 0.551734 0.388116
0.656981 0.589710 0.385071
0.703914 0.632428 0.385163
0.756306 0.679418 0.372006
0.816783 0.728418 0.317366
0.888123 0.775371 0.181169
0.973255 0.814431 0.000000
0.202550 0.232086 0.451632
0.256088 0.273285 0.470087
0.303237 0.304986 0.455120
0.345912 0.333440 0.434754
0.386175 0.363105 0.425170
0.426243 0.396647 0.430706
0.468479 0.434939 0.443857
0.515397 0.477063 0.445272
0.569663 0.520307 0.403760
0.256088 0.273285 0.470087
0.306125 0.308544 0.466173
0.350387 0.336687 0.440152
0.390824 0.363517 0.417087
0.429538 0.393045 0.410197
0.468782 0.427487 0.420861
0.510957 0.467269 0.438611
0.558615 0.511026 0.441137
0.614460 0.555596 0.394284
0.303237 0.304986 0.455120
0.350387 0.336687 0.440152
0.392398 0.363356 0.412418
0.431260 0.390348 0.394021
0.469113 0.421223 0.395220
0.508246 0.457753 0.414431
0.551099 0.499915 0.438226
0.600261 0.545893 0.441334
0.658472 0.592081 0.386640
0.345912 0.333440 0.434754
0.390824 0.363517 0.417087
0.431260 0.390348 0.394021
0.469249 0.418837 0.384699
0.506966 0.452099 0.396419
0.546739 0.491456 0.424636
0.591045 0.536438 0.452961
0.642511 0.584780 0.453162
0.703914 0.632428 0.385163
0.386175 0.363105 0.425170
0.429538 0.393045 0.410197
0.469113 0.421223 0.395220
0.506966 0.452099 0.396419
0.545311 0.488338 0.418132
0.586512 0.530813 0.452852
0.633085 0.578607 0.481231
0.687693 0.629007 0.472076
0.753151 0.677510 0.382350
0.426243 0.396647 0.430706
0.468782 0.427487 0.420861
0.508246 0.457753 0.414431
0.546739 0.491456 0.424636
0.586512 0.530813 0.452852
0.629968 0.576250 0.488614
0.679657 0.626400 0.509610
0.738283 0.678103 0.481688
0.808697 0.726409 0.358849
0.468479 0.434939 0.443857
0.510957 0.467269 0.438611
0.551099 0.499915 0.438226
0.591045 0.536438 0.452961
0.633085 0.578607 0.481231
0.679657 0.626400 0.509610
0.733351 0.678003 0.512826
0.796908 0.729807 0.453765
0.873217 0.776413 0.283468
0.515397 0.477063 0.445272
0.558615 0.511026 0.441137
0.600261 0.545893 0.441334
0.642511 0.584780 0.453162
0.687693 0.629007 0.472076
0.738283 0.678103 0.481688
0.796908 0.729807 0.453765
0.866347 0.780061 0.348232
0.949527 0.823019 0.113171
0.569663 0.520307 0.403760
0.614460 0.555596 0.394284
0.658472 0.592081 0.386640
0.703914 0.632428 0.385163
0.753151 0.677510 0.382350
0.808697 0.726409 0.358849
0.873217 0.776413 0.283468
0.949527 0.823019 0.113171
1.000000 0.859931 0.000000
0.247288 0.264998 0.447447
0.298627 0.304126 0.460242
0.344239 0.335540 0.446982
0.386077 0.365043 0.432730
0.426243 0.396647 0.430706
0.466988 0.432567 0.442288
0.510714 0.473231 0.457008
0.559974 0.517271 0.452555
0.617470 0.561528 0.394778
0.298627 0.304126 0.460242
0.346789 0.338280 0.454845
0.389852 0.366954 0.433722
0.429803 0.395502 0.418974
0.468782 0.427487 0.420861
0.509078 0.464678 0.437799
0.553132 0.507052 0.456361
0.603532 0.552795 0.451274
0.663019 0.598299 0.385425
0.344239 0.335540 0.446982
0.389852 0.366954 0.433722
0.431014 0.394822 0.413089
0.469753 0.424050 0.404226
0.508246 0.457753 0.414431
0.548820 0.497252 0.439159
0.593952 0.542077 0.462021
0.646268 0.589963 0.454785
0.708547 0.636857 0.377376
0.386077 0.365043 0.432730
0.429803 0.395502 0.418974
0.469753 0.424050 0.404226
0.507994 0.455146 0.404668
0.546739 0.491456 0.424636
0.588353 0.533853 0.456625
0.635351 0.581419 0.481285
0.690397 0.631442 0.467425
0.756306 0.679418 0.372006
0.426243 0.396647 0.430706
0.468782 0.427487 0.420861
0.508246 0.457753 0.414431
0.546739 0.491456 0.424636
0.586512 0.530813 0.452852
0.629968 0.576250 0.488614
0.679657 0.626400 0.509610
0.738283 0.678103 0.481688
0.808697 0.726409 0.358849
0.466988 0.432567 0.442288
0.509078 0.464678 0.437799
0.548820 0.497252 0.439159
0.588353 0.533853 0.456625
0.629968 0.576250 0.488614
0.676102 0.624421 0.521698
0.729346 0.676550 0.530607
0.792440 0.729030 0.478224
0.868274 0.776461 0.315594
0.510714 0.473231 0.457008
0.553132 0.507052 0.456361
0.593952 0.542077 0.462021
0.635351 0.581419 0.481285
0.679657 0.626400 0.509610
0.729346 0.676550 0.530607
0.787046 0.729605 0.516042
0.855534 0.781510 0.425842
0.937738 0.826417 0.208087
0.559974 0.517271 0.452555
0.603532 0.552795 0.451274
0.646268 0.589963 0.454785
0.690397 0.631442 0.467425
0.738283 0.678103 0.481688
0.792440 0.729030 0.478224
0.855534 0.781510 0.425842
0.930379 0.831040 0.281505
1.000000 0.871324 0.000000
0.617470 0.561528 0.394778
0.663019 0.598299 0.385425
0.708547 0.636857 0.377376
0.756306 0.679418 0.372006
0.808697 0.726409 0.358849
0.868274 0.776461 0.315594
0.937738 0.826417 0.208087
1.000000 0.871324 0.000000
1.000000 0.904439 0.000000
0.291193 0.299704 0.449040
0.341044 0.337947 0.459595
0.385858 0.369963 0.449488
0.427623 0.401106 0.440823
0.468479 0.434939 0.443857
0.510714 0.473231 0.457008
0.556769 0.515960 0.466847
0.609234 0.561311 0.448103
0.670848 0.605676 0.363662
0.341044 0.337947 0.459595
0.388058 0.372034 0.455148
0.430672 0.401978 0.439381
0.470912 0.432685 0.431436
0.510957 0.467269 0.438611
0.553132 0.507052 0.456361
0.599915 0.551563 0.468297
0.653932 0.598538 0.446188
0.717963 0.643923 0.349958
0.385858 0.369963 0.449488
0.430672 0.401978 0.439381
0.471749 0.431636 0.425322
0.511153 0.463393 0.423491
0.551099 0.499915 0.438226
0.593952 0.542077 0.462021
0.642225 0.588959 0.475526
0.698585 0.637850 0.447549
0.765845 0.684247 0.335054
0.427623 0.401106 0.440823
0.470912 0.432685 0.431436
0.511153 0.463393 0.423491
0.550447 0.497237 0.430207
0.591045 0.536438 0.452961
0.635351 0.581419 0.481285
0.685916 0.630814 0.492871
0.745443 0.681464 0.453564
0.816783 0.728418 0.317366
0.468479 0.434939 0.443857
0.510957 0.467269 0.438611
0.551099 0.499915 0.438226
0.591045 0.536438 0.452961
0.633085 0.578607 0.481231
0.679657 0.626400 0.509610
0.733351 0.678003 0.512826
0.796908 0.729807 0.453765
0.873217 0.776413 0.283468
0.510714 0.473231 0.457008
0.553132 0.507052 0.456361
0.593952 0.542077 0.462021
0.635351 0.581419 0.481285
0.679657 0.626400 0.509610
0.729346 0.676550 0.530607
0.787046 0.729605 0.516042
0.855534 0.781510 0.425842
0.937738 0.826417 0.208087
0.556769 0.515960 0.466847
0.599915 0.551563 0.468297
0.642225 0.588959 0.475526
0.685916 0.630814 0.492871
0.733351 0.678003 0.512826
0.787046 0.729605 0.516042
0.849665 0.782910 0.471326
0.924022 0.833415 0.335642
1.000000 0.874823 0.054109
0.609234 0.561311 0.448103
0.653932 0.598538 0.446188
0.698585 0.637850 0.447549
0.745443 0.681464 0.453564
0.796908 0.729807 0.453765
0.855534 0.781510 0.425842
0.924022 0.833415 0.335642
1.000000 0.880570 0.137167
1.000000 0.916232 0.000000
0.670848 0.605676 0.363662
0.717963 0.643923 0.349958
0.765845 0.684247 0.335054
0.816783 0.728418 0.317366
0.873217 0.776413 0.283468
0.937738 0.826417 0.208087
1.000000 0.874823 0.054109
1.000000 0.916232 0.000000
1.000000 0.943450 0.000000
0.336627 0.337076 0.448906
0.385743 0.375174 0.457680
0.430533 0.408232 0.449211
0.473026 0.441157 0.442643
0.515397 0.477063 0.445272
0.559974 0.517271 0.452555
0.609234 0.561311 0.448103
0.665804 0.606919 0.403684
0.732462 0.650041 0.279222
0.385743 0.375174 0.457680
0.432370 0.409785 0.453655
0.475324 0.441290 0.440743
0.516667 0.474149 0.435124
0.558615 0.511026 0.441137
0.603532 0.552795 0.451274
0.653932 0.598538 0.446188
0.712481 0.645544 0.394684
0.781993 0.689308 0.253728
0.430533 0.408232 0.449211
0.475324 0.441290 0.440743
0.517116 0.472879 0.429767
0.558011 0.507007 0.429505
0.600261 0.545893 0.441334
0.646268 0.589963 0.454785
0.698585 0.637850 0.447549
0.759913 0.686394 0.385473
0.833105 0.730644 0.222558
0.473026 0.441157 0.442643
0.516667 0.474149 0.435124
0.558011 0.507007 0.429505
0.599196 0.543294 0.436046
0.642511 0.584780 0.453162
0.690397 0.631442 0.467425
0.745443 0.681464 0.453564
0.810388 0.731241 0.374465
0.888123 0.775371 0.181169
0.515397 0.477063 0.445272
0.558615 0.511026 0.441137
0.600261 0.545893 0.441334
0.642511 0.584780 0.453162
0.687693 0.629007 0.472076
0.738283 0.678103 0.481688
0.796908 0.729807 0.453765
0.866347 0.780061 0.348232
0.949527 0.823019 0.113171
0.559974 0.517271 0.452555
0.603532 0.552795 0.451274
0.646268 0.589963 0.454785
0.690397 0.631442 0.467425
0.738283 0.678103 0.481688
0.792440 0.729030 0.478224
0.855534 0.781510 0.425842
0.930379 0.831040 0.281505
1.000000 0.871324 0.000000
0.609234 0.561311 0.448103
0.653932 0.598538 0.446188
0.698585 0.637850 0.447549
0.745443 0.681464 0.453564
0.796908 0.729807 0.453765
0.855534 0.781510 0.425842
0.924022 0.833415 0.335642
1.000000 0.880570 0.137167
1.000000 0.916232 0.000000
0.665804 0.606919 0.403684
0.712481 0.645544 0.394684
0.759913 0.686394 0.385473
0.810388 0.731241 0.374465
0.866347 0.780061 0.348232
0.930379 0.831040 0.281505
1.000000 0.880570 0.137167
1.000000 0.923252 0.000000
1.000000 0.951893 0.000000
0.732462 0.650041 0.279222
0.781993 0.689308 0.253728
0.833105 0.730644 0.222558
0.888123 0.775371 0.181169
0.949527 0.823019 0.113171
1.000000 0.871324 0.000000
1.000000 0.916232 0.000000
1.000000 0.951893 0.000000
1.000000 0.970668 0.000000
0.386106 0.376197 0.427696
0.435274 0.414441 0.432186
0.480855 0.448534 0.420880
0.524913 0.482934 0.409959
0.569663 0.520307 0.403760
0.617470 0.561528 0.394778
0.670848 0.605676 0.363662
0.732462 0.650041 0.279222
0.805126 0.690119 0.098419
0.435274 0.414441 0.432186
0.482316 0.449717 0.425094
0.526435 0.482627 0.409574
0.569732 0.517180 0.398845
0.614460 0.555596 0.394284
0.663019 0.598299 0.385425
0.717963 0.643923 0.349958
0.781993 0.689308 0.253728
0.857963 0.729502 0.050738
0.480855 0.448534 0.420880
0.526435 0.482627 0.409574
0.569781 0.515839 0.395233
0.613030 0.551734 0.388116
0.658472 0.592081 0.386640
0.708547 0.636857 0.377376
0.765845 0.684247 0.335054
0.833105 0.730644 0.222558
0.913217 0.770648 0.000000
0.524913 0.482934 0.409959
0.569732 0.517180 0.398845
0.613030 0.551734 0.388116
0.656981 0.589710 0.385071
0.703914 0.632428 0.385163
0.756306 0.679418 0.372006
0.816783 0.728418 0.317366
0.888123 0.775371 0.181169
0.973255 0.814431 0.000000
0.569663 0.520307 0.403760
0.614460 0.555596 0.394284
0.658472 0.592081 0.386640
0.703914 0.632428 0.385163
0.753151 0.677510 0.382350
0.808697 0.726409 0.358849
0.873217 0.776413 0.283468
0.949527 0.823019 0.113171
1.000000 0.859931 0.000000
0.617470 0.561528 0.394778
0.663019 0.598299 0.385425
0.708547 0.636857 0.377376
0.756306 0.679418 0.372006
0.808697 0.726409 0.358849
0.868274 0.776461 0.315594
0.937738 0.826417 0.208087
1.000000 0.871324 0.000000
1.000000 0.904439 0.000000
0.670848 0.605676 0.363662
0.717963 0.643923 0.349958
0.765845 0.684247 0.335054
0.816783 0.728418 0.317366
0.873217 0.776413 0.283468
0.937738 0.826417 0.208087
1.000000 0.874823 0.054109
1.000000 0.916232 0.000000
1.000000 0.943450 0.000000
0.732462 0.650041 0.279222
0.781993 0.689308 0.253728
0.833105 0.730644 0.222558
0.888123 0.775371 0.181169
0.949527 0.823019 0.113171
1.000000 0.871324 0.000000
1.000000 0.916232 0.000000
1.000000 0.951893 0.000000
1.000000 0.970668 0.000000
0.805126 0.690119 0.098419
0.857963 0.729502 0.050738
0.913217 0.770648 0.000000
0.973255 0.814431 0.000000
1.000000 0.859931 0.000000
1.000000 0.904439 0.000000
1.000000 0.943450 0.000000
1.000000 0.970668 0.000000
1.000000 0.978005 0.000000
