public/luts/bw_delta_3200.cube
# Generated from ColorChecker fit
LUT_3D_SIZE 5
DOMAIN_MIN 0.0 0.0 0.0
DOMAIN_MAX 1.0 1.0 1.0
0.000000 0.038167 0.261755
0.101862 0.159186 0.448144
0.202550 0.232086 0.451632
0.291193 0.299704 0.449040
0.386106 0.376197 0.427696
0.101862 0.159186 0.448144
0.214077 0.246616 0.497821
0.303237 0.304986 0.455120
0.385858 0.369963 0.449488
0.480855 0.448534 0.420880
0.202550 0.232086 0.451632
0.303237 0.304986 0.455120
0.386175 0.363105 0.425170
0.468479 0.434939 0.443857
0.569663 0.520307 0.403760
0.291193 0.299704 0.449040
0.385858 0.369963 0.449488
0.468479 0.434939 0.443857
0.556769 0.515960 0.466847
0.670848 0.605676 0.363662
0.386106 0.376197 0.427696
0.480855 0.448534 0.420880
0.569663 0.520307 0.403760
0.670848 0.605676 0.363662
0.805126 0.690119 0.098419
0.101862 0.159186 0.448144
0.214077 0.246616 0.497821
0.303237 0.304986 0.455120
0.385858 0.369963 0.449488
0.480855 0.448534 0.420880
0.214077 0.246616 0.497821
0.312212 0.311182 0.463943
0.392398 0.363356 0.412418
0.471749 0.431636 0.425322
0.569781 0.515839 0.395233
0.303237 0.304986 0.455120
0.392398 0.363356 0.412418
0.469113 0.421223 0.395220
0.551099 0.499915 0.438226
0.658472 0.592081 0.386640
0.385858 0.369963 0.449488
0.471749 0.431636 0.425322
0.551099 0.499915 0.438226
0.642225 0.588959 0.475526
0.765845 0.684247 0.335054
0.480855 0.448534 0.420880
0.569781 0.515839 0.395233
0.658472 0.592081 0.386640
0.765845 0.684247 0.335054
0.913217 0.770648 0.000000
0.202550 0.232086 0.451632
0.303237 0.304986 0.455120
0.386175 0.363105 0.425170
0.468479 0.434939 0.443857
0.569663 0.520307 0.403760
0.303237 0.304986 0.455120
0.392398 0.363356 0.412418
0.469113 0.421223 0.395220
0.551099 0.499915 0.438226
0.658472 0.592081 0.386640
0.386175 0.363105 0.425170
0.469113 0.421223 0.395220
0.545311 0.488338 0.418132
0.633085 0.578607 0.481231
0.753151 0.677510 0.382350
0.468479 0.434939 0.443857
0.551099 0.499915 0.438226
0.633085 0.578607 0.481231
0.733351 0.678003 0.512826
0.873217 0.776413 0.283468
0.569663 0.520307 0.403760
0.658472 0.592081 0.386640
0.753151 0.677510 0.382350
0.873217 0.776413 0.283468
1.000000 0.859931 0.000000
0.291193 0.299704 0.449040
0.385858 0.369963 0.449488
0.468479 0.434939 0.443857
0.556769 0.515960 0.466847
0.670848 0.605676 0.363662
0.385858 0.369963 0.449488
0.471749 0.431636 0.425322
0.551099 0.499915 0.438226
0.642225 0.588959 0.475526
0.765845 0.684247 0.335054
0.468479 0.434939 0.443857
0.551099 0.499915 0.438226
0.633085 0.578607 0.481231
0.733351 0.678003 0.512826
0.873217 0.776413 0.283468
0.556769 0.515960 0.466847
0.642225 0.588959 0.475526
0.733351 0.678003 0.512826
0.849665 0.782910 0.471326
1.000000 0.874823 0.054109
0.670848 0.605676 0.363662
0.765845 0.684247 0.335054
0.873217 0.776413 0.283468
1.000000 0.874823 0.054109
1.000000 0.943450 0.000000
0.386106 0.376197 0.427696
0.480855 0.448534 0.420880
0.569663 0.520307 0.403760
0.670848 0.605676 0.363662
0.805126 0.690119 0.098419
0.480855 0.448534 0.420880
0.569781 0.515839 0.395233
0.658472 0.592081 0.386640
0.765845 0.684247 0.335054
0.913217 0.770648 0.000000
0.569663 0.520307 0.403760
0.658472 0.592081 0.386640
0.753151 0.677510 0.382350
0.873217 0.776413 0.283468
1.000000 0.859931 0.000000
0.670848 0.605676 0.363662
0.765845 0.684247 0.335054
0.873217 0.776413 0.283468
1.000000 0.874823 0.054109
1.000000 0.943450 0.000000
0.805126 0.690119 0.098419
0.913217 0.770648 0.000000
1.000000 0.859931 0.000000
1.000000 0.943450 0.000000
1.000000 0.978005 0.000000
