public/luts/bw_delta_3200.cube
# Generated from ColorChecker fit
LUT_3D_SIZE 33
DOMAIN_MIN 0.0 0.0 0.0
DOMAIN_MAX 1.0 1.0 1.0
0.000000 0.038167 0.261755
0.000000 0.058095 0.305755
0.008778 0.076354 0.342294
0.025644 0.093102 0.372203
0.041934 0.108489 0.396266
0.057674 0.122658 0.415222
0.072890 0.135746 0.429765
0.087610 0.147881 0.440539
0.101862 0.159186 0.448144
0.115674 0.169776 0.453135
0.129074 0.179759 0.456018
0.142094 0.189236 0.457254
0.154762 0.198302 0.457258
0.167110 0.207043 0.456399
0.179170 0.215540 0.454999
0.190972 0.223865 0.453333
0.202550 0.232086 0.451632
0.213936 0.240261 0.450079
0.225165 0.248443 0.448811
0.236271 0.256676 0.447918
0.247288 0.264998 0.447447
0.258253 0.273442 0.447394
0.269200 0.282030 0.447713
0.280168 0.290781 0.448308
0.291193 0.299704 0.449040
0.302312 0.308802 0.449722
0.313565 0.318072 0.450121
0.324990 0.327503 0.449958
0.336627 0.337076 0.448906
0.348516 0.346768 0.446596
0.360698 0.356545 0.442608
0.373214 0.366370 0.436478
0.386106 0.376197 0.427696
0.000000 0.058095 0.305755
0.009087 0.077161 0.345882
0.026246 0.094613 0.378833
0.042811 0.110606 0.405426
0.058809 0.125287 0.426436
0.074265 0.138799 0.442589
0.089206 0.151276 0.454567
0.103660 0.162846 0.463003
0.117655 0.173628 0.468485
0.131219 0.183736 0.471557
0.144381 0.193277 0.472713
0.157172 0.202350 0.472404
0.169622 0.211048 0.471031
0.181760 0.219455 0.468953
0.193620 0.227651 0.466479
0.205233 0.235706 0.463874
0.216632 0.243686 0.461357
0.227850 0.251647 0.459099
0.238921 0.259640 0.457226
0.249880 0.267708 0.455816
0.260761 0.275888 0.454904
0.271600 0.284209 0.454476
0.282433 0.292694 0.454473
0.293298 0.301358 0.454788
0.304231 0.310209 0.455270
0.315271 0.319248 0.455721
0.326455 0.328471 0.455896
0.337824 0.337865 0.455504
0.349417 0.347409 0.454208
0.361274 0.357077 0.451626
0.373436 0.366837 0.447327
0.385944 0.376646 0.440835
0.398842 0.386458 0.431629
0.008778 0.076354 0.342294
0.026246 0.094613 0.378833
0.043104 0.111310 0.408472
0.059377 0.126598 0.432020
0.075090 0.140624 0.450238
0.090271 0.153528 0.463842
0.104946 0.165442 0.473500
0.119143 0.176492 0.479837
0.132890 0.186797 0.483428
0.146215 0.196468 0.484804
0.159148 0.205610 0.484448
0.171720 0.214321 0.482800
0.183959 0.222691 0.480251
0.195898 0.230804 0.477145
0.207568 0.238737 0.473783
0.219002 0.246560 0.470416
0.230231 0.254334 0.467252
0.241291 0.262116 0.464450
0.252214 0.269954 0.462125
0.263035 0.277890 0.460345
0.273789 0.285959 0.459130
0.284513 0.294188 0.458457
0.295243 0.302598 0.458255
0.306015 0.311202 0.458405
0.316867 0.320008 0.458744
0.327837 0.329015 0.459064
0.338964 0.338215 0.459107
0.350287 0.347595 0.458571
0.361846 0.357132 0.457107
0.373682 0.366798 0.454322
0.385835 0.376559 0.449773
0.398348 0.386372 0.442973
0.411262 0.396186 0.433389
0.025644 0.093102 0.372203
0.042811 0.110606 0.405426
0.059377 0.126598 0.432020
0.075366 0.141231 0.452780
0.090804 0.154650 0.468456
0.105718 0.166993 0.479752
0.120136 0.178390 0.487327
0.134085 0.188966 0.491791
0.147592 0.198837 0.493709
0.160688 0.208113 0.493601
0.173401 0.216898 0.491938
0.185762 0.225286 0.489148
0.197802 0.233368 0.485610
0.209550 0.241225 0.481658
0.221040 0.248932 0.477579
0.232304 0.256556 0.473616
0.243374 0.264160 0.469962
0.254284 0.271795 0.466766
0.265069 0.279511 0.464132
0.275763 0.287346 0.462115
0.286402 0.295333 0.460725
0.297021 0.303498 0.459926
0.307657 0.311861 0.459635
0.318347 0.320433 0.459724
0.329128 0.329218 0.460017
0.340040 0.338216 0.460293
0.351120 0.347416 0.460284
0.362408 0.356803 0.459677
0.373945 0.366353 0.458111
0.385771 0.376037 0.455180
0.397926 0.385817 0.450430
0.410454 0.395649 0.443365
0.423396 0.405482 0.433437
0.041934 0.108489 0.396266
0.058809 0.125287 0.426436
0.075090 0.140624 0.450238
0.090804 0.154650 0.468456
0.105976 0.167509 0.481829
0.120633 0.179335 0.491049
0.134802 0.190260 0.496763
0.148511 0.200404 0.499569
0.161789 0.209883 0.500023
0.174665 0.218806 0.498630
0.187168 0.227272 0.495852
0.199328 0.235377 0.492104
0.211176 0.243208 0.487754
0.222744 0.250844 0.483125
0.234064 0.258360 0.478492
0.245167 0.265820 0.474085
0.256088 0.273285 0.470087
0.266860 0.280807 0.466636
0.277517 0.288429 0.463823
0.288094 0.296192 0.461692
0.298627 0.304126 0.460242
0.309151 0.312254 0.459424
0.319704 0.320595 0.459145
0.330322 0.329158 0.459265
0.341044 0.337947 0.459595
0.351908 0.346957 0.459904
0.362952 0.356178 0.459913
0.374217 0.365592 0.459295
0.385743 0.375174 0.457680
0.397569 0.384892 0.454649
0.409739 0.394708 0.449737
0.422293 0.404575 0.442435
0.435274 0.414441 0.432186
0.057674 0.122658 0.415222
0.074265 0.138799 0.442589
0.090271 0.153528 0.463842
0.105718 0.166993 0.479752
0.120633 0.179335 0.491049
0.135041 0.190690 0.498412
0.148971 0.201184 0.502476
0.162451 0.210938 0.503829
0.175508 0.220066 0.503014
0.188173 0.228673 0.500525
0.200475 0.236860 0.496813
0.212444 0.244718 0.492280
0.224111 0.252333 0.487283
0.235508 0.259783 0.482134
0.246667 0.267140 0.477096
0.257621 0.274469 0.472388
0.268402 0.281826 0.468182
0.279045 0.289263 0.464602
0.289585 0.296821 0.461729
0.300056 0.304539 0.459595
0.310493 0.312445 0.458188
0.320934 0.320562 0.457448
0.331414 0.328904 0.457269
0.341972 0.337482 0.457499
0.352645 0.346295 0.457940
0.363472 0.355338 0.458347
0.374491 0.364599 0.458430
0.385744 0.374058 0.457852
0.397269 0.383689 0.456229
0.409108 0.393457 0.453132
0.421303 0.403323 0.448085
0.433895 0.413238 0.440565
0.446927 0.423148 0.430006
0.072890 0.135746 0.429765
0.089206 0.151276 0.454567
0.104946 0.165442 0.473500
0.120136 0.178390 0.487327
0.134802 0.190260 0.496763
0.148971 0.201184 0.502476
0.162671 0.211289 0.505090
0.175930 0.220693 0.505183
0.188777 0.229507 0.503282
0.201240 0.237836 0.499875
0.213350 0.245778 0.495397
0.225138 0.253424 0.490241
0.236634 0.260857 0.484751
0.247870 0.268154 0.479228
0.258879 0.275385 0.473924
0.269693 0.282612 0.469045
0.280345 0.289890 0.464752
0.290870 0.297270 0.461159
0.301303 0.304791 0.458333
0.311677 0.312489 0.456297
0.322030 0.320392 0.455025
0.332398 0.328520 0.454446
0.342817 0.336887 0.454443
0.353325 0.345499 0.454853
0.363960 0.354356 0.455465
0.374761 0.363451 0.456025
0.385767 0.372770 0.456228
0.397019 0.382290 0.455727
0.408555 0.391984 0.454127
0.420419 0.401817 0.450986
0.432650 0.411745 0.445818
0.445292 0.421720 0.438089
0.458387 0.431685 0.427218
0.087610 0.147881 0.440539
0.103660 0.162846 0.463003
0.119143 0.176492 0.479837
0.134085 0.188966 0.491791
0.148511 0.200404 0.499569
0.162451 0.210938 0.503829
0.175930 0.220693 0.505183
0.188978 0.229783 0.504194
0.201623 0.238321 0.501382
0.213895 0.246408 0.497221
0.225824 0.254140 0.492135
0.237440 0.261607 0.486505
0.248775 0.268890 0.480665
0.259861 0.276065 0.474902
0.270729 0.283198 0.469458
0.281413 0.290352 0.464528
0.291947 0.297579 0.460260
0.302364 0.304927 0.456757
0.312700 0.312436 0.454074
0.322990 0.320139 0.452223
0.333269 0.328061 0.451167
0.343574 0.336222 0.450822
0.353943 0.344633 0.451061
0.364412 0.353299 0.451707
0.375021 0.362219 0.452541
0.385807 0.371382 0.453294
0.396811 0.380774 0.453651
0.408073 0.390370 0.453254
0.419633 0.400141 0.451696
0.431532 0.410050 0.448523
0.443812 0.420052 0.443237
0.456515 0.430096 0.435293
0.469685 0.440125 0.424100
0.101862 0.159186 0.448144
0.117655 0.173628 0.468485
0.132890 0.186797 0.483428
0.147592 0.198837 0.493709
0.161789 0.209883 0.500023
0.175508 0.220066 0.503014
0.188777 0.229507 0.503282
0.201623 0.238321 0.501382
0.214077 0.246616 0.497821
0.226167 0.254495 0.493059
0.237924 0.262050 0.487511
0.249379 0.269369 0.481546
0.260563 0.276533 0.475486
0.271508 0.283613 0.469606
0.282247 0.290678 0.464138
0.292812 0.297785 0.459263
0.303237 0.304986 0.455120
0.313558 0.312328 0.451798
0.323808 0.319848 0.449344
0.334023 0.327577 0.447754
0.344239 0.335540 0.446982
0.354493 0.343753 0.446933
0.364823 0.352227 0.447466
0.375265 0.360965 0.448396
0.385858 0.369963 0.449488
0.396642 0.379210 0.450465
0.407655 0.388688 0.451000
0.418939 0.398373 0.450721
0.430533 0.408232 0.449211
0.442480 0.418227 0.446006
0.454820 0.428312 0.440594
0.467598 0.438434 0.432420
0.480855 0.448534 0.420880
0.115674 0.169776 0.453135
0.131219 0.183736 0.471557
0.146215 0.196468 0.484804
0.160688 0.208113 0.493601
0.174665 0.218806 0.498630
0.188173 0.228673 0.500525
0.201240 0.237836 0.499875
0.213895 0.246408 0.497221
0.226167 0.254495 0.493059
0.238086 0.262196 0.487839
0.249681 0.269605 0.481963
0.260985 0.276806 0.475789
0.272028 0.283879 0.469628
0.282843 0.290893 0.463743
0.293462 0.297914 0.458354
0.303919 0.305000 0.453630
0.314247 0.312199 0.449700
0.324482 0.319557 0.446641
0.334657 0.327109 0.444486
0.344809 0.334885 0.443224
0.354973 0.342907 0.442793
0.365187 0.351191 0.443089
0.375488 0.359745 0.443959
0.385914 0.368570 0.445206
0.396504 0.377660 0.446584
0.407296 0.387004 0.447803
0.418331 0.396582 0.448526
0.429648 0.406366 0.448369
0.441289 0.416324 0.446904
0.453295 0.426414 0.443653
0.465709 0.436589 0.438096
0.478572 0.446795 0.429664
0.491928 0.456970 0.417741
0.129074 0.179759 0.456018
0.144381 0.193277 0.472713
0.159148 0.205610 0.484448
0.173401 0.216898 0.491938
0.187168 0.227272 0.495852
0.200475 0.236860 0.496813
0.213350 0.245778 0.495397
0.225824 0.254140 0.492135
0.237924 0.262050 0.487511
0.249681 0.269605 0.481963
0.261126 0.276897 0.475883
0.272289 0.284008 0.469616
0.283202 0.291015 0.463460
0.293897 0.297989 0.457670
0.304408 0.304992 0.452451
0.314767 0.312078 0.447964
0.325008 0.319298 0.444322
0.335167 0.326693 0.441595
0.345279 0.334297 0.439802
0.355378 0.342139 0.438919
0.365502 0.350238 0.438876
0.375688 0.358608 0.439555
0.385972 0.367256 0.440792
0.396394 0.376182 0.442378
0.406991 0.385379 0.444057
0.417804 0.394831 0.445525
0.428872 0.404518 0.446436
0.440235 0.414411 0.446393
0.451934 0.424475 0.444956
0.464012 0.434667 0.441637
0.476510 0.444939 0.435903
0.489471 0.455233 0.427173
0.502939 0.465487 0.414822
0.142094 0.189236 0.457254
0.157172 0.202350 0.472404
0.171720 0.214321 0.482800
0.185762 0.225286 0.489148
0.199328 0.235377 0.492104
0.212444 0.244718 0.492280
0.225138 0.253424 0.490241
0.237440 0.261607 0.486505
0.249379 0.269369 0.481546
0.260985 0.276806 0.475789
0.272289 0.284008 0.469616
0.283321 0.291055 0.463358
0.294115 0.298023 0.457305
0.304701 0.304980 0.451697
0.315114 0.311986 0.446730
0.325386 0.319096 0.442551
0.335552 0.326357 0.439264
0.345647 0.333808 0.436924
0.355706 0.341482 0.435543
0.365764 0.349405 0.435082
0.375859 0.357597 0.435461
0.386028 0.366068 0.436549
0.396307 0.374824 0.438172
0.406736 0.383864 0.440108
0.417353 0.393176 0.442090
0.428198 0.402747 0.443805
0.439310 0.412552 0.444890
0.450731 0.422561 0.444941
0.462502 0.432737 0.443505
0.474663 0.443037 0.440083
0.487259 0.453409 0.434128
0.500330 0.463794 0.425051
0.513923 0.474129 0.412213
0.154762 0.198302 0.457258
0.169622 0.211048 0.471031
0.183959 0.222691 0.480251
0.197802 0.233368 0.485610
0.211176 0.243208 0.487754
0.224111 0.252333 0.487283
0.236634 0.260857 0.484751
0.248775 0.268890 0.480665
0.260563 0.276533 0.475486
0.272028 0.283879 0.469628
0.283202 0.291015 0.463460
0.294115 0.298023 0.457305
0.304799 0.304975 0.451438
0.315288 0.311936 0.446089
0.325613 0.318968 0.441442
0.335810 0.326121 0.437633
0.345912 0.333440 0.434754
0.355954 0.340964 0.432848
0.365971 0.348725 0.431916
0.376000 0.356745 0.431908
0.386077 0.365043 0.432730
0.396240 0.373629 0.434242
0.406526 0.382505 0.436258
0.416974 0.391667 0.438545
0.427623 0.401106 0.440823
0.438512 0.410803 0.442766
0.449682 0.420732 0.444004
0.461172 0.430864 0.444117
0.473026 0.441157 0.442643
0.485284 0.451567 0.439069
0.497989 0.462041 0.432841
0.511184 0.472519 0.423354
0.524913 0.482934 0.409959
0.167110 0.207043 0.456399
0.181760 0.219455 0.468953
0.195898 0.230804 0.477145
0.209550 0.241225 0.481658
0.222744 0.250844 0.483125
0.235508 0.259783 0.482134
0.247870 0.268154 0.479228
0.259861 0.276065 0.474902
0.271508 0.283613 0.469606
0.282843 0.290893 0.463743
0.293897 0.297989 0.457670
0.304701 0.304980 0.451697
0.315288 0.311936 0.446089
0.325689 0.318924 0.441064
0.335939 0.325999 0.436794
0.346071 0.333213 0.433405
0.356120 0.340608 0.430975
0.366120 0.348221 0.429538
0.376108 0.356083 0.429081
0.386119 0.364214 0.429544
0.396190 0.372630 0.430821
0.406359 0.381340 0.432762
0.416664 0.390345 0.435166
0.427143 0.399640 0.437790
0.437835 0.409212 0.440344
0.448781 0.419041 0.442489
0.460019 0.429101 0.443843
0.471593 0.439358 0.443976
0.483542 0.449772 0.442413
0.495908 0.460294 0.438631
0.508736 0.470871 0.432061
0.522067 0.481440 0.422090
0.535946 0.491934 0.408057
0.179170 0.215540 0.454999
0.193620 0.227651 0.466479
0.207568 0.238737 0.473783
0.221040 0.248932 0.477579
0.234064 0.258360 0.478492
0.246667 0.267140 0.477096
0.258879 0.275385 0.473924
0.270729 0.283198 0.469458
0.282247 0.290678 0.464138
0.293462 0.297914 0.458354
0.304408 0.304992 0.452451
0.315114 0.311986 0.446730
0.325613 0.318968 0.441442
0.335939 0.325999 0.436794
0.346124 0.333136 0.432947
0.356203 0.340426 0.430015
0.366210 0.347912 0.428065
0.376180 0.355629 0.427119
0.386150 0.363603 0.427152
0.396155 0.371857 0.428094
0.406232 0.380402 0.429826
0.416419 0.389246 0.432186
0.426755 0.398389 0.434963
0.437277 0.407823 0.437901
0.448025 0.417534 0.440699
0.459039 0.427500 0.443007
0.470360 0.437693 0.444431
0.482028 0.448078 0.444529
0.494085 0.458613 0.442814
0.506573 0.469247 0.438753
0.519536 0.479925 0.431766
0.533016 0.490584 0.421226
0.547057 0.501152 0.406460
0.190972 0.223865 0.453333
0.205233 0.235706 0.463874
0.219002 0.246560 0.470416
0.232304 0.256556 0.473616
0.245167 0.265820 0.474085
0.257621 0.274469 0.472388
0.269693 0.282612 0.469045
0.281413 0.290352 0.464528
0.292812 0.297785 0.459263
0.303919 0.305000 0.453630
0.314767 0.312078 0.447964
0.325386 0.319096 0.442551
0.335810 0.326121 0.437633
0.346071 0.333213 0.433405
0.356203 0.340426 0.430015
0.366240 0.347808 0.427567
0.376217 0.355399 0.426115
0.386169 0.363230 0.425671
0.396132 0.371329 0.426198
0.406142 0.379714 0.427613
0.416238 0.388397 0.429788
0.426455 0.397383 0.432547
0.436833 0.406669 0.435669
0.447411 0.416247 0.438887
0.458227 0.426101 0.441886
0.469323 0.436207 0.444306
0.480737 0.446536 0.445741
0.492513 0.457049 0.445738
0.504691 0.467704 0.443799
0.517314 0.478449 0.439377
0.530424 0.489225 0.431882
0.544067 0.499969 0.420676
0.558284 0.510607 0.405075
0.202550 0.232086 0.451632
0.216632 0.243686 0.461357
0.230231 0.254334 0.467252
0.243374 0.264160 0.469962
0.256088 0.273285 0.470087
0.268402 0.281826 0.468182
0.280345 0.289890 0.464752
0.291947 0.297579 0.460260
0.303237 0.304986 0.455120
0.314247 0.312199 0.449700
0.325008 0.319298 0.444322
0.335552 0.326357 0.439264
0.345912 0.333440 0.434754
0.356120 0.340608 0.430975
0.366210 0.347912 0.428065
0.376217 0.355399 0.426115
0.386175 0.363105 0.425170
0.396121 0.371062 0.425227
0.406089 0.379294 0.426240
0.416118 0.387819 0.428113
0.426243 0.396647 0.430706
0.436503 0.405779 0.433834
0.446936 0.415214 0.437262
0.457581 0.424940 0.440711
0.468479 0.434939 0.443857
0.479668 0.445186 0.446327
0.491189 0.455649 0.447704
0.503085 0.466290 0.447522
0.515397 0.477063 0.445272
0.528167 0.487914 0.440397
0.541439 0.498784 0.432294
0.555256 0.509607 0.420314
0.569663 0.520307 0.403760
0.213936 0.240261 0.450079
0.227850 0.251647 0.459099
0.241291 0.262116 0.464450
0.254284 0.271795 0.466766
0.266860 0.280807 0.466636
0.279045 0.289263 0.464602
0.290870 0.297270 0.461159
0.302364 0.304927 0.456757
0.313558 0.312328 0.451798
0.324482 0.319557 0.446641
0.335167 0.326693 0.441595
0.345647 0.333808 0.436924
0.355954 0.340964 0.432848
0.366120 0.348221 0.429538
0.376180 0.355629 0.427119
0.386169 0.363230 0.425671
0.396121 0.371062 0.425227
0.406072 0.379153 0.425774
0.416058 0.387527 0.427252
0.426116 0.396198 0.429556
0.436284 0.405175 0.432533
0.446598 0.414459 0.435985
0.457099 0.424045 0.439669
0.467825 0.433920 0.443292
0.478815 0.444064 0.446518
0.490111 0.454451 0.448965
0.501753 0.465048 0.450201
0.513782 0.475813 0.449752
0.526240 0.486699 0.447095
0.539171 0.497652 0.441662
0.552618 0.508609 0.432838
0.566623 0.519503 0.419963
0.581233 0.530257 0.402329
0.225165 0.248443 0.448811
0.238921 0.259640 0.457226
0.252214 0.269954 0.462125
0.265069 0.279511 0.464132
0.277517 0.288429 0.463823
0.289585 0.296821 0.461729
0.301303 0.304791 0.458333
0.312700 0.312436 0.454074
0.323808 0.319848 0.449344
0.334657 0.327109 0.444486
0.345279 0.334297 0.439802
0.355706 0.341482 0.435543
0.365971 0.348725 0.431916
0.376108 0.356083 0.429081
0.386150 0.363603 0.427152
0.396132 0.371329 0.426198
0.406089 0.379294 0.426240
0.416058 0.387527 0.427252
0.426074 0.396047 0.429164
0.436174 0.404869 0.431859
0.446396 0.413999 0.435173
0.456778 0.423436 0.438896
0.467359 0.433174 0.442773
0.478178 0.443198 0.446500
0.489275 0.453487 0.449729
0.500690 0.464012 0.452066
0.512464 0.474738 0.453070
0.524640 0.485623 0.452252
0.537259 0.496616 0.449079
0.550363 0.507663 0.442972
0.563998 0.518699 0.433303
0.578205 0.529655 0.419402
0.593031 0.540452 0.400548
0.236271 0.256676 0.447918
0.249880 0.267708 0.455816
0.263035 0.277890 0.460345
0.275763 0.287346 0.462115
0.288094 0.296192 0.461692
0.300056 0.304539 0.459595
0.311677 0.312489 0.456297
0.322990 0.320139 0.452223
0.334023 0.327577 0.447754
0.344809 0.334885 0.443224
0.355378 0.342139 0.438919
0.365764 0.349405 0.435082
0.376000 0.356745 0.431908
0.386119 0.364214 0.429544
0.396155 0.371857 0.428094
0.406142 0.379714 0.427613
0.416118 0.387819 0.428113
0.426116 0.396198 0.429556
0.436174 0.404869 0.431859
0.446329 0.413844 0.434895
0.456618 0.423128 0.438487
0.467081 0.432720 0.442415
0.477754 0.442609 0.446411
0.488679 0.452781 0.450160
0.499895 0.463211 0.453304
0.511443 0.473869 0.455434
0.523363 0.484719 0.456100
0.535698 0.495717 0.454801
0.548490 0.506811 0.450992
0.561782 0.517943 0.444083
0.575618 0.529048 0.433435
0.590041 0.540054 0.418364
0.605097 0.550882 0.398140
0.247288 0.264998 0.447447
0.260761 0.275888 0.454904
0.273789 0.285959 0.459130
0.286402 0.295333 0.460725
0.298627 0.304126 0.460242
0.310493 0.312445 0.458188
0.322030 0.320392 0.455025
0.333269 0.328061 0.451167
0.344239 0.335540 0.446982
0.354973 0.342907 0.442793
0.365502 0.350238 0.438876
0.375859 0.357597 0.435461
0.386077 0.365043 0.432730
0.396190 0.372630 0.430821
0.406232 0.380402 0.429826
0.416238 0.388397 0.429788
0.426243 0.396647 0.430706
0.436284 0.405175 0.432533
0.446396 0.413999 0.435173
0.456618 0.423128 0.438487
0.466988 0.432567 0.442288
0.477543 0.442311 0.446343
0.488322 0.452350 0.450372
0.499366 0.462665 0.454051
0.510714 0.473231 0.457008
0.522407 0.484017 0.458824
0.534487 0.494984 0.459035
0.546995 0.506087 0.457131
0.559974 0.517271 0.452555
0.573467 0.528478 0.444705
0.587518 0.539640 0.432929
0.602171 0.550683 0.416534
0.617470 0.561528 0.394778
0.258253 0.273442 0.447394
0.271600 0.284209 0.454476
0.284513 0.294188 0.458457
0.297021 0.303498 0.459926
0.309151 0.312254 0.459424
0.320934 0.320562 0.457448
0.332398 0.328520 0.454446
0.343574 0.336222 0.450822
0.354493 0.343753 0.446933
0.365187 0.351191 0.443089
0.375688 0.358608 0.439555
0.386028 0.366068 0.436549
0.396240 0.373629 0.434242
0.406359 0.381340 0.432762
0.416419 0.389246 0.432186
0.426455 0.397383 0.432547
0.436503 0.405779 0.433834
0.446598 0.414459 0.435985
0.456778 0.423436 0.438896
0.467081 0.432720 0.442415
0.477543 0.442311 0.446343
0.488203 0.452205 0.450435
0.499102 0.462388 0.454402
0.510278 0.472841 0.457905
0.521771 0.483538 0.460563
0.533624 0.494444 0.461944
0.545876 0.505519 0.461574
0.558571 0.516716 0.458929
0.571750 0.527979 0.453443
0.585458 0.539248 0.444500
0.599737 0.550454 0.431439
0.614633 0.561520 0.413554
0.630191 0.572365 0.390090
0.269200 0.282030 0.447713
0.282433 0.292694 0.454473
0.295243 0.302598 0.458255
0.307657 0.311861 0.459635
0.319704 0.320595 0.459145
0.331414 0.328904 0.457269
0.342817 0.336887 0.454443
0.353943 0.344633 0.451061
0.364823 0.352227 0.447466
0.375488 0.359745 0.443959
0.385972 0.367256 0.440792
0.396307 0.374824 0.438172
0.406526 0.382505 0.436258
0.416664 0.390345 0.435166
0.426755 0.398389 0.434963
0.436833 0.406669 0.435669
0.446936 0.415214 0.437262
0.457099 0.424045 0.439669
0.467359 0.433174 0.442773
0.477754 0.442609 0.446411
0.488322 0.452350 0.450372
0.499102 0.462388 0.454402
0.510132 0.472710 0.458197
0.521454 0.483294 0.461409
0.533106 0.494112 0.463643
0.545131 0.505129 0.464458
0.557569 0.516302 0.463366
0.570464 0.527581 0.459835
0.583858 0.538911 0.453283
0.597794 0.550228 0.443085
0.612317 0.561462 0.428569
0.627470 0.572535 0.409015
0.643300 0.583363 0.383659
0.280168 0.290781 0.448308
0.293298 0.301358 0.454788
0.306015 0.311202 0.458405
0.318347 0.320433 0.459724
0.330322 0.329158 0.459265
0.341972 0.337482 0.457499
0.353325 0.345499 0.454853
0.364412 0.353299 0.451707
0.375265 0.360965 0.448396
0.385914 0.368570 0.445206
0.396394 0.376182 0.442378
0.406736 0.383864 0.440108
0.416974 0.391667 0.438545
0.427143 0.399640 0.437790
0.437277 0.407823 0.437901
0.447411 0.416247 0.438887
0.457581 0.424940 0.440711
0.467825 0.433920 0.443292
0.478178 0.443198 0.446500
0.488679 0.452781 0.450160
0.499366 0.462665 0.454051
0.510278 0.472841 0.457905
0.521454 0.483294 0.461409
0.532934 0.494001 0.464202
0.544758 0.504930 0.465877
0.556969 0.516046 0.465982
0.569608 0.527304 0.464019
0.582717 0.538653 0.459441
0.596339 0.550035 0.451658
0.610518 0.561384 0.440031
0.625297 0.572629 0.423877
0.640722 0.583690 0.402466
0.656838 0.594482 0.375020
0.291193 0.299704 0.449040
0.304231 0.310209 0.455270
0.316867 0.320008 0.458744
0.329128 0.329218 0.460017
0.341044 0.337947 0.459595
0.352645 0.346295 0.457940
0.363960 0.354356 0.455465
0.375021 0.362219 0.452541
0.385858 0.369963 0.449488
0.396504 0.377660 0.446584
0.406991 0.385379 0.444057
0.417353 0.393176 0.442090
0.427623 0.401106 0.440823
0.437835 0.409212 0.440344
0.448025 0.417534 0.440699
0.458227 0.426101 0.441886
0.468479 0.434939 0.443857
0.478815 0.444064 0.446518
0.489275 0.453487 0.449729
0.499895 0.463211 0.453304
0.510714 0.473231 0.457008
0.521771 0.483538 0.460563
0.533106 0.494112 0.463643
0.544758 0.504930 0.465877
0.556769 0.515960 0.466847
0.569180 0.527162 0.466088
0.582033 0.538491 0.463090
0.595370 0.549894 0.457296
0.609234 0.561311 0.448103
0.623670 0.572675 0.434862
0.638720 0.583912 0.416877
0.654431 0.594942 0.393407
0.670848 0.605676 0.363662
0.302312 0.308802 0.449722
0.315271 0.319248 0.455721
0.327837 0.329015 0.459064
0.340040 0.338216 0.460293
0.351908 0.346957 0.459904
0.363472 0.355338 0.458347
0.374761 0.363451 0.456025
0.385807 0.371382 0.453294
0.396642 0.379210 0.450465
0.407296 0.387004 0.447803
0.417804 0.394831 0.445525
0.428198 0.402747 0.443805
0.438512 0.410803 0.442766
0.448781 0.419041 0.442489
0.459039 0.427500 0.443007
0.469323 0.436207 0.444306
0.479668 0.445186 0.446327
0.490111 0.454451 0.448965
0.500690 0.464012 0.452066
0.511443 0.473869 0.455434
0.522407 0.484017 0.458824
0.533624 0.494444 0.461944
0.545131 0.505129 0.464458
0.556969 0.516046 0.465982
0.569180 0.527162 0.466088
0.581805 0.538436 0.464298
0.594886 0.549820 0.460092
0.608465 0.561260 0.452900
0.622585 0.572694 0.442108
0.637292 0.584053 0.427056
0.652628 0.595262 0.407035
0.668640 0.606238 0.381293
0.685372 0.616892 0.349030
0.313565 0.318072 0.450121
0.326455 0.328471 0.455896
0.338964 0.338215 0.459107
0.351120 0.347416 0.460284
0.362952 0.356178 0.459913
0.374491 0.364599 0.458430
0.385767 0.372770 0.456228
0.396811 0.380774 0.453651
0.407655 0.388688 0.451000
0.418331 0.396582 0.448526
0.428872 0.404518 0.446436
0.439310 0.412552 0.444890
0.449682 0.420732 0.444004
0.460019 0.429101 0.443843
0.470360 0.437693 0.444431
0.480737 0.446536 0.445741
0.491189 0.455649 0.447704
0.501753 0.465048 0.450201
0.512464 0.474738 0.453070
0.523363 0.484719 0.456100
0.534487 0.494984 0.459035
0.545876 0.505519 0.461574
0.557569 0.516302 0.463366
0.569608 0.527304 0.464019
0.582033 0.538491 0.463090
0.594886 0.549820 0.460092
0.608208 0.561242 0.454491
