public/luts/bw_hp5.cube
# Generated from ColorChecker fit
LUT_3D_SIZE 9
DOMAIN_MIN 0.0 0.0 0.0
DOMAIN_MAX 1.0 1.0 1.0
0.282605 1.000000 1.000000
0.224937 0.719664 1.000000
0.210571 0.540520 1.000000
0.223407 0.458738 0.873261
0.251570 0.430752 0.772313
0.287414 0.428600 0.708857
0.327518 0.439925 0.666220
0.372689 0.467974 0.660468
0.427962 0.531599 0.740404
0.224937 0.719664 1.000000
0.191956 0.473416 0.941019
0.196205 0.361376 0.704207
0.222642 0.328275 0.600881
0.260448 0.334448 0.557076
0.303033 0.355834 0.531565
0.348034 0.383977 0.515860
0.397315 0.426026 0.534209
0.456965 0.504733 0.643601
0.210571 0.540520 1.000000
0.196205 0.361376 0.704207
0.213704 0.296717 0.549193
0.249079 0.295174 0.497555
0.292569 0.320984 0.483511
0.338642 0.353986 0.474018
0.385991 0.389628 0.468773
0.437536 0.438956 0.500209
0.500425 0.528625 0.633501
0.223407 0.458738 0.873261
0.222642 0.328275 0.600881
0.249079 0.295174 0.497555
0.289786 0.311968 0.472949
0.336060 0.346793 0.469467
0.383424 0.383393 0.462250
0.431629 0.421112 0.459179
0.484651 0.474901 0.500873
0.550695 0.575316 0.660690
0.251570 0.430752 0.772313
0.260448 0.334448 0.557076
0.292569 0.320984 0.483511
0.336060 0.346793 0.469467
0.383273 0.383915 0.465532
0.430789 0.419992 0.455033
0.479413 0.458271 0.454035
0.534181 0.517604 0.511342
0.604353 0.632446 0.708495
0.287414 0.428600 0.708857
0.303033 0.355834 0.531565
0.338642 0.353986 0.474018
0.383424 0.383393 0.462250
0.430789 0.419992 0.455033
0.478372 0.455329 0.443879
0.528038 0.496551 0.453037
0.585878 0.566410 0.539496
0.662208 0.703264 0.792983
0.327518 0.439925 0.666220
0.348034 0.383977 0.515860
0.385991 0.389628 0.468773
0.431629 0.421112 0.459179
0.479413 0.458271 0.454035
0.528038 0.496551 0.453037
0.580423 0.546999 0.488619
0.643717 0.636270 0.625955
0.729293 0.806621 0.962955
0.372689 0.467974 0.660468
0.397315 0.426026 0.534209
0.437536 0.438956 0.500209
0.484651 0.474901 0.500873
0.534181 0.517604 0.511342
0.585878 0.566410 0.539496
0.643717 0.636270 0.625955
0.715904 0.757737 0.844076
0.814869 0.976973 1.000000
0.427962 0.531599 0.740404
0.456965 0.504733 0.643601
0.500425 0.528625 0.633501
0.550695 0.575316 0.660690
0.604353 0.632446 0.708495
0.662208 0.703264 0.792983
0.729293 0.806621 0.962955
0.814869 0.976973 1.000000
0.932424 1.000000 1.000000
0.224937 0.719664 1.000000
0.191956 0.473416 0.941019
0.196205 0.361376 0.704207
0.222642 0.328275 0.600881
0.260448 0.334448 0.557076
0.303033 0.355834 0.531565
0.348034 0.383977 0.515860
0.397315 0.426026 0.534209
0.456965 0.504733 0.643601
0.191956 0.473416 0.941019
0.180450 0.304784 0.604624
0.200455 0.249336 0.467394
0.237985 0.255704 0.430812
0.283279 0.288125 0.429095
0.330803 0.326438 0.429202
0.379250 0.366089 0.430828
0.431541 0.418128 0.466407
0.494824 0.509206 0.601113
0.196205 0.361376 0.704207
0.200455 0.249336 0.467394
0.231202 0.232057 0.394180
0.275515 0.262073 0.394230
0.324691 0.307519 0.409946
0.374252 0.352139 0.416471
0.423949 0.395278 0.421686
0.477758 0.451886 0.466210
0.543885 0.552518 0.623400
0.222642 0.328275 0.600881
0.237985 0.255704 0.430812
0.275515 0.262073 0.394230
0.323358 0.303814 0.408984
0.373866 0.352966 0.425662
0.423620 0.397172 0.427592
0.473426 0.439680 0.430839
0.528319 0.499339 0.484205
0.597559 0.610607 0.669234
0.260448 0.334448 0.557076
0.283279 0.288125 0.429095
0.324691 0.307519 0.409946
0.373866 0.352966 0.425662
0.424215 0.400405 0.435017
0.473374 0.441379 0.429522
0.523206 0.483036 0.433427
0.579803 0.548130 0.503719
0.653483 0.675018 0.730126
0.303033 0.355834 0.531565
0.330803 0.326438 0.429202
0.374252 0.352139 0.416471
0.423620 0.397172 0.427592
0.473374 0.441379 0.429522
0.522207 0.480203 0.421957
0.573039 0.524694 0.437331
0.633018 0.601506 0.540818
0.713519 0.752897 0.830328
0.348034 0.383977 0.515860
0.379250 0.366089 0.430828
0.423949 0.395278 0.421686
0.473426 0.439680 0.430839
0.523206 0.483036 0.433427
0.573039 0.524694 0.437331
0.626901 0.579603 0.483171
0.692997 0.678318 0.644304
0.783759 0.866999 1.000000
0.397315 0.426026 0.534209
0.431541 0.418128 0.466407
0.477758 0.451886 0.466210
0.528319 0.499339 0.484205
0.579803 0.548130 0.503719
0.633018 0.601506 0.540818
0.692997 0.678318 0.644304
0.769002 0.813023 0.895721
0.874520 1.000000 1.000000
0.456965 0.504733 0.643601
0.494824 0.509206 0.601113
0.543885 0.552518 0.623400
0.597559 0.610607 0.669234
0.653483 0.675018 0.730126
0.713519 0.752897 0.830328
0.783759 0.866999 1.000000
0.874520 1.000000 1.000000
1.000000 1.000000 1.000000
0.210571 0.540520 1.000000
0.196205 0.361376 0.704207
0.213704 0.296717 0.549193
0.249079 0.295174 0.497555
0.292569 0.320984 0.483511
0.338642 0.353986 0.474018
0.385991 0.389628 0.468773
0.437536 0.438956 0.500209
0.500425 0.528625 0.633501
0.196205 0.361376 0.704207
0.200455 0.249336 0.467394
0.231202 0.232057 0.394180
0.275515 0.262073 0.394230
0.324691 0.307519 0.409946
0.374252 0.352139 0.416471
0.423949 0.395278 0.421686
0.477758 0.451886 0.466210
0.543885 0.552518 0.623400
0.213704 0.296717 0.549193
0.231202 0.232057 0.394180
0.270535 0.245036 0.369926
0.319828 0.292088 0.394279
0.371435 0.345250 0.417829
0.421935 0.392166 0.423902
0.472135 0.436083 0.428563
0.527070 0.495852 0.480616
0.595999 0.605928 0.661603
0.249079 0.295174 0.497555
0.275515 0.262073 0.394230
0.319828 0.292088 0.394279
0.371200 0.345555 0.423738
0.423042 0.398413 0.441379
0.472988 0.442206 0.438713
0.522904 0.484081 0.439991
0.578880 0.546793 0.502200
0.651233 0.668696 0.715068
0.292569 0.320984 0.483511
0.324691 0.307519 0.409946
0.371435 0.345250 0.417829
0.423042 0.398413 0.441379
0.473977 0.446847 0.447553
0.522935 0.485998 0.436048
0.572835 0.526915 0.439297
0.630826 0.596252 0.522474
0.708281 0.736267 0.783490
0.338642 0.353986 0.474018
0.374252 0.352139 0.416471
0.421935 0.392166 0.423902
0.472988 0.442206 0.438713
0.522935 0.485998 0.436048
0.571525 0.522890 0.423786
0.622736 0.567833 0.442546
0.684772 0.651379 0.565687
0.770063 0.819690 0.899304
0.385991 0.389628 0.468773
0.423949 0.395278 0.421686
0.472135 0.436083 0.428563
0.522904 0.484081 0.439991
0.572835 0.526915 0.439297
0.622736 0.567833 0.442546
0.677639 0.625684 0.498543
0.746807 0.734926 0.688828
0.843727 0.945619 1.000000
0.437536 0.438956 0.500209
0.477758 0.451886 0.466210
0.527070 0.495852 0.480616
0.578880 0.546793 0.502200
0.630826 0.596252 0.522474
0.684772 0.651379 0.565687
0.746807 0.734926 0.688828
0.827251 0.885250 0.981623
0.940647 1.000000 1.000000
0.500425 0.528625 0.633501
0.543885 0.552518 0.623400
0.595999 0.605928 0.661603
0.651233 0.668696 0.715068
0.708281 0.736267 0.783490
0.770063 0.819690 0.899304
0.843727 0.945619 1.000000
0.940647 1.000000 1.000000
1.000000 1.000000 1.000000
0.223407 0.458738 0.873261
0.222642 0.328275 0.600881
0.249079 0.295174 0.497555
0.289786 0.311968 0.472949
0.336060 0.346793 0.469467
0.383424 0.383393 0.462250
0.431629 0.421112 0.459179
0.484651 0.474901 0.500873
0.550695 0.575316 0.660690
0.222642 0.328275 0.600881
0.237985 0.255704 0.430812
0.275515 0.262073 0.394230
0.323358 0.303814 0.408984
0.373866 0.352966 0.425662
0.423620 0.397172 0.427592
0.473426 0.439680 0.430839
0.528319 0.499339 0.484205
0.597559 0.610607 0.669234
0.249079 0.295174 0.497555
0.275515 0.262073 0.394230
0.319828 0.292088 0.394279
0.371200 0.345555 0.423738
0.423042 0.398413 0.441379
0.472988 0.442206 0.438713
0.522904 0.484081 0.439991
0.578880 0.546793 0.502200
0.651233 0.668696 0.715068
0.289786 0.311968 0.472949
0.323358 0.303814 0.408984
0.371200 0.345555 0.423738
0.423553 0.401427 0.451430
0.474883 0.451271 0.459020
0.523882 0.490531 0.446201
0.573472 0.530257 0.445409
0.630800 0.597102 0.521816
0.707240 0.733325 0.773334
0.336060 0.346793 0.469467
0.373866 0.352966 0.425662
0.423042 0.398413 0.441379
0.474883 0.451271 0.459020
0.524913 0.495281 0.453727
0.572882 0.529791 0.433382
0.622767 0.569750 0.438603
0.682772 0.645712 0.542748
0.765329 0.803838 0.851912
0.383424 0.383393 0.462250
0.423620 0.397172 0.427592
0.472988 0.442206 0.438713
0.523882 0.490531 0.446201
0.572882 0.529791 0.433382
0.620793 0.563233 0.416322
0.672652 0.609708 0.443824
0.737717 0.703673 0.597431
0.829478 0.895187 0.991422
0.431629 0.421112 0.459179
0.473426 0.439680 0.430839
0.522904 0.484081 0.439991
0.573472 0.530257 0.445409
0.622767 0.569750 0.438603
0.672652 0.609708 0.443824
0.729218 0.672885 0.518060
0.802783 0.797638 0.751037
0.907892 1.000000 1.000000
0.484651 0.474901 0.500873
0.528319 0.499339 0.484205
0.578880 0.546793 0.502200
0.630800 0.597102 0.521816
0.682772 0.645712 0.542748
0.737717 0.703673 0.597431
0.802783 0.797638 0.751037
0.889343 0.969864 1.000000
1.000000 1.000000 1.000000
0.550695 0.575316 0.660690
0.597559 0.610607 0.669234
0.651233 0.668696 0.715068
0.707240 0.733325 0.773334
0.765329 0.803838 0.851912
0.829478 0.895187 0.991422
0.907892 1.000000 1.000000
1.000000 1.000000 1.000000
1.000000 1.000000 1.000000
0.251570 0.430752 0.772313
0.260448 0.334448 0.557076
0.292569 0.320984 0.483511
0.336060 0.346793 0.469467
0.383273 0.383915 0.465532
0.430789 0.419992 0.455033
0.479413 0.458271 0.454035
0.534181 0.517604 0.511342
0.604353 0.632446 0.708495
0.260448 0.334448 0.557076
0.283279 0.288125 0.429095
0.324691 0.307519 0.409946
0.373866 0.352966 0.425662
0.424215 0.400405 0.435017
0.473374 0.441379 0.429522
0.523206 0.483036 0.433427
0.579803 0.548130 0.503719
0.653483 0.675018 0.730126
0.292569 0.320984 0.483511
0.324691 0.307519 0.409946
0.371435 0.345250 0.417829
0.423042 0.398413 0.441379
0.473977 0.446847 0.447553
0.522935 0.485998 0.436048
0.572835 0.526915 0.439297
0.630826 0.596252 0.522474
0.708281 0.736267 0.783490
0.336060 0.346793 0.469467
0.373866 0.352966 0.425662
0.423042 0.398413 0.441379
0.474883 0.451271 0.459020
0.524913 0.495281 0.453727
0.572882 0.529791 0.433382
0.622767 0.569750 0.438603
0.682772 0.645712 0.542748
0.765329 0.803838 0.851912
0.383273 0.383915 0.465532
0.424215 0.400405 0.435017
0.473977 0.446847 0.447553
0.524913 0.495281 0.453727
0.573601 0.533350 0.436867
0.620850 0.564300 0.413037
0.671694 0.606984 0.431041
0.735392 0.695856 0.572421
0.825433 0.880977 0.951458
0.430789 0.419992 0.455033
0.473374 0.441379 0.429522
0.522935 0.485998 0.436048
0.572882 0.529791 0.433382
0.620850 0.564300 0.413037
0.668705 0.596675 0.399262
0.722537 0.649667 0.449045
0.792663 0.761634 0.652114
0.893627 0.986536 1.000000
0.479413 0.458271 0.454035
0.523206 0.483036 0.433427
0.572835 0.526915 0.439297
0.622767 0.569750 0.438603
0.671694 0.606984 0.431041
0.722537 0.649667 0.449045
0.782444 0.724453 0.557788
0.862788 0.873600 0.855182
0.979173 1.000000 1.000000
0.534181 0.517604 0.511342
0.579803 0.548130 0.503719
0.630826 0.596252 0.522474
0.682772 0.645712 0.542748
0.735392 0.695856 0.572421
0.792663 0.761634 0.652114
0.862788 0.873600 0.855182
0.958201 1.000000 1.000000
1.000000 1.000000 1.000000
0.604353 0.632446 0.708495
0.653483 0.675018 0.730126
0.708281 0.736267 0.783490
0.765329 0.803838 0.851912
0.825433 0.880977 0.951458
0.893627 0.986536 1.000000
0.979173 1.000000 1.000000
1.000000 1.000000 1.000000
1.000000 1.000000 1.000000
0.287414 0.428600 0.708857
0.303033 0.355834 0.531565
0.338642 0.353986 0.474018
0.383424 0.383393 0.462250
0.430789 0.419992 0.455033
0.478372 0.455329 0.443879
0.528038 0.496551 0.453037
0.585878 0.566410 0.539496
0.662208 0.703264 0.792983
0.303033 0.355834 0.531565
0.330803 0.326438 0.429202
0.374252 0.352139 0.416471
0.423620 0.397172 0.427592
0.473374 0.441379 0.429522
0.522207 0.480203 0.421957
0.573039 0.524694 0.437331
0.633018 0.601506 0.540818
0.713519 0.752897 0.830328
0.338642 0.353986 0.474018
0.374252 0.352139 0.416471
0.421935 0.392166 0.423902
0.472988 0.442206 0.438713
0.522935 0.485998 0.436048
0.571525 0.522890 0.423786
0.622736 0.567833 0.442546
0.684772 0.651379 0.565687
0.770063 0.819690 0.899304
0.383424 0.383393 0.462250
0.423620 0.397172 0.427592
0.472988 0.442206 0.438713
0.523882 0.490531 0.446201
0.572882 0.529791 0.433382
0.620793 0.563233 0.416322
0.672652 0.609708 0.443824
0.737717 0.703673 0.597431
0.829478 0.895187 0.991422
0.430789 0.419992 0.455033
0.473374 0.441379 0.429522
0.522935 0.485998 0.436048
0.572882 0.529791 0.433382
0.620850 0.564300 0.413037
0.668705 0.596675 0.399262
0.722537 0.649667 0.449045
0.792663 0.761634 0.652114
0.893627 0.986536 1.000000
0.478372 0.455329 0.443879
0.522207 0.480203 0.421957
0.571525 0.522890 0.423786
0.620793 0.563233 0.416322
0.668705 0.596675 0.399262
0.718181 0.634266 0.405040
0.776368 0.702659 0.498828
0.854641 0.844113 0.778539
0.968601 1.000000 1.000000
0.528038 0.496551 0.453037
0.573039 0.524694 0.437331
0.622736 0.567833 0.442546
0.672652 0.609708 0.443824
0.722537 0.649667 0.449045
0.776368 0.702659 0.498828
0.842350 0.799239 0.666532
0.932914 0.985567 1.000000
1.000000 1.000000 1.000000
0.585878 0.566410 0.539496
0.633018 0.601506 0.540818
0.684772 0.651379 0.565687
0.737717 0.703673 0.597431
0.792663 0.761634 0.652114
0.854641 0.844113 0.778539
0.932914 0.985567 1.000000
1.000000 1.000000 1.000000
1.000000 1.000000 1.000000
0.662208 0.703264 0.792983
0.713519 0.752897 0.830328
0.770063 0.819690 0.899304
0.829478 0.895187 0.991422
0.893627 0.986536 1.000000
0.968601 1.000000 1.000000
1.000000 1.000000 1.000000
1.000000 1.000000 1.000000
1.000000 1.000000 1.000000
0.327518 0.439925 0.666220
0.348034 0.383977 0.515860
0.385991 0.389628 0.468773
0.431629 0.421112 0.459179
0.479413 0.458271 0.454035
0.528038 0.496551 0.453037
0.580423 0.546999 0.488619
0.643717 0.636270 0.625955
0.729293 0.806621 0.962955
0.348034 0.383977 0.515860
0.379250 0.366089 0.430828
0.423949 0.395278 0.421686
0.473426 0.439680 0.430839
0.523206 0.483036 0.433427
0.573039 0.524694 0.437331
0.626901 0.579603 0.483171
0.692997 0.678318 0.644304
0.783759 0.866999 1.000000
0.385991 0.389628 0.468773
0.423949 0.395278 0.421686
0.472135 0.436083 0.428563
0.522904 0.484081 0.439991
0.572835 0.526915 0.439297
0.622736 0.567833 0.442546
0.677639 0.625684 0.498543
0.746807 0.734926 0.688828
0.843727 0.945619 1.000000
0.431629 0.421112 0.459179
0.473426 0.439680 0.430839
0.522904 0.484081 0.439991
0.573472 0.530257 0.445409
0.622767 0.569750 0.438603
0.672652 0.609708 0.443824
0.729218 0.672885 0.518060
0.802783 0.797638 0.751037
0.907892 1.000000 1.000000
0.479413 0.458271 0.454035
0.523206 0.483036 0.433427
0.572835 0.526915 0.439297
0.622767 0.569750 0.438603
0.671694 0.606984 0.431041
0.722537 0.649667 0.449045
0.782444 0.724453 0.557788
0.862788 0.873600 0.855182
0.979173 1.000000 1.000000
0.528038 0.496551 0.453037
0.573039 0.524694 0.437331
0.622736 0.567833 0.442546
0.672652 0.609708 0.443824
0.722537 0.649667 0.449045
0.776368 0.702659 0.498828
0.842350 0.799239 0.666532
0.932914 0.985567 1.000000
1.000000 1.000000 1.000000
0.580423 0.546999 0.488619
0.626901 0.579603 0.483171
0.677639 0.625684 0.498543
0.729218 0.672885 0.518060
0.782444 0.724453 0.557788
0.842350 0.799239 0.666532
0.918199 0.931700 0.925832
1.000000 1.000000 1.000000
1.000000 1.000000 1.000000
0.643717 0.636270 0.625955
0.692997 0.678318 0.644304
0.746807 0.734926 0.688828
0.802783 0.797638 0.751037
0.862788 0.873600 0.855182
0.932914 0.985567 1.000000
1.000000 1.000000 1.000000
1.000000 1.000000 1.000000
1.000000 1.000000 1.000000
0.729293 0.806621 0.962955
0.783759 0.866999 1.000000
0.843727 0.945619 1.000000
0.907892 1.000000 1.000000
0.979173 1.000000 1.000000
1.000000 1.000000 1.000000
1.000000 1.000000 1.000000
1.000000 1.000000 1.000000
1.000000 1.000000 1.000000
0.372689 0.467974 0.660468
0.397315 0.426026 0.534209
0.437536 0.438956 0.500209
0.484651 0.474901 0.500873
0.534181 0.517604 0.511342
0.585878 0.566410 0.539496
0.643717 0.636270 0.625955
0.715904 0.757737 0.844076
0.814869 0.976973 1.000000
0.397315 0.426026 0.534209
0.431541 0.418128 0.466407
0.477758 0.451886 0.466210
0.528319 0.499339 0.484205
0.579803 0.548130 0.503719
0.633018 0.601506 0.540818
0.692997 0.678318 0.644304
0.769002 0.813023 0.895721
0.874520 1.000000 1.000000
0.437536 0.438956 0.500209
0.477758 0.451886 0.466210
0.527070 0.495852 0.480616
0.578880 0.546793 0.502200
0.630826 0.596252 0.522474
0.684772 0.651379 0.565687
0.746807 0.734926 0.688828
0.827251 0.885250 0.981623
0.940647 1.000000 1.000000
0.484651 0.474901 0.500873
0.528319 0.499339 0.484205
0.578880 0.546793 0.502200
0.630800 0.597102 0.521816
0.682772 0.645712 0.542748
0.737717 0.703673 0.597431
0.802783 0.797638 0.751037
0.889343 0.969864 1.000000
1.000000 1.000000 1.000000
0.534181 0.517604 0.511342
0.579803 0.548130 0.503719
0.630826 0.596252 0.522474
0.682772 0.645712 0.542748
0.735392 0.695856 0.572421
0.792663 0.761634 0.652114
0.862788 0.873600 0.855182
0.958201 1.000000 1.000000
1.000000 1.000000 1.000000
0.585878 0.566410 0.539496
0.633018 0.601506 0.540818
0.684772 0.651379 0.565687
0.737717 0.703673 0.597431
0.792663 0.761634 0.652114
0.854641 0.844113 0.778539
0.932914 0.985567 1.000000
1.000000 1.000000 1.000000
1.000000 1.000000 1.000000
0.643717 0.636270 0.625955
0.692997 0.678318 0.644304
0.746807 0.734926 0.688828
0.802783 0.797638 0.751037
0.862788 0.873600 0.855182
0.932914 0.985567 1.000000
1.000000 1.000000 1.000000
1.000000 1.000000 1.000000
1.000000 1.000000 1.000000
0.715904 0.757737 0.844076
0.769002 0.813023 0.895721
0.827251 0.885250 0.981623
0.889343 0.969864 1.000000
0.958201 1.000000 1.000000
1.000000 1.000000 1.000000
1.000000 1.000000 1.000000
1.000000 1.000000 1.000000
1.000000 1.000000 1.000000
0.814869 0.976973 1.000000
0.874520 1.000000 1.000000
0.940647 1.000000 1.000000
1.000000 1.000000 1.000000
1.000000 1.000000 1.000000
1.000000 1.000000 1.000000
1.000000 1.000000 1.000000
1.000000 1.000000 1.000000
1.000000 1.000000 1.000000
0.427962 0.531599 0.740404
0.456965 0.504733 0.643601
0.500425 0.528625 0.633500
0.550695 0.575316 0.660690
0.604353 0.632446 0.708495
0.662208 0.703264 0.792983
0.729293 0.806621 0.962955
0.814869 0.976973 1.000000
0.932424 1.000000 1.000000
0.456965 0.504733 0.643601
0.494824 0.509206 0.601113
0.543885 0.552518 0.623400
0.597559 0.610607 0.669234
0.653483 0.675018 0.730126
0.713519 0.752897 0.830328
0.783759 0.866999 1.000000
0.874520 1.000000 1.000000
1.000000 1.000000 1.000000
0.500425 0.528625 0.633500
0.543885 0.552518 0.623400
0.595999 0.605928 0.661603
0.651233 0.668696 0.715068
0.708281 0.736267 0.783490
0.770063 0.819690 0.899304
0.843727 0.945619 1.000000
0.940647 1.000000 1.000000
1.000000 1.000000 1.000000
0.550695 0.575316 0.660690
0.597559 0.610607 0.669234
0.651233 0.668696 0.715068
0.707240 0.733325 0.773334
0.765329 0.803838 0.851912
0.829478 0.895187 0.991422
0.907892 1.000000 1.000000
1.000000 1.000000 1.000000
1.000000 1.000000 1.000000
0.604353 0.632446 0.708495
0.653483 0.675018 0.730126
0.708281 0.736267 0.783490
0.765329 0.803838 0.851912
0.825433 0.880977 0.951458
0.893627 0.986536 1.000000
0.979173 1.000000 1.000000
1.000000 1.000000 1.000000
1.000000 1.000000 1.000000
0.662208 0.703264 0.792983
0.713519 0.752897 0.830328
0.770063 0.819690 0.899304
0.829478 0.895187 0.991422
0.893627 0.986536 1.000000
0.968601 1.000000 1.000000
1.000000 1.000000 1.000000
1.000000 1.000000 1.000000
1.000000 1.000000 1.000000
0.729293 0.806621 0.962955
0.783759 0.866999 1.000000
0.843727 0.945619 1.000000
0.907892 1.000000 1.000000
0.979173 1.000000 1.000000
1.000000 1.000000 1.000000
1.000000 1.000000 1.000000
1.000000 1.000000 1.000000
1.000000 1.000000 1.000000
0.814869 0.976973 1.000000
0.874520 1.000000 1.000000
0.940647 1.000000 1.000000
1.000000 1.000000 1.000000
1.000000 1.000000 1.000000
1.000000 1.000000 1.000000
1.000000 1.000000 1.000000
1.000000 1.000000 1.000000
1.000000 1.000000 1.000000
0.932424 1.000000 1.000000
1.000000 1.000000 1.000000
1.000000 1.000000 1.000000
1.000000 1.000000 1.000000
1.000000 1.000000 1.000000
1.000000 1.000000 1.000000
1.000000 1.000000 1.000000
1.000000 1.000000 1.000000
1.000000 1.000000 1.000000
