public/luts/bw_hp5.cube
# Generated from ColorChecker fit
LUT_3D_SIZE 33
DOMAIN_MIN 0.0 0.0 0.0
DOMAIN_MAX 1.0 1.0 1.0
0.282605 1.000000 1.000000
0.263089 0.952924 1.000000
0.247187 0.863628 1.000000
0.234573 0.786254 1.000000
0.224937 0.719664 1.000000
0.217987 0.662781 1.000000
0.213447 0.614590 1.000000
0.211056 0.574134 1.000000
0.210571 0.540520 1.000000
0.211766 0.512915 1.000000
0.214430 0.490547 0.951958
0.218370 0.472705 0.909428
0.223407 0.458738 0.873261
0.229382 0.448057 0.842366
0.236150 0.440134 0.815779
0.243583 0.434501 0.792664
0.251570 0.430752 0.772313
0.260017 0.428541 0.754145
0.268845 0.427585 0.737708
0.277992 0.427658 0.722677
0.287414 0.428600 0.708857
0.297081 0.430308 0.696178
0.306982 0.432741 0.684699
0.317121 0.435919 0.674608
0.327518 0.439925 0.666220
0.338211 0.444900 0.659977
0.349255 0.451047 0.656451
0.360718 0.458630 0.656339
0.372689 0.467974 0.660468
0.385271 0.479466 0.669793
0.398583 0.493552 0.685396
0.412762 0.510740 0.708487
0.427962 0.531599 0.740404
0.263089 0.952924 1.000000
0.245436 0.857273 1.000000
0.231285 0.774332 1.000000
0.220314 0.702919 1.000000
0.212220 0.641911 1.000000
0.206712 0.590246 1.000000
0.203518 0.546923 1.000000
0.202384 0.511002 1.000000
0.203069 0.481605 0.946341
0.205351 0.457914 0.894264
0.209024 0.439172 0.850561
0.213898 0.424683 0.813918
0.219800 0.413812 0.783146
0.226573 0.405985 0.757186
0.234077 0.400688 0.735107
0.242190 0.397471 0.716103
0.250802 0.395940 0.699498
0.259825 0.395767 0.684746
0.269183 0.396682 0.671424
0.278820 0.398477 0.659241
0.288694 0.401004 0.648032
0.298781 0.404177 0.637760
0.309072 0.407970 0.628517
0.319577 0.412419 0.620521
0.330319 0.417621 0.614120
0.341341 0.423732 0.609788
0.352701 0.430972 0.608128
0.364473 0.439618 0.609870
0.376749 0.450013 0.615873
0.389635 0.462557 0.627124
0.403255 0.477712 0.644736
0.417752 0.496001 0.669952
0.433280 0.518008 0.704142
0.247187 0.863628 1.000000
0.231285 0.774332 1.000000
0.218776 0.697348 1.000000
0.209344 0.631506 1.000000
0.202687 0.575700 1.000000
0.198521 0.528883 1.000000
0.196577 0.490070 0.970787
0.196603 0.458336 0.904992
0.198366 0.432817 0.849987
0.201646 0.412712 0.804235
0.206241 0.397277 0.766323
0.211966 0.385833 0.734968
0.218651 0.377760 0.709015
0.226145 0.372499 0.687434
0.234310 0.369551 0.669327
0.243029 0.368481 0.653921
0.252197 0.368912 0.640572
0.261728 0.370530 0.628765
0.271552 0.373079 0.618109
0.281616 0.376368 0.608346
0.291884 0.380263 0.599341
0.302333 0.384695 0.591092
0.312962 0.389652 0.583720
0.323781 0.395185 0.577476
0.334821 0.401407 0.572741
0.346127 0.408489 0.570019
0.357760 0.416665 0.569947
0.369801 0.426230 0.573286
0.382343 0.437539 0.580927
0.395499 0.451010 0.593889
0.409397 0.467118 0.613317
0.424181 0.486403 0.640486
0.440013 0.509464 0.676798
0.234573 0.786254 1.000000
0.220314 0.702919 1.000000
0.209344 0.631506 1.000000
0.201348 0.570862 1.000000
0.196030 0.519894 1.000000
0.193109 0.477572 0.948445
0.192321 0.442925 0.877638
0.193418 0.415043 0.818681
0.196170 0.393080 0.769938
0.200363 0.376246 0.729902
0.205798 0.363816 0.697193
0.212293 0.355124 0.670560
0.219685 0.349566 0.648879
0.227825 0.346598 0.631154
0.236580 0.345737 0.616517
0.245836 0.346563 0.604228
0.255493 0.348713 0.593675
0.265469 0.351889 0.584374
0.275699 0.355851 0.575967
0.286133 0.360422 0.568228
0.296739 0.365484 0.561054
0.307499 0.370983 0.554473
0.318415 0.376923 0.548640
0.329503 0.383369 0.543839
0.340796 0.390449 0.540479
0.352344 0.398351 0.539100
0.364213 0.407324 0.540369
0.376487 0.417677 0.545080
0.389263 0.429781 0.554155
0.402659 0.444067 0.568645
0.416807 0.461029 0.589728
0.431854 0.481221 0.618710
0.447968 0.505255 0.657024
0.224937 0.719664 1.000000
0.212220 0.641911 1.000000
0.202687 0.575700 1.000000
0.196030 0.519894 1.000000
0.191956 0.473416 0.941019
0.190188 0.435250 0.864026
0.190466 0.404440 0.800025
0.192548 0.380093 0.747287
0.196205 0.361376 0.704207
0.201229 0.347516 0.669310
0.207426 0.337803 0.641248
0.214617 0.331586 0.618803
0.222642 0.328275 0.600881
0.231357 0.327343 0.586520
0.240635 0.328322 0.574883
0.250363 0.330805 0.565261
0.260448 0.334448 0.557076
0.270811 0.338965 0.549875
0.281390 0.344133 0.543332
0.292140 0.349790 0.537252
0.303033 0.355834 0.531565
0.314056 0.362224 0.526332
0.325214 0.368980 0.521739
0.336528 0.376184 0.518100
0.348034 0.383977 0.515860
0.359787 0.392564 0.515588
0.371858 0.402207 0.517983
0.384332 0.413233 0.523872
0.397315 0.426026 0.534209
0.410924 0.441034 0.550076
0.425298 0.458765 0.572684
0.440588 0.479788 0.603371
0.456965 0.504733 0.643601
0.217987 0.662781 1.000000
0.206712 0.590246 1.000000
0.198521 0.528883 1.000000
0.193109 0.477572 0.948445
0.190188 0.435250 0.864026
0.189485 0.400916 0.793828
0.190744 0.373630 0.736025
0.193728 0.352515 0.688917
0.198211 0.336751 0.650934
0.203990 0.325583 0.620631
0.210873 0.318314 0.596693
0.218688 0.314308 0.577932
0.227278 0.312993 0.563289
0.236504 0.313854 0.551831
0.246240 0.316441 0.542756
0.256381 0.320361 0.535385
0.266835 0.325284 0.529172
0.277529 0.330941 0.523695
0.288406 0.337124 0.518663
0.299423 0.343686 0.513911
0.310556 0.350539 0.509401
0.321798 0.357660 0.505226
0.333157 0.365082 0.501604
0.344658 0.372902 0.498882
0.356342 0.381279 0.497535
0.368267 0.390429 0.498166
0.380509 0.400634 0.501505
0.393157 0.412232 0.508410
0.406320 0.425625 0.519869
0.420122 0.441275 0.536995
0.434702 0.459706 0.561031
0.450219 0.481501 0.593345
0.466846 0.507306 0.635438
0.213447 0.614590 1.000000
0.203518 0.546923 1.000000
0.196577 0.490070 0.970787
0.192321 0.442925 0.877638
0.190466 0.404440 0.800025
0.190744 0.373630 0.736025
0.192904 0.349572 0.683842
0.196711 0.331400 0.641810
0.201945 0.318312 0.608388
0.208405 0.309567 0.582166
0.215905 0.304484 0.561860
0.224277 0.302444 0.546313
0.233367 0.302887 0.534500
0.243041 0.305315 0.525518
0.253177 0.309292 0.518597
0.263674 0.314442 0.513092
0.274444 0.320449 0.508487
0.285419 0.327060 0.504393
0.296544 0.334082 0.500550
0.307783 0.341383 0.496825
0.319114 0.348890 0.493214
0.330535 0.356595 0.489840
0.342058 0.364547 0.486953
0.353712 0.372859 0.484933
0.365542 0.381704 0.484286
0.377611 0.391314 0.485647
0.389997 0.401984 0.489779
0.402796 0.414070 0.497572
0.416119 0.427988 0.510044
0.430095 0.444216 0.528342
0.444867 0.463293 0.553739
0.460598 0.485816 0.587638
0.477465 0.512447 0.631569
0.211056 0.574134 1.000000
0.202384 0.511002 1.000000
0.196603 0.458336 0.904992
0.193418 0.415043 0.818681
0.192548 0.380093 0.747287
0.193728 0.352515 0.688917
0.196711 0.331400 0.641810
0.201266 0.315898 0.604328
0.207179 0.305224 0.574966
0.214252 0.298651 0.552344
0.222304 0.295513 0.535210
0.231169 0.295205 0.522439
0.240699 0.297184 0.513038
0.250762 0.300967 0.506136
0.261244 0.306134 0.500995
0.272044 0.312322 0.497002
0.283082 0.319233 0.493673
0.294290 0.326627 0.490651
0.305620 0.334326 0.487708
0.317039 0.342214 0.484743
0.328530 0.350236 0.481784
0.340094 0.358394 0.478985
0.351748 0.366757 0.476629
0.363524 0.375451 0.475128
0.375473 0.384663 0.475020
0.387661 0.394642 0.476971
0.400170 0.405699 0.481777
0.413100 0.418203 0.490360
0.426567 0.432588 0.503769
0.440703 0.449344 0.523184
0.455657 0.469027 0.549910
0.471594 0.492250 0.585381
0.488695 0.519689 0.631159
0.210571 0.540520 1.000000
0.203069 0.481605 0.946341
0.198366 0.432817 0.849987
0.196170 0.393080 0.769938
0.196205 0.361376 0.704207
0.198211 0.336751 0.650934
0.201945 0.318312 0.608388
0.207179 0.305224 0.574966
0.213704 0.296717 0.549193
0.221325 0.292077 0.529722
0.229866 0.290657 0.515331
0.239165 0.291865 0.504930
0.249079 0.295174 0.497555
0.259479 0.300116 0.492370
0.270254 0.306285 0.488666
0.281311 0.313336 0.485864
0.292569 0.320984 0.483511
0.303969 0.329005 0.481283
0.315464 0.337236 0.478982
0.327026 0.345577 0.476541
0.338642 0.353986 0.474018
0.350318 0.362484 0.471601
0.362074 0.371152 0.469605
0.373947 0.380132 0.468472
0.385991 0.389628 0.468773
0.398277 0.399902 0.471207
0.410892 0.411281 0.476600
0.423938 0.424150 0.485907
0.437536 0.438956 0.500209
0.451823 0.456207 0.520718
0.466951 0.476473 0.548771
0.483090 0.500382 0.585834
0.500425 0.528625 0.633501
0.211766 0.512915 1.000000
0.205351 0.457914 0.894264
0.201646 0.412712 0.804235
0.200363 0.376246 0.729902
0.201229 0.347516 0.669310
0.203990 0.325583 0.620631
0.208405 0.309567 0.582166
0.214252 0.298651 0.552344
0.221325 0.292077 0.529722
0.229434 0.289151 0.512983
0.238406 0.289236 0.500941
0.248085 0.291759 0.492535
0.258330 0.296206 0.486833
0.269017 0.302126 0.483032
0.280040 0.309127 0.480455
0.291308 0.316879 0.478555
0.302747 0.325113 0.476910
0.314299 0.333620 0.475228
0.325924 0.342254 0.473344
0.337596 0.350927 0.471223
0.349308 0.359615 0.468954
0.361068 0.368352 0.466758
0.372901 0.377235 0.464981
0.384849 0.386422 0.464097
0.396969 0.396131 0.464710
0.409337 0.406641 0.467550
0.422043 0.418293 0.473475
0.435194 0.431487 0.483473
0.448916 0.446686 0.498656
0.463348 0.464414 0.520268
0.478648 0.485253 0.549678
0.494988 0.509850 0.588384
0.512560 0.538910 0.638013
0.214430 0.490547 0.951958
0.209024 0.439172 0.850561
0.206241 0.397277 0.766323
0.205798 0.363816 0.697193
0.207426 0.337803 0.641248
0.210873 0.318314 0.596693
0.215905 0.304484 0.561860
0.222304 0.295513 0.535210
0.229866 0.290657 0.515331
0.238406 0.289236 0.500941
0.247757 0.290630 0.490882
0.257764 0.294281 0.484129
0.268291 0.299691 0.479779
0.279221 0.306422 0.477063
0.290449 0.314100 0.475334
0.301889 0.322408 0.474077
0.313471 0.331093 0.472904
0.325141 0.339961 0.471554
0.336863 0.348881 0.469895
0.348617 0.357782 0.467921
0.360398 0.366652 0.465756
0.372219 0.375544 0.463651
0.384109 0.384568 0.461984
0.396113 0.393898 0.461263
0.408295 0.403766 0.462122
0.420732 0.414468 0.465324
0.433520 0.426359 0.471759
0.446770 0.439855 0.482445
0.460611 0.455434 0.498529
0.475187 0.473634 0.521285
0.490660 0.495054 0.552115
0.507206 0.520356 0.592548
0.525022 0.550259 0.644243
0.218370 0.472705 0.909428
0.213898 0.424683 0.813918
0.211966 0.385833 0.734968
0.212293 0.355124 0.670560
0.214617 0.331586 0.618803
0.218688 0.314308 0.577932
0.224277 0.302444 0.546313
0.231169 0.295205 0.522439
0.239165 0.291865 0.504930
0.248085 0.291759 0.492535
0.257764 0.294281 0.484129
0.268052 0.298890 0.478717
0.278819 0.305101 0.475430
0.289950 0.312493 0.473530
0.301344 0.320706 0.472403
0.312920 0.329439 0.471565
0.324612 0.338455 0.470660
0.336371 0.347574 0.469459
0.348163 0.356681 0.467862
0.359974 0.365719 0.465895
0.371802 0.374694 0.463714
0.383664 0.383670 0.461603
0.395595 0.392776 0.459971
0.407643 0.402199 0.459357
0.419874 0.412188 0.460429
0.432373 0.423053 0.463980
0.445237 0.435164 0.470934
0.458583 0.448953 0.482340
0.472543 0.464913 0.499376
0.487266 0.483598 0.523350
0.502917 0.505621 0.555693
0.519679 0.531659 0.597969
0.537748 0.562448 0.651868
0.223407 0.458738 0.873261
0.219800 0.413812 0.783146
0.218651 0.377760 0.709015
0.219685 0.349566 0.648879
0.222642 0.328275 0.600881
0.227278 0.312993 0.563289
0.233367 0.302887 0.534500
0.240699 0.297184 0.513038
0.249079 0.295174 0.497555
0.258330 0.296206 0.486833
0.268291 0.299691 0.479779
0.278819 0.305101 0.475430
0.289786 0.311968 0.472949
0.301080 0.319885 0.471629
0.312606 0.328508 0.470889
0.324287 0.337552 0.470276
0.336060 0.346793 0.469467
0.347881 0.356069 0.468264
0.359721 0.365278 0.466600
0.371567 0.374379 0.464533
0.383424 0.383393 0.462250
0.395314 0.392400 0.460066
0.407272 0.401544 0.458425
0.419354 0.411026 0.457896
0.431629 0.421112 0.459179
0.444185 0.432126 0.463100
0.457124 0.444454 0.470613
0.470567 0.458543 0.482801
0.484651 0.474901 0.500873
0.499528 0.494098 0.526168
0.515367 0.516761 0.560152
0.532355 0.543583 0.604419
0.550695 0.575316 0.660690
0.229382 0.448057 0.842366
0.226573 0.405985 0.757186
0.226145 0.372499 0.687434
0.227825 0.346598 0.631154
0.231357 0.327343 0.586520
0.236504 0.313854 0.551831
0.243041 0.305315 0.525518
0.250762 0.300967 0.506136
0.259479 0.300116 0.492370
0.269017 0.302126 0.483032
0.279221 0.306422 0.477063
0.289950 0.312493 0.473530
0.301080 0.319885 0.471629
0.312504 0.328208 0.470685
0.324132 0.337131 0.470148
0.335890 0.346386 0.469600
0.347720 0.355763 0.468746
0.359581 0.365115 0.467423
0.371449 0.374357 0.465594
0.383315 0.383461 0.463350
0.395188 0.392465 0.460910
0.407093 0.401465 0.458621
0.419071 0.410617 0.456958
0.431181 0.420140 0.456523
0.443497 0.430315 0.458047
0.456110 0.441479 0.462389
0.469127 0.454036 0.470535
0.482674 0.468447 0.483599
0.496889 0.485236 0.502823
0.511931 0.504986 0.529577
0.527972 0.528342 0.565360
0.545204 0.556011 0.611796
0.563832 0.588759 0.670640
0.236150 0.440134 0.815779
0.234077 0.400688 0.735107
0.234310 0.369551 0.669327
0.236580 0.345737 0.616517
0.240635 0.328322 0.574883
0.246240 0.316441 0.542756
0.253177 0.309292 0.518597
0.261244 0.306134 0.500995
0.270254 0.306285 0.488666
0.280040 0.309127 0.480455
0.290449 0.314100 0.475334
0.301344 0.320706 0.472403
0.312606 0.328508 0.470889
0.324132 0.337131 0.470148
0.335836 0.346260 0.469665
0.347648 0.355640 0.469051
0.359514 0.365078 0.468045
0.371398 0.374443 0.466515
0.383278 0.383663 0.464456
0.395151 0.392727 0.461991
0.407031 0.401688 0.459370
0.418944 0.410655 0.456974
0.430939 0.419803 0.455309
0.443075 0.429364 0.455009
0.455434 0.439633 0.456837
0.468108 0.450966 0.461684
0.481210 0.463778 0.470567
0.494869 0.478549 0.484633
0.509229 0.495815 0.505156
0.524451 0.516176 0.533539
0.540712 0.540293 0.571310
0.558208 0.568886 0.620128
0.577149 0.602739 0.681779
0.243583 0.434501 0.792664
0.242190 0.397471 0.716103
0.243029 0.368481 0.653921
0.245836 0.346563 0.604228
0.250363 0.330805 0.565261
0.256381 0.320361 0.535385
0.263674 0.314442 0.513092
0.272044 0.312322 0.497002
0.281311 0.313336 0.485864
0.291308 0.316879 0.478555
0.301889 0.322408 0.474077
0.312920 0.329439 0.471565
0.324287 0.337552 0.470276
0.335890 0.346386 0.469600
0.347648 0.355640 0.469051
0.359495 0.365076 0.468274
0.371380 0.374517 0.467039
0.383272 0.383845 0.465247
0.395155 0.393004 0.462924
0.407027 0.401999 0.460225
0.418907 0.410897 0.457434
0.430827 0.419824 0.454961
0.442837 0.428969 0.453346
0.455004 0.438579 0.453254
0.467410 0.448965 0.455480
0.480154 0.460498 0.460947
0.493352 0.473609 0.470705
0.507138 0.488791 0.485932
0.521658 0.506597 0.507934
0.537079 0.527643 0.538145
0.553583 0.552603 0.578128
0.571368 0.582214 0.629571
0.590649 0.617274 0.694292
0.251570 0.430752 0.772313
0.250802 0.395940 0.699498
0.252197 0.368912 0.640572
0.255493 0.348713 0.593675
0.260448 0.334448 0.557076
0.266835 0.325284 0.529172
0.274444 0.320449 0.508487
0.283082 0.319233 0.493673
0.292569 0.320984 0.483511
0.302747 0.325113 0.476910
0.313471 0.331093 0.472904
0.324612 0.338455 0.470660
0.336060 0.346793 0.469467
0.347720 0.355763 0.468746
0.359514 0.365078 0.468045
0.371380 0.374517 0.467039
0.383273 0.383915 0.465532
0.395164 0.393172 0.463455
0.407042 0.402247 0.460866
0.418910 0.411160 0.457954
0.430789 0.419992 0.455033
0.442716 0.428886 0.452546
0.454747 0.438044 0.451063
0.466950 0.447731 0.451284
0.479413 0.458271 0.454035
0.492240 0.470052 0.460270
0.505550 0.483518 0.471071
0.519479 0.499180 0.487649
0.534181 0.517604 0.511342
0.549825 0.539422 0.543615
0.566598 0.565324 0.586062
0.584701 0.596061 0.640406
0.604353 0.632446 0.708495
0.260017 0.428541 0.754145
0.259825 0.395767 0.684746
0.261728 0.370530 0.628765
0.265469 0.351889 0.584374
0.270811 0.338965 0.549875
0.277529 0.330941 0.523695
0.285419 0.327060 0.504393
0.294290 0.326627 0.490651
0.303969 0.329005 0.481283
0.314299 0.333620 0.475228
0.325141 0.339961 0.471554
0.336371 0.347574 0.469459
0.347881 0.356069 0.468264
0.359581 0.365115 0.467423
0.371398 0.374443 0.466515
0.383272 0.383845 0.465247
0.395164 0.393172 0.463455
0.407049 0.402340 0.461101
0.418919 0.411322 0.458278
0.430782 0.420154 0.455204
0.442663 0.428932 0.452226
0.454604 0.437814 0.449819
0.466663 0.447019 0.448585
0.478914 0.456824 0.449256
0.491449 0.467571 0.452689
0.504374 0.479662 0.459872
0.517815 0.493557 0.471917
0.531911 0.509780 0.490069
0.546819 0.528916 0.515695
0.562714 0.551609 0.550295
0.579785 0.578566 0.595494
0.598239 0.610553 0.653045
0.618299 0.648398 0.724831
0.268845 0.427585 0.737708
0.269183 0.396682 0.671424
0.271552 0.373079 0.618109
0.275699 0.355851 0.575967
0.281390 0.344133 0.543332
0.288406 0.337124 0.518663
0.296544 0.334082 0.500550
0.305620 0.334326 0.487708
0.315464 0.337236 0.478982
0.325924 0.342254 0.473344
0.336863 0.348881 0.469895
0.348163 0.356681 0.467861
0.359721 0.365278 0.466600
0.371449 0.374357 0.465594
0.383278 0.383663 0.464456
0.395155 0.393004 0.462924
0.407042 0.402247 0.460866
0.418919 0.411322 0.458278
0.430783 0.420218 0.455282
0.442645 0.428986 0.452130
0.454536 0.437737 0.449200
0.466500 0.446645 0.446999
0.478599 0.455943 0.446162
0.490913 0.465924 0.447452
0.503537 0.476946 0.451758
0.516582 0.489424 0.460099
0.530177 0.503836 0.473622
0.544465 0.520720 0.493601
0.559609 0.540676 0.521437
0.575786 0.564363 0.558660
0.593190 0.592503 0.606928
0.612033 0.625878 0.668027
0.632541 0.665332 0.743871
0.277992 0.427658 0.722677
0.278820 0.398477 0.659241
0.281616 0.376368 0.608346
0.286133 0.360422 0.568228
0.292140 0.349790 0.537252
0.299423 0.343686 0.513911
0.307783 0.341383 0.496825
0.317039 0.342214 0.484743
0.327026 0.345577 0.476541
0.337596 0.350927 0.471223
0.348617 0.357782 0.467921
0.359974 0.365719 0.465895
0.371567 0.374379 0.464533
0.383315 0.383461 0.463350
0.395151 0.392727 0.461991
0.407027 0.401999 0.460225
0.418910 0.411160 0.457954
0.430782 0.420154 0.455204
0.442645 0.428986 0.452130
0.454515 0.437722 0.449015
0.466426 0.446489 0.446270
0.478427 0.455475 0.444434
0.490584 0.464928 0.444173
0.502981 0.475159 0.446282
0.515716 0.486538 0.451684
0.528905 0.499497 0.461428
0.542681 0.514529 0.476693
0.557193 0.532187 0.498785
0.572605 0.553085 0.529138
0.589100 0.577900 0.569313
0.606876 0.607368 0.621001
0.626148 0.642286 0.686019
0.647148 0.683512 0.766312
0.287414 0.428600 0.708857
0.288694 0.401004 0.648032
0.291884 0.380263 0.599341
0.296739 0.365484 0.561054
0.303033 0.355834 0.531565
0.310556 0.350539 0.509401
0.319114 0.348890 0.493214
0.328530 0.350236 0.481784
0.338642 0.353986 0.474018
0.349308 0.359615 0.468954
0.360398 0.366652 0.465756
0.371802 0.374694 0.463714
0.383424 0.383393 0.462250
0.395188 0.392465 0.460910
0.407031 0.401688 0.459370
0.418907 0.410897 0.457434
0.430789 0.419992 0.455033
0.442663 0.428932 0.452226
0.454536 0.437737 0.449200
0.466426 0.446489 0.446270
0.478372 0.455329 0.443879
0.490428 0.464460 0.442597
0.502663 0.474148 0.443124
0.515165 0.484716 0.446286
0.528038 0.496551 0.453037
0.541401 0.510099 0.464459
0.555390 0.525869 0.481763
0.570159 0.544429 0.506287
0.585878 0.566410 0.539496
0.602731 0.592502 0.582985
0.620921 0.623456 0.638474
0.640669 0.660086 0.707814
0.662208 0.703264 0.792983
0.297081 0.430308 0.696178
0.298781 0.404177 0.637760
0.302333 0.384695 0.591092
0.307499 0.370983 0.554473
0.314056 0.362224 0.526332
0.321798 0.357660 0.505226
0.330535 0.356595 0.489840
0.340094 0.358394 0.478985
0.350318 0.362484 0.471601
0.361068 0.368352 0.466758
0.372219 0.375544 0.463651
0.383664 0.383670 0.461603
0.395314 0.392400 0.460066
0.407093 0.401465 0.458621
0.418944 0.410655 0.456974
0.430827 0.419824 0.454961
0.442716 0.428886 0.452546
0.454604 0.437814 0.449819
0.466500 0.446645 0.446999
0.478427 0.455475 0.444434
0.490428 0.464460 0.442597
0.502560 0.473821 0.442093
0.514899 0.483835 0.443651
0.527534 0.494843 0.448130
0.540575 0.507247 0.456517
0.554144 0.521509 0.469925
0.568383 0.538151 0.489597
0.583448 0.557758 0.516902
0.599513 0.580974 0.553339
0.616769 0.608507 0.600533
0.635421 0.641122 0.660238
0.655693 0.679648 0.734336
0.677824 0.724974 0.824836
0.306982 0.432741 0.684699
0.309072 0.407970 0.628517
0.312962 0.389652 0.583720
0.318415 0.376923 0.548640
0.325214 0.368980 0.521739
0.333157 0.365082 0.501604
0.342058 0.364547 0.486953
0.351748 0.366757 0.476629
0.362074 0.371152 0.469605
0.372901 0.377235 0.464981
0.384109 0.384568 0.461984
0.395595 0.392776 0.459971
0.407272 0.401544 0.458425
0.419071 0.410617 0.456958
0.430939 0.419803 0.455309
0.442837 0.428969 0.453346
0.454747 0.438044 0.451063
0.466663 0.447019 0.448585
0.478599 0.455943 0.446162
0.490584 0.464928 0.444173
0.502663 0.474148 0.443124
0.514899 0.483835 0.443651
0.527369 0.494285 0.446516
0.540170 0.505852 0.452610
0.553413 0.518953 0.462950
0.567226 0.534066 0.478683
0.581754 0.551730 0.501083
0.597158 0.572542 0.531552
0.613616 0.597164 0.571620
0.631321 0.626317 0.622945
0.650486 0.660783 0.687312
0.671337 0.701405 0.766634
0.694117 0.749088 0.862954
0.317121 0.435919 0.674608
0.319577 0.412419 0.620521
0.323781 0.395185 0.577476
0.329503 0.383369 0.543838
0.336528 0.376184 0.518100
0.344658 0.372902 0.498882
0.353712 0.372859 0.484933
0.363524 0.375451 0.475128
0.373947 0.380132 0.468472
0.384849 0.386422 0.464097
0.396113 0.393898 0.461263
0.407643 0.402199 0.459357
0.419354 0.411026 0.457896
0.431181 0.420140 0.456523
0.443075 0.429364 0.455009
0.455004 0.438579 0.453254
0.466950 0.447731 0.451284
0.478914 0.456824 0.449256
0.490913 0.465924 0.447452
0.502981 0.475159 0.446282
0.515165 0.484716 0.446286
0.527534 0.494843 0.448130
0.540170 0.505852 0.452610
0.553172 0.518112 0.460646
0.566656 0.532055 0.473290
0.580754 0.548174 0.491719
0.595615 0.567022 0.517241
0.611405 0.589215 0.551288
0.628305 0.615427 0.595422
0.646513 0.646395 0.651334
0.666245 0.682916 0.720840
0.687732 0.725849 0.805887
0.711222 0.776114 0.908548
0.327518 0.439925 0.666220
0.330319 0.417621 0.614120
0.334821 0.401407 0.572741
0.340796 0.390449 0.540479
0.348034 0.383977 0.515860
0.356342 0.381279 0.497535
0.365542 0.381704 0.484286
0.375473 0.384663 0.475020
0.385991 0.389628 0.468773
0.396969 0.396131 0.464710
0.408295 0.403766 0.462122
0.419874 0.412188 0.460429
0.431629 0.421112 0.459179
0.443497 0.430315 0.458047
0.455434 0.439633 0.456837
0.467410 0.448965 0.455480
0.479413 0.458271 0.454035
0.491449 0.467571 0.452689
0.503537 0.476946 0.451758
0.515716 0.486538 0.451684
0.528038 0.496551 0.453037
0.540575 0.507247 0.456517
0.553413 0.518953 0.462950
0.566656 0.532055 0.473290
0.580423 0.546999 0.488619
0.594852 0.564293 0.510149
0.610095 0.584506 0.539216
0.626321 0.608268 0.577287
0.643717 0.636270 0.625955
0.662485 0.669263 0.686943
0.682844 0.708060 0.762099
0.705029 0.753534 0.853401
0.729293 0.806621 0.962955
0.338211 0.444900 0.659977
0.341341 0.423732 0.609788
0.346127 0.408489 0.570019
0.352344 0.398351 0.539100
0.359787 0.392564 0.515588
0.368267 0.390429 0.498166
0.377611 0.391314 0.485647
0.387661 0.394642 0.476971
0.398277 0.399902 0.471207
0.409337 0.406641 0.467550
0.420732 0.414468 0.465324
0.432373 0.423053 0.463980
0.444185 0.432126 0.463100
0.456110 0.441479 0.462389
0.468108 0.450966 0.461684
0.480154 0.460498 0.460947
0.492240 0.470052 0.460270
0.504374 0.479662 0.459872
0.516582 0.489424 0.460099
0.528905 0.499497 0.461428
0.541401 0.510099 0.464459
0.554144 0.521509 0.469925
0.567226 0.534066 0.478683
0.580754 0.548174 0.491719
0.594852 0.564293 0.510149
0.609661 0.582946 0.535213
0.625338 0.604719 0.568283
0.642056 0.630255 0.610856
0.660005 0.660262 0.664557
0.679393 0.695505 0.731141
0.700442 0.736813 0.812489
0.723392 0.785075 0.910610
0.748499 0.841240 1.000000
0.349255 0.451047 0.656451
0.352701 0.430972 0.608128
0.357760 0.416665 0.569947
0.364213 0.407324 0.540369
0.371858 0.402207 0.517983
0.380509 0.400634 0.501505
0.389997 0.401984 0.489779
0.400170 0.405699 0.481777
0.410892 0.411281 0.476600
0.422043 0.418293 0.473475
0.433520 0.426359 0.471759
0.445237 0.435164 0.470934
0.457124 0.444454 0.470613
0.469127 0.454036 0.470535
0.481210 0.463778 0.470567
0.493352 0.473609 0.470705
0.505550 0.483518 0.471071
0.517815 0.493557 0.471917
0.530177 0.503836 0.473622
0.542681 0.514529 0.476693
0.555390 0.525869 0.481763
0.568383 0.538151 0.489597
0.581754 0.551730 0.501083
0.595615 0.567022 0.517241
0.610095 0.584506 0.539216
0.625338 0.604719 0.568283
0.641505 0.628261 0.605844
