public/luts/bw_hp5.cube
# Generated from ColorChecker fit
LUT_3D_SIZE 5
DOMAIN_MIN 0.0 0.0 0.0
DOMAIN_MAX 1.0 1.0 1.0
0.282605 1.000000 1.000000
0.210571 0.540520 1.000000
0.251570 0.430752 0.772313
0.327518 0.439925 0.666220
0.427962 0.531599 0.740404
0.210571 0.540520 1.000000
0.213704 0.296717 0.549193
0.292569 0.320984 0.483511
0.385991 0.389628 0.468773
0.500425 0.528625 0.633501
0.251570 0.430752 0.772313
0.292569 0.320984 0.483511
0.383273 0.383915 0.465532
0.479413 0.458271 0.454035
0.604353 0.632446 0.708495
0.327518 0.439925 0.666220
0.385991 0.389628 0.468773
0.479413 0.458271 0.454035
0.580423 0.546999 0.488619
0.729293 0.806621 0.962955
0.427962 0.531599 0.740404
0.500425 0.528625 0.633501
0.604353 0.632446 0.708495
0.729293 0.806621 0.962955
0.932424 1.000000 1.000000
0.210571 0.540520 1.000000
0.213704 0.296717 0.549193
0.292569 0.320984 0.483511
0.385991 0.389628 0.468773
0.500425 0.528625 0.633501
0.213704 0.296717 0.549193
0.270535 0.245036 0.369926
0.371435 0.345250 0.417829
0.472135 0.436083 0.428563
0.595999 0.605928 0.661603
0.292569 0.320984 0.483511
0.371435 0.345250 0.417829
0.473977 0.446847 0.447553
0.572835 0.526915 0.439297
0.708281 0.736267 0.783490
0.385991 0.389628 0.468773
0.472135 0.436083 0.428563
0.572835 0.526915 0.439297
0.677639 0.625684 0.498543
0.843727 0.945619 1.000000
0.500425 0.528625 0.633501
0.595999 0.605928 0.661603
0.708281 0.736267 0.783490
0.843727 0.945619 1.000000
1.000000 1.000000 1.000000
0.251570 0.430752 0.772313
0.292569 0.320984 0.483511
0.383273 0.383915 0.465532
0.479413 0.458271 0.454035
0.604353 0.632446 0.708495
0.292569 0.320984 0.483511
0.371435 0.345250 0.417829
0.473977 0.446847 0.447553
0.572835 0.526915 0.439297
0.708281 0.736267 0.783490
0.383273 0.383915 0.465532
0.473977 0.446847 0.447553
0.573601 0.533350 0.436867
0.671694 0.606984 0.431041
0.825433 0.880977 0.951458
0.479413 0.458271 0.454035
0.572835 0.526915 0.439297
0.671694 0.606984 0.431041
0.782444 0.724453 0.557788
0.979173 1.000000 1.000000
0.604353 0.632446 0.708495
0.708281 0.736267 0.783490
0.825433 0.880977 0.951458
0.979173 1.000000 1.000000
1.000000 1.000000 1.000000
0.327518 0.439925 0.666220
0.385991 0.389628 0.468773
0.479413 0.458271 0.454035
0.580423 0.546999 0.488619
0.729293 0.806621 0.962955
0.385991 0.389628 0.468773
0.472135 0.436083 0.428563
0.572835 0.526915 0.439297
0.677639 0.625684 0.498543
0.843727 0.945619 1.000000
0.479413 0.458271 0.454035
0.572835 0.526915 0.439297
0.671694 0.606984 0.431041
0.782444 0.724453 0.557788
0.979173 1.000000 1.000000
0.580423 0.546999 0.488619
0.677639 0.625684 0.498543
0.782444 0.724453 0.557788
0.918199 0.931700 0.925832
1.000000 1.000000 1.000000
0.729293 0.806621 0.962955
0.843727 0.945619 1.000000
0.979173 1.000000 1.000000
1.000000 1.000000 1.000000
1.000000 1.000000 1.000000
0.427962 0.531599 0.740404
0.500425 0.528625 0.633500
0.604353 0.632446 0.708495
0.729293 0.806621 0.962955
0.932424 1.000000 1.000000
0.500425 0.528625 0.633500
0.595999 0.605928 0.661603
0.708281 0.736267 0.783490
0.843727 0.945619 1.000000
1.000000 1.000000 1.000000
0.604353 0.632446 0.708495
0.708281 0.736267 0.783490
0.825433 0.880977 0.951458
0.979173 1.000000 1.000000
1.000000 1.000000 1.000000
0.729293 0.806621 0.962955
0.843727 0.945619 1.000000
0.979173 1.000000 1.000000
1.000000 1.000000 1.000000
1.000000 1.000000 1.000000
0.932424 1.000000 1.000000
1.000000 1.000000 1.000000
1.000000 1.000000 1.000000
1.000000 1.000000 1.000000
1.000000 1.000000 1.000000
