public/luts/bw_trix_1600.cube
# Generated from ColorChecker fit
LUT_3D_SIZE 5
DOMAIN_MIN 0.0 0.0 0.0
DOMAIN_MAX 1.0 1.0 1.0
0.468292 0.000000 0.224895
0.291702 0.154827 0.418429
0.285061 0.241002 0.436678
0.328882 0.292121 0.434371
0.402230 0.357809 0.428819
0.291702 0.154827 0.418429
0.228214 0.276219 0.487082
0.278421 0.327176 0.454928
0.347473 0.360768 0.442342
0.439073 0.425470 0.432283
0.285061 0.241002 0.436678
0.278421 0.327176 0.454928
0.345646 0.360988 0.423947
0.416524 0.394359 0.429755
0.519399 0.474617 0.420960
0.328882 0.292121 0.434371
0.347473 0.360768 0.442342
0.416524 0.394359 0.429755
0.490465 0.443668 0.448279
0.622274 0.554875 0.412165
0.402230 0.357809 0.428819
0.439073 0.425470 0.432283
0.519399 0.474617 0.420960
0.622274 0.554875 0.412165
0.825316 0.711275 0.285796
0.291702 0.154827 0.418429
0.228214 0.276219 0.487082
0.278421 0.327176 0.454928
0.347473 0.360768 0.442342
0.439073 0.425470 0.432283
0.228214 0.276219 0.487082
0.245594 0.353166 0.473818
0.328628 0.378133 0.422774
0.407102 0.403042 0.419971
0.509360 0.475220 0.414016
0.278421 0.327176 0.454928
0.328628 0.378133 0.422774
0.412871 0.394800 0.392965
0.485576 0.427951 0.417169
0.599725 0.523764 0.409637
0.347473 0.360768 0.442342
0.407102 0.403042 0.419971
0.485576 0.427951 0.417169
0.561961 0.485119 0.451247
0.713875 0.619577 0.402106
0.439073 0.425470 0.432283
0.509360 0.475220 0.414016
0.599725 0.523764 0.409637
0.713875 0.619577 0.402106
0.954064 0.806543 0.236967
0.285061 0.241002 0.436678
0.278421 0.327176 0.454928
0.345646 0.360988 0.423947
0.416524 0.394359 0.429755
0.519399 0.474617 0.420960
0.278421 0.327176 0.454928
0.328628 0.378133 0.422774
0.412871 0.394800 0.392965
0.485576 0.427951 0.417169
0.599725 0.523764 0.409637
0.345646 0.360988 0.423947
0.412871 0.394800 0.392965
0.490728 0.411630 0.393003
0.558282 0.461101 0.441372
0.693153 0.588246 0.417973
0.416524 0.394359 0.429755
0.485576 0.427951 0.417169
0.558282 0.461101 0.441372
0.638345 0.542287 0.485326
0.828024 0.715391 0.394574
0.519399 0.474617 0.420960
0.599725 0.523764 0.409637
0.693153 0.588246 0.417973
0.828024 0.715391 0.394574
1.000000 0.947933 0.150632
0.328882 0.292121 0.434371
0.347473 0.360768 0.442342
0.416524 0.394359 0.429755
0.490465 0.443668 0.448279
0.622274 0.554875 0.412165
0.347473 0.360768 0.442342
0.407102 0.403042 0.419971
0.485576 0.427951 0.417169
0.561961 0.485119 0.451247
0.713875 0.619577 0.402106
0.416524 0.394359 0.429755
0.485576 0.427951 0.417169
0.558282 0.461101 0.441372
0.638345 0.542287 0.485326
0.828024 0.715391 0.394574
0.490465 0.443668 0.448279
0.561961 0.485119 0.451247
0.638345 0.542287 0.485326
0.747961 0.662501 0.499120
1.000000 0.888494 0.303823
0.622274 0.554875 0.412165
0.713875 0.619577 0.402106
0.828024 0.715391 0.394574
1.000000 0.888494 0.303823
1.000000 1.000000 0.000000
0.402230 0.357809 0.428819
0.439073 0.425470 0.432283
0.519399 0.474617 0.420960
0.622274 0.554875 0.412165
0.825316 0.711275 0.285796
0.439073 0.425470 0.432283
0.509360 0.475220 0.414016
0.599725 0.523764 0.409637
0.713875 0.619577 0.402106
0.954064 0.806543 0.236967
0.519399 0.474617 0.420960
0.599725 0.523764 0.409637
0.693153 0.588246 0.417973
0.828024 0.715391 0.394574
1.000000 0.947933 0.150632
0.622274 0.554875 0.412165
0.713875 0.619577 0.402106
0.828024 0.715391 0.394574
1.000000 0.888494 0.303823
1.000000 1.000000 0.000000
0.825316 0.711275 0.285796
0.954064 0.806543 0.236967
1.000000 0.947933 0.150632
1.000000 1.000000 0.000000
1.000000 1.000000 0.000000
