public/luts/bw_trix_1600.cube
# Generated from ColorChecker fit
LUT_3D_SIZE 9
DOMAIN_MIN 0.0 0.0 0.0
DOMAIN_MAX 1.0 1.0 1.0
0.468292 0.000000 0.224895
0.347436 0.081831 0.358611
0.291702 0.154827 0.418429
0.276916 0.205577 0.436573
0.285061 0.241002 0.436678
0.304282 0.267734 0.433791
0.328882 0.292121 0.434371
0.359324 0.320222 0.436286
0.402230 0.357809 0.428819
0.347436 0.081831 0.358611
0.263683 0.168329 0.449292
0.235968 0.227824 0.478247
0.241656 0.267451 0.475555
0.264270 0.294059 0.462701
0.293494 0.314210 0.452587
0.325172 0.334179 0.449523
0.361306 0.359954 0.449232
0.410058 0.397235 0.438849
0.291702 0.154827 0.418429
0.235968 0.227824 0.478247
0.228214 0.276219 0.487082
0.247343 0.307078 0.472862
0.278421 0.327176 0.454928
0.312669 0.343005 0.444033
0.347473 0.360768 0.442342
0.386373 0.386380 0.443429
0.439073 0.425470 0.432283
0.276916 0.205577 0.436573
0.241656 0.267451 0.475555
0.247343 0.307078 0.472862
0.274423 0.331450 0.454277
0.309498 0.347275 0.436994
0.345332 0.360969 0.429619
0.380849 0.378664 0.432168
0.421130 0.406205 0.436071
0.477419 0.449148 0.424167
0.285061 0.241002 0.436678
0.264270 0.294059 0.462701
0.278421 0.327176 0.454928
0.309498 0.347275 0.436994
0.345646 0.360988 0.423947
0.381167 0.374663 0.422244
0.416524 0.394359 0.429755
0.458341 0.425849 0.435763
0.519399 0.474617 0.420960
0.304282 0.267734 0.433791
0.293494 0.314210 0.452587
0.312669 0.343005 0.444033
0.345332 0.360969 0.429619
0.381167 0.374663 0.422244
0.416016 0.390363 0.426219
0.451882 0.414055 0.437267
0.496928 0.451441 0.442523
0.565477 0.507935 0.420532
0.328882 0.292121 0.434371
0.325172 0.334179 0.449523
0.347473 0.360768 0.442342
0.380849 0.378664 0.432168
0.416524 0.394359 0.429755
0.451882 0.414055 0.437267
0.490465 0.443668 0.448279
0.541975 0.488828 0.447778
0.622274 0.554875 0.412165
0.359324 0.320222 0.436286
0.361306 0.359954 0.449232
0.386373 0.386380 0.443429
0.421130 0.406205 0.436071
0.458341 0.425849 0.435763
0.496928 0.451441 0.442523
0.541975 0.488828 0.447778
0.604722 0.543565 0.434371
0.702573 0.620922 0.376551
0.402230 0.357809 0.428819
0.410058 0.397235 0.438849
0.439073 0.425470 0.432283
0.477419 0.449148 0.424167
0.519399 0.474617 0.420960
0.565477 0.507935 0.420532
0.622274 0.554875 0.412165
0.702573 0.620922 0.376551
0.825316 0.711275 0.285796
0.347436 0.081831 0.358611
0.263683 0.168329 0.449292
0.235968 0.227824 0.478247
0.241656 0.267451 0.475555
0.264270 0.294059 0.462701
0.293494 0.314210 0.452587
0.325172 0.334179 0.449523
0.361306 0.359954 0.449232
0.410058 0.397235 0.438849
0.263683 0.168329 0.449292
0.212235 0.240113 0.503382
0.208253 0.287319 0.507203
0.230642 0.317011 0.488686
0.264466 0.335968 0.467171
0.300947 0.350680 0.453410
0.337469 0.367349 0.449569
0.377576 0.391891 0.449222
0.430969 0.429936 0.437357
0.235968 0.227824 0.478247
0.208253 0.287319 0.507203
0.220460 0.324615 0.495916
0.253031 0.346704 0.470169
0.292572 0.360293 0.447155
0.331845 0.371800 0.435480
0.369774 0.387356 0.435160
0.411441 0.412806 0.437626
0.468088 0.453705 0.425716
0.241656 0.267451 0.475555
0.230642 0.317011 0.488686
0.253031 0.346704 0.470169
0.290807 0.363450 0.443638
0.332112 0.373883 0.424141
0.371252 0.384348 0.418135
0.408688 0.400907 0.423491
0.451043 0.429331 0.429490
0.511100 0.475105 0.416826
0.264270 0.294059 0.462701
0.264466 0.335968 0.467171
0.292572 0.360293 0.447155
0.332112 0.373883 0.424141
0.372771 0.383298 0.411028
0.410391 0.394814 0.412129
0.446975 0.414419 0.423166
0.490686 0.447814 0.431273
0.555846 0.500411 0.414997
0.293494 0.314210 0.452587
0.300947 0.350680 0.453410
0.331845 0.371800 0.435480
0.371252 0.384348 0.418135
0.410391 0.394814 0.412129
0.446646 0.409401 0.419627
0.483560 0.434024 0.434203
0.530834 0.474313 0.440845
0.604331 0.535610 0.415953
0.325172 0.334179 0.449523
0.337469 0.367349 0.449569
0.369774 0.387356 0.435160
0.408688 0.400907 0.423491
0.446975 0.414419 0.423166
0.483560 0.434024 0.434203
0.523523 0.465566 0.448030
0.578109 0.514602 0.447488
0.664717 0.586403 0.406828
0.361306 0.359954 0.449232
0.377576 0.391891 0.449222
0.411441 0.412806 0.437626
0.451043 0.429331 0.429490
0.490686 0.447814 0.431273
0.530834 0.474313 0.440845
0.578109 0.514602 0.447488
0.645292 0.574166 0.431894
0.751326 0.658203 0.366168
0.410058 0.397235 0.438849
0.430969 0.429936 0.437357
0.468088 0.453705 0.425716
0.511100 0.475105 0.416826
0.555846 0.500411 0.414997
0.604331 0.535610 0.415953
0.664717 0.586403 0.406828
0.751326 0.658203 0.366168
0.884639 0.756138 0.263931
0.291702 0.154827 0.418429
0.235968 0.227824 0.478247
0.228214 0.276219 0.487082
0.247343 0.307078 0.472862
0.278421 0.327176 0.454928
0.312669 0.343005 0.444033
0.347473 0.360768 0.442342
0.386373 0.386380 0.443429
0.439073 0.425470 0.432283
0.235968 0.227824 0.478247
0.208253 0.287319 0.507203
0.220460 0.324615 0.495916
0.253031 0.346704 0.470169
0.292572 0.360293 0.447155
0.331845 0.371800 0.435480
0.369774 0.387356 0.435160
0.411441 0.412806 0.437626
0.468088 0.453705 0.425716
0.228214 0.276219 0.487082
0.220460 0.324615 0.495916
0.245594 0.353166 0.473818
0.285603 0.368794 0.444421
0.328628 0.378133 0.422774
0.368973 0.387529 0.415334
0.407102 0.403042 0.419971
0.449637 0.430444 0.425968
0.509360 0.475220 0.414016
0.247343 0.307078 0.472862
0.253031 0.346704 0.470169
0.285603 0.368794 0.444421
0.328582 0.380196 0.417107
0.371653 0.387472 0.401127
0.410658 0.396896 0.400790
0.447602 0.414458 0.411821
0.490645 0.445856 0.421354
0.554111 0.496505 0.407935
0.278421 0.327176 0.454928
0.292572 0.360293 0.447155
0.328628 0.378133 0.422774
0.371653 0.387472 0.401127
0.412871 0.394800 0.392965
0.449664 0.406321 0.400454
0.485576 0.427951 0.417169
0.530309 0.465318 0.428097
0.599725 0.523764 0.409637
0.312669 0.343005 0.444033
0.331845 0.371800 0.435480
0.368973 0.387529 0.415334
0.410658 0.396896 0.400790
0.449664 0.406321 0.400454
0.484913 0.421934 0.414342
0.521488 0.449580 0.433884
0.570632 0.494816 0.441918
0.649746 0.562912 0.412698
0.347473 0.360768 0.442342
0.369774 0.387356 0.435160
0.407102 0.403042 0.419971
0.447602 0.414458 0.411821
0.485576 0.427951 0.417169
0.521488 0.449580 0.433884
0.561961 0.485119 0.451247
0.619776 0.540052 0.449953
0.713875 0.619577 0.402106
0.386373 0.386380 0.443429
0.411441 0.412806 0.437626
0.449637 0.430444 0.425968
0.490645 0.445856 0.421354
0.530309 0.465318 0.428097
0.570632 0.494816 0.441918
0.619776 0.540052 0.449953
0.692062 0.606439 0.430747
0.807974 0.699103 0.354259
0.439073 0.425470 0.432283
0.468088 0.453705 0.425716
0.509360 0.475220 0.414016
0.554111 0.496505 0.407935
0.599725 0.523764 0.409637
0.649746 0.562912 0.412698
0.713875 0.619577 0.402106
0.807974 0.699103 0.354259
0.954064 0.806543 0.236967
0.276916 0.205577 0.436573
0.241656 0.267451 0.475555
0.247343 0.307078 0.472862
0.274423 0.331450 0.454277
0.309498 0.347275 0.436994
0.345332 0.360969 0.429619
0.380849 0.378664 0.432168
0.421130 0.406205 0.436071
0.477419 0.449148 0.424167
0.241656 0.267451 0.475555
0.230642 0.317011 0.488686
0.253031 0.346704 0.470169
0.290807 0.363450 0.443638
0.332112 0.373883 0.424141
0.371252 0.384348 0.418135
0.408688 0.400907 0.423491
0.451043 0.429331 0.429490
0.511100 0.475105 0.416826
0.247343 0.307078 0.472862
0.253031 0.346704 0.470169
0.285603 0.368794 0.444421
0.328582 0.380196 0.417107
0.371653 0.387472 0.401127
0.410658 0.396896 0.400790
0.447602 0.414458 0.411821
0.490645 0.445856 0.421354
0.554111 0.496505 0.407935
0.274423 0.331450 0.454277
0.290807 0.363450 0.443638
0.328582 0.380196 0.417107
0.372813 0.388465 0.394026
0.414724 0.394748 0.385146
0.451697 0.405247 0.392632
0.487275 0.425878 0.410059
0.531161 0.462271 0.422416
0.599217 0.519767 0.406101
0.309498 0.347275 0.436994
0.332112 0.373883 0.424141
0.371653 0.387472 0.401127
0.414724 0.394748 0.385146
0.454088 0.402128 0.384804
0.488670 0.415746 0.400118
0.523551 0.441444 0.422516
0.569974 0.484779 0.434840
0.645340 0.551022 0.411340
0.345332 0.360969 0.429619
0.371252 0.384348 0.418135
0.410658 0.396896 0.400790
0.451697 0.405247 0.392632
0.488670 0.415746 0.400118
0.522041 0.434453 0.421118
0.558432 0.467141 0.444915
0.610625 0.519296 0.452200
0.697563 0.596115 0.415080
0.380849 0.378664 0.432168
0.408688 0.400907 0.423491
0.447602 0.414458 0.411821
0.487275 0.425878 0.410059
0.523551 0.441444 0.422516
0.558432 0.467141 0.444915
0.600081 0.508672 0.464389
0.662819 0.571450 0.459486
0.767129 0.660601 0.400163
0.421130 0.406205 0.436071
0.451043 0.429331 0.429490
0.490645 0.445856 0.421354
0.531161 0.462271 0.422416
0.569974 0.484779 0.434840
0.610625 0.519296 0.452200
0.662819 0.571450 0.459486
0.742417 0.646584 0.433096
0.871439 0.749752 0.340839
0.477419 0.449148 0.424167
0.511100 0.475105 0.416826
0.554111 0.496505 0.407935
0.599217 0.519767 0.406101
0.645340 0.551022 0.411340
0.697563 0.596115 0.415080
0.767129 0.660601 0.400163
0.871439 0.749752 0.340839
1.000000 0.868550 0.202774
0.285061 0.241002 0.436678
0.264270 0.294059 0.462701
0.278421 0.327176 0.454928
0.309498 0.347275 0.436994
0.345646 0.360988 0.423947
0.381167 0.374663 0.422244
0.416524 0.394359 0.429755
0.458341 0.425849 0.435763
0.519399 0.474617 0.420960
0.264270 0.294059 0.462701
0.264466 0.335968 0.467171
0.292572 0.360293 0.447155
0.332112 0.373883 0.424141
0.372771 0.383298 0.411028
0.410391 0.394814 0.412129
0.446975 0.414419 0.423166
0.490686 0.447814 0.431273
0.555846 0.500411 0.414997
0.278421 0.327176 0.454928
0.292572 0.360293 0.447155
0.328628 0.378133 0.422774
0.371653 0.387472 0.401127
0.412871 0.394800 0.392965
0.449664 0.406321 0.400454
0.485576 0.427951 0.417169
0.530309 0.465318 0.428097
0.599725 0.523764 0.409637
0.309498 0.347275 0.436994
0.332112 0.373883 0.424141
0.371653 0.387472 0.401127
0.414724 0.394748 0.385146
0.454088 0.402128 0.384804
0.488670 0.415746 0.400118
0.523551 0.441444 0.422516
0.569974 0.484779 0.434840
0.645340 0.551022 0.411340
0.345646 0.360988 0.423947
0.372771 0.383298 0.411028
0.412871 0.394800 0.392965
0.454088 0.402128 0.384804
0.490728 0.411630 0.393003
0.523251 0.429363 0.415432
0.558282 0.461101 0.441372
0.608602 0.512329 0.451518
0.693153 0.588246 0.417973
0.381167 0.374663 0.422244
0.410391 0.394814 0.412129
0.449664 0.406321 0.400454
0.488670 0.415746 0.400118
0.523251 0.429363 0.415432
0.555411 0.453161 0.442119
0.593313 0.492839 0.467313
0.651277 0.553813 0.469561
0.749787 0.641207 0.418821
0.416524 0.394359 0.429755
0.446975 0.414419 0.423166
0.485576 0.427951 0.417169
0.523551 0.441444 0.422516
0.558282 0.461101 0.441372
0.593313 0.492839 0.467313
0.638345 0.542287 0.485326
0.709242 0.614786 0.471809
0.828024 0.715391 0.394574
0.458341 0.425849 0.435763
0.490686 0.447814 0.431273
0.530309 0.465318 0.428097
0.569974 0.484779 0.434840
0.608602 0.512329 0.451518
0.651277 0.553813 0.469561
0.709242 0.614786 0.471809
0.799898 0.700519 0.432514
0.946806 0.815995 0.317339
0.519399 0.474617 0.420960
0.555846 0.500411 0.414997
0.599725 0.523764 0.409637
0.645340 0.551022 0.411340
0.693153 0.588246 0.417973
0.749787 0.641207 0.418821
0.828024 0.715391 0.394574
0.946806 0.815995 0.317339
1.000000 0.947933 0.150632
0.304282 0.267734 0.433791
0.293494 0.314210 0.452587
0.312669 0.343005 0.444033
0.345332 0.360969 0.429619
0.381167 0.374663 0.422244
0.416016 0.390363 0.426219
0.451882 0.414055 0.437267
0.496928 0.451441 0.442523
0.565477 0.507935 0.420532
0.293494 0.314210 0.452587
0.300947 0.350680 0.453410
0.331845 0.371800 0.435480
0.371252 0.384348 0.418135
0.410391 0.394814 0.412129
0.446646 0.409401 0.419627
0.483560 0.434024 0.434203
0.530834 0.474313 0.440845
0.604331 0.535610 0.415953
0.312669 0.343005 0.444033
0.331845 0.371800 0.435480
0.368973 0.387529 0.415334
0.410658 0.396896 0.400790
0.449664 0.406321 0.400454
0.484913 0.421934 0.414342
0.521488 0.449580 0.433884
0.570632 0.494816 0.441918
0.649746 0.562912 0.412698
0.345332 0.360969 0.429619
0.371252 0.384348 0.418135
0.410658 0.396896 0.400790
0.451697 0.405247 0.392632
0.488670 0.415746 0.400118
0.522041 0.434453 0.421118
0.558432 0.467141 0.444915
0.610625 0.519296 0.452200
0.697563 0.596115 0.415080
0.381167 0.374663 0.422244
0.410391 0.394814 0.412129
0.449664 0.406321 0.400454
0.488670 0.415746 0.400118
0.523251 0.429363 0.415432
0.555411 0.453161 0.442119
0.593313 0.492839 0.467313
0.651277 0.553813 0.469561
0.749787 0.641207 0.418821
0.416016 0.390363 0.426219
0.446646 0.409401 0.419627
0.484913 0.421934 0.414342
0.522041 0.434453 0.421118
0.555411 0.453161 0.442119
0.588569 0.483973 0.470919
0.631214 0.532518 0.492508
0.699210 0.604138 0.483283
0.814579 0.703889 0.411055
0.451882 0.414055 0.437267
0.483560 0.434024 0.434203
0.521488 0.449580 0.433884
0.558432 0.467141 0.444915
0.593313 0.492839 0.467313
0.631214 0.532518 0.492508
0.683378 0.591735 0.503338
0.767206 0.675759 0.474057
0.906261 0.789574 0.370328
0.496928 0.451441 0.442523
0.530834 0.474313 0.440845
0.570632 0.494816 0.441918
0.610625 0.519296 0.452200
0.651277 0.553813 0.469561
0.699210 0.604138 0.483283
0.767206 0.675759 0.474057
0.874208 0.773872 0.413991
1.000000 0.903390 0.266599
0.565477 0.507935 0.420532
0.604331 0.535610 0.415953
0.649746 0.562912 0.412698
0.697563 0.596115 0.415080
0.749787 0.641207 0.418821
0.814579 0.703889 0.411055
0.906261 0.789574 0.370328
1.000000 0.903390 0.266599
1.000000 1.000000 0.061236
0.328882 0.292121 0.434371
0.325172 0.334179 0.449523
0.347473 0.360768 0.442342
0.380849 0.378664 0.432168
0.416524 0.394359 0.429755
0.451882 0.414055 0.437267
0.490465 0.443668 0.448279
0.541975 0.488828 0.447778
0.622274 0.554875 0.412165
0.325172 0.334179 0.449523
0.337469 0.367349 0.449569
0.369774 0.387356 0.435160
0.408688 0.400907 0.423491
0.446975 0.414419 0.423166
0.483560 0.434024 0.434203
0.523523 0.465566 0.448030
0.578109 0.514602 0.447488
0.664717 0.586403 0.406828
0.347473 0.360768 0.442342
0.369774 0.387356 0.435160
0.407102 0.403042 0.419971
0.447602 0.414458 0.411821
0.485576 0.427951 0.417169
0.521488 0.449580 0.433884
0.561961 0.485119 0.451247
0.619776 0.540052 0.449953
0.713875 0.619577 0.402106
0.380849 0.378664 0.432168
0.408688 0.400907 0.423491
0.447602 0.414458 0.411821
0.487275 0.425878 0.410059
0.523551 0.441444 0.422516
0.558432 0.467141 0.444915
0.600081 0.508672 0.464389
0.662819 0.571450 0.459486
0.767129 0.660601 0.400163
0.416524 0.394359 0.429755
0.446975 0.414419 0.423166
0.485576 0.427951 0.417169
0.523551 0.441444 0.422516
0.558282 0.461101 0.441372
0.593313 0.492839 0.467313
0.638345 0.542287 0.485326
0.709242 0.614786 0.471809
0.828024 0.715391 0.394574
0.451882 0.414055 0.437267
0.483560 0.434024 0.434203
0.521488 0.449580 0.433884
0.558432 0.467141 0.444915
0.593313 0.492839 0.467313
0.631214 0.532518 0.492508
0.683378 0.591735 0.503338
0.767206 0.675759 0.474057
0.906261 0.789574 0.370328
0.490465 0.443668 0.448279
0.523523 0.465566 0.448030
0.561961 0.485119 0.451247
0.600081 0.508672 0.464389
0.638345 0.542287 0.485326
0.683378 0.591735 0.503338
0.747961 0.662501 0.499120
0.851035 0.759784 0.444776
1.000000 0.888494 0.303823
0.541975 0.488828 0.447778
0.578109 0.514602 0.447488
0.619776 0.540052 0.449953
0.662819 0.571450 0.459486
0.709242 0.614786 0.471809
0.767206 0.675759 0.474057
0.851035 0.759784 0.444776
0.981209 0.871986 0.353924
1.000000 1.000000 0.162869
0.622274 0.554875 0.412165
0.664717 0.586403 0.406828
0.713875 0.619577 0.402106
0.767129 0.660601 0.400163
0.828024 0.715391 0.394574
0.906261 0.789574 0.370328
1.000000 0.888494 0.303823
1.000000 1.000000 0.162869
1.000000 1.000000 0.000000
0.359324 0.320222 0.436286
0.361306 0.359954 0.449232
0.386373 0.386380 0.443429
0.421130 0.406205 0.436071
0.458341 0.425849 0.435763
0.496928 0.451441 0.442523
0.541975 0.488828 0.447778
0.604722 0.543565 0.434371
0.702573 0.620922 0.376551
0.361306 0.359954 0.449232
0.377576 0.391891 0.449222
0.411441 0.412806 0.437626
0.451043 0.429331 0.429490
0.490686 0.447814 0.431273
0.530834 0.474313 0.440845
0.578109 0.514602 0.447488
0.645292 0.574166 0.431894
0.751326 0.658203 0.366168
0.386373 0.386380 0.443429
0.411441 0.412806 0.437626
0.449637 0.430444 0.425968
0.490645 0.445856 0.421354
0.530309 0.465318 0.428097
0.570632 0.494816 0.441918
0.619776 0.540052 0.449953
0.692062 0.606439 0.430747
0.807974 0.699103 0.354259
0.421130 0.406205 0.436071
0.451043 0.429331 0.429490
0.490645 0.445856 0.421354
0.531161 0.462271 0.422416
0.569974 0.484779 0.434840
0.610625 0.519296 0.452200
0.662819 0.571450 0.459486
0.742417 0.646584 0.433096
0.871439 0.749752 0.340839
0.458341 0.425849 0.435763
0.490686 0.447814 0.431273
0.530309 0.465318 0.428097
0.569974 0.484779 0.434840
0.608602 0.512329 0.451518
0.651277 0.553813 0.469561
0.709242 0.614786 0.471809
0.799898 0.700519 0.432514
0.946806 0.815995 0.317339
0.496928 0.451441 0.442523
0.530834 0.474313 0.440845
0.570632 0.494816 0.441918
0.610625 0.519296 0.452200
0.651277 0.553813 0.469561
0.699210 0.604138 0.483283
0.767206 0.675759 0.474057
0.874208 0.773872 0.413991
1.000000 0.903390 0.266599
0.541975 0.488828 0.447778
0.578109 0.514602 0.447488
0.619776 0.540052 0.449953
0.662819 0.571450 0.459486
0.709242 0.614786 0.471809
0.767206 0.675759 0.474057
0.851035 0.759784 0.444776
0.981209 0.871986 0.353924
1.000000 1.000000 0.162869
0.604722 0.543565 0.434371
0.645292 0.574166 0.431894
0.692062 0.606439 0.430747
0.742417 0.646584 0.433096
0.799898 0.700519 0.432514
0.874208 0.773872 0.413991
0.981209 0.871986 0.353924
1.000000 0.999914 0.220125
1.000000 1.000000 0.000000
0.702573 0.620922 0.376551
0.751326 0.658203 0.366168
0.807974 0.699103 0.354259
0.871439 0.749752 0.340839
0.946806 0.815995 0.317339
1.000000 0.903390 0.266599
1.000000 1.000000 0.162869
1.000000 1.000000 0.000000
1.000000 1.000000 0.000000
0.402230 0.357809 0.428819
0.410058 0.397235 0.438849
0.439073 0.425470 0.432283
0.477419 0.449148 0.424167
0.519399 0.474617 0.420960
0.565477 0.507935 0.420532
0.622274 0.554875 0.412165
0.702573 0.620922 0.376551
0.825316 0.711275 0.285796
0.410058 0.397235 0.438849
0.430969 0.429936 0.437357
0.468088 0.453705 0.425716
0.511100 0.475105 0.416826
0.555846 0.500411 0.414997
0.604331 0.535610 0.415953
0.664717 0.586403 0.406828
0.751326 0.658203 0.366168
0.884639 0.756138 0.263931
0.439073 0.425470 0.432283
0.468088 0.453705 0.425716
0.509360 0.475220 0.414016
0.554111 0.496505 0.407935
0.599725 0.523764 0.409637
0.649746 0.562912 0.412698
0.713875 0.619577 0.402106
0.807974 0.699103 0.354259
0.954064 0.806543 0.236967
0.477419 0.449148 0.424167
0.511100 0.475105 0.416826
0.554111 0.496505 0.407935
0.599217 0.519767 0.406101
0.645340 0.551022 0.411340
0.697563 0.596115 0.415080
0.767129 0.660601 0.400163
0.871439 0.749752 0.340839
1.000000 0.868550 0.202774
0.519399 0.474617 0.420960
0.555846 0.500411 0.414997
0.599725 0.523764 0.409637
0.645340 0.551022 0.411340
0.693153 0.588246 0.417973
0.749787 0.641207 0.418821
0.828024 0.715391 0.394574
0.946806 0.815995 0.317339
1.000000 0.947933 0.150632
0.565477 0.507935 0.420532
0.604331 0.535610 0.415953
0.649746 0.562912 0.412698
0.697563 0.596115 0.415080
0.749787 0.641207 0.418821
0.814579 0.703889 0.411055
0.906261 0.789574 0.370328
1.000000 0.903390 0.266599
1.000000 1.000000 0.061236
0.622274 0.554875 0.412165
0.664717 0.586403 0.406828
0.713875 0.619577 0.402106
0.767129 0.660601 0.400163
0.828024 0.715391 0.394574
0.906261 0.789574 0.370328
1.000000 0.888494 0.303823
1.000000 1.000000 0.162869
1.000000 1.000000 0.000000
0.702573 0.620922 0.376551
0.751326 0.658203 0.366168
0.807974 0.699103 0.354259
0.871439 0.749752 0.340839
0.946806 0.815995 0.317339
1.000000 0.903390 0.266599
1.000000 1.000000 0.162869
1.000000 1.000000 0.000000
1.000000 1.000000 0.000000
0.825316 0.711275 0.285796
0.884639 0.756138 0.263931
0.954064 0.806543 0.236967
1.000000 0.868551 0.202774
1.000000 0.947933 0.150632
1.000000 1.000000 0.061236
1.000000 1.000000 0.000000
1.000000 1.000000 0.000000
1.000000 1.000000 0.000000
