public/luts/bw_tmax_100.cube
# Generated from ColorChecker fit
LUT_3D_SIZE 5
DOMAIN_MIN 0.0 0.0 0.0
DOMAIN_MAX 1.0 1.0 1.0
0.090421 0.134596 0.490154
0.209783 0.259151 0.494498
0.300545 0.314958 0.465306
0.374174 0.363582 0.458327
0.450720 0.424935 0.445630
0.209783 0.259151 0.494498
0.313649 0.335599 0.465809
0.391306 0.370764 0.436113
0.456369 0.415798 0.440241
0.531032 0.480197 0.429341
0.300545 0.314958 0.465306
0.391306 0.370764 0.436113
0.459683 0.405809 0.424498
0.521432 0.460831 0.444370
0.600895 0.534913 0.425954
0.374174 0.363582 0.458327
0.456369 0.415798 0.440241
0.521432 0.460831 0.444370
0.587267 0.529008 0.463700
0.680358 0.608995 0.407539
0.450720 0.424935 0.445630
0.531032 0.480197 0.429341
0.600895 0.534913 0.425954
0.680358 0.608995 0.407539
0.798053 0.680695 0.262481
0.209783 0.259151 0.494498
0.313649 0.335599 0.465809
0.391306 0.370764 0.436113
0.456369 0.415798 0.440241
0.531032 0.480197 0.429341
0.313649 0.335599 0.465809
0.402857 0.379409 0.423838
0.468964 0.405928 0.406418
0.527730 0.455897 0.427458
0.603494 0.528396 0.417185
0.391306 0.370764 0.436113
0.468964 0.405928 0.406418
0.528059 0.440854 0.412883
0.586495 0.505865 0.448498
0.670758 0.589629 0.422568
0.456369 0.415798 0.440241
0.527730 0.455897 0.427458
0.586495 0.505865 0.448498
0.652715 0.585613 0.475429
0.755021 0.673394 0.396638
0.531032 0.480197 0.429341
0.603494 0.528396 0.417185
0.670758 0.589629 0.422568
0.755021 0.673394 0.396638
0.887060 0.747528 0.206861
0.300545 0.314958 0.465306
0.391306 0.370764 0.436113
0.459683 0.405809 0.424498
0.521432 0.460831 0.444370
0.600895 0.534913 0.425954
0.391306 0.370764 0.436113
0.468964 0.405928 0.406418
0.528059 0.440854 0.412883
0.586495 0.505865 0.448498
0.670758 0.589629 0.422568
0.459683 0.405809 0.424498
0.528059 0.440854 0.412883
0.583126 0.489239 0.442065
0.644931 0.570876 0.484112
0.742108 0.664017 0.427410
0.521432 0.460831 0.444370
0.586495 0.505865 0.448498
0.644931 0.570876 0.484112
0.718935 0.665360 0.502360
0.839284 0.757158 0.370708
0.600895 0.534913 0.425954
0.670758 0.589629 0.422568
0.742108 0.664017 0.427410
0.839284 0.757158 0.370708
0.995210 0.826478 0.099008
0.374174 0.363582 0.458327
0.456369 0.415798 0.440241
0.521432 0.460831 0.444370
0.587267 0.529008 0.463700
0.680358 0.608995 0.407539
0.456369 0.415798 0.440241
0.527730 0.455897 0.427458
0.586495 0.505865 0.448498
0.652715 0.585613 0.475429
0.755021 0.673394 0.396638
0.521432 0.460831 0.444370
0.586495 0.505865 0.448498
0.644931 0.570876 0.484112
0.718935 0.665360 0.502360
0.839284 0.757158 0.370708
0.587267 0.529008 0.463700
0.652715 0.585613 0.475429
0.718935 0.665360 0.502360
0.810267 0.767333 0.474721
0.959633 0.848956 0.239056
0.680358 0.608995 0.407539
0.755021 0.673394 0.396638
0.839284 0.757158 0.370708
0.959633 0.848956 0.239056
1.000000 0.895798 0.000000
0.450720 0.424935 0.445630
0.531032 0.480197 0.429341
0.600895 0.534913 0.425954
0.680358 0.608995 0.407539
0.798053 0.680695 0.262481
0.531032 0.480197 0.429341
0.603494 0.528396 0.417185
0.670758 0.589629 0.422568
0.755021 0.673394 0.396638
0.887060 0.747528 0.206861
0.600895 0.534913 0.425954
0.670758 0.589629 0.422568
0.742108 0.664017 0.427410
0.839284 0.757158 0.370708
0.995210 0.826478 0.099008
0.680358 0.608995 0.407539
0.755021 0.673394 0.396638
0.839284 0.757158 0.370708
0.959633 0.848956 0.239056
1.000000 0.895798 0.000000
0.798053 0.680695 0.262481
0.887060 0.747528 0.206861
0.995210 0.826478 0.099008
1.000000 0.895798 0.000000
1.000000 0.892086 0.000000
