public/luts/bw_tmax_100.cube
# Generated from ColorChecker fit
LUT_3D_SIZE 9
DOMAIN_MIN 0.0 0.0 0.0
DOMAIN_MAX 1.0 1.0 1.0
0.090421 0.134596 0.490154
0.154058 0.210943 0.503271
0.209783 0.259151 0.494498
0.258223 0.290824 0.478648
0.300545 0.314958 0.465306
0.338449 0.337947 0.458824
0.374174 0.363582 0.458327
0.410494 0.393050 0.457708
0.450720 0.424935 0.445630
0.154058 0.210943 0.503271
0.213679 0.271070 0.502538
0.265507 0.307360 0.485725
0.310306 0.330764 0.466337
0.349373 0.349629 0.452651
0.384547 0.369698 0.447712
0.418197 0.394110 0.449338
0.453233 0.423402 0.450114
0.493100 0.455506 0.437395
0.209783 0.259151 0.494498
0.265507 0.307360 0.485725
0.313649 0.335599 0.465809
0.355104 0.354169 0.446949
0.391306 0.370764 0.436113
0.424226 0.390477 0.435041
0.456369 0.415798 0.440241
0.490778 0.446610 0.442992
0.531032 0.480197 0.429341
0.258223 0.290824 0.478648
0.310306 0.330764 0.466337
0.355104 0.354169 0.446949
0.393649 0.370685 0.431375
0.427509 0.387359 0.425278
0.458787 0.408631 0.429088
0.490125 0.436340 0.438006
0.524697 0.469720 0.442002
0.566218 0.505402 0.425819
0.300545 0.314958 0.465306
0.349373 0.349629 0.452651
0.391306 0.370764 0.436113
0.427509 0.387359 0.425278
0.459683 0.405809 0.424498
0.490066 0.429904 0.432898
0.521432 0.460831 0.444370
0.557093 0.497174 0.447577
0.600895 0.534913 0.425954
0.338449 0.337947 0.458824
0.384547 0.369698 0.447712
0.424226 0.390477 0.435041
0.458787 0.408631 0.429088
0.490066 0.429904 0.432898
0.520433 0.457434 0.444287
0.552799 0.491758 0.455841
0.590607 0.530809 0.454917
0.637838 0.569916 0.423640
0.374174 0.363582 0.458327
0.418197 0.394110 0.449338
0.456369 0.415798 0.440241
0.490125 0.436340 0.438006
0.521432 0.460831 0.444370
0.552799 0.491758 0.455841
0.587267 0.529008 0.463700
0.628415 0.569860 0.453993
0.680358 0.608995 0.407539
0.410494 0.393050 0.457708
0.453233 0.423402 0.450114
0.490778 0.446610 0.442992
0.524697 0.469720 0.442002
0.557093 0.497174 0.447577
0.590607 0.530809 0.454917
0.628415 0.569860 0.453993
0.674230 0.610958 0.429545
0.732302 0.648129 0.361085
0.450720 0.424935 0.445630
0.493100 0.455506 0.437395
0.531032 0.480197 0.429341
0.566218 0.505402 0.425819
0.600895 0.534913 0.425954
0.637838 0.569916 0.423640
0.680358 0.608995 0.407539
0.732302 0.648129 0.361085
0.798053 0.680695 0.262481
0.154058 0.210943 0.503271
0.213679 0.271070 0.502538
0.265507 0.307360 0.485725
0.310306 0.330764 0.466337
0.349373 0.349629 0.452651
0.384547 0.369698 0.447712
0.418197 0.394110 0.449338
0.453233 0.423402 0.450114
0.493100 0.455506 0.437395
0.213679 0.271070 0.502538
0.269321 0.317236 0.491078
0.317335 0.343651 0.468911
0.358619 0.360612 0.448236
0.394605 0.375816 0.436021
0.427263 0.394355 0.434006
0.459101 0.418718 0.438698
0.493159 0.448790 0.441376
0.533017 0.481854 0.428089
0.265507 0.307360 0.485725
0.317335 0.343651 0.468911
0.361790 0.363839 0.445893
0.399902 0.377573 0.427561
0.433240 0.391898 0.419576
0.463906 0.411256 0.422371
0.494542 0.437485 0.431145
0.528324 0.469818 0.435870
0.568965 0.504887 0.421286
0.310306 0.330764 0.466337
0.358619 0.360612 0.448236
0.399902 0.377573 0.427561
0.435321 0.390646 0.413895
0.466577 0.406224 0.411592
0.495908 0.428098 0.419776
0.526088 0.457456 0.432340
0.560429 0.492880 0.437947
0.602777 0.530350 0.420031
0.349373 0.349629 0.452651
0.394605 0.375816 0.436021
0.433240 0.391898 0.419576
0.466577 0.406224 0.411592
0.496453 0.424535 0.415114
0.525239 0.449973 0.427959
0.555844 0.483072 0.442713
0.591713 0.521765 0.446732
0.636827 0.561382 0.422140
0.384547 0.369698 0.447712
0.427263 0.394355 0.434006
0.463906 0.411256 0.422371
0.495908 0.428098 0.419776
0.525239 0.449973 0.427959
0.554405 0.479368 0.443430
0.586449 0.516171 0.457467
0.624950 0.557661 0.456118
0.674023 0.598518 0.420201
0.418197 0.394110 0.449338
0.459101 0.418718 0.438698
0.494542 0.437485 0.431145
0.526088 0.457456 0.432340
0.555844 0.483072 0.442713
0.586449 0.516171 0.457467
0.621080 0.555987 0.466572
0.663451 0.599152 0.454769
0.717810 0.639692 0.401567
0.453233 0.423402 0.450114
0.493159 0.448790 0.441376
0.528324 0.469818 0.435870
0.560429 0.492880 0.437947
0.591713 0.521765 0.446732
0.624950 0.557661 0.456118
0.663451 0.599152 0.454769
0.711063 0.642217 0.426117
0.772169 0.680233 0.348366
0.493100 0.455506 0.437395
0.533017 0.481854 0.428089
0.568965 0.504887 0.421286
0.602777 0.530350 0.420031
0.636827 0.561382 0.422140
0.674023 0.598518 0.420201
0.717810 0.639692 0.401567
0.772169 0.680233 0.348366
0.841618 0.712865 0.237493
0.209783 0.259151 0.494498
0.265507 0.307360 0.485725
0.313649 0.335599 0.465809
0.355104 0.354169 0.446949
0.391306 0.370764 0.436113
0.424226 0.390477 0.435041
0.456369 0.415798 0.440241
0.490778 0.446610 0.442992
0.531032 0.480197 0.429341
0.265507 0.307360 0.485725
0.317335 0.343651 0.468911
0.361790 0.363839 0.445893
0.399902 0.377573 0.427561
0.433240 0.391898 0.419576
0.463906 0.411256 0.422371
0.494542 0.437485 0.431145
0.528324 0.469818 0.435870
0.568965 0.504887 0.421286
0.313649 0.335599 0.465809
0.361790 0.363839 0.445893
0.402857 0.379409 0.423838
0.438014 0.391307 0.409229
0.468964 0.405928 0.406418
0.497945 0.427062 0.414530
0.527730 0.455897 0.427458
0.561630 0.491014 0.433865
0.603494 0.528396 0.417185
0.355104 0.354169 0.446949
0.399902 0.377573 0.427561
0.438014 0.391307 0.409229
0.470740 0.403718 0.400229
0.499914 0.420549 0.403608
0.527910 0.444940 0.417181
0.557635 0.477426 0.433534
0.592534 0.515941 0.440024
0.636589 0.555813 0.418776
0.391306 0.370764 0.436113
0.433240 0.391898 0.419576
0.468964 0.405928 0.406418
0.499914 0.420549 0.403608
0.528059 0.440854 0.412883
0.555905 0.469331 0.430754
0.586495 0.505865 0.448498
0.623408 0.547738 0.452163
0.670758 0.589629 0.422568
0.424226 0.390477 0.435041
0.463906 0.411256 0.422371
0.497945 0.427062 0.414530
0.527910 0.444940 0.417181
0.555905 0.469331 0.430754
0.584572 0.502072 0.450450
0.617085 0.542399 0.466241
0.657159 0.586942 0.462867
0.709042 0.629729 0.419839
0.456369 0.415798 0.440241
0.494542 0.437485 0.431145
0.527730 0.455897 0.427458
0.557635 0.477426 0.433534
0.586495 0.505865 0.448498
0.617085 0.542399 0.466241
0.652715 0.585613 0.475429
0.697233 0.631485 0.459493
0.755021 0.673394 0.396638
0.490778 0.446610 0.442992
0.528324 0.469818 0.435870
0.561630 0.491014 0.433865
0.592534 0.515941 0.440024
0.623408 0.547738 0.452163
0.657159 0.586942 0.462867
0.697233 0.631485 0.459493
0.747610 0.676697 0.424166
0.812810 0.715302 0.333783
0.531032 0.480197 0.429341
0.568964 0.504887 0.421286
0.603494 0.528396 0.417185
0.636589 0.555813 0.418776
0.670758 0.589629 0.422568
0.709042 0.629729 0.419839
0.755021 0.673394 0.396638
0.812810 0.715302 0.333783
0.887060 0.747528 0.206861
0.258223 0.290824 0.478648
0.310306 0.330764 0.466337
0.355104 0.354169 0.446949
0.393649 0.370685 0.431375
0.427509 0.387359 0.425278
0.458787 0.408631 0.429088
0.490125 0.436340 0.438006
0.524697 0.469720 0.442002
0.566218 0.505402 0.425819
0.310306 0.330764 0.466337
0.358619 0.360612 0.448236
0.399902 0.377573 0.427561
0.435321 0.390646 0.413895
0.466577 0.406224 0.411592
0.495908 0.428098 0.419776
0.526088 0.457456 0.432340
0.560429 0.492880 0.437947
0.602777 0.530350 0.420031
0.355104 0.354169 0.446949
0.399902 0.377573 0.427561
0.438014 0.391307 0.409229
0.470740 0.403718 0.400229
0.499914 0.420549 0.403608
0.527910 0.444940 0.417181
0.557635 0.477426 0.433534
0.592534 0.515941 0.440024
0.636589 0.555813 0.418776
0.393649 0.370685 0.431375
0.435321 0.390646 0.413895
0.470740 0.403718 0.400229
0.501339 0.417599 0.397346
0.529089 0.437380 0.406986
0.556495 0.465551 0.425657
0.586600 0.501996 0.444636
0.622983 0.543997 0.449973
0.669759 0.586232 0.422485
0.427509 0.387359 0.425278
0.466577 0.406224 0.411592
0.499914 0.420549 0.403608
0.529089 0.437380 0.406986
0.556204 0.461158 0.422159
0.583901 0.493721 0.444327
0.615356 0.534303 0.463461
0.654281 0.579536 0.464302
0.704927 0.623445 0.426360
0.458787 0.408631 0.429088
0.495908 0.428098 0.419776
0.527910 0.444940 0.417181
0.556495 0.465551 0.425657
0.583901 0.493721 0.444327
0.612902 0.530638 0.467085
0.646810 0.574885 0.482595
0.689471 0.622443 0.474289
0.745269 0.666687 0.420371
0.490125 0.436340 0.438006
0.526088 0.457456 0.432340
0.557635 0.477426 0.433534
0.586600 0.501996 0.444636
0.615356 0.534303 0.463461
0.646810 0.574885 0.482595
0.684409 0.621675 0.489394
0.732132 0.670000 0.465983
0.794498 0.712587 0.389259
0.524697 0.469720 0.442002
0.560429 0.492880 0.437947
0.592534 0.515941 0.440024
0.622983 0.543997 0.449973
0.654281 0.579536 0.464302
0.689471 0.622443 0.474289
0.732132 0.670000 0.465983
0.786379 0.716886 0.420202
0.856865 0.755174 0.312534
0.566218 0.505402 0.425819
0.602777 0.530350 0.420031
0.636589 0.555813 0.418776
0.669759 0.586232 0.422485
0.704927 0.623445 0.426360
0.745269 0.666687 0.420371
0.794498 0.712587 0.389259
0.856865 0.755174 0.312534
0.937154 0.785871 0.164478
0.300545 0.314958 0.465306
0.349373 0.349629 0.452651
0.391306 0.370764 0.436113
0.427509 0.387359 0.425278
0.459683 0.405809 0.424498
0.490066 0.429904 0.432898
0.521432 0.460831 0.444370
0.557093 0.497174 0.447577
0.600895 0.534913 0.425954
0.349373 0.349629 0.452651
0.394605 0.375816 0.436021
0.433240 0.391898 0.419576
0.466577 0.406224 0.411592
0.496453 0.424535 0.415114
0.525239 0.449973 0.427959
0.555844 0.483072 0.442713
0.591713 0.521765 0.446732
0.636827 0.561382 0.422140
0.391306 0.370764 0.436113
0.433240 0.391898 0.419576
0.468964 0.405928 0.406418
0.499914 0.420549 0.403608
0.528059 0.440854 0.412883
0.555905 0.469331 0.430754
0.586495 0.505865 0.448498
0.623408 0.547738 0.452163
0.670758 0.589629 0.422568
0.427509 0.387359 0.425278
0.466577 0.406224 0.411592
0.499914 0.420549 0.403608
0.529089 0.437380 0.406986
0.556204 0.461158 0.422159
0.583901 0.493721 0.444327
0.615356 0.534303 0.463461
0.654281 0.579536 0.464302
0.704927 0.623445 0.426360
0.459683 0.405809 0.424498
0.496453 0.424535 0.415114
0.528059 0.440854 0.412883
0.556204 0.461158 0.422159
0.583126 0.489239 0.442065
0.611598 0.526284 0.466495
0.644931 0.570876 0.484112
0.686973 0.618995 0.478349
0.742108 0.664017 0.427410
0.490066 0.429904 0.432898
0.525239 0.449973 0.427959
0.555905 0.469331 0.430754
0.583901 0.493721 0.444327
0.611598 0.526284 0.466495
0.641904 0.567555 0.489844
0.678265 0.615468 0.501729
0.724661 0.665350 0.484276
0.785611 0.709928 0.414382
0.521432 0.460831 0.444370
0.555844 0.483072 0.442713
0.586495 0.505865 0.448498
0.615356 0.534303 0.463461
0.644931 0.570876 0.484112
0.678265 0.615468 0.501729
0.718935 0.665360 0.502360
0.771058 0.715232 0.466824
0.839284 0.757158 0.370708
0.557093 0.497174 0.447577
0.591713 0.521765 0.446732
0.623408 0.547738 0.452163
0.654281 0.579536 0.464302
0.686973 0.618995 0.478349
0.724661 0.665350 0.484276
0.771058 0.715232 0.466824
0.830412 0.762669 0.405502
0.907511 0.799084 0.274592
0.600895 0.534913 0.425954
0.636827 0.561382 0.422140
0.670758 0.589629 0.422568
0.704927 0.623445 0.426360
0.742108 0.664017 0.427410
0.785611 0.709928 0.414382
0.839284 0.757158 0.370708
0.907511 0.799084 0.274592
0.995210 0.826478 0.099008
0.338449 0.337947 0.458824
0.384547 0.369698 0.447712
0.424226 0.390477 0.435041
0.458787 0.408631 0.429088
0.490066 0.429904 0.432898
0.520433 0.457434 0.444287
0.552799 0.491758 0.455841
0.590607 0.530809 0.454917
0.637838 0.569916 0.423640
0.384547 0.369698 0.447712
0.427263 0.394355 0.434006
0.463906 0.411256 0.422371
0.495908 0.428098 0.419776
0.525239 0.449973 0.427959
0.554405 0.479368 0.443430
0.586449 0.516171 0.457467
0.624950 0.557661 0.456118
0.674023 0.598518 0.420201
0.424226 0.390477 0.435041
0.463906 0.411256 0.422371
0.497945 0.427062 0.414530
0.527910 0.444940 0.417181
0.555905 0.469331 0.430754
0.584572 0.502072 0.450450
0.617085 0.542399 0.466241
0.657159 0.586942 0.462867
0.709042 0.629729 0.419839
0.458787 0.408631 0.429088
0.495908 0.428098 0.419776
0.527910 0.444940 0.417181
0.556495 0.465551 0.425657
0.583901 0.493721 0.444327
0.612902 0.530638 0.467085
0.646810 0.574885 0.482595
0.689471 0.622443 0.474289
0.745269 0.666687 0.420371
0.490066 0.429904 0.432898
0.525239 0.449973 0.427959
0.555905 0.469331 0.430754
0.583901 0.493721 0.444327
0.611598 0.526284 0.466495
0.641904 0.567555 0.489844
0.678265 0.615468 0.501729
0.724661 0.665350 0.484276
0.785611 0.709928 0.414382
0.520433 0.457434 0.444287
0.554405 0.479368 0.443430
0.584572 0.502072 0.450450
0.612902 0.530638 0.467085
0.641904 0.567555 0.489844
0.674619 0.612709 0.510004
0.714625 0.663380 0.513614
0.766040 0.714247 0.481493
0.833513 0.757385 0.389228
0.552799 0.491758 0.455841
0.586449 0.516171 0.457467
0.617085 0.542399 0.466241
0.646810 0.574885 0.482595
0.678265 0.615468 0.501729
0.714625 0.663380 0.513614
0.759605 0.715253 0.502991
0.817454 0.765115 0.449371
0.892957 0.804388 0.327034
0.590607 0.530809 0.454917
0.624950 0.557661 0.456118
0.657159 0.586942 0.462867
0.689471 0.622443 0.474289
0.724661 0.665350 0.484276
0.766040 0.714247 0.481493
0.817454 0.765115 0.449371
0.883288 0.811328 0.366115
0.968461 0.843662 0.204698
0.637838 0.569916 0.423640
0.674023 0.598518 0.420201
0.709042 0.629729 0.419839
0.745269 0.666687 0.420371
0.785611 0.709928 0.414382
0.833513 0.757385 0.389228
0.892957 0.804388 0.327034
0.968461 0.843662 0.204698
1.000000 0.865328 0.000000
0.374174 0.363582 0.458327
0.418197 0.394110 0.449338
0.456369 0.415798 0.440241
0.490125 0.436340 0.438006
0.521432 0.460831 0.444370
0.552799 0.491758 0.455841
0.587267 0.529008 0.463700
0.628415 0.569860 0.453993
0.680358 0.608995 0.407539
0.418197 0.394110 0.449338
0.459101 0.418718 0.438698
0.494542 0.437485 0.431145
0.526088 0.457456 0.432340
0.555844 0.483072 0.442713
0.586449 0.516171 0.457467
0.621080 0.555987 0.466572
0.663451 0.599152 0.454769
0.717810 0.639692 0.401567
0.456369 0.415798 0.440241
0.494542 0.437485 0.431145
0.527730 0.455897 0.427458
0.557635 0.477426 0.433534
0.586495 0.505865 0.448498
0.617085 0.542399 0.466241
0.652715 0.585613 0.475429
0.697233 0.631485 0.459493
0.755021 0.673394 0.396638
0.490125 0.436340 0.438006
0.526088 0.457456 0.432340
0.557635 0.477426 0.433534
0.586600 0.501996 0.444636
0.615356 0.534303 0.463461
0.646810 0.574885 0.482595
0.684409 0.621675 0.489394
0.732132 0.670000 0.465983
0.794498 0.712587 0.389259
0.521432 0.460831 0.444370
0.555844 0.483072 0.442713
0.586495 0.505865 0.448498
0.615356 0.534303 0.463461
0.644931 0.570876 0.484112
0.678265 0.615468 0.501729
0.718935 0.665360 0.502360
0.771058 0.715232 0.466824
0.839284 0.757158 0.370708
0.552799 0.491758 0.455841
0.586449 0.516171 0.457467
0.617085 0.542399 0.466241
0.646810 0.574885 0.482595
0.678265 0.615468 0.501729
0.714625 0.663380 0.513614
0.759605 0.715253 0.502991
0.817454 0.765115 0.449371
0.892957 0.804388 0.327034
0.587267 0.529008 0.463700
0.621080 0.555987 0.466572
0.652715 0.585613 0.475429
0.684409 0.621675 0.489394
0.718935 0.665360 0.502360
0.759605 0.715253 0.502991
0.810267 0.767333 0.474721
0.875303 0.814976 0.395751
0.959633 0.848956 0.239056
0.628415 0.569860 0.453993
0.663451 0.599152 0.454769
0.697233 0.631485 0.459493
0.732132 0.670000 0.465983
0.771058 0.715232 0.466824
0.817454 0.765115 0.449371
0.875303 0.814976 0.395751
0.949121 0.857542 0.282859
1.000000 0.882935 0.082361
0.680358 0.608995 0.407539
0.717810 0.639692 0.401567
0.755021 0.673394 0.396638
0.794498 0.712587 0.389259
0.839284 0.757158 0.370708
0.892957 0.804388 0.327034
0.959633 0.848956 0.239056
1.000000 0.882935 0.082361
1.000000 0.895798 0.000000
0.410494 0.393050 0.457708
0.453233 0.423402 0.450114
0.490778 0.446610 0.442992
0.524697 0.469720 0.442002
0.557093 0.497174 0.447577
0.590607 0.530809 0.454917
0.628415 0.569860 0.453993
0.674230 0.610958 0.429545
0.732302 0.648129 0.361085
0.453233 0.423402 0.450114
0.493159 0.448790 0.441376
0.528324 0.469818 0.435870
0.560429 0.492880 0.437947
0.591713 0.521765 0.446732
0.624950 0.557661 0.456118
0.663451 0.599152 0.454769
0.711063 0.642217 0.426117
0.772169 0.680233 0.348366
0.490778 0.446610 0.442992
0.528324 0.469818 0.435870
0.561630 0.491014 0.433865
0.592534 0.515941 0.440024
0.623408 0.547738 0.452163
0.657159 0.586942 0.462867
0.697233 0.631485 0.459493
0.747610 0.676697 0.424166
0.812810 0.715302 0.333783
0.524697 0.469720 0.442002
0.560429 0.492880 0.437947
0.592534 0.515941 0.440024
0.622983 0.543997 0.449973
0.654281 0.579536 0.464302
0.689471 0.622443 0.474289
0.732132 0.670000 0.465983
0.786379 0.716886 0.420202
0.856865 0.755174 0.312534
0.557093 0.497174 0.447577
0.591713 0.521765 0.446732
0.623408 0.547738 0.452163
0.654281 0.579536 0.464302
0.686973 0.618995 0.478349
0.724661 0.665350 0.484276
0.771058 0.715232 0.466824
0.830412 0.762669 0.405502
0.907511 0.799084 0.274592
0.590607 0.530809 0.454917
0.624950 0.557661 0.456118
0.657159 0.586942 0.462867
0.689471 0.622443 0.474289
0.724661 0.665350 0.484276
0.766040 0.714247 0.481493
0.817454 0.765115 0.449371
0.883288 0.811328 0.366115
0.968461 0.843662 0.204698
0.628415 0.569860 0.453993
0.663451 0.599152 0.454769
0.697233 0.631485 0.459493
0.732132 0.670000 0.465983
0.771058 0.715232 0.466824
0.817454 0.765115 0.449371
0.875303 0.814976 0.395751
0.949121 0.857542 0.282859
1.000000 0.882935 0.082361
0.674230 0.610958 0.429545
0.711063 0.642217 0.426117
0.747610 0.676697 0.424166
0.786379 0.716886 0.420202
0.830412 0.762669 0.405502
0.883288 0.811328 0.366115
0.949121 0.857542 0.282859
1.000000 0.893385 0.131322
1.000000 0.908328 0.000000
0.732302 0.648129 0.361085
0.772169 0.680233 0.348366
0.812810 0.715302 0.333783
0.856865 0.755174 0.312534
0.907511 0.799084 0.274592
0.968461 0.843662 0.204698
1.000000 0.882935 0.082361
1.000000 0.908328 0.000000
1.000000 0.908661 0.000000
0.450720 0.424935 0.445630
0.493100 0.455506 0.437395
0.531032 0.480197 0.429341
0.566218 0.505402 0.425819
0.600895 0.534913 0.425954
0.637838 0.569916 0.423640
0.680358 0.608995 0.407539
0.732302 0.648129 0.361085
0.798053 0.680695 0.262481
0.493100 0.455506 0.437395
0.533017 0.481854 0.428089
0.568965 0.504887 0.421286
0.602777 0.530350 0.420031
0.636827 0.561382 0.422140
0.674023 0.598518 0.420201
0.717810 0.639692 0.401567
0.772169 0.680233 0.348366
0.841618 0.712865 0.237493
0.531032 0.480197 0.429341
0.568965 0.504887 0.421286
0.603494 0.528396 0.417185
0.636589 0.555813 0.418776
0.670758 0.589629 0.422568
0.709042 0.629729 0.419839
0.755021 0.673394 0.396638
0.812810 0.715302 0.333783
0.887060 0.747528 0.206861
0.566218 0.505402 0.425819
0.602777 0.530350 0.420031
0.636589 0.555813 0.418776
0.669759 0.586232 0.422485
0.704927 0.623445 0.426360
0.745269 0.666687 0.420371
0.794498 0.712587 0.389259
0.856865 0.755174 0.312534
0.937154 0.785871 0.164478
0.600895 0.534913 0.425954
0.636827 0.561382 0.422140
0.670758 0.589629 0.422568
0.704927 0.623445 0.426360
0.742108 0.664017 0.427410
0.785611 0.709928 0.414382
0.839284 0.757158 0.370708
0.907511 0.799084 0.274592
0.995210 0.826478 0.099008
0.637838 0.569916 0.423640
0.674023 0.598518 0.420201
0.709042 0.629729 0.419839
0.745269 0.666687 0.420371
0.785611 0.709928 0.414382
0.833513 0.757385 0.389228
0.892957 0.804388 0.327034
0.968461 0.843662 0.204698
1.000000 0.865328 0.000000
0.680358 0.608995 0.407539
0.717810 0.639692 0.401567
0.755021 0.673394 0.396638
0.794498 0.712587 0.389259
0.839284 0.757158 0.370708
0.892957 0.804388 0.327034
0.959633 0.848956 0.239056
1.000000 0.882935 0.082361
1.000000 0.895798 0.000000
0.732302 0.648129 0.361085
0.772169 0.680233 0.348366
0.812810 0.715302 0.333783
0.856865 0.755174 0.312534
0.907511 0.799084 0.274592
0.968461 0.843662 0.204698
1.000000 0.882935 0.082361
1.000000 0.908328 0.000000
1.000000 0.908661 0.000000
0.798053 0.680695 0.262481
0.841618 0.712865 0.237493
0.887060 0.747528 0.206861
0.937154 0.785871 0.164478
0.995210 0.826478 0.099008
1.000000 0.865328 0.000000
1.000000 0.895798 0.000000
1.000000 0.908661 0.000000
1.000000 0.892086 0.000000
