public/luts/bw_trix_1600.cube
# Generated from ColorChecker fit
LUT_3D_SIZE 33
DOMAIN_MIN 0.0 0.0 0.0
DOMAIN_MAX 1.0 1.0 1.0
0.468292 0.000000 0.224895
0.430419 0.008159 0.267337
0.397972 0.034749 0.303339
0.370465 0.059267 0.333557
0.347436 0.081831 0.358611
0.328447 0.102555 0.379088
0.313084 0.121554 0.395542
0.300957 0.138941 0.408493
0.291702 0.154827 0.418429
0.284976 0.169325 0.425802
0.280461 0.182544 0.431032
0.277864 0.194592 0.434505
0.276916 0.205577 0.436573
0.277371 0.215606 0.437556
0.279007 0.224784 0.437739
0.281629 0.233215 0.437374
0.285061 0.241002 0.436678
0.289156 0.248247 0.435838
0.293788 0.255051 0.435004
0.298856 0.261514 0.434294
0.304282 0.267734 0.433791
0.310015 0.273809 0.433548
0.316025 0.279835 0.433580
0.322308 0.285908 0.433871
0.328882 0.292121 0.434371
0.335792 0.298568 0.434996
0.343103 0.305340 0.435630
0.350909 0.312528 0.436121
0.359324 0.320222 0.436286
0.368488 0.328510 0.435906
0.378565 0.337480 0.434731
0.389741 0.347218 0.432475
0.402230 0.357809 0.428819
0.430419 0.008159 0.267337
0.395342 0.035824 0.306447
0.365525 0.061339 0.339342
0.340488 0.084822 0.366667
0.319774 0.106388 0.389035
0.302953 0.126154 0.407025
0.289617 0.144233 0.421183
0.279380 0.160738 0.432019
0.271885 0.175780 0.440014
0.266795 0.189471 0.445610
0.263799 0.201920 0.449220
0.262608 0.213236 0.451222
0.262961 0.223525 0.451958
0.264617 0.232894 0.451741
0.267360 0.241447 0.450847
0.271001 0.249290 0.449519
0.275371 0.256525 0.447968
0.280327 0.263252 0.446370
0.285751 0.269574 0.444867
0.291547 0.275589 0.443569
0.297644 0.281396 0.442552
0.303995 0.287092 0.441858
0.310578 0.292772 0.441496
0.317394 0.298533 0.441440
0.324468 0.304467 0.441633
0.331849 0.310668 0.441982
0.339611 0.317227 0.442362
0.347851 0.324234 0.442613
0.356691 0.331780 0.442543
0.366276 0.339951 0.441927
0.376777 0.348836 0.440503
0.388386 0.358520 0.437979
0.401321 0.369088 0.434028
0.397972 0.034749 0.303339
0.365525 0.061339 0.339342
0.338176 0.085818 0.369347
0.315450 0.108304 0.393992
0.296899 0.128913 0.413882
0.282096 0.147759 0.429587
0.270640 0.164956 0.441643
0.262152 0.180617 0.450555
0.256279 0.194854 0.456792
0.252691 0.207776 0.460791
0.251083 0.219493 0.462955
0.251173 0.230113 0.463653
0.252705 0.239743 0.463220
0.255443 0.248489 0.461959
0.259180 0.256457 0.460139
0.263730 0.263748 0.457994
0.268931 0.270466 0.455727
0.274647 0.276713 0.453505
0.280765 0.282589 0.451462
0.287195 0.288192 0.449700
0.293872 0.293621 0.448286
0.300757 0.298973 0.447254
0.307831 0.304344 0.446604
0.315102 0.309828 0.446302
0.322602 0.315518 0.446283
0.330385 0.321508 0.446445
0.338531 0.327889 0.446654
0.347144 0.334750 0.446744
0.356351 0.342181 0.446513
0.366304 0.350270 0.445726
0.377178 0.359104 0.444116
0.389174 0.368768 0.441380
0.402514 0.379347 0.437185
0.370465 0.059267 0.333557
0.340488 0.084822 0.366667
0.315450 0.108304 0.393992
0.294885 0.129832 0.416162
0.278348 0.149521 0.433772
0.265419 0.167486 0.447384
0.255703 0.183840 0.457527
0.248827 0.198696 0.464696
0.244444 0.212164 0.469352
0.242231 0.224354 0.471925
0.241888 0.235377 0.472807
0.243139 0.245339 0.472360
0.245733 0.254348 0.470912
0.249442 0.262508 0.468756
0.254065 0.269925 0.466152
0.259420 0.276702 0.463328
0.265353 0.282940 0.460476
0.271733 0.288742 0.457756
0.278452 0.294208 0.455293
0.285429 0.299435 0.453182
0.292603 0.304522 0.451480
0.299940 0.309566 0.450213
0.307430 0.314662 0.449373
0.315085 0.319904 0.448918
0.322942 0.325386 0.448773
0.331064 0.331199 0.448829
0.339535 0.337436 0.448944
0.348465 0.344185 0.448942
0.357987 0.351536 0.448614
0.368260 0.359577 0.447716
0.379465 0.368393 0.445972
0.391807 0.378070 0.443073
0.405516 0.388693 0.438674
0.347436 0.081831 0.358611
0.319774 0.106388 0.389035
0.296899 0.128913 0.413882
0.278348 0.149521 0.433772
0.263683 0.168329 0.449292
0.252490 0.185451 0.460996
0.244380 0.200999 0.469404
0.238986 0.215087 0.475004
0.235968 0.227824 0.478247
0.235007 0.239321 0.479555
0.235811 0.249686 0.479313
0.238109 0.259027 0.477873
0.241656 0.267451 0.475555
0.246231 0.275062 0.472643
0.251636 0.281965 0.469390
0.257699 0.288263 0.466015
0.264270 0.294059 0.462701
0.271224 0.299452 0.459600
0.278460 0.304542 0.456831
0.285901 0.309429 0.454476
0.293494 0.314210 0.452587
0.301211 0.318980 0.451180
0.309045 0.323836 0.450239
0.317018 0.328871 0.449715
0.325172 0.334179 0.449523
0.333574 0.339851 0.449546
0.342316 0.345978 0.449634
0.351513 0.352649 0.449601
0.361306 0.359954 0.449232
0.371857 0.367979 0.448274
0.383354 0.376811 0.446442
0.396009 0.386535 0.443417
0.410058 0.397235 0.438849
0.328447 0.102555 0.379088
0.302953 0.126154 0.407025
0.282096 0.147759 0.429587
0.265419 0.167486 0.447384
0.252490 0.185451 0.460996
0.242902 0.201767 0.470968
0.236270 0.216548 0.477812
0.232235 0.229905 0.482008
0.230461 0.241948 0.483998
0.230637 0.252788 0.484195
0.232475 0.262533 0.482976
0.235712 0.271290 0.480686
0.240108 0.279165 0.477634
0.245448 0.286263 0.474099
0.251541 0.292689 0.470323
0.258220 0.298545 0.466517
0.265341 0.303932 0.462856
0.272785 0.308952 0.459484
0.280458 0.313703 0.456510
0.288287 0.318285 0.454010
0.296228 0.322794 0.452026
0.304256 0.327326 0.450567
0.312372 0.331976 0.449607
0.320603 0.336839 0.449088
0.328997 0.342007 0.448919
0.337628 0.347571 0.448973
0.346593 0.353622 0.449092
0.356014 0.360249 0.449084
0.366037 0.367541 0.448721
0.376830 0.375584 0.447744
0.388588 0.384465 0.445859
0.401529 0.394269 0.442741
0.415894 0.405079 0.438029
0.313084 0.121554 0.395542
0.289617 0.144233 0.421183
0.270640 0.164956 0.441643
0.255703 0.183840 0.457527
0.244380 0.200999 0.469404
0.236270 0.216548 0.477812
0.230994 0.230598 0.483255
0.228200 0.243262 0.486203
0.227556 0.254649 0.487091
0.228759 0.264868 0.486322
0.231526 0.274029 0.484267
0.235600 0.282238 0.481260
0.240748 0.289601 0.477605
0.246760 0.296223 0.473568
0.253450 0.302207 0.469387
0.260659 0.307655 0.465262
0.268248 0.312671 0.461360
0.276105 0.317352 0.457818
0.284140 0.321800 0.454735
0.292289 0.326111 0.452179
0.300510 0.330383 0.450184
0.308788 0.334711 0.448750
0.317129 0.339191 0.447844
0.325564 0.343915 0.447398
0.334149 0.348977 0.447314
0.342963 0.354467 0.447455
0.352109 0.360475 0.447656
0.361716 0.367092 0.447716
0.371935 0.374404 0.447398
0.382941 0.382499 0.446436
0.394935 0.391462 0.444528
0.408139 0.401378 0.441338
0.422803 0.412330 0.436499
0.300957 0.138941 0.408493
0.279380 0.160738 0.432019
0.262152 0.180617 0.450555
0.248827 0.198696 0.464696
0.238986 0.215087 0.475004
0.232235 0.229905 0.482008
0.228200 0.243262 0.486203
0.226534 0.255268 0.488050
0.226913 0.266036 0.487979
0.229039 0.275672 0.486382
0.232635 0.284285 0.483622
0.237450 0.291983 0.480025
0.243257 0.298869 0.475885
0.249853 0.305050 0.471463
0.257058 0.310627 0.466985
0.264716 0.315705 0.462644
0.272698 0.320383 0.458600
0.280895 0.324761 0.454980
0.289225 0.328939 0.451875
0.297630 0.333015 0.449344
0.306073 0.337084 0.447414
0.314544 0.341243 0.446075
0.323057 0.345586 0.445287
0.331649 0.350206 0.444973
0.340381 0.355195 0.445026
0.349338 0.360645 0.445303
0.358631 0.366644 0.445628
0.368392 0.373283 0.445791
0.378780 0.380649 0.445550
0.389975 0.388828 0.444629
0.402184 0.397905 0.442716
0.415637 0.407966 0.439469
0.430587 0.419093 0.434510
0.291702 0.154827 0.418429
0.271885 0.175780 0.440014
0.256279 0.194854 0.456792
0.244444 0.212164 0.469352
0.235968 0.227824 0.478247
0.230461 0.241948 0.483998
0.227556 0.254649 0.487091
0.226913 0.266036 0.487979
0.228214 0.276219 0.487082
0.231165 0.285308 0.484786
0.235496 0.293410 0.481443
0.240963 0.300632 0.477374
0.247343 0.307078 0.472862
0.254441 0.312852 0.468160
0.262082 0.318059 0.463486
0.270117 0.322800 0.459025
0.278421 0.327176 0.454928
0.286893 0.331286 0.451313
0.295457 0.335230 0.448264
0.304058 0.339104 0.445832
0.312669 0.343005 0.444033
0.321285 0.347028 0.442852
0.329925 0.351268 0.442237
0.338631 0.355817 0.442106
0.347473 0.360768 0.442342
0.356540 0.366210 0.442793
0.365949 0.372234 0.443275
0.375838 0.378928 0.443571
0.386373 0.386380 0.443429
0.397740 0.394675 0.442564
0.410151 0.403899 0.440659
0.423842 0.414137 0.437360
0.439073 0.425470 0.432283
0.284976 0.169325 0.425802
0.266795 0.189471 0.445610
0.252691 0.207776 0.460791
0.242231 0.224354 0.471925
0.235007 0.239321 0.479555
0.230637 0.252788 0.484195
0.228759 0.264868 0.486322
0.229039 0.275672 0.486382
0.231165 0.285308 0.484786
0.234849 0.293886 0.481911
0.239828 0.301512 0.478101
0.245862 0.308293 0.473667
0.252736 0.314334 0.468887
0.260260 0.319739 0.464003
0.268265 0.324610 0.459226
0.276609 0.329049 0.454731
0.285172 0.333157 0.450662
0.293859 0.337034 0.447129
0.302600 0.340777 0.444206
0.311348 0.344484 0.441936
0.320079 0.348250 0.440328
0.328795 0.352172 0.439357
0.337522 0.356342 0.438964
0.346308 0.360854 0.439058
0.355226 0.365798 0.439512
0.364376 0.371266 0.440168
0.373877 0.377347 0.440833
0.383876 0.384129 0.441281
0.394542 0.391699 0.441252
0.406069 0.400143 0.440453
0.418674 0.409547 0.438557
0.432600 0.419993 0.435204
0.448113 0.431564 0.430000
0.280461 0.182544 0.431032
0.263799 0.201920 0.449220
0.251083 0.219493 0.462955
0.241888 0.235377 0.472807
0.235811 0.249686 0.479313
0.232475 0.262533 0.482976
0.231526 0.274029 0.484267
0.232635 0.284285 0.483622
0.235496 0.293410 0.481443
0.239828 0.301512 0.478101
0.245372 0.308698 0.473930
0.251896 0.315074 0.469234
0.259191 0.320745 0.464280
0.267071 0.325814 0.459304
0.275374 0.330384 0.454507
0.283965 0.334556 0.450057
0.292729 0.338431 0.446089
0.301578 0.342108 0.442704
0.310447 0.345685 0.439969
0.319294 0.349258 0.437918
0.328104 0.352924 0.436551
0.336883 0.356777 0.435835
0.345663 0.360911 0.435703
0.354498 0.365418 0.436054
0.363469 0.370390 0.436756
0.372679 0.375917 0.437639
0.382255 0.382087 0.438504
0.392349 0.388989 0.439115
0.403137 0.396710 0.439205
0.414818 0.405334 0.438472
0.427617 0.414948 0.436580
0.441780 0.425635 0.433162
0.457580 0.437475 0.427813
0.277864 0.194592 0.434505
0.262608 0.213236 0.451222
0.251173 0.230113 0.463653
0.243139 0.245339 0.472360
0.238109 0.259027 0.477873
0.235712 0.271290 0.480686
0.235600 0.282238 0.481260
0.237450 0.291983 0.480025
0.240963 0.300632 0.477374
0.245862 0.308293 0.473667
0.251896 0.315074 0.469234
0.258839 0.321080 0.464367
0.266485 0.326416 0.459326
0.274658 0.331184 0.454339
0.283200 0.335487 0.449598
0.291982 0.339427 0.445263
0.300896 0.343103 0.441460
0.309858 0.346614 0.438283
0.318811 0.350058 0.435789
0.327719 0.353531 0.434004
0.336572 0.357130 0.432920
0.345382 0.360947 0.432495
0.354187 0.365078 0.432655
0.363049 0.369614 0.433289
0.372052 0.374645 0.434257
0.381306 0.380262 0.435382
0.390946 0.386554 0.436455
0.401128 0.393609 0.437233
0.412034 0.401512 0.437439
0.423870 0.410349 0.436763
0.436865 0.420205 0.434862
0.451274 0.431163 0.431358
0.467375 0.443304 0.425841
0.276916 0.205577 0.436573
0.262961 0.223525 0.451958
0.252705 0.239743 0.463220
0.245733 0.254348 0.470912
0.241656 0.267451 0.475555
0.240108 0.279165 0.477634
0.240748 0.289601 0.477605
0.243257 0.298869 0.475885
0.247343 0.307078 0.472862
0.252736 0.314334 0.468887
0.259191 0.320745 0.464280
0.266485 0.326416 0.459326
0.274423 0.331450 0.454277
0.282830 0.335952 0.449351
0.291558 0.340023 0.444734
0.300481 0.343764 0.440575
0.309498 0.347275 0.436994
0.318533 0.350653 0.434074
0.327532 0.353998 0.431866
0.336467 0.357405 0.430386
0.345332 0.360969 0.429619
0.354148 0.364784 0.429514
0.362957 0.368944 0.429987
0.371827 0.373541 0.430922
0.380849 0.378664 0.432168
0.390139 0.384404 0.433540
0.399836 0.390850 0.434821
0.410104 0.398088 0.435760
0.421130 0.406205 0.436071
0.433127 0.415286 0.435436
0.446331 0.425415 0.433503
0.461000 0.436676 0.429886
0.477419 0.449148 0.424167
0.277371 0.215606 0.437556
0.264617 0.232894 0.451741
0.255443 0.248489 0.461959
0.249442 0.262508 0.468756
0.246231 0.275062 0.472643
0.245448 0.286263 0.474099
0.246760 0.296223 0.473568
0.249853 0.305050 0.471463
0.254441 0.312852 0.468160
0.260260 0.319739 0.464003
0.267071 0.325814 0.459304
0.274658 0.331184 0.454339
0.282830 0.335952 0.449351
0.291420 0.340222 0.444552
0.300285 0.344094 0.440116
0.309306 0.347670 0.436187
0.318387 0.351049 0.432875
0.327459 0.354329 0.430255
0.336472 0.357607 0.428369
0.345406 0.360980 0.427225
0.354261 0.364543 0.426800
0.363063 0.368388 0.427034
0.371860 0.372610 0.427836
0.380727 0.377300 0.429080
0.389760 0.382547 0.430606
0.399081 0.388442 0.432223
0.408836 0.395073 0.433704
0.419195 0.402526 0.434789
0.430350 0.410889 0.435185
0.442521 0.420245 0.434566
0.455948 0.430678 0.432570
0.470898 0.442271 0.428805
0.487661 0.455106 0.422841
0.279007 0.224784 0.437739
0.267360 0.241447 0.450847
0.259180 0.256457 0.460139
0.254065 0.269925 0.466152
0.251636 0.281965 0.469390
0.251541 0.292689 0.470323
0.253450 0.302207 0.469387
0.257058 0.310627 0.466985
0.262082 0.318059 0.463486
0.268265 0.324610 0.459226
0.275374 0.330384 0.454507
0.283200 0.335487 0.449598
0.291558 0.340023 0.444734
0.300285 0.344094 0.440116
0.309246 0.347802 0.435913
0.318327 0.351246 0.432259
0.327439 0.354526 0.429255
0.336516 0.357740 0.426968
0.345519 0.360985 0.425432
0.354431 0.364357 0.424647
0.363257 0.367951 0.424581
0.372031 0.371859 0.425165
0.380807 0.376175 0.426301
0.389665 0.380989 0.427853
0.398707 0.386392 0.429655
0.408063 0.392474 0.431505
0.417882 0.399321 0.433169
0.428342 0.407021 0.434379
0.439641 0.415660 0.434833
0.452003 0.425321 0.434196
0.465677 0.436089 0.432099
0.480934 0.448046 0.428139
0.498070 0.461274 0.421882
0.281629 0.233215 0.437374
0.271001 0.249290 0.449519
0.263730 0.263748 0.457994
0.259420 0.276702 0.463328
0.257699 0.288263 0.466015
0.258220 0.298545 0.466517
0.260659 0.307655 0.465262
0.264716 0.315705 0.462644
0.270117 0.322800 0.459025
0.276609 0.329049 0.454731
0.283965 0.334556 0.450057
0.291982 0.339427 0.445263
0.300481 0.343764 0.440575
0.309306 0.347670 0.436187
0.318327 0.351246 0.432259
0.327436 0.354592 0.428916
0.336550 0.357806 0.426250
0.345611 0.360988 0.424322
0.354583 0.364232 0.423156
0.363456 0.367635 0.422744
0.372243 0.371292 0.423045
0.380982 0.375295 0.423983
0.389733 0.379736 0.425450
0.398582 0.384707 0.427303
0.407638 0.390298 0.429366
0.417036 0.396597 0.431430
0.426933 0.403692 0.433252
0.437510 0.411669 0.434556
0.448973 0.420615 0.435031
0.461552 0.430612 0.434334
0.475501 0.441746 0.432088
0.491097 0.454096 0.427882
0.508643 0.467746 0.421271
0.285061 0.241002 0.436678
0.275371 0.256525 0.447968
0.268931 0.270466 0.455727
0.265353 0.282940 0.460476
0.264270 0.294059 0.462701
0.265341 0.303932 0.462856
0.268248 0.312671 0.461360
0.272698 0.320383 0.458600
0.278421 0.327176 0.454928
0.285172 0.333157 0.450662
0.292729 0.338431 0.446089
0.300896 0.343103 0.441460
0.309498 0.347275 0.436994
0.318387 0.351049 0.432875
0.327439 0.354526 0.429255
0.336550 0.357806 0.426250
0.345646 0.360988 0.423947
0.354672 0.364169 0.422394
0.363600 0.367445 0.421609
0.372425 0.370912 0.421576
0.381167 0.374663 0.422244
0.389868 0.378792 0.423530
0.398597 0.383391 0.425316
0.407443 0.388550 0.427453
0.416524 0.394359 0.429755
0.425979 0.400907 0.432006
0.435971 0.408280 0.433952
0.446688 0.416566 0.435311
0.458341 0.425849 0.435763
0.471167 0.436213 0.434956
0.485426 0.447741 0.432505
0.501400 0.460516 0.427990
0.519399 0.474617 0.420960
0.289156 0.248247 0.435838
0.280327 0.263252 0.446370
0.274647 0.276713 0.453505
0.271733 0.288742 0.457756
0.271224 0.299452 0.459600
0.272785 0.308952 0.459484
0.276105 0.317352 0.457818
0.280895 0.324761 0.454980
0.286893 0.331286 0.451313
0.293859 0.337034 0.447129
0.301578 0.342108 0.442704
0.309858 0.346614 0.438283
0.318533 0.350653 0.434074
0.327459 0.354329 0.430255
0.336516 0.357740 0.426968
0.345611 0.360988 0.424322
0.354672 0.364169 0.422394
0.363652 0.367381 0.421225
0.372528 0.370721 0.420824
0.381302 0.374283 0.421166
0.389998 0.378161 0.422194
0.398667 0.382448 0.423814
0.407381 0.387235 0.425901
0.416239 0.392614 0.428296
0.425361 0.398672 0.430807
0.434892 0.405499 0.433207
0.445004 0.413181 0.435237
0.455889 0.421805 0.436603
0.467766 0.431456 0.436978
0.480875 0.442217 0.436003
0.495484 0.454170 0.433283
0.511881 0.467398 0.428390
0.530381 0.481980 0.420864
0.293788 0.255051 0.435004
0.285751 0.269574 0.444867
0.280765 0.282589 0.451462
0.278452 0.294208 0.455293
0.278460 0.304542 0.456831
0.280458 0.313703 0.456510
0.284140 0.321800 0.454735
0.289225 0.328939 0.451875
0.295457 0.335230 0.448264
0.302600 0.340777 0.444206
0.310447 0.345685 0.439969
0.318811 0.350058 0.435789
0.327532 0.353998 0.431866
0.336472 0.357607 0.428369
0.345519 0.360985 0.425432
0.354583 0.364232 0.423156
0.363600 0.367445 0.421609
0.372528 0.370721 0.420824
0.381351 0.374156 0.420802
0.390076 0.377845 0.421509
0.398734 0.381881 0.422878
0.407380 0.386357 0.424810
0.416095 0.391364 0.427170
0.424981 0.396992 0.429790
0.434166 0.403330 0.432471
0.443802 0.410467 0.434976
0.454064 0.418489 0.437038
0.465152 0.427481 0.438356
0.477289 0.437529 0.438594
0.490725 0.448716 0.437383
0.505730 0.461124 0.434321
0.522600 0.474834 0.428972
0.541656 0.489927 0.420867
0.298856 0.261514 0.434294
0.291547 0.275589 0.443569
0.287195 0.288192 0.449700
0.285429 0.299435 0.453182
0.285901 0.309429 0.454476
0.288287 0.318285 0.454010
0.292289 0.326111 0.452179
0.297630 0.333015 0.449344
0.304058 0.339104 0.445832
0.311348 0.344484 0.441936
0.319294 0.349258 0.437918
0.327719 0.353531 0.434004
0.336467 0.357405 0.430386
0.345406 0.360980 0.427225
0.354431 0.364357 0.424647
0.363456 0.367635 0.422744
0.372425 0.370912 0.421576
0.381302 0.374283 0.421166
0.390076 0.377845 0.421509
0.398760 0.381692 0.422561
0.407392 0.385917 0.424248
0.416032 0.390613 0.426461
0.424768 0.395870 0.429057
0.433707 0.401779 0.431861
0.442984 0.408428 0.434663
0.452756 0.415904 0.437221
0.463205 0.424295 0.439257
0.474536 0.433686 0.440462
0.486980 0.444161 0.440492
0.500790 0.455803 0.438970
0.516244 0.468695 0.435486
0.533644 0.482917 0.429594
0.553316 0.498549 0.420818
0.304282 0.267734 0.433791
0.297644 0.281396 0.442552
0.293872 0.293621 0.448286
0.292603 0.304522 0.451480
0.293494 0.314210 0.452587
0.296228 0.322794 0.452026
0.300510 0.330383 0.450184
0.306073 0.337084 0.447414
0.312669 0.343005 0.444033
0.320079 0.348250 0.440328
0.328104 0.352924 0.436551
0.336572 0.357130 0.432920
0.345332 0.360969 0.429619
0.354261 0.364543 0.426800
0.363257 0.367951 0.424581
0.372243 0.371292 0.423045
0.381167 0.374663 0.422244
0.389998 0.378161 0.422194
0.398734 0.381881 0.422878
0.407392 0.385917 0.424248
0.416016 0.390363 0.426219
0.424673 0.395309 0.428673
0.433456 0.400847 0.431461
0.442479 0.407066 0.434398
0.451882 0.414055 0.437267
0.461829 0.421902 0.439815
0.472507 0.430691 0.441758
0.484128 0.440510 0.442778
0.496928 0.451441 0.442523
0.511167 0.463568 0.440606
0.527129 0.476973 0.436610
0.545122 0.491735 0.430080
0.565477 0.507935 0.420532
0.310015 0.273809 0.433548
0.303995 0.287092 0.441858
0.300757 0.298973 0.447254
0.299940 0.309566 0.450213
0.301211 0.318980 0.451180
0.304256 0.327326 0.450567
0.308788 0.334711 0.448750
0.314544 0.341243 0.446075
0.321285 0.347028 0.442852
0.328795 0.352172 0.439357
0.336883 0.356777 0.435835
0.345382 0.360947 0.432495
0.354148 0.364784 0.429514
0.363063 0.368388 0.427034
0.372031 0.371859 0.425165
0.380982 0.375295 0.423983
0.389868 0.378792 0.423530
0.398667 0.382448 0.423814
0.407380 0.386357 0.424810
0.416032 0.390613 0.426461
0.424673 0.395309 0.428673
0.433376 0.400536 0.431323
0.442239 0.406385 0.434249
0.451382 0.412945 0.437261
0.460952 0.420304 0.440131
0.471118 0.428550 0.442600
0.482074 0.437768 0.444375
0.494037 0.448044 0.445129
0.507251 0.459460 0.444501
0.521979 0.472101 0.442098
0.538513 0.486046 0.437491
0.557166 0.501378 0.430221
0.578277 0.518174 0.419792
0.316025 0.279835 0.433580
0.310578 0.292772 0.441496
0.307831 0.304344 0.446604
0.307430 0.314662 0.449373
0.309045 0.323836 0.450239
0.312372 0.331976 0.449607
0.317129 0.339191 0.447844
0.323057 0.345586 0.445287
0.329925 0.351268 0.442237
0.337522 0.356342 0.438964
0.345663 0.360911 0.435703
0.354187 0.365078 0.432655
0.362957 0.368944 0.429987
0.371860 0.372610 0.427836
0.380807 0.376175 0.426301
0.389733 0.379736 0.425450
0.398597 0.383391 0.425316
0.407381 0.387235 0.425901
0.416095 0.391364 0.427170
0.424768 0.395870 0.429057
0.433456 0.400847 0.431461
0.442239 0.406385 0.434249
0.451219 0.412574 0.437253
0.460525 0.419505 0.440273
0.470308 0.427264 0.443072
0.480744 0.435938 0.445384
0.492033 0.445614 0.446907
0.504397 0.456375 0.447305
0.518086 0.468306 0.446210
0.533371 0.481489 0.443219
0.550547 0.496004 0.437897
0.569936 0.511932 0.429773
0.591881 0.529353 0.418346
0.322308 0.285908 0.433871
0.317394 0.298533 0.441440
0.315102 0.309828 0.446302
0.315085 0.319904 0.448918
0.317018 0.328871 0.449715
0.320603 0.336839 0.449088
0.325564 0.343915 0.447398
0.331649 0.350206 0.444973
0.338631 0.355817 0.442106
0.346308 0.360854 0.439058
0.354498 0.365418 0.436054
0.363049 0.369614 0.433289
0.371827 0.373541 0.430922
0.380727 0.377300 0.429080
0.389665 0.380989 0.427853
0.398582 0.384707 0.427303
0.407443 0.388550 0.427453
0.416239 0.392614 0.428296
0.424981 0.396992 0.429790
0.433707 0.401779 0.431861
0.442479 0.407066 0.434398
0.451382 0.412945 0.437261
0.460525 0.419505 0.440273
0.470042 0.426835 0.443224
0.480091 0.435023 0.445872
0.490854 0.444155 0.447940
0.502535 0.454317 0.449118
0.515365 0.465593 0.449063
0.529598 0.478067 0.447397
0.545512 0.491819 0.443710
0.563408 0.506933 0.437557
0.583613 0.523486 0.428461
0.606476 0.541558 0.415910
0.328882 0.292121 0.434371
0.324468 0.304467 0.441633
0.322602 0.315518 0.446283
0.322942 0.325386 0.448773
0.325172 0.334179 0.449523
0.328997 0.342007 0.448919
0.334149 0.348977 0.447314
0.340381 0.355195 0.445026
0.347473 0.360768 0.442342
0.355226 0.365798 0.439512
0.363469 0.370390 0.436756
0.372052 0.374645 0.434257
0.380849 0.378664 0.432168
0.389760 0.382547 0.430606
0.398707 0.386392 0.429655
0.407638 0.390298 0.429366
0.416524 0.394359 0.429755
0.425361 0.398672 0.430807
0.434166 0.403330 0.432471
0.442984 0.408428 0.434663
0.451882 0.414055 0.437267
0.460952 0.420304 0.440131
0.470308 0.427264 0.443072
0.480091 0.435023 0.445872
0.490465 0.443668 0.448279
0.501616 0.453287 0.450008
0.513757 0.463964 0.450741
0.527123 0.475783 0.450127
0.541975 0.488828 0.447778
0.558596 0.503179 0.443277
0.577294 0.518918 0.436171
0.598401 0.536123 0.425974
0.622274 0.554875 0.412165
0.335792 0.298568 0.434996
0.331849 0.310668 0.441982
0.330385 0.321508 0.446445
0.331064 0.331199 0.448829
0.333574 0.339851 0.449546
0.337628 0.347571 0.448973
0.342963 0.354467 0.447455
0.349338 0.360645 0.445303
0.356540 0.366210 0.442793
0.364376 0.371266 0.440168
0.372679 0.375917 0.437639
0.381306 0.380262 0.435382
0.390139 0.384404 0.433540
0.399081 0.388442 0.432223
0.408063 0.392474 0.431505
0.417036 0.396597 0.431430
0.425979 0.400907 0.432006
0.434892 0.405499 0.433207
0.443802 0.410467 0.434976
0.452756 0.415904 0.437221
0.461829 0.421902 0.439815
0.471118 0.428550 0.442600
0.480744 0.435938 0.445384
0.490854 0.444155 0.447940
0.501616 0.453287 0.450008
0.513225 0.463421 0.451295
0.525898 0.474641 0.451475
0.539877 0.487031 0.450186
0.555428 0.500674 0.447035
0.572841 0.515652 0.441595
0.592429 0.532044 0.433404
0.614532 0.549930 0.421968
0.639511 0.569387 0.406759
0.343103 0.305340 0.435630
0.339611 0.317227 0.442362
0.338531 0.327889 0.446654
0.339535 0.337436 0.448944
0.342316 0.345978 0.449634
0.346593 0.353622 0.449092
0.352109 0.360475 0.447656
0.358631 0.366644 0.445628
0.365949 0.372234 0.443275
0.373877 0.377347 0.440833
0.382255 0.382087 0.438504
0.390946 0.386554 0.436455
0.399836 0.390850 0.434821
0.408836 0.395073 0.433704
0.417882 0.399321 0.433169
0.426933 0.403692 0.433252
0.435971 0.408280 0.433952
0.445004 0.413181 0.435237
0.454064 0.418489 0.437038
0.463205 0.424295 0.439257
0.472507 0.430691 0.441758
0.482074 0.437768 0.444375
0.492033 0.445614 0.446907
0.502535 0.454317 0.449118
0.513757 0.463964 0.450741
0.525898 0.474641 0.451475
0.539181 0.486433 0.450983
