public/luts/bw_tmax_100.cube
# Generated from ColorChecker fit
LUT_3D_SIZE 33
DOMAIN_MIN 0.0 0.0 0.0
DOMAIN_MAX 1.0 1.0 1.0
0.090421 0.134596 0.490154
0.107087 0.157053 0.496492
0.123247 0.177113 0.500579
0.138904 0.195004 0.502738
0.154058 0.210943 0.503271
0.168716 0.225135 0.502462
0.182883 0.237778 0.500572
0.196568 0.249058 0.497844
0.209783 0.259151 0.494498
0.222539 0.268224 0.490735
0.234853 0.276431 0.486736
0.246741 0.283919 0.482661
0.258223 0.290824 0.478648
0.269320 0.297270 0.474818
0.280055 0.303372 0.471269
0.290454 0.309237 0.468079
0.300545 0.314958 0.465306
0.310357 0.320620 0.462987
0.319922 0.326297 0.461139
0.329274 0.332055 0.459760
0.338449 0.337947 0.458824
0.347485 0.344017 0.458288
0.356423 0.350299 0.458087
0.365304 0.356816 0.458135
0.374174 0.363582 0.458327
0.383078 0.370601 0.458537
0.392065 0.377865 0.458619
0.401186 0.385357 0.458405
0.410494 0.393050 0.457708
0.420043 0.400908 0.456320
0.429891 0.408881 0.454014
0.440096 0.416913 0.450540
0.450720 0.424935 0.445630
0.107087 0.157053 0.496492
0.123500 0.178273 0.501649
0.139408 0.197174 0.504666
0.154812 0.213980 0.505860
0.169716 0.228906 0.505531
0.184123 0.242155 0.503955
0.198042 0.253923 0.501388
0.211482 0.264392 0.498069
0.224454 0.273737 0.494213
0.236971 0.282120 0.490016
0.249050 0.289695 0.485652
0.260707 0.296606 0.481277
0.271963 0.302985 0.477026
0.282839 0.308954 0.473012
0.293360 0.314628 0.469329
0.303552 0.320107 0.466049
0.313442 0.325485 0.463227
0.323061 0.330843 0.460893
0.332441 0.336253 0.459060
0.341617 0.341777 0.457719
0.350626 0.347468 0.456842
0.359505 0.353365 0.456378
0.368296 0.359501 0.456258
0.377042 0.365896 0.456391
0.385786 0.372562 0.456668
0.394578 0.379499 0.456956
0.403464 0.386697 0.457104
0.412498 0.394138 0.456940
0.421731 0.401791 0.456271
0.431220 0.409617 0.454886
0.441022 0.417565 0.452549
0.451196 0.425575 0.449009
0.461805 0.433577 0.443989
0.123247 0.177113 0.500579
0.139408 0.197174 0.504666
0.155064 0.214991 0.506720
0.170217 0.230786 0.507055
0.184870 0.244772 0.505963
0.199028 0.257149 0.503717
0.212701 0.268110 0.500569
0.225897 0.277836 0.496750
0.238628 0.286497 0.492471
0.250909 0.294255 0.487923
0.262755 0.301261 0.483275
0.274185 0.307654 0.478679
0.285218 0.313566 0.474262
0.295879 0.319116 0.470134
0.306190 0.324416 0.466384
0.316178 0.329563 0.463079
0.325873 0.334650 0.460267
0.335304 0.339754 0.457975
0.344506 0.344945 0.456210
0.353512 0.350283 0.454958
0.362360 0.355817 0.454185
0.371089 0.361586 0.453836
0.379741 0.367617 0.453837
0.388357 0.373930 0.454092
0.396985 0.380534 0.454486
0.405672 0.387426 0.454881
0.414467 0.394594 0.455122
0.423421 0.402016 0.455031
0.432590 0.409661 0.454410
0.442028 0.417485 0.453042
0.451794 0.425436 0.450688
0.461948 0.433451 0.447089
0.472551 0.441457 0.441967
0.138904 0.195004 0.502738
0.154812 0.213980 0.505860
0.170217 0.230786 0.507055
0.185119 0.245642 0.506630
0.199523 0.258757 0.504872
0.213434 0.270331 0.502049
0.226862 0.280552 0.498407
0.239817 0.289598 0.494174
0.252310 0.297640 0.489554
0.264357 0.304834 0.484734
0.275974 0.311329 0.479878
0.287181 0.317263 0.475132
0.297996 0.322764 0.470618
0.308445 0.327949 0.466442
0.318551 0.332927 0.462686
0.328342 0.337795 0.459414
0.337846 0.342639 0.456668
0.347096 0.347537 0.454469
0.356125 0.352556 0.452820
0.364968 0.357752 0.451701
0.373663 0.363172 0.451075
0.382249 0.368852 0.450880
0.390768 0.374819 0.451036
0.399264 0.381088 0.451444
0.407784 0.387665 0.451983
0.416374 0.394546 0.452510
0.425086 0.401716 0.452864
0.433972 0.409151 0.452863
0.443085 0.416816 0.452304
0.452482 0.424666 0.450964
0.462223 0.432645 0.448600
0.472367 0.440689 0.444948
0.482977 0.448721 0.439722
0.154058 0.210943 0.503271
0.169716 0.228906 0.505531
0.184870 0.244772 0.505963
0.199523 0.258757 0.504872
0.213679 0.271070 0.502538
0.227346 0.281905 0.499226
0.240532 0.291449 0.495175
0.253248 0.299879 0.490608
0.265507 0.307360 0.485725
0.277324 0.314049 0.480706
0.288716 0.320090 0.475713
0.299703 0.325620 0.470883
0.310306 0.330764 0.466337
0.320547 0.335637 0.462172
0.330454 0.340344 0.458468
0.340052 0.344980 0.455282
0.349373 0.349629 0.452651
0.358448 0.354366 0.450592
0.367311 0.359256 0.449102
0.375998 0.364352 0.448157
0.384547 0.369698 0.447712
0.392997 0.375328 0.447704
0.401393 0.381267 0.448046
0.409777 0.387526 0.448632
0.418197 0.394110 0.449338
0.426701 0.401012 0.450016
0.435339 0.408214 0.450500
0.444165 0.415690 0.450602
0.453233 0.423402 0.450114
0.462601 0.431302 0.448808
0.472327 0.439333 0.446436
0.482472 0.447427 0.442728
0.493100 0.455506 0.437395
0.168716 0.225135 0.502462
0.184123 0.242155 0.503955
0.199028 0.257149 0.503717
0.213434 0.270331 0.502049
0.227346 0.281905 0.499226
0.240771 0.292064 0.495505
0.253718 0.300993 0.491124
0.266199 0.308866 0.486299
0.278228 0.315845 0.481225
0.289819 0.322085 0.476077
0.300991 0.327727 0.471010
0.311763 0.332906 0.466159
0.322157 0.337744 0.461638
0.332197 0.342354 0.457541
0.341910 0.346838 0.453939
0.351323 0.351288 0.450887
0.360467 0.355786 0.448416
0.369373 0.360405 0.446539
0.378078 0.365206 0.445246
0.386616 0.370241 0.444509
0.395027 0.375551 0.444278
0.403351 0.381167 0.444483
0.411631 0.387111 0.445035
0.419912 0.393394 0.445822
0.428242 0.400016 0.446712
0.436668 0.406967 0.447556
0.445244 0.414229 0.448180
0.454020 0.421771 0.448392
0.463054 0.429554 0.447979
0.472403 0.437527 0.446707
0.482126 0.445630 0.444324
0.492285 0.453793 0.440555
0.502943 0.461935 0.435105
0.182883 0.237778 0.500572
0.198042 0.253923 0.501388
0.212701 0.268110 0.500569
0.226862 0.280552 0.498407
0.240532 0.291449 0.495175
0.253718 0.300993 0.491124
0.266430 0.309366 0.486487
0.278680 0.316738 0.481473
0.290482 0.323271 0.476275
0.301852 0.329115 0.471061
0.312809 0.334411 0.465982
0.323371 0.339289 0.461166
0.333563 0.343870 0.456724
0.343409 0.348263 0.452743
0.352934 0.352568 0.449291
0.362168 0.356876 0.446416
0.371142 0.361265 0.444146
0.379888 0.365806 0.442486
0.388441 0.370557 0.441423
0.396839 0.375568 0.440923
0.405120 0.380876 0.440932
0.413326 0.386512 0.441374
0.421500 0.392494 0.442154
0.429688 0.398829 0.443157
0.437937 0.405517 0.444245
0.446297 0.412545 0.445263
0.454820 0.419891 0.446032
0.463559 0.427522 0.446357
0.472570 0.435397 0.446017
0.481911 0.443463 0.444776
0.491643 0.451657 0.442374
0.501827 0.459905 0.438533
0.512528 0.468125 0.432951
0.196568 0.249058 0.497844
0.211482 0.264392 0.498069
0.225897 0.277836 0.496750
0.239817 0.289598 0.494174
0.253248 0.299879 0.490608
0.266199 0.308866 0.486299
0.278680 0.316738 0.481473
0.290704 0.323665 0.476337
0.302284 0.329804 0.471076
0.313438 0.335304 0.465855
0.324185 0.340302 0.460818
0.334544 0.344927 0.456090
0.344540 0.349296 0.451774
0.354197 0.353517 0.447955
0.363542 0.357687 0.444694
0.372604 0.361893 0.442034
0.381415 0.366213 0.439998
0.390008 0.370713 0.438587
0.398419 0.375450 0.437782
0.406685 0.380470 0.437544
0.414846 0.385810 0.437813
0.422944 0.391496 0.438510
0.431022 0.397544 0.439533
0.439126 0.403960 0.440762
0.447306 0.410739 0.442055
0.455609 0.417867 0.443251
0.464090 0.425320 0.444167
0.472803 0.433062 0.444601
0.481803 0.441048 0.444329
0.491149 0.449223 0.443108
0.500902 0.457523 0.440674
0.511125 0.465870 0.436743
0.521882 0.474181 0.431010
0.209783 0.259151 0.494498
0.224454 0.273737 0.494213
0.238628 0.286497 0.492471
0.252310 0.297640 0.489554
0.265507 0.307360 0.485725
0.278228 0.315845 0.481225
0.290482 0.323271 0.476275
0.302284 0.329804 0.471076
0.313649 0.335599 0.465809
0.324592 0.340803 0.460633
0.335135 0.345551 0.455689
0.345298 0.349968 0.451094
0.355104 0.354169 0.446949
0.364579 0.358259 0.443330
0.373751 0.362334 0.440297
0.382650 0.366477 0.437885
0.391306 0.370764 0.436113
0.399755 0.375258 0.434977
0.408033 0.380014 0.434453
0.416176 0.385076 0.434496
0.424226 0.390477 0.435041
0.432225 0.396242 0.436005
0.440217 0.402383 0.437280
0.448249 0.408904 0.438741
0.456369 0.415798 0.440241
0.464629 0.423047 0.441614
0.473080 0.430626 0.442672
0.481777 0.438496 0.443207
0.490778 0.446610 0.442992
0.500142 0.454910 0.441776
0.509930 0.463328 0.439293
0.520205 0.471786 0.435251
0.531032 0.480197 0.429341
0.222539 0.268224 0.490735
0.236971 0.282120 0.490016
0.250909 0.294255 0.487923
0.264357 0.304834 0.484734
0.277324 0.314049 0.480706
0.289819 0.322085 0.476077
0.301852 0.329115 0.471061
0.313438 0.335304 0.465855
0.324592 0.340803 0.460633
0.335332 0.345757 0.455552
0.345677 0.350298 0.450744
0.355650 0.354550 0.446325
0.365274 0.358624 0.442387
0.374576 0.362623 0.439005
0.383583 0.366640 0.436229
0.392326 0.370756 0.434094
0.400837 0.375044 0.432611
0.409151 0.379565 0.431770
0.417304 0.384371 0.431544
0.425335 0.389503 0.431882
0.433284 0.394993 0.432715
0.441195 0.400861 0.433952
0.449112 0.407120 0.435484
0.457082 0.413768 0.437177
0.465155 0.420797 0.438882
0.473381 0.428188 0.440426
0.481814 0.435910 0.441616
0.490510 0.443924 0.442239
0.499525 0.452179 0.442063
0.508920 0.460615 0.440834
0.518756 0.469163 0.438276
0.529097 0.477740 0.434097
0.540008 0.486257 0.427980
0.234853 0.276431 0.486736
0.249050 0.289695 0.485652
0.262755 0.301261 0.483275
0.275974 0.311329 0.479878
0.288716 0.320090 0.475713
0.300991 0.327727 0.471010
0.312809 0.334411 0.465982
0.324185 0.340302 0.460818
0.335135 0.345551 0.455689
0.345677 0.350298 0.450744
0.355833 0.354675 0.446113
0.365623 0.358801 0.441905
0.375073 0.362787 0.438209
0.384209 0.366731 0.435091
0.393059 0.370725 0.432601
0.401656 0.374848 0.430764
0.410030 0.379168 0.429588
0.418218 0.383746 0.429060
0.426257 0.388630 0.429144
0.434185 0.393859 0.429786
0.442045 0.399462 0.430912
0.449878 0.405458 0.432426
0.457731 0.411855 0.434212
0.465651 0.418650 0.436134
0.473689 0.425833 0.438035
0.481894 0.433380 0.439738
0.490323 0.441261 0.441045
0.499029 0.449431 0.441739
0.508072 0.457839 0.441581
0.517512 0.466422 0.440312
0.527410 0.475106 0.437653
0.537831 0.483809 0.433304
0.548841 0.492437 0.426945
0.246741 0.283919 0.482661
0.260707 0.296606 0.481277
0.274185 0.307654 0.478679
0.287181 0.317263 0.475132
0.299703 0.325620 0.470883
0.311763 0.332906 0.466159
0.323371 0.339289 0.461166
0.334544 0.344927 0.456090
0.345298 0.349968 0.451094
0.355650 0.354550 0.446325
0.365623 0.358801 0.441905
0.375239 0.362839 0.437940
0.384523 0.366772 0.434512
0.393501 0.370697 0.431684
0.402205 0.374700 0.429499
0.410664 0.378859 0.427979
0.418912 0.383242 0.427125
0.426984 0.387903 0.426919
0.434919 0.392891 0.427321
0.442756 0.398242 0.428271
0.450536 0.403980 0.429691
0.458303 0.410124 0.431478
0.466105 0.416678 0.433513
0.473987 0.423638 0.435653
0.482001 0.430989 0.437737
0.490200 0.438707 0.439583
0.498636 0.446758 0.440988
0.507367 0.455095 0.441729
0.516452 0.463665 0.441562
0.525950 0.472400 0.440224
0.535925 0.481227 0.437429
0.546441 0.490059 0.432874
0.557566 0.498801 0.426233
0.258223 0.290824 0.478648
0.271963 0.302985 0.477026
0.285218 0.313566 0.474262
0.297996 0.322764 0.470618
0.310306 0.330764 0.466337
0.322157 0.337744 0.461638
0.333563 0.343870 0.456724
0.344540 0.349296 0.451774
0.355104 0.354169 0.446949
0.365274 0.358624 0.442387
0.375073 0.362787 0.438209
0.384523 0.366772 0.434512
0.393649 0.370685 0.431375
0.402480 0.374621 0.428857
0.411046 0.378664 0.426993
0.419377 0.382888 0.425801
0.427509 0.387359 0.425278
0.435477 0.392130 0.425400
0.443319 0.397245 0.426122
0.451075 0.402737 0.427380
0.458787 0.408631 0.429088
0.466501 0.414941 0.431141
0.474263 0.421668 0.433413
0.482120 0.428807 0.435756
0.490125 0.436340 0.438006
0.498329 0.444241 0.439973
0.506787 0.452471 0.441450
0.515557 0.460984 0.442210
0.524697 0.469720 0.442002
0.534269 0.478614 0.440559
0.544336 0.487586 0.437591
0.554963 0.496548 0.432788
0.566218 0.505402 0.425819
0.269320 0.297270 0.474818
0.282839 0.308954 0.473012
0.295879 0.319116 0.470134
0.308445 0.327949 0.466442
0.320547 0.335637 0.462172
0.332197 0.342354 0.457541
0.343409 0.348263 0.452743
0.354197 0.353517 0.447955
0.364579 0.358259 0.443330
0.374576 0.362623 0.439005
0.384209 0.366731 0.435091
0.393501 0.370697 0.431684
0.402480 0.374621 0.428857
0.411174 0.378597 0.426661
0.419611 0.382707 0.425129
0.427826 0.387022 0.424273
0.435852 0.391605 0.424085
0.443726 0.396507 0.424536
0.451486 0.401769 0.425575
0.459174 0.407423 0.427134
0.466831 0.413490 0.429121
0.474504 0.419981 0.431426
0.482239 0.426896 0.433919
0.490084 0.434226 0.436446
0.498092 0.441951 0.438837
0.506316 0.450043 0.440899
0.514810 0.458460 0.442419
0.523634 0.467152 0.443164
0.532845 0.476060 0.442879
0.542506 0.485113 0.441291
0.552680 0.494231 0.438105
0.563434 0.503322 0.433006
0.574836 0.512285 0.425659
0.280055 0.303372 0.471269
0.293360 0.314628 0.469329
0.306190 0.324416 0.466384
0.318551 0.332927 0.462686
0.330454 0.340344 0.458468
0.341910 0.346838 0.453939
0.352934 0.352568 0.449291
0.363542 0.357687 0.444694
0.373751 0.362334 0.440297
0.383583 0.366640 0.436229
0.393059 0.370725 0.432601
0.402205 0.374700 0.429499
0.411046 0.378664 0.426993
0.419611 0.382707 0.425129
0.427932 0.386908 0.423935
0.436041 0.391338 0.423418
0.443972 0.396054 0.423563
0.451764 0.401107 0.424338
0.459455 0.406535 0.425687
0.467086 0.412367 0.427535
0.474701 0.418621 0.429786
0.482346 0.425305 0.432326
0.490067 0.432419 0.435017
0.497915 0.439950 0.437704
0.505940 0.447876 0.440208
0.514198 0.456164 0.442333
0.522744 0.464772 0.443860
0.531635 0.473648 0.444551
0.540933 0.482728 0.444147
0.550699 0.491940 0.442368
0.560997 0.501201 0.438916
0.571895 0.510417 0.433470
0.583459 0.519484 0.425689
0.290454 0.309237 0.468079
0.303552 0.320107 0.466049
0.316178 0.329563 0.463079
0.328342 0.337795 0.459414
0.340052 0.344980 0.455282
0.351323 0.351288 0.450887
0.362168 0.356876 0.446416
0.372604 0.361893 0.442034
0.382650 0.366477 0.437885
0.392326 0.370756 0.434094
0.401656 0.374848 0.430764
0.410664 0.378859 0.427979
0.419377 0.382888 0.425801
0.427826 0.387022 0.424273
0.436041 0.391338 0.423418
0.444055 0.395902 0.423236
0.451904 0.400771 0.423709
0.459626 0.405992 0.424798
0.467260 0.411601 0.426443
0.474848 0.417624 0.428564
0.482433 0.424077 0.431060
0.490063 0.430967 0.433811
0.497785 0.438288 0.436675
0.505649 0.446027 0.439490
0.513707 0.454158 0.442074
0.522014 0.462647 0.444224
0.530626 0.471448 0.445718
0.539602 0.480507 0.446312
0.549002 0.489759 0.445741
0.558889 0.499126 0.443722
0.569328 0.508525 0.439949
0.580385 0.517859 0.434098
0.592131 0.527022 0.425822
0.300545 0.314958 0.465306
0.313442 0.325485 0.463227
0.325873 0.334650 0.460267
0.337846 0.342639 0.456668
0.349373 0.349629 0.452651
0.360467 0.355786 0.448416
0.371142 0.361265 0.444146
0.381415 0.366213 0.439998
0.391306 0.370764 0.436113
0.400837 0.375044 0.432611
0.410030 0.379168 0.429588
0.418912 0.383242 0.427125
0.427509 0.387359 0.425278
0.435852 0.391605 0.424085
0.443972 0.396054 0.423563
0.451904 0.400771 0.423709
0.459683 0.405809 0.424498
0.467347 0.411212 0.425887
0.474937 0.417015 0.427810
0.482495 0.423241 0.430182
0.490066 0.429904 0.432898
0.497695 0.437006 0.435831
0.505432 0.444541 0.438835
0.513327 0.452492 0.441744
0.521432 0.460831 0.444370
0.529804 0.469522 0.446504
0.538498 0.478516 0.447919
0.547574 0.487756 0.448367
0.557093 0.497174 0.447577
0.567118 0.506692 0.445261
0.577715 0.516222 0.441109
0.588951 0.525665 0.434790
0.600895 0.534913 0.425954
0.310357 0.320620 0.462987
0.323061 0.330843 0.460893
0.335304 0.339754 0.457975
0.347096 0.347537 0.454469
0.358448 0.354366 0.450592
0.369373 0.360405 0.446539
0.379888 0.365806 0.442486
0.390008 0.370713 0.438587
0.399755 0.375258 0.434977
0.409151 0.379565 0.431770
0.418218 0.383746 0.429060
0.426984 0.387903 0.426919
0.435477 0.392130 0.425400
0.443726 0.396507 0.424536
0.451764 0.401107 0.424338
0.459626 0.405992 0.424798
0.467347 0.411212 0.425887
0.474968 0.416811 0.427555
0.482527 0.422818 0.429733
0.490070 0.429256 0.432329
0.497639 0.436134 0.435235
0.505282 0.443454 0.438317
0.513049 0.451207 0.441425
0.520990 0.459372 0.444387
0.529159 0.467920 0.447010
0.537611 0.476810 0.449081
0.546404 0.485994 0.450367
0.555597 0.495410 0.450615
0.565252 0.504989 0.449549
0.575433 0.514649 0.446876
0.586205 0.524300 0.442280
0.597637 0.533840 0.435426
0.609798 0.543160 0.425959
0.319922 0.326297 0.461139
0.332441 0.336253 0.459060
0.344506 0.344945 0.456210
0.356125 0.352556 0.452820
0.367311 0.359256 0.449102
0.378078 0.365206 0.445246
0.388441 0.370557 0.441423
0.398419 0.375450 0.437782
0.408033 0.380014 0.434453
0.417304 0.384371 0.431544
0.426257 0.388630 0.429144
0.434919 0.392891 0.427321
0.443319 0.397245 0.426122
0.451486 0.401769 0.425575
0.459455 0.406535 0.425687
0.467260 0.411601 0.426443
0.474937 0.417015 0.427810
0.482527 0.422818 0.429733
0.490071 0.429038 0.432137
0.497612 0.435693 0.434926
0.505194 0.442792 0.437986
0.512867 0.450333 0.441179
0.520679 0.458304 0.444348
0.528682 0.466682 0.447318
0.536931 0.475436 0.449889
0.545480 0.484523 0.451845
0.554388 0.493891 0.452947
0.563716 0.503476 0.452935
0.573524 0.513206 0.451531
0.583878 0.522997 0.448434
0.594845 0.532756 0.443326
0.606491 0.542380 0.435864
0.618889 0.551755 0.425689
0.329274 0.332055 0.459760
0.341617 0.341777 0.457719
0.353512 0.350283 0.454958
0.364968 0.357752 0.451701
0.375998 0.364352 0.448157
0.386616 0.370241 0.444509
0.396839 0.375568 0.440923
0.406685 0.380470 0.437544
0.416176 0.385076 0.434496
0.425335 0.389503 0.431882
0.434185 0.393859 0.429786
0.442756 0.398242 0.428271
0.451075 0.402737 0.427380
0.459174 0.407423 0.427134
0.467086 0.412367 0.427535
0.474848 0.417624 0.428564
0.482495 0.423241 0.430182
0.490070 0.429256 0.432329
0.497612 0.435693 0.434926
0.505165 0.442570 0.437872
0.512777 0.449891 0.441045
0.520495 0.457653 0.444305
0.528368 0.465841 0.447489
0.536450 0.474430 0.450416
0.544794 0.483385 0.452882
0.553458 0.492662 0.454665
0.562499 0.502205 0.455521
0.571979 0.511949 0.455186
0.581959 0.521818 0.453376
0.592505 0.531727 0.449785
0.603684 0.541580 0.444089
0.615565 0.551271 0.435943
0.628218 0.560683 0.424979
0.338449 0.337947 0.458824
0.350626 0.347468 0.456842
0.362360 0.355817 0.454185
0.373663 0.363172 0.451075
0.384547 0.369698 0.447712
0.395027 0.375551 0.444278
0.405120 0.380876 0.440932
0.414846 0.385810 0.437813
0.424226 0.390477 0.435041
0.433284 0.394993 0.432715
0.442045 0.399462 0.430912
0.450536 0.403980 0.429691
0.458787 0.408631 0.429088
0.466831 0.413490 0.429121
0.474701 0.418621 0.429786
0.482433 0.424077 0.431060
0.490066 0.429904 0.432898
0.497639 0.436134 0.435235
0.505194 0.442792 0.437986
0.512777 0.449891 0.441045
0.520433 0.457434 0.444287
0.528212 0.465415 0.447564
0.536164 0.473815 0.450711
0.544341 0.482609 0.453539
0.552799 0.491758 0.455841
0.561594 0.501216 0.457389
0.570786 0.510924 0.457934
0.580436 0.520814 0.457206
0.590607 0.530809 0.454917
0.601364 0.540820 0.450756
0.612775 0.550749 0.444394
0.624909 0.560487 0.435479
0.637838 0.569916 0.423640
0.347485 0.344017 0.458288
0.359505 0.353365 0.456378
0.371089 0.361586 0.453836
0.382249 0.368852 0.450880
0.392997 0.375328 0.447704
0.403351 0.381167 0.444483
0.413326 0.386512 0.441374
0.422944 0.391496 0.438510
0.432225 0.396242 0.436005
0.441195 0.400861 0.433952
0.449878 0.405458 0.432426
0.458303 0.410124 0.431478
0.466501 0.414941 0.431141
0.474504 0.419981 0.431426
0.482346 0.425305 0.432326
0.490063 0.430967 0.433811
0.497695 0.437006 0.435831
0.505282 0.443454 0.438317
0.512867 0.450333 0.441179
0.520495 0.457653 0.444305
0.528212 0.465415 0.447564
0.536069 0.473609 0.450806
0.544115 0.482216 0.453858
0.552405 0.491206 0.456527
0.560994 0.500540 0.458600
0.569940 0.510166 0.459845
0.579301 0.520026 0.460007
0.589140 0.530048 0.458813
0.599520 0.540151 0.455967
0.610508 0.550246 0.451155
0.622171 0.560231 0.444042
0.634579 0.569995 0.434270
0.647804 0.579416 0.421465
0.356423 0.350299 0.458087
0.368296 0.359501 0.456258
0.379741 0.367617 0.453837
0.390768 0.374819 0.451036
0.401393 0.381267 0.448046
0.411631 0.387111 0.445035
0.421500 0.392494 0.442154
0.431022 0.397544 0.439533
0.440217 0.402383 0.437280
0.449112 0.407120 0.435484
0.457731 0.411855 0.434212
0.466105 0.416678 0.433512
0.474263 0.421668 0.433413
0.482239 0.426896 0.433919
0.490067 0.432419 0.435017
0.497785 0.438288 0.436675
0.505432 0.444541 0.438835
0.513049 0.451207 0.441425
0.520679 0.458304 0.444348
0.528368 0.465841 0.447489
0.536164 0.473815 0.450711
0.544115 0.482216 0.453858
0.552275 0.491020 0.456752
0.560695 0.500196 0.459196
0.569434 0.509702 0.460972
0.578548 0.519483 0.461841
0.588097 0.529478 0.461545
0.598145 0.539614 0.459804
0.608754 0.549807 0.456319
0.619992 0.559965 0.450769
0.631928 0.569983 0.442815
0.644630 0.579748 0.432094
0.658173 0.589136 0.418225
0.365304 0.356816 0.458135
0.377042 0.365896 0.456391
0.388357 0.373930 0.454092
0.399264 0.381088 0.451444
0.409777 0.387526 0.448632
0.419912 0.393394 0.445822
0.429688 0.398829 0.443157
0.439126 0.403960 0.440762
0.448249 0.408904 0.438741
0.457082 0.413768 0.437177
0.465651 0.418650 0.436134
0.473987 0.423638 0.435653
0.482120 0.428807 0.435756
0.490084 0.434226 0.436446
0.497915 0.439950 0.437704
0.505649 0.446027 0.439490
0.513327 0.452492 0.441744
0.520990 0.459372 0.444387
0.528682 0.466682 0.447318
0.536450 0.474430 0.450416
0.544341 0.482609 0.453539
0.552405 0.491206 0.456527
0.560695 0.500196 0.459196
0.569266 0.509545 0.461344
0.578172 0.519207 0.462747
0.587474 0.529127 0.463164
0.597231 0.539239 0.462328
0.607507 0.549468 0.459956
0.618366 0.559730 0.455744
0.629875 0.569926 0.449365
0.642104 0.579952 0.440474
0.655122 0.589692 0.428706
0.669004 0.599018 0.413673
0.374174 0.363582 0.458327
0.385786 0.372562 0.456668
0.396985 0.380534 0.454486
0.407784 0.387665 0.451983
0.418197 0.394110 0.449338
0.428242 0.400016 0.446712
0.437937 0.405517 0.444245
0.447306 0.410739 0.442055
0.456369 0.415798 0.440241
0.465155 0.420797 0.438882
0.473689 0.425833 0.438035
0.482001 0.430989 0.437737
0.490125 0.436340 0.438006
0.498092 0.441951 0.438837
0.505940 0.447876 0.440208
0.513707 0.454158 0.442074
0.521432 0.460831 0.444370
0.529159 0.467920 0.447010
0.536931 0.475436 0.449889
0.544794 0.483385 0.452882
0.552799 0.491758 0.455841
0.560994 0.500540 0.458600
0.569434 0.509702 0.460972
0.578172 0.519207 0.462747
0.587267 0.529008 0.463700
0.596776 0.539046 0.463580
0.606761 0.549255 0.462118
0.617285 0.559556 0.459026
0.628415 0.569860 0.453993
0.640216 0.580070 0.446689
0.652759 0.590076 0.436762
0.666115 0.599761 0.423843
0.680358 0.608995 0.407539
0.383078 0.370601 0.458537
0.394578 0.379499 0.456956
0.405672 0.387426 0.454881
0.416374 0.394546 0.452510
0.426701 0.401012 0.450016
0.436668 0.406967 0.447556
0.446297 0.412545 0.445263
0.455609 0.417867 0.443251
0.464629 0.423047 0.441614
0.473381 0.428188 0.440426
0.481894 0.433380 0.439738
0.490200 0.438707 0.439583
0.498329 0.444241 0.439973
0.506316 0.450043 0.440899
0.514198 0.456164 0.442333
0.522014 0.462647 0.444224
0.529804 0.469522 0.446504
0.537611 0.476810 0.449081
0.545480 0.484523 0.451845
0.553458 0.492662 0.454665
0.561594 0.501216 0.457389
0.569940 0.510166 0.459845
0.578548 0.519483 0.461841
0.587474 0.529127 0.463164
0.596776 0.539046 0.463580
0.606513 0.549182 0.462835
0.616746 0.559464 0.460657
0.627540 0.569810 0.456749
0.638961 0.580132 0.450797
0.651076 0.590326 0.442466
0.663955 0.600283 0.431399
0.677672 0.609880 0.417220
0.692299 0.618987 0.399533
0.392065 0.377865 0.458619
0.403464 0.386697 0.457104
0.414467 0.394594 0.455122
0.425086 0.401716 0.452864
0.435339 0.408214 0.450500
0.445244 0.414229 0.448180
0.454820 0.419891 0.446032
0.464090 0.425320 0.444167
0.473080 0.430626 0.442672
0.481814 0.435910 0.441616
0.490323 0.441261 0.441045
0.498636 0.446758 0.440988
0.506787 0.452471 0.441450
0.514810 0.458460 0.442419
0.522744 0.464772 0.443860
0.530626 0.471448 0.445718
0.538498 0.478516 0.447919
0.546404 0.485994 0.450367
0.554388 0.493891 0.452947
0.562499 0.502205 0.455521
0.570786 0.510924 0.457934
0.579301 0.520026 0.460007
0.588097 0.529478 0.461545
0.597231 0.539239 0.462328
0.606761 0.549255 0.462118
0.616746 0.559464 0.460657
0.627249 0.569792 0.457664
