public/luts/chroma_fade.cube
# Generated from ColorChecker fit
LUT_3D_SIZE 33
DOMAIN_MIN 0.0 0.0 0.0
DOMAIN_MAX 1.0 1.0 1.0
0.000000 0.303405 0.427833
0.000000 0.285255 0.433147
0.000000 0.270825 0.437041
0.000000 0.259736 0.439708
0.000000 0.251629 0.441332
0.023211 0.246166 0.442084
0.057042 0.243029 0.442122
0.086842 0.241922 0.441594
0.113076 0.242568 0.440638
0.136180 0.244712 0.439376
0.156564 0.248118 0.437924
0.174611 0.252573 0.436381
0.190677 0.257881 0.434838
0.205090 0.263870 0.433373
0.218151 0.270387 0.432052
0.230135 0.277300 0.430932
0.241289 0.284497 0.430056
0.251832 0.291887 0.429455
0.261958 0.299399 0.429150
0.271832 0.306985 0.429149
0.281593 0.314614 0.429451
0.291352 0.322277 0.430040
0.301194 0.329988 0.430891
0.311176 0.337778 0.431966
0.321328 0.345700 0.433216
0.331653 0.353829 0.434581
0.342126 0.362257 0.435988
0.352697 0.371101 0.437353
0.363287 0.380496 0.438581
0.373791 0.390597 0.439565
0.384076 0.401581 0.440186
0.393981 0.413645 0.440315
0.403321 0.427008 0.439809
0.000000 0.285255 0.433147
0.000000 0.269030 0.437718
0.000000 0.256395 0.440934
0.000000 0.246977 0.442989
0.034028 0.240420 0.444061
0.069677 0.236393 0.444318
0.100981 0.234584 0.443917
0.128424 0.234700 0.443002
0.152465 0.236470 0.441708
0.173533 0.239644 0.440155
0.192032 0.243992 0.438454
0.208337 0.249305 0.436704
0.222797 0.255393 0.434991
0.235735 0.262088 0.433391
0.247443 0.269244 0.431968
0.258191 0.276732 0.430774
0.268218 0.284446 0.429850
0.277737 0.292301 0.429224
0.286935 0.300231 0.428914
0.295970 0.308192 0.428927
0.304974 0.316159 0.429256
0.314052 0.324129 0.429885
0.323282 0.332118 0.430783
0.332714 0.340165 0.431912
0.342370 0.348328 0.433219
0.352249 0.356686 0.434641
0.362317 0.365337 0.436101
0.372518 0.374403 0.437515
0.382767 0.384023 0.438782
0.392950 0.394359 0.439794
0.402928 0.405592 0.440429
0.412535 0.417925 0.440554
0.421578 0.431581 0.440024
0.000000 0.270825 0.437041
0.000000 0.256395 0.440934
0.000000 0.245429 0.443539
0.039423 0.237558 0.445043
0.077230 0.232432 0.445624
0.110361 0.229726 0.445445
0.139320 0.229131 0.444662
0.164584 0.230360 0.443416
0.186605 0.233149 0.441836
0.205806 0.237251 0.440044
0.222583 0.242442 0.438144
0.237305 0.248517 0.436234
0.250315 0.255292 0.434397
0.261927 0.262606 0.432706
0.272428 0.270314 0.431221
0.282081 0.278296 0.429993
0.291117 0.286450 0.429058
0.299744 0.294695 0.428443
0.308142 0.302971 0.428163
0.316461 0.311239 0.428221
0.324827 0.319479 0.428607
0.333338 0.327694 0.429303
0.342065 0.335904 0.430276
0.351051 0.344154 0.431483
0.360313 0.352507 0.432869
0.369841 0.361046 0.434367
0.379596 0.369877 0.435900
0.389514 0.379123 0.437378
0.399503 0.388932 0.438699
0.409443 0.399468 0.439752
0.419189 0.410920 0.440411
0.428567 0.423495 0.440541
0.437376 0.437420 0.439993
0.000000 0.259736 0.439708
0.000000 0.246977 0.442989
0.039423 0.237558 0.445043
0.079744 0.231116 0.446057
0.115037 0.227307 0.446204
0.145830 0.225810 0.445646
0.172618 0.226322 0.444535
0.195875 0.228561 0.443009
0.216042 0.232267 0.441195
0.233537 0.237200 0.439210
0.248749 0.243139 0.437159
0.262041 0.249887 0.435133
0.273747 0.257263 0.433214
0.284177 0.265111 0.431472
0.293611 0.273292 0.429965
0.302302 0.281691 0.428738
0.310478 0.290211 0.427828
0.318339 0.298776 0.427257
0.326056 0.307332 0.427038
0.333776 0.315844 0.427169
0.341615 0.324298 0.427641
0.349667 0.332701 0.428429
0.357993 0.341081 0.429499
0.366633 0.349484 0.430805
0.375594 0.357981 0.432289
0.384860 0.366659 0.433882
0.394386 0.375630 0.435502
0.404101 0.385022 0.437058
0.413906 0.394987 0.438446
0.423675 0.405696 0.439548
0.433254 0.417341 0.440239
0.442465 0.430136 0.440380
0.451099 0.444312 0.439819
0.000000 0.251629 0.441332
0.034028 0.240420 0.444061
0.077230 0.232432 0.445624
0.115037 0.227307 0.446204
0.147995 0.224706 0.445973
0.176622 0.224313 0.445089
0.201409 0.225829 0.443700
0.222820 0.228979 0.441943
0.241293 0.233507 0.439943
0.257236 0.239178 0.437812
0.271034 0.245778 0.435651
0.283041 0.253112 0.433551
0.293586 0.261007 0.431590
0.302970 0.269311 0.429835
0.311468 0.277891 0.428341
0.319326 0.286635 0.427151
0.326765 0.295453 0.426297
0.333977 0.304274 0.425800
0.341129 0.313048 0.425669
0.348358 0.321746 0.425900
0.355776 0.330360 0.426480
0.363468 0.338901 0.427383
0.371491 0.347401 0.428571
0.379874 0.355915 0.429994
0.388622 0.364515 0.431593
0.397709 0.373295 0.433295
0.407084 0.382372 0.435016
0.416669 0.391879 0.436661
0.426359 0.401973 0.438122
0.436020 0.412831 0.439282
0.445493 0.424650 0.440010
0.454592 0.437648 0.440164
0.463101 0.452062 0.439591
0.023211 0.246166 0.442084
0.069677 0.236393 0.444318
0.110361 0.229726 0.445445
0.145830 0.225810 0.445646
0.176622 0.224313 0.445089
0.203249 0.224922 0.443929
0.226196 0.227345 0.442312
0.245919 0.231312 0.440371
0.262850 0.236572 0.438228
0.277390 0.242895 0.435992
0.289916 0.250071 0.433763
0.300778 0.257912 0.431628
0.310295 0.266249 0.429662
0.318764 0.274936 0.427928
0.326451 0.283844 0.426480
0.333597 0.292867 0.425357
0.340415 0.301920 0.424589
0.347090 0.310937 0.424193
0.353783 0.319874 0.424175
0.360625 0.328706 0.424530
0.367720 0.337430 0.425240
0.375146 0.346062 0.426276
0.382954 0.354642 0.427599
0.391166 0.363226 0.429156
0.399780 0.371894 0.430883
0.408763 0.380744 0.432705
0.418058 0.389898 0.434536
0.427580 0.399496 0.436278
0.437217 0.409698 0.437819
0.446828 0.420686 0.439040
0.456248 0.432664 0.439807
0.465283 0.445853 0.439975
0.473711 0.460497 0.439387
0.057042 0.243029 0.442122
0.100981 0.234584 0.443917
0.139320 0.229131 0.444662
0.172618 0.226322 0.444535
0.201409 0.225829 0.443700
0.226196 0.227345 0.442312
0.247457 0.230584 0.440512
0.265643 0.235279 0.438430
0.281177 0.241186 0.436185
0.294455 0.248078 0.433886
0.305847 0.255753 0.431626
0.315694 0.264025 0.429491
0.324312 0.272734 0.427553
0.331988 0.281734 0.425873
0.338983 0.290906 0.424501
0.345530 0.300147 0.423473
0.351836 0.309378 0.422816
0.358081 0.318537 0.422545
0.364416 0.327585 0.422664
0.370966 0.336503 0.423162
0.377829 0.345293 0.424020
0.385076 0.353977 0.425207
0.392751 0.362598 0.426679
0.400870 0.371219 0.428382
0.409423 0.379924 0.430248
0.418372 0.388818 0.432200
0.427652 0.398026 0.434147
0.437170 0.407693 0.435990
0.446809 0.417986 0.437615
0.456421 0.429092 0.438898
0.465834 0.441219 0.439702
0.474846 0.454593 0.439881
0.483231 0.469465 0.439275
0.086842 0.241922 0.441594
0.128424 0.234700 0.443002
0.164584 0.230360 0.443416
0.195875 0.228561 0.443009
0.222820 0.228979 0.441943
0.245919 0.231312 0.440371
0.265643 0.235279 0.438430
0.282434 0.240619 0.436248
0.296710 0.247092 0.433941
0.308861 0.254477 0.431614
0.319248 0.262577 0.429359
0.328207 0.271212 0.427257
0.336045 0.280224 0.425378
0.343045 0.289477 0.423781
0.349460 0.298853 0.422511
0.355516 0.308256 0.421603
0.361413 0.317611 0.421081
0.367325 0.326862 0.420957
0.373395 0.335976 0.421230
0.379743 0.344938 0.421890
0.386459 0.353755 0.422912
0.393607 0.362455 0.424263
0.401225 0.371086 0.425896
0.409322 0.379715 0.427754
0.417881 0.388433 0.429766
0.426857 0.397348 0.431853
0.436178 0.406591 0.433922
0.445747 0.416314 0.435868
0.455436 0.426687 0.437576
0.465093 0.437902 0.438919
0.474538 0.450173 0.439758
0.483563 0.463731 0.439942
0.491935 0.478832 0.439309
0.113076 0.242568 0.440638
0.152465 0.236470 0.441708
0.186605 0.233149 0.441836
0.216042 0.232267 0.441195
0.241293 0.233507 0.439943
0.262850 0.236572 0.438228
0.281177 0.241186 0.436185
0.296710 0.247092 0.433941
0.309861 0.254056 0.431608
0.321011 0.261863 0.429286
0.330516 0.270320 0.427067
0.338705 0.279252 0.425029
0.345879 0.288507 0.423238
0.352312 0.297954 0.421749
0.358251 0.307480 0.420606
0.363917 0.316994 0.419841
0.369501 0.326426 0.419474
0.375171 0.335726 0.419514
0.381063 0.344864 0.419959
0.387291 0.353833 0.420794
0.393938 0.362644 0.421993
0.401061 0.371329 0.423518
0.408690 0.379942 0.425321
0.416830 0.388557 0.427341
0.425454 0.397266 0.429506
0.434512 0.406187 0.431731
0.443927 0.415453 0.433921
0.453591 0.425220 0.435970
0.463372 0.435667 0.437758
0.473111 0.446988 0.439156
0.482621 0.459404 0.440022
0.491687 0.473150 0.440203
0.500069 0.488488 0.439532
0.136180 0.244712 0.439376
0.173533 0.239644 0.440155
0.205806 0.237251 0.440044
0.233537 0.237200 0.439210
0.257236 0.239178 0.437812
0.277390 0.242895 0.435992
0.294455 0.248078 0.433886
0.308861 0.254477 0.431614
0.321011 0.261863 0.429286
0.331282 0.270026 0.427002
0.340022 0.278776 0.424848
0.347552 0.287946 0.422900
0.354168 0.297389 0.421221
0.360137 0.306977 0.419864
0.365699 0.316603 0.418870
0.371068 0.326182 0.418266
0.376428 0.335649 0.418072
0.381941 0.344958 0.418293
0.387736 0.354087 0.418923
0.393919 0.363030 0.419945
0.400567 0.371806 0.421330
0.407732 0.380452 0.423038
0.415435 0.389025 0.425016
0.423674 0.397606 0.427202
0.432417 0.406293 0.429520
0.441606 0.415207 0.431883
0.451157 0.424487 0.434194
0.460956 0.434296 0.436341
0.470865 0.444814 0.438204
0.480716 0.456245 0.439650
0.490317 0.468810 0.440533
0.499445 0.482754 0.440699
0.507854 0.498341 0.439978
0.156564 0.248118 0.437924
0.192032 0.243992 0.438454
0.222583 0.242442 0.438144
0.248749 0.243139 0.437159
0.271034 0.245778 0.435651
0.289916 0.250071 0.433763
0.305847 0.255753 0.431626
0.319248 0.262577 0.429359
0.330516 0.270320 0.427067
0.340022 0.278776 0.424848
0.348106 0.287763 0.422786
0.355083 0.297117 0.420952
0.361242 0.306695 0.419408
0.366843 0.316377 0.418203
0.372119 0.326060 0.417375
0.377277 0.335663 0.416950
0.382496 0.345128 0.416943
0.387929 0.354413 0.417356
0.393700 0.363501 0.418182
0.399907 0.372392 0.419400
0.406622 0.381109 0.420978
0.413887 0.389695 0.422873
0.421719 0.398213 0.425030
0.430109 0.406747 0.427383
0.439017 0.415402 0.429854
0.448379 0.424302 0.432352
0.458103 0.433594 0.434778
0.468070 0.443444 0.437017
0.478134 0.454038 0.438946
0.488121 0.465585 0.440429
0.497831 0.478312 0.441318
0.507037 0.492468 0.441453
0.515483 0.508322 0.440666
0.174611 0.252573 0.436381
0.208337 0.249305 0.436704
0.237305 0.248517 0.436234
0.262041 0.249887 0.435133
0.283041 0.253112 0.433551
0.300778 0.257912 0.431628
0.315694 0.264025 0.429491
0.328207 0.271212 0.427257
0.338705 0.279252 0.425029
0.347552 0.287946 0.422900
0.355083 0.297117 0.420952
0.361605 0.306605 0.419254
0.367401 0.316274 0.417864
0.372722 0.326007 0.416828
0.377797 0.335707 0.416183
0.382825 0.345300 0.415950
0.387979 0.354730 0.416141
0.393403 0.363962 0.416757
0.399217 0.372984 0.417786
0.405510 0.381801 0.419206
0.412348 0.390441 0.420981
0.419767 0.398953 0.423065
0.427777 0.407403 0.425401
0.436361 0.415883 0.427919
0.445473 0.424501 0.430539
0.455043 0.433387 0.433167
0.464971 0.442693 0.435700
0.475132 0.452589 0.438021
0.485372 0.463269 0.440005
0.495512 0.474944 0.441511
0.505344 0.487849 0.442390
0.514635 0.502235 0.442479
0.523121 0.518379 0.441604
0.190677 0.257881 0.434838
0.222797 0.255393 0.434991
0.250315 0.255292 0.434397
0.273747 0.257263 0.433214
0.293586 0.261007 0.431590
0.310295 0.266249 0.429662
0.324312 0.272734 0.427553
0.336045 0.280224 0.425378
0.345879 0.288507 0.423238
0.354168 0.297389 0.421221
0.361242 0.306695 0.419408
0.367401 0.316274 0.417864
0.372919 0.325993 0.416644
0.378044 0.335740 0.415793
0.382996 0.345424 0.415342
0.387967 0.354975 0.415311
0.393123 0.364344 0.415710
0.398604 0.373500 0.416536
0.404519 0.382436 0.417774
0.410955 0.391162 0.419398
0.417967 0.399712 0.421370
0.425586 0.408139 0.423643
0.433815 0.416516 0.426155
0.442630 0.424938 0.428833
0.451979 0.433519 0.431595
0.461784 0.442396 0.434344
0.471940 0.451723 0.436973
0.482314 0.461677 0.439365
0.492745 0.472456 0.441388
0.503048 0.484278 0.442902
0.513008 0.497380 0.443752
0.522384 0.512023 0.443774
0.530907 0.528484 0.442791
0.205090 0.263870 0.433373
0.235735 0.262088 0.433391
0.261927 0.262606 0.432706
0.284177 0.265111 0.431472
0.302970 0.269311 0.429835
0.318764 0.274936 0.427928
0.331988 0.281734 0.425873
0.343045 0.289477 0.423781
0.352312 0.297954 0.421749
0.360137 0.306977 0.419864
0.366843 0.316377 0.418203
0.372722 0.326007 0.416828
0.378044 0.335740 0.415793
0.383048 0.345469 0.415138
0.387947 0.355108 0.414891
0.392928 0.364593 0.415071
0.398150 0.373879 0.415683
0.403744 0.382940 0.416721
0.409815 0.391775 0.418170
0.416440 0.400399 0.419998
0.423670 0.408851 0.422167
0.431529 0.417189 0.424624
0.440012 0.425492 0.427306
0.449088 0.433858 0.430137
0.458700 0.442408 0.433031
0.468763 0.451284 0.435890
0.479163 0.460644 0.438603
0.489761 0.470673 0.441049
0.500392 0.481571 0.443095
0.510861 0.493562 0.444596
0.520947 0.506889 0.445397
0.530403 0.521816 0.445329
0.538953 0.538629 0.444212
0.218151 0.270387 0.432052
0.247443 0.269244 0.431968
0.272428 0.270314 0.431221
0.293611 0.273292 0.429965
0.311468 0.277891 0.428341
0.326451 0.283844 0.426480
0.338983 0.290906 0.424501
0.349460 0.298853 0.422511
0.358251 0.307480 0.420606
0.365699 0.316603 0.418870
0.372119 0.326060 0.417375
0.377797 0.335707 0.416183
0.382996 0.345424 0.415342
0.387947 0.355108 0.414891
0.392859 0.364680 0.414855
0.397910 0.374078 0.415250
0.403251 0.383264 0.416079
0.409009 0.392218 0.417332
0.415281 0.400941 0.418989
0.422138 0.409457 0.421020
0.429624 0.417808 0.423380
0.437755 0.426058 0.426015
0.446520 0.434289 0.428858
0.455882 0.442608 0.431831
0.465776 0.451139 0.434845
0.476109 0.460027 0.437799
0.486764 0.469439 0.440579
0.497593 0.479562 0.443061
0.508424 0.490604 0.445109
0.519055 0.502792 0.446577
0.529259 0.516375 0.447303
0.538782 0.531623 0.447119
0.547342 0.548824 0.445841
0.230135 0.277300 0.430932
0.258191 0.276732 0.430774
0.282081 0.278296 0.429993
0.302302 0.281691 0.428738
0.319326 0.286635 0.427151
0.333597 0.292867 0.425357
0.345530 0.300147 0.423473
0.355516 0.308256 0.421603
0.363917 0.316994 0.419841
0.371068 0.326182 0.418266
0.377277 0.335663 0.416950
0.382825 0.345300 0.415950
0.387967 0.354975 0.415311
0.392928 0.364593 0.415071
0.397910 0.374078 0.415250
0.403083 0.383375 0.415862
0.408593 0.392449 0.416907
0.414559 0.401287 0.418372
0.421072 0.409896 0.420236
0.428196 0.418302 0.422462
0.435967 0.426555 0.425006
0.444396 0.434721 0.427809
0.453464 0.442891 0.430802
0.463128 0.451174 0.433904
0.473316 0.459701 0.437023
0.483929 0.468622 0.440054
0.494842 0.478108 0.442881
0.505900 0.488353 0.445378
0.516925 0.499567 0.447406
0.527708 0.511986 0.448814
0.538016 0.525861 0.449440
0.547587 0.541469 0.449111
0.556132 0.559103 0.447641
0.241289 0.284497 0.430056
0.268218 0.284446 0.429850
0.291117 0.286450 0.429058
0.310478 0.290211 0.427828
0.326765 0.295453 0.426297
0.340415 0.301920 0.424589
0.351836 0.309378 0.422816
0.361413 0.317611 0.421081
0.369501 0.326426 0.419474
0.376428 0.335649 0.418072
0.382496 0.345128 0.416943
0.387979 0.354730 0.416141
0.393123 0.364344 0.415710
0.398150 0.373879 0.415683
0.403251 0.383264 0.416079
0.408593 0.392449 0.416907
0.414314 0.401406 0.418165
0.420525 0.410125 0.419838
0.427311 0.418619 0.421900
0.434730 0.426920 0.424314
0.442810 0.435081 0.427031
0.451556 0.443175 0.429989
0.460943 0.451298 0.433118
0.470919 0.459564 0.436332
0.481407 0.468107 0.439537
0.492300 0.477085 0.442625
0.503467 0.486674 0.445479
0.514746 0.497071 0.447967
0.525953 0.508494 0.449948
0.536871 0.521181 0.451269
0.547261 0.535391 0.451764
0.556853 0.551404 0.451258
0.565353 0.569519 0.449562
0.251832 0.291887 0.429455
0.277737 0.292301 0.429224
0.299744 0.294695 0.428443
0.318339 0.298776 0.427257
0.333977 0.304274 0.425800
0.347090 0.310937 0.424193
0.358081 0.318537 0.422545
0.367325 0.326862 0.420957
0.375171 0.335726 0.419514
0.381941 0.344958 0.418293
0.387929 0.354413 0.417356
0.393403 0.363962 0.416757
0.398604 0.373500 0.416536
0.403744 0.382940 0.416721
0.409009 0.392218 0.417332
0.414559 0.401287 0.418372
0.420525 0.410125 0.419838
0.427012 0.418728 0.421711
0.434098 0.427113 0.423962
0.441832 0.435317 0.426552
0.450239 0.443399 0.429428
0.459314 0.451438 0.432527
0.469026 0.459533 0.435774
0.479318 0.467803 0.439081
0.490104 0.476390 0.442351
0.501272 0.485455 0.445474
0.512682 0.495179 0.448328
0.524169 0.505766 0.450780
0.535537 0.517436 0.452685
0.546567 0.530435 0.453888
0.557010 0.545027 0.454220
0.566591 0.561495 0.453502
0.575008 0.580146 0.451543
0.261958 0.299399 0.429150
0.286935 0.300231 0.428914
0.308142 0.302971 0.428163
0.326056 0.307332 0.427038
0.341129 0.313048 0.425669
0.353783 0.319874 0.424175
0.364416 0.327585 0.422664
0.373395 0.335976 0.421230
0.381063 0.344864 0.419959
0.387736 0.354087 0.418923
0.393700 0.363501 0.418182
0.399217 0.372984 0.417786
0.404519 0.382436 0.417774
0.409815 0.391775 0.418170
0.415281 0.400941 0.418989
0.421072 0.409896 0.420236
0.427311 0.418619 0.421900
0.434098 0.427113 0.423962
0.441502 0.435400 0.426391
0.449567 0.443522 0.429142
0.458309 0.451543 0.432161
0.467719 0.459546 0.435382
0.477758 0.467638 0.438727
0.488362 0.475941 0.442105
0.499439 0.484603 0.445416
0.510868 0.493790 0.448547
0.522505 0.503688 0.451373
0.534176 0.514505 0.453759
0.545681 0.526469 0.455557
0.556791 0.539828 0.456608
0.567252 0.554853 0.456741
0.576783 0.571832 0.455774
0.585073 0.591077 0.453513
0.271832 0.306985 0.429149
0.295970 0.308192 0.428927
0.316461 0.311239 0.428221
0.333776 0.315844 0.427169
0.348358 0.321746 0.425900
0.360625 0.328706 0.424530
0.370966 0.336503 0.423162
0.379743 0.344938 0.421890
0.387291 0.353833 0.420794
0.393919 0.363030 0.419945
0.399907 0.372392 0.419400
0.405510 0.381801 0.419206
0.410955 0.391162 0.419398
0.416440 0.400399 0.419998
0.422138 0.409457 0.421020
0.428196 0.418302 0.422462
0.434730 0.426920 0.424314
0.441832 0.435317 0.426552
0.449567 0.443522 0.429142
0.457970 0.451581 0.432038
0.467052 0.459564 0.435181
0.476795 0.467559 0.438503
0.487156 0.475676 0.441922
0.498061 0.484046 0.445346
0.509413 0.492820 0.448671
0.521085 0.502168 0.451781
0.532925 0.512283 0.454549
0.544753 0.523378 0.456837
0.556360 0.535685 0.458492
0.567513 0.549459 0.459355
0.577951 0.564974 0.459250
0.587384 0.582525 0.457994
0.595497 0.602427 0.455388
0.281593 0.314614 0.429451
0.304974 0.316159 0.429256
0.324827 0.319479 0.428607
0.341615 0.324298 0.427641
0.355776 0.330360 0.426480
0.367720 0.337430 0.425240
0.377829 0.345293 0.424020
0.386459 0.353755 0.422912
0.393938 0.362644 0.421993
0.400567 0.371806 0.421330
0.406622 0.381109 0.420978
0.412348 0.390441 0.420981
0.417967 0.399712 0.421370
0.423670 0.408851 0.422167
0.429624 0.417808 0.423380
0.435967 0.426555 0.425006
0.442810 0.435081 0.427031
0.450239 0.443399 0.429428
0.458309 0.451543 0.432161
0.467052 0.459564 0.435181
0.476470 0.467536 0.438426
0.486539 0.475554 0.441824
0.497207 0.483732 0.445292
0.508397 0.492207 0.448734
0.520003 0.501134 0.452044
0.531892 0.510689 0.455101
0.543904 0.521070 0.457777
0.555853 0.532494 0.459930
0.567524 0.545200 0.461406
0.578676 0.559447 0.462041
0.589041 0.575515 0.461657
0.598323 0.593703 0.460068
0.606201 0.614332 0.457072
0.291352 0.322277 0.430040
0.314052 0.324129 0.429885
0.333338 0.327694 0.429303
0.349667 0.332701 0.428429
0.363468 0.338901 0.427383
0.375146 0.346062 0.426276
0.385076 0.353977 0.425207
0.393607 0.362455 0.424263
0.401061 0.371329 0.423518
0.407732 0.380452 0.423038
0.413887 0.389695 0.422873
0.419767 0.398953 0.423065
0.425586 0.408139 0.423643
0.431529 0.417189 0.424624
0.437755 0.426058 0.426015
0.444396 0.434721 0.427809
0.451556 0.443175 0.429989
0.459314 0.451438 0.432527
0.467719 0.459546 0.435382
0.476795 0.467559 0.438503
0.486539 0.475554 0.441824
0.496918 0.483631 0.445272
0.507876 0.491911 0.448760
0.519327 0.500534 0.452189
0.531158 0.509660 0.455450
0.543230 0.519472 0.458421
0.555377 0.530173 0.460968
0.567405 0.541984 0.462948
0.579093 0.555150 0.464204
0.590193 0.569934 0.464568
0.600430 0.586622 0.463861
0.609502 0.605518 0.461892
0.617079 0.626948 0.458458
0.301194 0.329988 0.430891
0.323282 0.332118 0.430783
0.342065 0.335904 0.430276
0.357993 0.341081 0.429499
0.371491 0.347401 0.428571
0.382954 0.354642 0.427599
0.392751 0.362598 0.426679
0.401225 0.371086 0.425896
0.408690 0.379942 0.425321
0.415435 0.389025 0.425016
0.421719 0.398213 0.425030
0.427777 0.407403 0.425401
0.433815 0.416516 0.426155
0.440012 0.425492 0.427306
0.446520 0.434289 0.428858
0.453464 0.442891 0.430802
0.460943 0.451298 0.433118
0.469026 0.459533 0.435774
0.477758 0.467638 0.438727
0.487156 0.475676 0.441922
0.497207 0.483732 0.445292
0.507876 0.491911 0.448760
0.519097 0.500337 0.452236
0.530777 0.509156 0.455619
0.542799 0.518535 0.458795
0.555015 0.528659 0.461641
0.567253 0.539738 0.464020
0.579311 0.551998 0.465785
0.590962 0.565689 0.466778
0.601952 0.581080 0.466826
0.611999 0.598461 0.465749
0.620793 0.618141 0.463351
0.627999 0.640452 0.459428
0.311176 0.337778 0.431966
0.332714 0.340165 0.431912
0.351051 0.344154 0.431483
0.366633 0.349484 0.430805
0.379874 0.355915 0.429994
0.391166 0.363226 0.429156
0.400870 0.371219 0.428382
0.409322 0.379715 0.427754
0.416830 0.388557 0.427341
0.423674 0.397606 0.427202
0.430109 0.406747 0.427383
0.436361 0.415883 0.427919
0.442630 0.424938 0.428833
0.449088 0.433858 0.430137
0.455882 0.442608 0.431831
0.463128 0.451174 0.433904
0.470919 0.459564 0.436332
0.479318 0.467803 0.439081
0.488362 0.475941 0.442105
0.498061 0.484046 0.445346
0.508397 0.492207 0.448734
0.519327 0.500534 0.452189
0.530777 0.509156 0.455619
0.542651 0.518225 0.458918
0.554820 0.527913 0.461971
0.567134 0.538411 0.464652
0.579411 0.549932 0.466821
0.591444 0.562709 0.468327
0.602999 0.576996 0.469010
0.613815 0.593068 0.468694
0.623602 0.611218 0.467196
0.632045 0.631764 0.464318
0.638802 0.655041 0.459851
0.321328 0.345700 0.433216
0.342370 0.348328 0.433219
0.360313 0.352507 0.432869
0.375594 0.357981 0.432289
0.388622 0.364515 0.431593
0.399780 0.371894 0.430883
0.409423 0.379924 0.430248
0.417881 0.388433 0.429766
0.425454 0.397266 0.429506
0.432417 0.406293 0.429520
0.439017 0.415402 0.429854
0.445473 0.424501 0.430539
0.451979 0.433519 0.431595
0.458700 0.442408 0.433031
0.465776 0.451139 0.434845
0.473316 0.459701 0.437023
0.481407 0.468107 0.439537
0.490104 0.476390 0.442351
0.499439 0.484603 0.445416
0.509413 0.492820 0.448671
0.520003 0.501134 0.452044
0.531158 0.509660 0.455450
0.542799 0.518535 0.458795
0.554820 0.527913 0.461971
0.567090 0.537972 0.464860
0.579447 0.548909 0.467332
0.591706 0.560941 0.469245
0.603652 0.574308 0.470446
0.615044 0.589267 0.470769
0.625614 0.606098 0.470039
0.635066 0.625102 0.468067
0.643078 0.646600 0.464653
0.649299 0.670932 0.459586
0.331653 0.353829 0.434581
0.352249 0.356686 0.434641
0.369841 0.361046 0.434367
0.384860 0.366659 0.433882
0.397709 0.373295 0.433295
0.408763 0.380744 0.432705
0.418372 0.388818 0.432200
0.426857 0.397348 0.431853
0.434512 0.406187 0.431731
0.441606 0.415207 0.431883
0.448379 0.424302 0.432352
0.455043 0.433387 0.433167
0.461784 0.442396 0.434344
0.468763 0.451284 0.435890
0.476109 0.460027 0.437799
0.483929 0.468622 0.440054
0.492300 0.477085 0.442625
0.501272 0.485455 0.445474
0.510868 0.493790 0.448547
0.521085 0.502168 0.451781
0.531892 0.510689 0.455101
0.543230 0.519472 0.458421
0.555015 0.528659 0.461641
0.567134 0.538411 0.464652
0.579447 0.548909 0.467332
0.591789 0.560356 0.469549
0.603965 0.572974 0.471158
0.615755 0.587007 0.472003
0.626910 0.602719 0.471915
0.637155 0.620396 0.470715
0.646189 0.640341 0.468213
0.653683 0.662882 0.464206
0.659278 0.688363 0.458480
0.342126 0.362257 0.435988
0.362317 0.365337 0.436101
0.379596 0.369877 0.435900
0.394386 0.375630 0.435502
0.407084 0.382372 0.435016
0.418058 0.389898 0.434536
0.427652 0.398026 0.434147
0.436178 0.406591 0.433922
0.443927 0.415453 0.433921
0.451157 0.424487 0.434194
0.458103 0.433594 0.434778
0.464971 0.442693 0.435700
0.471940 0.451723 0.436973
0.479163 0.460644 0.438603
0.486764 0.469439 0.440579
0.494842 0.478108 0.442881
0.503467 0.486674 0.445479
0.512682 0.495179 0.448328
0.522505 0.503688 0.451373
0.532925 0.512283 0.454549
0.543904 0.521070 0.457777
0.555377 0.530173 0.460968
0.567253 0.539738 0.464020
0.579411 0.549932 0.466821
0.591706 0.560941 0.469245
0.603965 0.572974 0.471158
0.615987 0.586257 0.472412
