public/luts/chroma_fade.cube
# Generated from ColorChecker fit
LUT_3D_SIZE 5
DOMAIN_MIN 0.0 0.0 0.0
DOMAIN_MAX 1.0 1.0 1.0
0.000000 0.303405 0.427833
0.113076 0.242568 0.440638
0.241289 0.284497 0.430056
0.321328 0.345700 0.433216
0.403321 0.427008 0.439809
0.113076 0.242568 0.440638
0.309861 0.254056 0.431608
0.369501 0.326426 0.419474
0.425454 0.397266 0.429506
0.500069 0.488488 0.439532
0.241289 0.284497 0.430056
0.369501 0.326426 0.419474
0.414314 0.401406 0.418165
0.481407 0.468107 0.439537
0.565353 0.569519 0.449562
0.321328 0.345700 0.433216
0.425454 0.397266 0.429506
0.481407 0.468107 0.439537
0.567090 0.537972 0.464860
0.649299 0.670932 0.459586
0.403321 0.427008 0.439809
0.500069 0.488488 0.439532
0.565353 0.569519 0.449562
0.649299 0.670932 0.459586
0.690927 0.877875 0.411858
0.113076 0.242568 0.440638
0.309861 0.254056 0.431608
0.369501 0.326426 0.419474
0.425454 0.397266 0.429506
0.500069 0.488488 0.439532
0.309861 0.254056 0.431608
0.406572 0.313413 0.412861
0.429142 0.398795 0.407340
0.483251 0.468872 0.428455
0.563472 0.566632 0.442174
0.369501 0.326426 0.419474
0.429142 0.398795 0.407340
0.459126 0.476386 0.416855
0.537360 0.538948 0.449569
0.630637 0.650551 0.459591
0.425454 0.397266 0.429506
0.483251 0.468872 0.428455
0.537360 0.538948 0.449569
0.637908 0.608325 0.482538
0.723914 0.762153 0.469613
0.500069 0.488488 0.439532
0.563472 0.566632 0.442174
0.630637 0.650551 0.459591
0.723914 0.762153 0.469613
0.754546 1.000000 0.402633
0.241289 0.284497 0.430056
0.369501 0.326426 0.419474
0.414314 0.401406 0.418165
0.481407 0.468107 0.439537
0.565353 0.569519 0.449562
0.369501 0.326426 0.419474
0.429142 0.398795 0.407340
0.459126 0.476386 0.416855
0.537360 0.538948 0.449569
0.630637 0.650551 0.459591
0.414314 0.401406 0.418165
0.459126 0.476386 0.416855
0.509510 0.542811 0.441665
0.615593 0.601510 0.482282
0.716392 0.737633 0.480959
0.481407 0.468107 0.439537
0.537360 0.538948 0.449569
0.615593 0.601510 0.482282
0.738456 0.677702 0.515507
0.817192 0.873756 0.479636
0.565353 0.569519 0.449562
0.630637 0.650551 0.459591
0.716392 0.737633 0.480959
0.817192 0.873756 0.479636
0.816501 1.000000 0.374153
0.321328 0.345700 0.433216
0.425454 0.397266 0.429506
0.481407 0.468107 0.439537
0.567090 0.537972 0.464860
0.649299 0.670932 0.459586
0.425454 0.397266 0.429506
0.483251 0.468872 0.428455
0.537360 0.538948 0.449569
0.637908 0.608325 0.482538
0.723914 0.762153 0.469613
0.481407 0.468107 0.439537
0.537360 0.538948 0.449569
0.615593 0.601510 0.482282
0.738456 0.677702 0.515507
0.817192 0.873756 0.479636
0.567090 0.537972 0.464860
0.637908 0.608325 0.482538
0.738456 0.677702 0.515507
0.863307 0.789093 0.529739
0.895927 1.000000 0.443764
0.649299 0.670932 0.459586
0.723914 0.762153 0.469613
0.817192 0.873756 0.479636
0.895927 1.000000 0.443764
0.815810 1.000000 0.268671
0.403321 0.427008 0.439809
0.500069 0.488488 0.439532
0.565353 0.569519 0.449562
0.649299 0.670932 0.459586
0.690927 0.877875 0.411858
0.500069 0.488488 0.439532
0.563472 0.566632 0.442174
0.630637 0.650551 0.459591
0.723914 0.762153 0.469613
0.754546 1.000000 0.402633
0.565353 0.569519 0.449562
0.630637 0.650551 0.459591
0.716392 0.737633 0.480959
0.817192 0.873756 0.479636
0.816501 1.000000 0.374153
0.649299 0.670932 0.459586
0.723914 0.762153 0.469613
0.817192 0.873756 0.479636
0.895927 1.000000 0.443764
0.815810 1.000000 0.268671
0.690927 0.877875 0.411858
0.754546 1.000000 0.402633
0.816501 1.000000 0.374153
0.815810 1.000000 0.268671
0.580385 1.000000 0.000000
