public/luts/chroma_fade.cube
# Generated from ColorChecker fit
LUT_3D_SIZE 9
DOMAIN_MIN 0.0 0.0 0.0
DOMAIN_MAX 1.0 1.0 1.0
0.000000 0.303405 0.427833
0.000000 0.251629 0.441332
0.113076 0.242568 0.440638
0.190677 0.257881 0.434838
0.241289 0.284497 0.430056
0.281593 0.314614 0.429451
0.321328 0.345700 0.433216
0.363287 0.380496 0.438581
0.403321 0.427008 0.439809
0.000000 0.251629 0.441332
0.147995 0.224706 0.445973
0.241293 0.233507 0.439943
0.293586 0.261007 0.431590
0.326765 0.295453 0.426297
0.355776 0.330360 0.426480
0.388622 0.364515 0.431593
0.426359 0.401973 0.438122
0.463101 0.452062 0.439591
0.113076 0.242568 0.440638
0.241293 0.233507 0.439943
0.309861 0.254056 0.431608
0.345879 0.288507 0.423238
0.369501 0.326426 0.419474
0.393938 0.362644 0.421993
0.425454 0.397266 0.429506
0.463372 0.435667 0.437758
0.500069 0.488488 0.439532
0.190677 0.257881 0.434838
0.293586 0.261007 0.431590
0.345879 0.288507 0.423238
0.372919 0.325993 0.416644
0.393123 0.364344 0.415710
0.417967 0.399712 0.421370
0.451979 0.433519 0.431595
0.492745 0.472456 0.441388
0.530907 0.528484 0.442791
0.241289 0.284497 0.430056
0.326765 0.295453 0.426297
0.369501 0.326426 0.419474
0.393123 0.364344 0.415710
0.414314 0.401406 0.418165
0.442810 0.435081 0.427031
0.481407 0.468107 0.439537
0.525953 0.508494 0.449948
0.565353 0.569519 0.449562
0.281593 0.314614 0.429451
0.355776 0.330360 0.426480
0.393938 0.362644 0.421993
0.417967 0.399712 0.421370
0.442810 0.435081 0.427031
0.476470 0.467536 0.438426
0.520003 0.501134 0.452044
0.567524 0.545200 0.461406
0.606201 0.614332 0.457072
0.321328 0.345700 0.433216
0.388622 0.364515 0.431593
0.425454 0.397266 0.429506
0.451979 0.433519 0.431595
0.481407 0.468107 0.439537
0.520003 0.501134 0.452044
0.567090 0.537972 0.464860
0.615044 0.589267 0.470769
0.649299 0.670932 0.459586
0.363287 0.380496 0.438581
0.426359 0.401973 0.438122
0.463372 0.435667 0.437758
0.492745 0.472456 0.441388
0.525953 0.508494 0.449948
0.567524 0.545200 0.461406
0.615044 0.589267 0.470769
0.659155 0.652655 0.470077
0.683554 0.752596 0.448404
0.403321 0.427008 0.439809
0.463101 0.452062 0.439591
0.500069 0.488488 0.439532
0.530907 0.528484 0.442791
0.565353 0.569519 0.449562
0.606201 0.614332 0.457072
0.649299 0.670932 0.459586
0.683554 0.752596 0.448404
0.690927 0.877875 0.411858
0.000000 0.251629 0.441332
0.147995 0.224706 0.445973
0.241293 0.233507 0.439943
0.293586 0.261007 0.431590
0.326765 0.295453 0.426297
0.355776 0.330360 0.426480
0.388622 0.364515 0.431593
0.426359 0.401973 0.438122
0.463101 0.452062 0.439591
0.147995 0.224706 0.445973
0.270828 0.218922 0.443640
0.334590 0.242308 0.433913
0.366381 0.279158 0.424399
0.386355 0.319035 0.419738
0.407722 0.356773 0.421607
0.436747 0.392476 0.428717
0.472753 0.431518 0.436814
0.508116 0.484542 0.438679
0.241293 0.233507 0.439943
0.334590 0.242308 0.433913
0.378429 0.274605 0.423272
0.398172 0.316008 0.414885
0.412237 0.357398 0.412651
0.432099 0.394928 0.417505
0.462286 0.430018 0.427418
0.500385 0.469360 0.437394
0.537037 0.524914 0.439474
0.293586 0.261007 0.431590
0.366381 0.279158 0.424399
0.398172 0.316008 0.414885
0.412585 0.358485 0.409171
0.426303 0.398789 0.410417
0.449062 0.434389 0.418816
0.483658 0.468022 0.431596
0.525939 0.507698 0.443021
0.564810 0.566695 0.444392
0.326765 0.295453 0.426297
0.386355 0.319035 0.419738
0.412237 0.357398 0.412651
0.426303 0.398789 0.410417
0.443497 0.436724 0.415454
0.471822 0.469988 0.427214
0.512335 0.502638 0.442185
0.559150 0.544001 0.453890
0.599437 0.608672 0.452885
0.355776 0.330360 0.426480
0.407722 0.356773 0.421607
0.432099 0.394928 0.417505
0.449062 0.434389 0.418816
0.471822 0.469988 0.427214
0.506643 0.501830 0.441412
0.552849 0.535288 0.457156
0.602815 0.581007 0.467227
0.641975 0.654900 0.461442
0.388622 0.364515 0.431593
0.436747 0.392476 0.428717
0.462286 0.430018 0.427418
0.483658 0.468022 0.431596
0.512335 0.502638 0.442185
0.552849 0.535288 0.457156
0.602783 0.572664 0.471514
0.652781 0.626726 0.477299
0.686539 0.714705 0.463585
0.426359 0.401973 0.438122
0.472753 0.431518 0.436814
0.500385 0.469360 0.437394
0.525939 0.507698 0.443021
0.559150 0.544001 0.453890
0.602815 0.581007 0.467227
0.652781 0.626726 0.477299
0.697955 0.694435 0.475402
0.720297 0.802685 0.449872
0.463101 0.452062 0.439591
0.508116 0.484542 0.438679
0.537037 0.524914 0.439474
0.564810 0.566695 0.444392
0.599437 0.608672 0.452885
0.641975 0.654900 0.461442
0.686539 0.714705 0.463585
0.720297 0.802685 0.449872
0.723473 0.938705 0.407896
0.113076 0.242568 0.440638
0.241293 0.233507 0.439943
0.309861 0.254056 0.431608
0.345879 0.288507 0.423238
0.369501 0.326426 0.419474
0.393938 0.362644 0.421993
0.425454 0.397266 0.429506
0.463372 0.435667 0.437758
0.500069 0.488488 0.439532
0.241293 0.233507 0.439943
0.334590 0.242308 0.433913
0.378429 0.274605 0.423272
0.398172 0.316008 0.414885
0.412237 0.357398 0.412651
0.432099 0.394928 0.417505
0.462286 0.430018 0.427418
0.500385 0.469360 0.437394
0.537037 0.524914 0.439474
0.309861 0.254056 0.431608
0.378429 0.274605 0.423272
0.406572 0.313413 0.412861
0.417915 0.357411 0.406498
0.429142 0.398795 0.407340
0.449989 0.435036 0.415583
0.483251 0.468872 0.428455
0.524776 0.508311 0.440219
0.563472 0.566632 0.442174
0.345879 0.288507 0.423238
0.398172 0.316008 0.414885
0.417915 0.357411 0.406498
0.426998 0.400963 0.403458
0.440368 0.440180 0.408183
0.466025 0.473849 0.420126
0.505029 0.506025 0.435774
0.551492 0.546036 0.448649
0.592583 0.608477 0.449309
0.369501 0.326426 0.419474
0.412237 0.357398 0.412651
0.429142 0.398795 0.407340
0.440368 0.440180 0.408183
0.459126 0.476386 0.416855
0.491683 0.507518 0.432069
0.537360 0.538948 0.449569
0.588533 0.581321 0.462137
0.630637 0.650551 0.459591
0.393938 0.362644 0.421993
0.432099 0.394928 0.417505
0.449989 0.435036 0.415583
0.466025 0.473849 0.420126
0.491683 0.507518 0.432069
0.531491 0.537464 0.449381
0.583036 0.570378 0.467069
0.636958 0.618223 0.477172
0.676955 0.698228 0.468765
0.425454 0.397266 0.429506
0.462286 0.430018 0.427418
0.483251 0.468872 0.428455
0.505029 0.506025 0.435774
0.537360 0.538948 0.449569
0.583036 0.570378 0.467069
0.637908 0.608325 0.482538
0.690880 0.666067 0.487275
0.723914 0.762153 0.469613
0.463372 0.435667 0.437758
0.500385 0.469360 0.437394
0.524776 0.508311 0.440219
0.551492 0.546036 0.448649
0.588533 0.581321 0.462137
0.636958 0.618223 0.477172
0.690880 0.666067 0.487275
0.737469 0.739450 0.483004
0.756948 0.858239 0.451952
0.500069 0.488488 0.439532
0.537037 0.524914 0.439474
0.563472 0.566632 0.442174
0.592583 0.608477 0.449309
0.630637 0.650551 0.459591
0.676955 0.698228 0.468765
0.723914 0.762153 0.469613
0.756948 0.858239 0.451952
0.754546 1.000000 0.402633
0.190677 0.257881 0.434838
0.293586 0.261007 0.431590
0.345879 0.288507 0.423238
0.372919 0.325993 0.416644
0.393123 0.364344 0.415710
0.417967 0.399712 0.421370
0.451979 0.433519 0.431595
0.492745 0.472456 0.441388
0.530907 0.528484 0.442791
0.293586 0.261007 0.431590
0.366381 0.279158 0.424399
0.398172 0.316008 0.414885
0.412585 0.358485 0.409171
0.426303 0.398789 0.410417
0.449062 0.434389 0.418816
0.483658 0.468022 0.431596
0.525939 0.507698 0.443021
0.564810 0.566695 0.444392
0.345879 0.288507 0.423238
0.398172 0.316008 0.414885
0.417915 0.357411 0.406498
0.426998 0.400963 0.403458
0.440368 0.440180 0.408183
0.466025 0.473849 0.420126
0.505029 0.506025 0.435774
0.551492 0.546036 0.448649
0.592583 0.608477 0.449309
0.372919 0.325993 0.416644
0.412585 0.358485 0.409171
0.426998 0.400963 0.403458
0.436312 0.442989 0.404145
0.453737 0.479398 0.412908
0.485539 0.510292 0.428460
0.531039 0.541046 0.446545
0.582615 0.582304 0.459947
0.625700 0.649979 0.458480
0.393123 0.364344 0.415710
0.426303 0.398789 0.410417
0.440368 0.440180 0.408183
0.453737 0.479398 0.412908
0.477885 0.512593 0.425528
0.517341 0.541187 0.444011
0.569690 0.571871 0.463364
0.625574 0.616606 0.475626
0.668691 0.692625 0.469873
0.417967 0.399712 0.421370
0.449062 0.434389 0.418816
0.466025 0.473849 0.420126
0.485539 0.510292 0.428460
0.517341 0.541187 0.444011
0.564224 0.569271 0.464009
0.622039 0.602555 0.482717
0.679691 0.654316 0.491433
0.719141 0.743104 0.478493
0.451979 0.433519 0.431595
0.483658 0.468022 0.431596
0.505029 0.506025 0.435774
0.531039 0.541046 0.446545
0.569690 0.571871 0.463364
0.622039 0.602555 0.482717
0.682201 0.642425 0.498126
0.737343 0.706077 0.500150
0.767691 0.813379 0.476381
0.492745 0.472456 0.441388
0.525939 0.507698 0.443021
0.551492 0.546036 0.448649
0.582615 0.582304 0.459947
0.625574 0.616606 0.475626
0.679691 0.654316 0.491433
0.737343 0.706077 0.500150
0.783963 0.787804 0.491593
0.798040 0.920680 0.452613
0.530907 0.528484 0.442791
0.564810 0.566695 0.444392
0.592583 0.608477 0.449309
0.625700 0.649979 0.458480
0.668691 0.692625 0.469873
0.719141 0.743104 0.478493
0.767691 0.813379 0.476381
0.798040 0.920680 0.452613
0.786939 1.000000 0.393297
0.241289 0.284497 0.430056
0.326765 0.295453 0.426297
0.369501 0.326426 0.419474
0.393123 0.364344 0.415710
0.414314 0.401406 0.418165
0.442810 0.435081 0.427031
0.481407 0.468107 0.439537
0.525953 0.508494 0.449948
0.565353 0.569519 0.449562
0.326765 0.295453 0.426297
0.386355 0.319035 0.419738
0.412237 0.357398 0.412651
0.426303 0.398789 0.410417
0.443497 0.436724 0.415454
0.471822 0.469988 0.427214
0.512335 0.502638 0.442185
0.559150 0.544001 0.453890
0.599437 0.608672 0.452885
0.369501 0.326426 0.419474
0.412237 0.357398 0.412651
0.429142 0.398795 0.407340
0.440368 0.440180 0.408183
0.459126 0.476386 0.416855
0.491683 0.507518 0.432069
0.537360 0.538948 0.449569
0.588533 0.581321 0.462137
0.630637 0.650551 0.459591
0.393123 0.364344 0.415710
0.426303 0.398789 0.410417
0.440368 0.440180 0.408183
0.453737 0.479398 0.412908
0.477885 0.512593 0.425528
0.517341 0.541187 0.444011
0.569690 0.571871 0.463364
0.625574 0.616606 0.475626
0.668691 0.692625 0.469873
0.414314 0.401406 0.418165
0.443497 0.436724 0.415454
0.459126 0.476386 0.416855
0.477885 0.512593 0.425528
0.509510 0.542811 0.441665
0.556796 0.569780 0.462495
0.615593 0.601510 0.482282
0.674804 0.651277 0.492325
0.716392 0.737633 0.480959
0.442810 0.435081 0.427031
0.471822 0.469988 0.427214
0.491683 0.507518 0.432069
0.517341 0.541187 0.444011
0.556796 0.569780 0.462495
0.611108 0.597356 0.484007
0.674389 0.633239 0.502069
0.733808 0.692026 0.507241
0.769591 0.793583 0.487114
0.481407 0.468107 0.439537
0.512335 0.502638 0.442185
0.537360 0.538948 0.449569
0.569690 0.571871 0.463364
0.615593 0.601510 0.482282
0.674389 0.633239 0.502069
0.738456 0.677702 0.515507
0.793227 0.750813 0.512412
0.817192 0.873756 0.479636
0.525953 0.508494 0.449948
0.559150 0.544001 0.453890
0.588533 0.581321 0.462137
0.625574 0.616606 0.475626
0.674804 0.651277 0.492325
0.733808 0.692026 0.507241
0.793227 0.750813 0.512412
0.836759 0.844870 0.496915
0.841156 0.996699 0.446859
0.565353 0.569519 0.449562
0.599437 0.608672 0.452885
0.630637 0.650551 0.459591
0.668691 0.692625 0.469873
0.716392 0.737633 0.480959
0.769591 0.793583 0.487114
0.817192 0.873756 0.479636
0.841156 0.996699 0.446859
0.816501 1.000000 0.374153
0.281593 0.314614 0.429451
0.355776 0.330360 0.426480
0.393938 0.362644 0.421993
0.417967 0.399712 0.421370
0.442810 0.435081 0.427031
0.476470 0.467536 0.438426
0.520003 0.501134 0.452044
0.567524 0.545200 0.461406
0.606201 0.614332 0.457072
0.355776 0.330360 0.426480
0.407722 0.356773 0.421607
0.432099 0.394928 0.417505
0.449062 0.434389 0.418816
0.471822 0.469988 0.427214
0.506643 0.501830 0.441412
0.552849 0.535288 0.457156
0.602815 0.581007 0.467227
0.641975 0.654900 0.461442
0.393938 0.362644 0.421993
0.432099 0.394928 0.417505
0.449989 0.435036 0.415583
0.466025 0.473849 0.420126
0.491683 0.507518 0.432069
0.531491 0.537464 0.449381
0.583036 0.570378 0.467069
0.636958 0.618223 0.477172
0.676955 0.698228 0.468765
0.417967 0.399712 0.421370
0.449062 0.434389 0.418816
0.466025 0.473849 0.420126
0.485539 0.510292 0.428460
0.517341 0.541187 0.444011
0.564224 0.569271 0.464009
0.622039 0.602555 0.482717
0.679691 0.654316 0.491433
0.719141 0.743104 0.478493
0.442810 0.435081 0.427031
0.471822 0.469988 0.427214
0.491683 0.507518 0.432069
0.517341 0.541187 0.444011
0.556796 0.569780 0.462495
0.611108 0.597356 0.484007
0.674389 0.633239 0.502069
0.733808 0.692026 0.507241
0.769591 0.793583 0.487114
0.476470 0.467536 0.438426
0.506643 0.501830 0.441412
0.531491 0.537464 0.449381
0.564224 0.569271 0.464009
0.611108 0.597356 0.484007
0.671464 0.627091 0.505120
0.737670 0.669122 0.520132
0.795158 0.739361 0.518858
0.822418 0.858993 0.488149
0.520003 0.501134 0.452044
0.552849 0.535288 0.457156
0.583036 0.570378 0.467069
0.622039 0.602555 0.482717
0.674389 0.633239 0.502069
0.737670 0.669122 0.520132
0.802523 0.722165 0.528945
0.852647 0.809600 0.517583
0.864793 0.953928 0.472158
0.567524 0.545200 0.461406
0.602815 0.581007 0.467227
0.636958 0.618223 0.477172
0.679691 0.654316 0.491433
0.733808 0.692026 0.507241
0.795158 0.739361 0.518858
0.852647 0.809600 0.517583
0.888235 0.921292 0.491752
0.876939 1.000000 0.426732
0.606201 0.614332 0.457072
0.641975 0.654900 0.461442
0.676955 0.698228 0.468765
0.719141 0.743104 0.478493
0.769591 0.793583 0.487114
0.822418 0.858993 0.488149
0.864793 0.953928 0.472158
0.876939 1.000000 0.426732
0.832137 1.000000 0.336500
0.321328 0.345700 0.433216
0.388622 0.364515 0.431593
0.425454 0.397266 0.429506
0.451979 0.433519 0.431595
0.481407 0.468107 0.439537
0.520003 0.501134 0.452044
0.567090 0.537972 0.464860
0.615044 0.589267 0.470769
0.649299 0.670932 0.459586
0.388622 0.364515 0.431593
0.436747 0.392476 0.428717
0.462286 0.430018 0.427418
0.483658 0.468022 0.431596
0.512335 0.502638 0.442185
0.552849 0.535288 0.457156
0.602783 0.572664 0.471514
0.652781 0.626726 0.477299
0.686539 0.714705 0.463585
0.425454 0.397266 0.429506
0.462286 0.430018 0.427418
0.483251 0.468872 0.428455
0.505029 0.506025 0.435774
0.537360 0.538948 0.449569
0.583036 0.570378 0.467069
0.637908 0.608325 0.482538
0.690880 0.666067 0.487275
0.723914 0.762153 0.469613
0.451979 0.433519 0.431595
0.483658 0.468022 0.431596
0.505029 0.506025 0.435774
0.531039 0.541046 0.446545
0.569690 0.571871 0.463364
0.622039 0.602555 0.482717
0.682201 0.642425 0.498126
0.737343 0.706077 0.500150
0.767691 0.813379 0.476381
0.481407 0.468107 0.439537
0.512335 0.502638 0.442185
0.537360 0.538948 0.449569
0.569690 0.571871 0.463364
0.615593 0.601510 0.482282
0.674389 0.633239 0.502069
0.738456 0.677702 0.515507
0.793227 0.750813 0.512412
0.817192 0.873756 0.479636
0.520003 0.501134 0.452044
0.552849 0.535288 0.457156
0.583036 0.570378 0.467069
0.622039 0.602555 0.482717
0.674389 0.633239 0.502069
0.737670 0.669122 0.520132
0.802523 0.722165 0.528945
0.852647 0.809600 0.517583
0.864793 0.953928 0.472158
0.567090 0.537972 0.464860
0.602783 0.572664 0.471514
0.637908 0.608325 0.482538
0.682201 0.642425 0.498126
0.738456 0.677702 0.515507
0.802523 0.722165 0.528945
0.863307 0.789093 0.529739
0.902770 0.897035 0.506222
0.895927 1.000000 0.443764
0.615044 0.589267 0.470769
0.652781 0.626726 0.477299
0.690880 0.666067 0.487275
0.737343 0.706077 0.500150
0.793227 0.750813 0.512412
0.852647 0.809600 0.517583
0.902770 0.897035 0.506222
0.923823 1.000000 0.465920
0.889085 1.000000 0.381306
0.649299 0.670932 0.459586
0.686539 0.714705 0.463585
0.723914 0.762153 0.469613
0.767691 0.813379 0.476381
0.817192 0.873756 0.479636
0.864793 0.953928 0.472158
0.895927 1.000000 0.443764
0.889085 1.000000 0.381306
0.815810 1.000000 0.268671
0.363287 0.380496 0.438581
0.426359 0.401973 0.438122
0.463372 0.435667 0.437758
0.492745 0.472456 0.441388
0.525953 0.508494 0.449948
0.567524 0.545200 0.461406
0.615044 0.589267 0.470769
0.659155 0.652655 0.470077
0.683554 0.752596 0.448404
0.426359 0.401973 0.438122
0.472753 0.431518 0.436814
0.500385 0.469360 0.437394
0.525939 0.507698 0.443021
0.559150 0.544001 0.453890
0.602815 0.581007 0.467227
0.652781 0.626726 0.477299
0.697955 0.694435 0.475402
0.720297 0.802685 0.449872
0.463372 0.435667 0.437758
0.500385 0.469360 0.437394
0.524776 0.508311 0.440219
0.551492 0.546036 0.448649
0.588533 0.581321 0.462137
0.636958 0.618223 0.477172
0.690880 0.666067 0.487275
0.737469 0.739450 0.483004
0.756948 0.858239 0.451952
0.492745 0.472456 0.441388
0.525939 0.507698 0.443021
0.551492 0.546036 0.448649
0.582615 0.582304 0.459947
0.625574 0.616606 0.475626
0.679691 0.654316 0.491433
0.737343 0.706077 0.500150
0.783963 0.787804 0.491593
0.798040 0.920680 0.452613
0.525953 0.508494 0.449948
0.559150 0.544001 0.453890
0.588533 0.581321 0.462137
0.625574 0.616606 0.475626
0.674804 0.651277 0.492325
0.733808 0.692026 0.507241
0.793227 0.750813 0.512412
0.836759 0.844870 0.496915
0.841156 0.996699 0.446859
0.567524 0.545200 0.461406
0.602815 0.581007 0.467227
0.636958 0.618223 0.477172
0.679691 0.654316 0.491433
0.733808 0.692026 0.507241
0.795158 0.739361 0.518858
0.852647 0.809600 0.517583
0.888235 0.921292 0.491752
0.876939 1.000000 0.426732
0.615044 0.589267 0.470769
0.652781 0.626726 0.477299
0.690880 0.666067 0.487275
0.737343 0.706077 0.500150
0.793227 0.750813 0.512412
0.852647 0.809600 0.517583
0.902770 0.897035 0.506222
0.923823 1.000000 0.465920
0.889085 1.000000 0.381306
0.659155 0.652655 0.470077
0.697955 0.694435 0.475402
0.737469 0.739450 0.483004
0.783963 0.787804 0.491593
0.836759 0.844870 0.496915
0.888235 0.921292 0.491752
0.923823 1.000000 0.465920
0.922012 1.000000 0.406272
0.854347 1.000000 0.296692
0.683554 0.752596 0.448404
0.720297 0.802685 0.449872
0.756948 0.858239 0.451952
0.798040 0.920680 0.452613
0.841156 0.996699 0.446859
0.876939 1.000000 0.426732
0.889085 1.000000 0.381306
0.854347 1.000000 0.296692
0.742535 1.000000 0.156036
0.403321 0.427008 0.439809
0.463101 0.452062 0.439591
0.500069 0.488488 0.439532
0.530907 0.528484 0.442791
0.565353 0.569519 0.449562
0.606201 0.614332 0.457072
0.649299 0.670932 0.459586
0.683554 0.752596 0.448404
0.690927 0.877875 0.411858
0.463101 0.452062 0.439591
0.508116 0.484542 0.438679
0.537037 0.524914 0.439474
0.564810 0.566695 0.444392
0.599437 0.608672 0.452885
0.641975 0.654900 0.461442
0.686539 0.714705 0.463585
0.720297 0.802685 0.449872
0.723473 0.938705 0.407896
0.500069 0.488488 0.439532
0.537037 0.524914 0.439474
0.563472 0.566632 0.442174
0.592583 0.608477 0.449309
0.630637 0.650551 0.459591
0.676955 0.698228 0.468765
0.723914 0.762153 0.469613
0.756948 0.858239 0.451952
0.754546 1.000000 0.402633
0.530907 0.528484 0.442791
0.564810 0.566695 0.444392
0.592583 0.608477 0.449309
0.625700 0.649979 0.458480
0.668691 0.692625 0.469873
0.719141 0.743104 0.478493
0.767691 0.813379 0.476381
0.798040 0.920680 0.452613
0.786939 1.000000 0.393297
0.565353 0.569519 0.449562
0.599437 0.608672 0.452885
0.630637 0.650551 0.459591
0.668691 0.692625 0.469873
0.716392 0.737633 0.480959
0.769591 0.793583 0.487114
0.817192 0.873756 0.479636
0.841156 0.996699 0.446859
0.816501 1.000000 0.374153
0.606201 0.614332 0.457072
0.641975 0.654900 0.461442
0.676955 0.698228 0.468765
0.719141 0.743104 0.478493
0.769591 0.793583 0.487114
0.822418 0.858993 0.488149
0.864793 0.953928 0.472158
0.876939 1.000000 0.426732
0.832137 1.000000 0.336500
0.649299 0.670932 0.459586
0.686539 0.714705 0.463585
0.723914 0.762153 0.469613
0.767691 0.813379 0.476381
0.817192 0.873756 0.479636
0.864793 0.953928 0.472158
0.895927 1.000000 0.443764
0.889085 1.000000 0.381306
0.815810 1.000000 0.268671
0.683554 0.752596 0.448404
0.720297 0.802685 0.449872
0.756948 0.858239 0.451952
0.798040 0.920680 0.452613
0.841156 0.996699 0.446859
0.876939 1.000000 0.426732
0.889085 1.000000 0.381306
0.854347 1.000000 0.296692
0.742535 1.000000 0.156036
0.690927 0.877875 0.411858
0.723473 0.938705 0.407896
0.754546 1.000000 0.402633
0.786939 1.000000 0.393297
0.816501 1.000000 0.374153
0.832137 1.000000 0.336500
0.815810 1.000000 0.268671
0.742535 1.000000 0.156036
0.580385 1.000000 0.000000
