public/luts/cinestill_50d.cube
# Generated from ColorChecker fit
LUT_3D_SIZE 33
DOMAIN_MIN 0.0 0.0 0.0
DOMAIN_MAX 1.0 1.0 1.0
0.038753 0.000000 0.000000
0.019824 0.000000 0.000000
0.000000 0.000000 0.000000
0.000000 0.000000 0.000000
0.000000 0.000000 0.000000
0.000000 0.000000 0.000000
0.000000 0.000000 0.006446
0.000000 0.000000 0.019896
0.000000 0.000000 0.035493
0.000000 0.000000 0.053191
0.000000 0.000000 0.072886
0.000000 0.000000 0.094417
0.000000 0.000000 0.117561
0.000000 0.000000 0.142039
0.000000 0.000000 0.167513
0.000000 0.000000 0.193586
0.000000 0.000000 0.219801
0.000000 0.000000 0.245645
0.000000 0.000000 0.270544
0.000000 0.000000 0.293867
0.000000 0.000000 0.314922
0.000000 0.000000 0.332962
0.000000 0.000000 0.347178
0.000000 0.000000 0.356704
0.000000 0.000000 0.360615
0.000000 0.000000 0.357927
0.000000 0.000000 0.347597
0.000000 0.000000 0.328526
0.000000 0.000000 0.299552
0.000000 0.000000 0.259458
0.000000 0.000000 0.206966
0.000000 0.000000 0.140741
0.000000 0.000000 0.059389
0.081505 0.000000 0.046942
0.063876 0.000000 0.050600
0.043068 0.000000 0.055496
0.018685 0.000000 0.061935
0.000000 0.000000 0.070159
0.000000 0.000000 0.080354
0.000000 0.000000 0.092645
0.000000 0.000000 0.107100
0.000000 0.000000 0.123727
0.000000 0.000000 0.142478
0.000000 0.000000 0.163244
0.000000 0.000000 0.185856
0.000000 0.000000 0.210091
0.000000 0.000000 0.235663
0.000000 0.000000 0.262228
0.000000 0.000000 0.289386
0.000000 0.000000 0.316676
0.000000 0.000000 0.343579
0.000000 0.000000 0.369517
0.000000 0.000000 0.393853
0.000000 0.000000 0.415893
0.000000 0.000000 0.434882
0.000000 0.000000 0.450009
0.000000 0.000000 0.460402
0.000000 0.000000 0.465131
0.000000 0.000000 0.463209
0.000000 0.000000 0.453587
0.000000 0.000000 0.435161
0.000000 0.000000 0.406765
0.000000 0.000000 0.367177
0.000000 0.000000 0.315116
0.000000 0.000000 0.249240
0.000000 0.000000 0.168150
0.118044 0.000000 0.119672
0.101479 0.000000 0.123960
0.082487 0.000000 0.129539
0.060636 0.000000 0.136708
0.035544 0.000000 0.145705
0.006879 0.000000 0.156709
0.000000 0.000000 0.169844
0.000000 0.000000 0.185171
0.000000 0.000000 0.202694
0.000000 0.000000 0.222360
0.000000 0.000000 0.244055
0.000000 0.000000 0.267607
0.000000 0.000000 0.292786
0.000000 0.000000 0.319302
0.000000 0.000000 0.346808
0.000000 0.000000 0.374898
0.000000 0.000000 0.403106
0.000000 0.000000 0.430908
0.000000 0.000000 0.457722
0.000000 0.000000 0.482908
0.000000 0.000000 0.505764
0.000000 0.000000 0.525533
0.000000 0.000000 0.541398
0.000000 0.000000 0.552482
0.000000 0.000000 0.557852
0.000000 0.000000 0.556514
0.000000 0.000000 0.547417
0.000000 0.000000 0.529450
0.000000 0.000000 0.501444
0.000000 0.000000 0.462171
0.000000 0.000000 0.410345
0.000000 0.000000 0.344621
0.000000 0.000000 0.263596
0.148556 0.000000 0.184201
0.132835 0.000000 0.189007
0.115409 0.000000 0.195154
0.095813 0.000000 0.202934
0.073630 0.000000 0.212582
0.048491 0.000000 0.224274
0.020079 0.000000 0.238126
0.000000 0.000000 0.254196
0.000000 0.000000 0.272483
0.000000 0.000000 0.292930
0.000000 0.000000 0.315417
0.000000 0.000000 0.339769
0.000000 0.000000 0.365749
0.000000 0.000000 0.393065
0.000000 0.000000 0.421364
0.000000 0.000000 0.450235
0.000000 0.000000 0.479208
0.000000 0.000000 0.507754
0.000000 0.000000 0.535287
0.000000 0.000000 0.561160
0.000000 0.000000 0.584669
0.000000 0.000000 0.605052
0.000000 0.000000 0.621485
0.000000 0.000000 0.633089
0.000000 0.000000 0.638925
0.000000 0.000000 0.637995
0.000000 0.000000 0.629243
0.000000 0.000000 0.611552
0.000000 0.000000 0.583751
0.000000 0.000000 0.544605
0.000000 0.000000 0.492825
0.000000 0.000000 0.427060
0.000000 0.000000 0.345903
0.173315 0.003803 0.240731
0.158234 0.008825 0.245946
0.142145 0.011013 0.252548
0.124544 0.010149 0.260825
0.104982 0.006056 0.271007
0.083053 0.000000 0.283266
0.058405 0.000000 0.297712
0.030731 0.000000 0.314400
0.000000 0.000000 0.333324
0.000000 0.000000 0.354420
0.000000 0.000000 0.377566
0.000000 0.000000 0.402582
0.000000 0.000000 0.429226
0.000000 0.000000 0.457200
0.000000 0.000000 0.486148
0.000000 0.000000 0.515653
0.000000 0.000000 0.545241
0.000000 0.000000 0.574380
0.000000 0.000000 0.602476
0.000000 0.000000 0.628879
0.000000 0.000000 0.652882
0.000000 0.000000 0.673714
0.000000 0.000000 0.690552
0.000000 0.000000 0.702508
0.000000 0.000000 0.708639
0.000000 0.000000 0.707943
0.000000 0.000000 0.699359
0.000000 0.000000 0.681767
0.000000 0.000000 0.653989
0.000000 0.000000 0.614786
0.000000 0.000000 0.562865
0.000000 0.000000 0.496870
0.000000 0.000000 0.415388
0.192687 0.029612 0.289600
0.178062 0.034721 0.295118
0.163094 0.037701 0.302067
0.147248 0.038290 0.310730
0.130034 0.036266 0.321333
0.111017 0.031450 0.334042
0.089805 0.023701 0.348964
0.066059 0.012918 0.366148
0.039488 0.000000 0.385584
0.009849 0.000000 0.407203
0.000000 0.000000 0.430879
0.000000 0.000000 0.456425
0.000000 0.000000 0.483597
0.000000 0.000000 0.512093
0.000000 0.000000 0.541549
0.000000 0.000000 0.571546
0.000000 0.000000 0.601604
0.000000 0.000000 0.631185
0.000000 0.000000 0.659694
0.000000 0.000000 0.686475
0.000000 0.000000 0.710813
0.000000 0.000000 0.731938
0.000000 0.000000 0.749016
0.000000 0.000000 0.761160
0.000000 0.000000 0.767420
0.000000 0.000000 0.766788
0.000000 0.000000 0.758201
0.000000 0.000000 0.740532
0.000000 0.000000 0.712598
0.000000 0.000000 0.673159
0.000000 0.000000 0.620913
0.000000 0.000000 0.554502
0.000000 0.000000 0.472507
0.207130 0.052044 0.331287
0.192792 0.057272 0.337006
0.178750 0.061041 0.344197
0.164432 0.063046 0.353139
0.149315 0.063023 0.364053
0.132926 0.060747 0.377099
0.114840 0.056034 0.392381
0.094683 0.048741 0.409943
0.072127 0.038764 0.429770
0.046896 0.026041 0.451790
0.018762 0.010548 0.475869
0.000000 0.000000 0.501818
0.000000 0.000000 0.529387
0.000000 0.000000 0.558269
0.000000 0.000000 0.588097
0.000000 0.000000 0.618446
0.000000 0.000000 0.648831
0.000000 0.000000 0.678712
0.000000 0.000000 0.707486
0.000000 0.000000 0.734493
0.000000 0.000000 0.759016
0.000000 0.000000 0.780276
0.000000 0.000000 0.797439
0.000000 0.000000 0.809609
0.000000 0.000000 0.815833
0.000000 0.000000 0.815101
0.000000 0.000000 0.806340
0.000000 0.000000 0.788423
0.000000 0.000000 0.760160
0.000000 0.000000 0.720307
0.000000 0.000000 0.667558
0.000000 0.000000 0.600548
0.000000 0.000000 0.517856
0.217192 0.071326 0.366409
0.202991 0.076721 0.372230
0.189695 0.081294 0.379563
0.176697 0.084697 0.388680
0.163440 0.086621 0.399798
0.149415 0.086799 0.413074
0.134163 0.085002 0.428604
0.117272 0.081045 0.446430
0.098383 0.074779 0.466531
0.077181 0.066099 0.488830
0.053404 0.054939 0.513191
0.026838 0.041272 0.539417
0.000000 0.025114 0.567255
0.000000 0.006519 0.596394
0.000000 0.000000 0.626460
0.000000 0.000000 0.657025
0.000000 0.000000 0.687601
0.000000 0.000000 0.717639
0.000000 0.000000 0.746534
0.000000 0.000000 0.773622
0.000000 0.000000 0.798179
0.000000 0.000000 0.819424
0.000000 0.000000 0.836516
0.000000 0.000000 0.848555
0.000000 0.000000 0.854585
0.000000 0.000000 0.853588
0.000000 0.000000 0.844490
0.000000 0.000000 0.826156
0.000000 0.000000 0.797395
0.000000 0.000000 0.756955
0.000000 0.000000 0.703525
0.000000 0.000000 0.635739
0.000000 0.000000 0.552168
0.223513 0.087675 0.395723
0.209315 0.093304 0.401552
0.196603 0.098714 0.408929
0.184736 0.103514 0.418121
0.173120 0.107350 0.429341
0.161211 0.109912 0.442739
0.148516 0.110929 0.458411
0.134589 0.110170 0.476390
0.119032 0.107445 0.496652
0.101498 0.102604 0.519115
0.081689 0.095537 0.543637
0.059355 0.086175 0.570020
0.034296 0.074489 0.598003
0.006361 0.060491 0.627271
0.000000 0.044232 0.657447
0.000000 0.025805 0.688097
0.000000 0.005342 0.718727
0.000000 0.000000 0.748785
0.000000 0.000000 0.777662
0.000000 0.000000 0.804687
0.000000 0.000000 0.829134
0.000000 0.000000 0.850215
0.000000 0.000000 0.867085
0.000000 0.000000 0.878841
0.000000 0.000000 0.884519
0.000000 0.000000 0.883100
0.000000 0.000000 0.873502
0.000000 0.000000 0.854589
0.000000 0.000000 0.825161
0.000000 0.000000 0.783964
0.000000 0.000000 0.729683
0.000000 0.000000 0.660945
0.000000 0.000000 0.576318
0.226824 0.101301 0.420124
0.212513 0.107248 0.425871
0.200240 0.113546 0.433197
0.189330 0.119757 0.442369
0.179153 0.125488 0.453591
0.169132 0.130383 0.467012
0.158735 0.134128 0.482719
0.147483 0.136449 0.500744
0.134944 0.137111 0.521057
0.120734 0.135922 0.543572
0.104521 0.132728 0.568142
0.086019 0.127416 0.594562
0.064992 0.119914 0.622571
0.041256 0.110190 0.651845
0.014671 0.098253 0.682005
0.000000 0.084150 0.712610
0.000000 0.067971 0.743164
0.000000 0.049846 0.773109
0.000000 0.029943 0.801830
0.000000 0.008473 0.828654
0.000000 0.000000 0.852848
0.000000 0.000000 0.873621
0.000000 0.000000 0.890122
0.000000 0.000000 0.901445
0.000000 0.000000 0.906620
0.000000 0.000000 0.904623
0.000000 0.000000 0.894368
0.000000 0.000000 0.874713
0.000000 0.000000 0.844457
0.000000 0.000000 0.802337
0.000000 0.000000 0.747036
0.000000 0.000000 0.677175
0.000000 0.000000 0.591319
0.227946 0.112406 0.440649
0.213423 0.118772 0.446225
0.201462 0.126024 0.453412
0.191353 0.133682 0.462469
0.182432 0.141308 0.473599
0.174084 0.148502 0.486943
0.165745 0.154907 0.502586
0.156899 0.160205 0.520554
0.147079 0.164119 0.540812
0.135867 0.166412 0.563269
0.122894 0.166887 0.587775
0.107840 0.165389 0.614120
0.090435 0.161800 0.642037
0.070456 0.156045 0.671198
0.047732 0.148090 0.701219
0.022139 0.137939 0.731656
0.000000 0.125638 0.762005
0.000000 0.111272 0.791707
0.000000 0.094968 0.820140
0.000000 0.076893 0.846628
0.000000 0.057253 0.870431
0.000000 0.036295 0.890755
0.000000 0.014308 0.906744
0.000000 0.000000 0.917486
0.000000 0.000000 0.922010
0.000000 0.000000 0.919283
0.000000 0.000000 0.908217
0.000000 0.000000 0.887665
0.000000 0.000000 0.856419
0.000000 0.000000 0.813216
0.000000 0.000000 0.756729
0.000000 0.000000 0.685578
0.000000 0.000000 0.598321
0.227793 0.121182 0.458471
0.212976 0.128087 0.463793
0.201217 0.136379 0.470754
0.191771 0.145534 0.479608
0.183937 0.155071 0.490553
0.177068 0.164548 0.503727
0.170563 0.173563 0.519208
0.163871 0.181755 0.537019
0.156489 0.188802 0.557120
0.147965 0.194426 0.579415
0.137895 0.198384 0.603749
0.125923 0.200479 0.629908
0.111744 0.200549 0.657619
0.095101 0.198476 0.686552
0.075786 0.194182 0.716316
0.053640 0.187627 0.746463
0.028554 0.178815 0.776485
0.000467 0.167786 0.805816
0.000000 0.154625 0.833833
0.000000 0.139453 0.859851
0.000000 0.122434 0.883130
0.000000 0.103773 0.902867
0.000000 0.083712 0.918205
0.000000 0.062538 0.928225
0.000000 0.040573 0.931950
0.000000 0.018184 0.928347
0.000000 0.000000 0.916319
0.000000 0.000000 0.894716
0.000000 0.000000 0.862326
0.000000 0.000000 0.817879
0.000000 0.000000 0.760047
0.000000 0.000000 0.687442
0.000000 0.000000 0.598618
0.227368 0.127816 0.474904
0.212193 0.135395 0.479892
0.200544 0.144829 0.486544
0.191639 0.155551 0.495110
0.184744 0.167034 0.505783
0.179175 0.178794 0.518695
0.174297 0.190386 0.533921
0.169523 0.201405 0.551479
0.164316 0.211485 0.571323
0.158188 0.220305 0.593355
0.150700 0.227578 0.617413
0.141461 0.233063 0.643279
0.130131 0.236557 0.670676
0.116418 0.237896 0.699268
0.100078 0.236959 0.728660
0.080917 0.233663 0.758400
0.058791 0.227968 0.787974
0.033604 0.219871 0.816813
0.005310 0.209412 0.844287
0.000000 0.196671 0.869708
0.000000 0.181767 0.892331
0.000000 0.164860 0.911349
0.000000 0.146152 0.925898
0.000000 0.125883 0.935057
0.000000 0.104334 0.937844
0.000000 0.081827 0.933219
0.000000 0.058724 0.920083
0.000000 0.035427 0.897280
0.000000 0.012380 0.863593
0.000000 0.000000 0.817748
0.000000 0.000000 0.758412
0.000000 0.000000 0.684192
0.000000 0.000000 0.593639
0.227767 0.132482 0.491401
0.212187 0.140891 0.495979
0.200572 0.151587 0.502243
0.192104 0.163961 0.510439
0.186015 0.177443 0.520754
0.181586 0.191505 0.533318
0.178145 0.205659 0.548200
0.175072 0.219454 0.565411
0.171794 0.232485 0.584905
0.167788 0.244383 0.606575
0.162578 0.254821 0.630257
0.155741 0.263512 0.655727
0.146900 0.270211 0.682704
0.135727 0.274709 0.710847
0.121945 0.276843 0.739756
0.105324 0.276486 0.768974
0.085684 0.273553 0.797984
0.062895 0.268000 0.826211
0.036875 0.259822 0.853021
0.007589 0.249056 0.877721
0.000000 0.235777 0.899560
0.000000 0.220102 0.917729
0.000000 0.202188 0.931358
0.000000 0.182234 0.939520
0.000000 0.160476 0.941231
0.000000 0.137192 0.935443
0.000000 0.112702 0.921056
0.000000 0.087363 0.896907
0.000000 0.061575 0.861775
0.000000 0.035778 0.814380
0.000000 0.010452 0.753386
0.000000 0.000000 0.677396
0.000000 0.000000 0.584954
0.230177 0.135351 0.509554
0.214161 0.144760 0.513649
0.202522 0.156856 0.519450
0.194405 0.170986 0.527197
0.189007 0.186537 0.537075
0.185573 0.202937 0.549207
0.183398 0.219654 0.563658
0.181826 0.236195 0.580435
0.180247 0.252110 0.599486
0.178105 0.266987 0.620701
0.174889 0.280456 0.643910
0.170139 0.292187 0.668884
0.163444 0.301888 0.695339
0.154440 0.309311 0.722927
0.142816 0.314247 0.751246
0.128307 0.316526 0.779833
0.110697 0.316020 0.808166
0.089821 0.312640 0.835665
0.065561 0.306339 0.861693
0.037849 0.297109 0.885551
0.006666 0.284983 0.906484
0.000000 0.270034 0.923677
0.000000 0.252375 0.936256
0.000000 0.232162 0.943291
0.000000 0.209587 0.943790
0.000000 0.184885 0.936704
0.000000 0.158332 0.920926
0.000000 0.130242 0.895288
0.000000 0.100972 0.858566
0.000000 0.070917 0.809475
0.000000 0.040513 0.746673
0.000000 0.010238 0.668759
0.000000 0.000000 0.574273
0.235874 0.136582 0.531095
0.219411 0.147180 0.534637
0.207706 0.160831 0.539903
0.199871 0.176838 0.547128
0.195066 0.194545 0.556491
0.192502 0.213337 0.568111
0.191438 0.232636 0.582049
0.191182 0.251909 0.598307
0.191092 0.270660 0.616828
0.190574 0.288435 0.637496
0.189082 0.304819 0.660138
0.186122 0.319439 0.684522
0.181248 0.331960 0.710356
0.174060 0.342090 0.737289
0.164212 0.349577 0.764914
0.151403 0.354206 0.792762
0.135383 0.355807 0.820309
0.115952 0.354248 0.846970
0.092956 0.349437 0.872100
0.066293 0.341323 0.894999
0.035908 0.329895 0.914905
0.001796 0.315183 0.931000
0.000000 0.297258 0.942405
0.000000 0.276229 0.948184
0.000000 0.252247 0.947342
0.000000 0.225504 0.938824
0.000000 0.196230 0.921518
0.000000 0.164698 0.894254
0.000000 0.131219 0.855800
0.000000 0.096147 0.804869
0.000000 0.059873 0.740112
0.000000 0.022832 0.660125
0.000000 0.000000 0.563443
0.246228 0.136327 0.557893
0.229323 0.148320 0.560818
0.217529 0.163699 0.565481
0.209922 0.181722 0.572113
0.205630 0.201690 0.580887
0.203827 0.222944 0.591920
0.203736 0.244864 0.605265
0.204632 0.266872 0.620922
0.205835 0.288428 0.638828
0.206718 0.309036 0.658864
0.206700 0.328237 0.680851
0.205251 0.345613 0.704551
0.201888 0.360789 0.729669
0.196180 0.373426 0.755850
0.187742 0.383229 0.782680
0.176240 0.389942 0.809688
0.161389 0.393348 0.836343
0.142952 0.393274 0.862056
0.120741 0.389583 0.886179
0.094619 0.382182 0.908005
0.064496 0.371016 0.926768
0.030331 0.356071 0.941646
0.000000 0.337374 0.951755
0.000000 0.314991 0.956154
0.000000 0.289030 0.953844
0.000000 0.259638 0.943764
0.000000 0.227004 0.924799
0.000000 0.191355 0.895773
0.000000 0.152960 0.855450
0.000000 0.112128 0.802538
0.000000 0.069209 0.735684
0.000000 0.024591 0.653479
0.000000 0.000000 0.554452
0.262698 0.134730 0.591960
0.245372 0.148343 0.594205
0.233483 0.165639 0.598200
0.226071 0.185834 0.604171
0.222229 0.208186 0.612288
0.221094 0.231990 0.622660
0.221857 0.256585 0.635339
0.223755 0.281348 0.650317
0.226075 0.305698 0.667528
0.228153 0.329091 0.686848
0.229375 0.351028 0.708093
0.229173 0.371046 0.731021
0.227032 0.388727 0.755332
0.222484 0.403689 0.780666
0.215109 0.415592 0.806606
0.204538 0.424138 0.832674
0.190450 0.429066 0.858336
0.172574 0.430159 0.882997
0.150687 0.427237 0.906004
0.124616 0.420163 0.926648
0.094236 0.408839 0.944156
0.059472 0.393207 0.957702
0.020296 0.373251 0.966397
0.000000 0.348993 0.969295
0.000000 0.320498 0.965393
0.000000 0.287869 0.953627
0.000000 0.251251 0.932874
0.000000 0.210829 0.901954
0.000000 0.166827 0.859629
0.000000 0.119512 0.804599
0.000000 0.069188 0.735509
0.000000 0.016203 0.650943
0.000000 0.000000 0.549427
0.286835 0.131926 0.635443
0.269129 0.147400 0.636951
0.257155 0.166821 0.640217
0.249921 0.189363 0.645465
0.246481 0.214237 0.652857
0.245941 0.240699 0.662500
0.247455 0.268041 0.674440
0.250224 0.295598 0.688665
0.253501 0.322744 0.705105
0.256587 0.348893 0.723629
0.258831 0.373503 0.744050
0.259632 0.396066 0.766122
0.258439 0.416121 0.789539
0.254748 0.433243 0.813936
0.248105 0.447048 0.838892
0.238106 0.457194 0.863925
0.224395 0.463377 0.888495
0.206664 0.465336 0.912003
0.184657 0.462849 0.933792
0.158164 0.455734 0.953146
0.127025 0.443850 0.969291
0.091131 0.427095 0.981393
0.050420 0.405410 0.988559
0.004879 0.378773 0.989841
0.000000 0.347207 0.984227
0.000000 0.310769 0.970651
0.000000 0.269563 0.947985
0.000000 0.223728 0.915045
0.000000 0.173447 0.870586
0.000000 0.118941 0.813306
0.000000 0.060473 0.741844
0.000000 0.000000 0.654779
0.000000 0.000000 0.550633
0.320282 0.128043 0.690631
0.302251 0.145637 0.691347
0.290221 0.167408 0.693828
0.283164 0.192487 0.698292
0.280099 0.220042 0.704898
0.280097 0.249284 0.713746
0.282275 0.279463 0.724880
0.285802 0.309869 0.738282
0.289893 0.339834 0.753876
0.293815 0.368728 0.771529
0.296883 0.395964 0.791048
0.298459 0.420993 0.812182
0.297957 0.443308 0.834620
0.294839 0.462442 0.857995
0.288615 0.477968 0.881878
0.278847 0.489498 0.905783
0.265141 0.496688 0.929167
0.247157 0.499231 0.951425
0.224602 0.496862 0.971895
0.197232 0.489355 0.989858
0.164852 0.476526 1.000000
0.127316 0.458230 1.000000
0.084527 0.434363 1.000000
0.036439 0.404862 1.000000
0.000000 0.369704 1.000000
0.000000 0.328904 0.997217
0.000000 0.282521 0.972518
0.000000 0.230653 0.937433
0.000000 0.173436 0.890714
0.000000 0.111051 0.831055
0.000000 0.043715 0.757088
0.000000 0.000000 0.667390
0.000000 0.000000 0.560477
0.364771 0.123200 0.759952
0.346490 0.143190 0.759825
0.334450 0.167555 0.761467
0.327586 0.195379 0.765091
0.324885 0.225790 0.770851
0.325380 0.257953 0.778844
0.328155 0.291075 0.789107
0.332342 0.324404 0.801619
0.337123 0.357227 0.816299
0.341728 0.388871 0.833008
0.345437 0.418705 0.851550
0.347577 0.446138 0.871668
0.347528 0.470617 0.893048
0.344715 0.491633 0.915317
0.338615 0.508716 0.938041
0.328752 0.521434 0.960731
0.314700 0.529398 0.982837
0.296081 0.532259 1.000000
0.272569 0.529708 1.000000
0.243883 0.521476 1.000000
0.209794 0.507336 1.000000
0.170121 0.487098 1.000000
0.124732 0.460616 1.000000
0.073544 0.427781 1.000000
0.016524 0.388529 1.000000
0.000000 0.342830 1.000000
0.000000 0.290701 1.000000
0.000000 0.232194 0.971643
0.000000 0.167405 0.922542
0.000000 0.096468 0.860377
0.000000 0.019558 0.783778
0.000000 0.000000 0.691315
0.000000 0.000000 0.581501
0.422126 0.117507 0.845973
0.403687 0.140188 0.844956
0.391699 0.167405 0.845708
0.385064 0.198202 0.848440
0.382732 0.231660 0.853300
0.383703 0.266903 0.860379
0.387023 0.303094 0.869711
0.391792 0.339436 0.881269
0.397154 0.375174 0.894968
0.402305 0.409591 0.910666
0.406490 0.442013 0.928159
0.409002 0.471804 0.947188
0.409184 0.498369 0.967433
0.406426 0.521155 0.988516
0.400171 0.539648 1.000000
0.389906 0.553373 1.000000
0.375171 0.561898 1.000000
0.355555 0.564829 1.000000
0.330692 0.561815 1.000000
0.300270 0.552543 1.000000
0.264023 0.536741 1.000000
0.221735 0.514178 1.000000
0.173239 0.484662 1.000000
0.118417 0.448044 1.000000
0.057200 0.404212 1.000000
0.000000 0.353096 1.000000
0.000000 0.294667 1.000000
0.000000 0.228936 1.000000
0.000000 0.155953 0.968739
0.000000 0.075810 0.903947
0.000000 0.000000 0.824590
0.000000 0.000000 0.729236
0.000000 0.000000 0.616391
0.494264 0.111068 0.951398
0.475774 0.136750 0.949448
0.463919 0.167098 0.949265
0.457565 0.201111 0.951055
0.455625 0.237827 0.954963
0.457066 0.276325 0.961075
0.460899 0.315727 0.969419
0.466186 0.355191 0.979964
0.472039 0.393918 0.992620
0.477618 0.431149 1.000000
0.482132 0.466164 1.000000
0.484839 0.498286 1.000000
0.485047 0.526877 1.000000
0.482112 0.551338 1.000000
0.475439 0.571111 1.000000
0.464484 0.585681 1.000000
0.448749 0.594570 1.000000
0.427786 0.597341 1.000000
0.401199 0.593600 1.000000
0.368637 0.582989 1.000000
0.329799 0.565194 1.000000
0.284436 0.539939 1.000000
0.232344 0.506991 1.000000
0.173371 0.466154 1.000000
0.107411 0.417276 1.000000
0.034411 0.360241 1.000000
0.000000 0.294978 1.000000
0.000000 0.221453 1.000000
0.000000 0.139673 1.000000
0.000000 0.049687 0.964575
0.000000 0.000000 0.882340
0.000000 0.000000 0.783971
0.000000 0.000000 0.667968
0.583191 0.103976 1.000000
0.564777 0.132989 1.000000
0.553152 0.166763 1.000000
0.547146 0.204252 1.000000
0.545640 0.244453 1.000000
0.547563 0.286401 1.000000
0.551891 0.329173 1.000000
0.557653 0.371884 1.000000
0.563923 0.413692 1.000000
0.569828 0.453795 1.000000
0.574540 0.491429 1.000000
0.577284 0.525873 1.000000
0.577332 0.556444 1.000000
0.574003 0.582502 1.000000
0.566670 0.603446 1.000000
0.554751 0.618715 1.000000
0.537714 0.627789 1.000000
0.515077 0.630188 1.000000
0.486407 0.625472 1.000000
0.451318 0.613241 1.000000
0.409476 0.593139 1.000000
0.360594 0.564845 1.000000
0.304434 0.528081 1.000000
0.240809 0.482610 1.000000
0.169579 0.428235 1.000000
0.090654 0.364798 1.000000
0.003993 0.292182 1.000000
0.000000 0.210312 1.000000
0.000000 0.119150 1.000000
0.000000 0.018703 1.000000
0.000000 0.000000 0.959983
0.000000 0.000000 0.858478
0.000000 0.000000 0.739196
0.691004 0.096317 1.000000
0.672809 0.129008 1.000000
0.661529 0.166520 1.000000
0.655959 0.207765 1.000000
0.654944 0.251696 1.000000
0.657378 0.297304 1.000000
0.662203 0.343623 1.000000
0.668411 0.389725 1.000000
0.675043 0.434724 1.000000
0.681189 0.477774 1.000000
0.685987 0.518068 1.000000
0.688627 0.554841 1.000000
0.688343 0.587367 1.000000
0.684424 0.614963 1.000000
0.676203 0.636983 1.000000
0.663065 0.652824 1.000000
0.644443 0.661921 1.000000
0.619819 0.663751 1.000000
0.588725 0.657832 1.000000
0.550741 0.643719 1.000000
0.505497 0.621012 1.000000
0.452670 0.589347 1.000000
0.391989 0.548404 1.000000
0.323229 0.497900 1.000000
0.246216 0.437596 1.000000
0.160826 0.367289 1.000000
0.066982 0.286821 1.000000
0.000000 0.196072 1.000000
0.000000 0.094961 1.000000
0.000000 0.000000 1.000000
0.000000 0.000000 1.000000
0.000000 0.000000 0.955855
0.000000 0.000000 0.833174
0.819892 0.088170 1.000000
0.802077 0.124902 1.000000
0.791273 0.166482 1.000000
0.786243 0.211780 1.000000
0.785794 0.259703 1.000000
0.788786 0.309200 1.000000
0.794126 0.359261 1.000000
0.800771 0.408914 1.000000
0.807726 0.457231 1.000000
0.814046 0.503320 1.000000
0.818834 0.546333 1.000000
0.821245 0.585461 1.000000
0.820478 0.619934 1.000000
0.815786 0.649025 1.000000
0.806468 0.672046 1.000000
0.791874 0.688348 1.000000
0.771400 0.697324 1.000000
0.744495 0.698408 1.000000
0.710655 0.691073 1.000000
0.669423 0.674832 1.000000
0.620396 0.649241 1.000000
0.563216 0.613892 1.000000
0.497575 0.568422 1.000000
0.423216 0.512504 1.000000
0.339927 0.445856 1.000000
0.247549 0.368232 1.000000
0.145970 0.279429 1.000000
0.035129 0.179283 1.000000
0.000000 0.067671 1.000000
0.000000 0.000000 1.000000
0.000000 0.000000 1.000000
0.000000 0.000000 1.000000
0.000000 0.000000 0.953144
0.972136 0.079604 1.000000
0.954878 0.120758 1.000000
0.944701 0.166755 1.000000
0.940330 0.216418 1.000000
0.940540 0.268613 1.000000
0.944154 0.322245 1.000000
0.950044 0.376260 1.000000
0.957133 0.429643 1.000000
0.964389 0.481422 1.000000
0.970833 0.530662 1.000000
0.975534 0.576471 1.000000
0.977609 0.617996 1.000000
0.976224 0.654425 1.000000
0.970596 0.684986 1.000000
0.959989 0.708947 1.000000
0.943717 0.725618 1.000000
0.921143 0.734348 1.000000
0.891679 0.734525 1.000000
0.854786 0.725580 1.000000
0.809973 0.706983 1.000000
0.756800 0.678245 1.000000
0.694875 0.638917 1.000000
0.623856 0.588590 1.000000
0.543448 0.526895 1.000000
0.453406 0.453505 1.000000
0.353535 0.368132 1.000000
0.243689 0.270528 1.000000
