public/luts/cinestill_800.cube
# Generated from ColorChecker fit
LUT_3D_SIZE 9
DOMAIN_MIN 0.0 0.0 0.0
DOMAIN_MAX 1.0 1.0 1.0
0.153868 0.000000 0.085080
0.050852 0.000000 0.000000
0.000000 0.000000 0.000000
0.000000 0.032498 0.045719
0.000000 0.146447 0.194093
0.000000 0.281475 0.417803
0.000000 0.402720 0.723947
0.000000 0.444073 1.000000
0.000000 0.308183 1.000000
0.083001 0.000000 0.206478
0.009513 0.000000 0.107535
0.000000 0.000000 0.101855
0.000000 0.000000 0.167139
0.000000 0.000000 0.287981
0.000000 0.000000 0.455870
0.000000 0.000000 0.669193
0.000000 0.000000 0.933229
0.000000 0.000000 1.000000
0.000000 0.000000 0.194532
0.000000 0.000000 0.109898
0.000000 0.000000 0.120404
0.000000 0.000000 0.195038
0.000000 0.000000 0.309683
0.000000 0.000000 0.447119
0.000000 0.000000 0.597019
0.000000 0.000000 0.755952
0.000000 0.000000 0.927382
0.000000 0.129918 0.047362
0.000000 0.153713 0.000000
0.000000 0.107505 0.031853
0.000000 0.052900 0.135945
0.000000 0.020257 0.268533
0.000000 0.008690 0.403685
0.000000 0.000000 0.522363
0.000000 0.000000 0.612423
0.000000 0.000000 0.668620
0.000000 0.361801 0.000000
0.000000 0.397290 0.000000
0.000000 0.361531 0.000000
0.000000 0.317040 0.020667
0.000000 0.295088 0.198140
0.000000 0.295701 0.361980
0.000000 0.287662 0.484438
0.000000 0.208506 0.544660
0.000000 0.000000 0.528689
0.000000 0.369073 0.000000
0.000000 0.447997 0.000000
0.000000 0.455172 0.000000
0.000000 0.454025 0.000000
0.000000 0.476740 0.156386
0.007980 0.524252 0.382689
0.053418 0.566256 0.546734
0.002468 0.541200 0.618956
0.000000 0.356289 0.576684
0.000000 0.000000 0.000000
0.000000 0.021747 0.000000
0.000000 0.106859 0.000000
0.000000 0.184805 0.000000
0.000000 0.288678 0.225433
0.000000 0.420328 0.550777
0.085059 0.550357 0.797018
0.062232 0.618128 0.925877
0.000000 0.531754 0.905976
0.000000 0.000000 0.000000
0.000000 0.000000 0.000000
0.000000 0.000000 0.000000
0.000000 0.000000 0.009913
0.000000 0.000000 0.511716
0.000000 0.000000 0.975482
0.000000 0.000000 1.000000
0.013136 0.086609 1.000000
0.000000 0.140763 1.000000
0.000000 0.000000 0.000000
0.000000 0.000000 0.000000
0.000000 0.000000 0.000000
0.000000 0.000000 0.463465
0.000000 0.000000 1.000000
0.000000 0.000000 1.000000
0.000000 0.000000 1.000000
0.000000 0.000000 1.000000
0.000000 0.000000 1.000000
0.466853 0.000000 0.250827
0.350103 0.164265 0.051941
0.227019 0.286177 0.000000
0.120012 0.409459 0.000000
0.043551 0.561836 0.016284
0.004167 0.739786 0.165145
0.000450 0.908546 0.398490
0.023048 1.000000 0.729129
0.054671 0.923208 1.000000
0.410222 0.030545 0.401402
0.313183 0.120766 0.215602
0.214414 0.151513 0.133175
0.132126 0.182665 0.130639
0.076592 0.242858 0.191407
0.050144 0.329483 0.305786
0.047171 0.408686 0.470978
0.054125 0.415368 0.691083
0.049516 0.253187 0.977093
0.300965 0.189687 0.426999
0.238240 0.218705 0.259864
0.176793 0.187116 0.201308
0.130638 0.155713 0.219138
0.105848 0.154042 0.288054
0.100556 0.180405 0.389653
0.104954 0.201860 0.512427
0.101295 0.154219 0.651762
0.063891 0.000000 0.809940
0.138852 0.434154 0.323465
0.126865 0.432571 0.183377
0.117570 0.369996 0.161105
0.120781 0.308130 0.215744
0.138373 0.277432 0.313283
0.164281 0.277115 0.426608
0.184499 0.275148 0.535499
0.177080 0.208255 0.626632
0.112137 0.000000 0.693577
0.000000 0.652214 0.110922
0.000000 0.653152 0.009067
0.023356 0.593456 0.038295
0.090988 0.535738 0.148990
0.164423 0.511368 0.298430
0.233395 0.520472 0.450789
0.279702 0.531928 0.577136
0.277197 0.483372 0.655436
0.191795 0.281197 0.670548
0.000000 0.648434 0.000000
0.000000 0.687532 0.000000
0.000000 0.667098 0.000000
0.012889 0.650657 0.071683
0.157448 0.670490 0.299103
0.283171 0.727631 0.520608
0.367657 0.791873 0.698553
0.380561 0.801763 0.802193
0.283600 0.664603 0.807675
0.000000 0.143674 0.000000
0.000000 0.259090 0.000000
0.000000 0.316822 0.000000
0.000000 0.381305 0.060905
0.074096 0.485730 0.395190
0.272077 0.632046 0.718754
0.408654 0.790955 0.985242
0.449285 0.901916 1.000000
0.351487 0.873141 1.000000
0.000000 0.000000 0.000000
0.000000 0.000000 0.000000
0.000000 0.000000 0.000000
0.000000 0.000000 0.218017
0.000000 0.000000 0.690852
0.141782 0.000000 1.000000
0.346184 0.181442 1.000000
0.428679 0.438617 1.000000
0.342586 0.564116 1.000000
0.000000 0.000000 0.000000
0.000000 0.000000 0.000000
0.000000 0.000000 0.085212
0.000000 0.000000 0.668653
0.000000 0.000000 1.000000
0.000000 0.000000 1.000000
0.106931 0.000000 1.000000
0.247250 0.000000 1.000000
0.187227 0.000000 1.000000
0.697728 0.051254 0.428890
0.559185 0.261449 0.145661
0.421353 0.414188 0.000000
0.308785 0.568540 0.000000
0.238095 0.752325 0.000000
0.217957 0.962122 0.000000
0.249102 1.000000 0.126512
0.324324 1.000000 0.386940
0.428474 1.000000 0.762585
0.666610 0.153757 0.598835
0.533329 0.247021 0.329090
0.406100 0.282557 0.171360
0.305280 0.320343 0.100978
0.243283 0.389112 0.100176
0.224584 0.486354 0.158080
0.245716 0.578314 0.270710
0.295275 0.599990 0.440982
0.353912 0.455139 0.678706
0.577194 0.346208 0.651737
0.464776 0.354525 0.397393
0.362157 0.305586 0.263598
0.285495 0.260281 0.216976
0.243006 0.248253 0.231047
0.234966 0.267903 0.286225
0.253710 0.286387 0.369819
0.283634 0.239617 0.476034
0.301193 0.032259 0.605969
0.432567 0.608048 0.581170
0.358434 0.565920 0.346944
0.296253 0.467753 0.245833
0.257980 0.375346 0.235751
0.247635 0.319257 0.281505
0.261295 0.298796 0.354798
0.287097 0.282031 0.434229
0.305238 0.205784 0.505290
0.287974 0.000000 0.560370
0.219011 0.835010 0.404981
0.202407 0.779457 0.198395
0.198311 0.669827 0.141521
0.214481 0.568829 0.183561
0.250738 0.507933 0.280611
0.298961 0.487360 0.395664
0.343088 0.476089 0.498606
0.359117 0.411854 0.566219
0.315107 0.201145 0.582180
0.000000 0.839126 0.165297
0.000000 0.809688 0.000000
0.041455 0.728877 0.000000
0.129943 0.660316 0.110938
0.229081 0.636384 0.281701
0.326551 0.658216 0.464960
0.402091 0.695702 0.621891
0.427503 0.687485 0.720564
0.366644 0.540968 0.735945
0.000000 0.348727 0.000000
0.000000 0.387458 0.000000
0.000000 0.378267 0.000000
0.000000 0.385689 0.092692
0.142627 0.443013 0.362387
0.305848 0.552285 0.643102
0.427712 0.684306 0.887302
0.475820 0.778632 1.000000
0.409833 0.743576 1.000000
0.000000 0.000000 0.000000
0.000000 0.000000 0.000000
0.000000 0.000000 0.000000
0.000000 0.000000 0.227909
0.000000 0.000000 0.624556
0.181835 0.000000 1.000000
0.366754 0.101636 1.000000
0.452695 0.347548 1.000000
0.395120 0.473740 1.000000
0.000000 0.000000 0.000000
0.000000 0.000000 0.000000
0.000000 0.000000 0.177538
0.000000 0.000000 0.639947
0.000000 0.000000 1.000000
0.000000 0.000000 1.000000
0.149216 0.000000 1.000000
0.289947 0.000000 1.000000
0.256147 0.000000 1.000000
0.862928 0.000000 0.579295
0.719505 0.176624 0.243994
0.580484 0.390116 0.020044
0.472562 0.601404 0.000000
0.414495 0.838409 0.000000
0.417100 1.000000 0.000000
0.483253 1.000000 0.000000
0.607888 1.000000 0.212153
0.778001 1.000000 0.537795
0.883263 0.115957 0.778251
0.726021 0.239473 0.449214
0.579261 0.302950 0.239362
0.465481 0.366465 0.122849
0.399240 0.458849 0.080723
0.387156 0.577691 0.100928
0.427906 0.689332 0.178302
0.512225 0.728871 0.314579
0.622912 0.600162 0.518387
0.837987 0.392923 0.867670
0.683525 0.400975 0.543148
0.544029 0.351065 0.349676
0.437801 0.304179 0.252696
0.375199 0.290060 0.224547
0.358643 0.307208 0.244458
0.382612 0.322875 0.298559
0.433645 0.273072 0.379871
0.490338 0.062563 0.488312
0.733501 0.719564 0.838851
0.600238 0.650555 0.519897
0.484833 0.526403 0.347890
0.401385 0.409006 0.279560
0.356057 0.329019 0.278532
0.347069 0.285852 0.315328
0.364701 0.247670 0.367364
0.391294 0.151393 0.418950
0.401247 0.000000 0.461293
0.559401 0.999084 0.707368
0.467580 0.893932 0.397840
0.394910 0.737202 0.255185
0.351294 0.591703 0.227422
0.338696 0.489001 0.269466
0.351136 0.429416 0.343127
0.374697 0.382027 0.417108
0.387521 0.284664 0.467010
0.359807 0.043916 0.475327
0.288482 1.000000 0.513073
0.260166 0.953123 0.219630
0.250699 0.807996 0.117018
0.265788 0.679321 0.144543
0.303196 0.599575 0.248411
0.352746 0.569990 0.381718
0.396323 0.560553 0.504458
0.407868 0.510010 0.583520
0.353385 0.325858 0.592688
0.000000 0.611048 0.320091
0.000000 0.566440 0.052196
0.011834 0.479617 0.003120
0.106321 0.415210 0.103458
0.212834 0.406609 0.290704
0.316997 0.455957 0.509243
0.396497 0.534153 0.710359
0.421077 0.580851 0.852228
0.352542 0.504463 0.899923
0.000000 0.000000 0.216827
0.000000 0.000000 0.000000
0.000000 0.000000 0.007500
0.000000 0.000000 0.200978
0.014084 0.000000 0.495959
0.192186 0.000000 0.828119
0.325339 0.000000 1.000000
0.379087 0.166907 1.000000
0.311038 0.251969 1.000000
0.000000 0.000000 0.315957
0.000000 0.000000 0.138755
0.000000 0.000000 0.248441
0.000000 0.000000 0.558188
0.000000 0.000000 0.988065
0.000000 0.000000 1.000000
0.116161 0.000000 1.000000
0.217034 0.000000 1.000000
0.165831 0.000000 1.000000
0.882402 0.000000 0.589445
0.775988 0.000000 0.256085
0.674312 0.163109 0.036450
0.606215 0.486033 0.000000
0.592597 0.826899 0.000000
0.646417 1.000000 0.000000
0.772693 1.000000 0.032226
0.968505 1.000000 0.244350
1.000000 1.000000 0.563719
0.994796 0.000000 0.846504
0.850848 0.039372 0.504566
0.718458 0.182773 0.287516
0.622266 0.319943 0.168325
0.578975 0.479812 0.126860
0.597344 0.660066 0.149882
0.678196 0.827146 0.231047
0.814408 0.916247 0.370906
0.990922 0.831323 0.576907
1.000000 0.263181 1.000000
0.868739 0.320236 0.645171
0.721635 0.314564 0.429325
0.611755 0.307252 0.317821
0.551602 0.328139 0.281815
0.545737 0.375824 0.299356
0.590783 0.417658 0.355389
0.675422 0.389749 0.441756
0.780393 0.196961 0.557190
1.000000 0.722987 1.000000
0.841195 0.669591 0.669729
0.697201 0.557891 0.456507
0.589861 0.449885 0.358141
0.527478 0.376325 0.337076
0.510416 0.336719 0.362649
0.531099 0.299330 0.411096
0.574009 0.201179 0.465544
0.615690 0.000000 0.516017
0.906631 1.000000 0.983283
0.762950 1.000000 0.594344
0.641710 0.828457 0.387969
0.554958 0.666065 0.310995
0.506799 0.545109 0.317156
0.493398 0.466008 0.367077
0.502981 0.397939 0.428283
0.515832 0.278830 0.475190
0.504294 0.015369 0.489111
0.711832 1.000000 0.861747
0.611933 1.000000 0.459394
0.534913 0.958263 0.266893
0.488619 0.790310 0.222369
0.472959 0.671528 0.270843
0.479900 0.603248 0.364231
0.493467 0.555557 0.461345
0.489747 0.467296 0.527892
0.436886 0.246062 0.536471
0.380506 0.947713 0.739504
0.349271 0.841944 0.329536
0.339758 0.695608 0.160737
0.355615 0.573437 0.162522
0.392550 0.508917 0.271201
0.438333 0.504291 0.429977
0.472791 0.530555 0.588952
0.467811 0.527463 0.705120
0.387341 0.403524 0.742372
0.000000 0.000000 0.702683
0.000000 0.000000 0.293701
0.002392 0.000000 0.161236
0.103912 0.000000 0.225993
0.215361 0.000000 0.415569
0.320309 0.000000 0.664458
0.394384 0.000000 0.914049
0.405276 0.136517 1.000000
0.312734 0.167457 1.000000
0.000000 0.000000 0.861687
0.000000 0.000000 0.465095
0.000000 0.000000 0.384400
0.000000 0.000000 0.531593
0.000000 0.000000 0.825563
0.060634 0.000000 1.000000
0.194875 0.000000 1.000000
0.240593 0.000000 1.000000
0.153337 0.000000 1.000000
0.579615 0.000000 0.274122
0.577071 0.000000 0.018457
0.576248 0.000000 0.000000
0.608130 0.086722 0.000000
0.695760 0.610923 0.000000
0.854240 1.000000 0.000000
1.000000 1.000000 0.172984
1.000000 1.000000 0.450493
1.000000 1.000000 0.829058
0.839339 0.000000 0.637824
0.770915 0.000000 0.351117
0.711769 0.000000 0.193532
0.688686 0.066006 0.136858
0.720511 0.366059 0.159779
0.818147 0.676369 0.247873
0.984559 0.963474 0.393616
1.000000 1.000000 0.596375
1.000000 1.000000 0.862417
1.000000 0.000000 0.905708
0.898187 0.000000 0.578883
0.797718 0.073413 0.399705
0.735075 0.175658 0.331250
0.724904 0.297480 0.343491
0.773910 0.437572 0.413297
0.880860 0.563388 0.524430
1.000000 0.611131 0.667547
1.000000 0.485764 0.840203
1.000000 0.458913 1.000000
0.973738 0.492455 0.691310
0.850766 0.460476 0.488294
0.765788 0.425072 0.409845
0.729252 0.417094 0.417225
0.743664 0.436147 0.478591
0.803591 0.450595 0.568993
0.895659 0.397553 0.670379
0.998553 0.182896 0.771591
1.000000 1.000000 1.000000
0.995615 0.989886 0.702225
0.870783 0.862783 0.475931
0.782517 0.739936 0.392079
0.737066 0.653109 0.403219
0.732740 0.602819 0.468796
0.759905 0.558339 0.555150
0.800991 0.457697 0.635518
0.830482 0.207679 0.690029
1.000000 1.000000 1.000000
0.945062 1.000000 0.649736
0.840832 1.000000 0.403525
0.770147 0.962235 0.321662
0.735056 0.850028 0.347985
0.729669 0.784608 0.433228
0.740155 0.736158 0.535021
0.744745 0.643620 0.617886
0.713726 0.414688 0.653244
0.868994 1.000000 1.000000
0.786519 1.000000 0.596222
0.727179 0.987294 0.336261
0.696763 0.850252 0.266583
0.693126 0.768652 0.322315
0.706177 0.744833 0.445482
0.717889 0.749890 0.584999
0.702291 0.723676 0.696681
0.625474 0.574796 0.743234
0.477092 0.284415 1.000000
0.467628 0.227853 0.628342
0.479281 0.137323 0.363597
0.513647 0.078566 0.319102
0.564379 0.086077 0.421274
0.617189 0.163109 0.603423
0.649851 0.281668 0.805757
0.632196 0.382516 0.975377
0.526117 0.375172 1.000000
0.000000 0.000000 1.000000
0.000000 0.000000 0.857028
0.029798 0.000000 0.599270
0.155278 0.000000 0.595760
0.285116 0.000000 0.764202
0.400827 0.000000 1.000000
0.475986 0.000000 1.000000
0.476225 0.000000 1.000000
0.359238 0.000000 1.000000
0.000000 0.000000 0.000000
0.000000 0.000000 0.000000
0.063221 0.000000 0.000000
0.280209 0.000000 0.000000
0.550860 0.000000 0.000000
0.892419 0.772957 0.000000
1.000000 1.000000 0.293348
1.000000 1.000000 0.724922
1.000000 1.000000 1.000000
0.158537 0.000000 0.000000
0.252839 0.000000 0.000000
0.350787 0.000000 0.000000
0.481307 0.000000 0.000000
0.665389 0.000000 0.028047
0.916079 0.455805 0.265210
1.000000 0.956352 0.558057
1.000000 1.000000 0.904775
1.000000 1.000000 1.000000
0.538117 0.000000 0.362553
0.553153 0.000000 0.147084
0.578534 0.000000 0.085355
0.638990 0.000000 0.139262
0.751310 0.019387 0.277595
0.924342 0.342590 0.476040
1.000000 0.639031 0.717178
1.000000 0.845015 0.990484
1.000000 0.865601 1.000000
0.836632 0.000000 0.706161
0.793816 0.000000 0.406887
0.766450 0.018734 0.287239
0.775064 0.147975 0.300400
0.832249 0.293564 0.406449
0.942657 0.455207 0.572361
1.000000 0.601363 0.772005
1.000000 0.669247 0.986146
1.000000 0.564832 1.000000
1.000000 0.562699 0.953396
0.976188 0.638402 0.563183
0.917715 0.645686 0.382510
0.894532 0.647656 0.355851
0.915034 0.676170 0.434572
0.979670 0.731847 0.576939
1.000000 0.784056 0.748107
1.000000 0.770925 0.920131
1.000000 0.599337 1.000000
1.000000 1.000000 1.000000
1.000000 1.000000 0.651801
1.000000 1.000000 0.409802
0.985597 1.000000 0.347052
0.989685 1.000000 0.406206
1.000000 1.000000 0.536816
1.000000 1.000000 0.695330
1.000000 1.000000 0.845090
1.000000 0.831158 0.956332
1.000000 1.000000 1.000000
1.000000 1.000000 0.732851
1.000000 1.000000 0.432026
1.000000 1.000000 0.339716
1.000000 1.000000 0.389864
1.000000 1.000000 0.523312
1.000000 1.000000 0.687795
1.000000 1.000000 0.837945
1.000000 1.000000 0.935286
0.958793 0.649473 1.000000
0.935137 0.631255 0.890715
0.931395 0.574209 0.536368
0.951306 0.544174 0.423831
0.990666 0.575744 0.478339
1.000000 0.672268 0.632020
1.000000 0.805853 0.823900
1.000000 0.917358 0.999897
0.980609 0.916401 1.000000
0.509025 0.000000 1.000000
0.561907 0.000000 1.000000
0.631833 0.000000 0.834288
0.718341 0.000000 0.713663
0.813028 0.000000 0.788698
0.899554 0.000000 0.982812
0.953634 0.000000 1.000000
0.943045 0.000000 1.000000
0.827624 0.075391 1.000000
0.000000 0.000000 0.000000
0.000000 0.000000 0.000000
0.000000 0.000000 0.000000
0.000000 0.000000 0.000000
0.000000 0.000000 0.000000
0.516320 0.000000 0.000000
1.000000 0.926756 0.193299
1.000000 1.000000 0.889354
1.000000 1.000000 1.000000
0.000000 0.000000 0.000000
0.000000 0.000000 0.000000
0.000000 0.000000 0.000000
0.000000 0.000000 0.000000
0.158666 0.000000 0.000000
0.661169 0.000000 0.000000
1.000000 0.550135 0.543799
1.000000 1.000000 1.000000
1.000000 1.000000 1.000000
0.000000 0.000000 0.000000
0.000000 0.000000 0.000000
0.000000 0.000000 0.000000
0.058249 0.000000 0.000000
0.390541 0.000000 0.000000
0.781726 0.000000 0.304724
1.000000 0.409873 0.772512
1.000000 0.885516 1.000000
1.000000 1.000000 1.000000
0.000000 0.000000 0.000000
0.000892 0.000000 0.000000
0.168689 0.000000 0.000000
0.367099 0.000000 0.000000
0.610856 0.000000 0.119594
0.906753 0.151282 0.480546
1.000000 0.537849 0.878457
1.000000 0.831306 1.000000
1.000000 0.937723 1.000000
0.328176 0.000000 0.214887
0.418799 0.000000 0.000000
0.521608 0.000000 0.000000
0.655080 0.109878 0.014867
0.829750 0.363779 0.245513
1.000000 0.631409 0.547542
1.000000 0.882239 0.884929
1.000000 1.000000 1.000000
1.000000 1.000000 1.000000
0.712587 0.327645 0.670346
0.760030 0.533913 0.254117
0.822312 0.668757 0.095989
0.913710 0.796291 0.130542
1.000000 0.949386 0.299248
1.000000 1.000000 0.550479
1.000000 1.000000 0.839499
1.000000 1.000000 1.000000
1.000000 1.000000 1.000000
0.963515 0.869283 1.000000
0.995654 1.000000 0.547398
1.000000 1.000000 0.277749
1.000000 1.000000 0.233376
1.000000 1.000000 0.347041
1.000000 1.000000 0.558403
1.000000 1.000000 0.814016
1.000000 1.000000 1.000000
1.000000 1.000000 1.000000
1.000000 0.574061 1.000000
1.000000 0.696083 0.908242
1.000000 0.770361 0.528712
1.000000 0.862831 0.411083
1.000000 1.000000 0.479408
1.000000 1.000000 0.664633
1.000000 1.000000 0.904601
1.000000 1.000000 1.000000
1.000000 1.000000 1.000000
0.857907 0.000000 1.000000
0.950353 0.000000 1.000000
1.000000 0.000000 0.958067
1.000000 0.000000 0.775655
1.000000 0.000000 0.811143
1.000000 0.097214 0.986766
1.000000 0.457832 1.000000
1.000000 0.805458 1.000000
1.000000 1.000000 1.000000
0.000000 0.000000 0.000000
0.000000 0.000000 0.000000
0.000000 0.000000 0.000000
0.000000 0.000000 0.000000
0.000000 0.000000 0.000000
0.000000 0.000000 0.000000
0.502247 0.000000 0.000000
1.000000 0.973386 0.692886
1.000000 1.000000 1.000000
0.000000 0.000000 0.000000
0.000000 0.000000 0.000000
0.000000 0.000000 0.000000
0.000000 0.000000 0.000000
0.000000 0.000000 0.000000
0.000000 0.000000 0.000000
0.672546 0.000000 0.097648
1.000000 0.556452 1.000000
1.000000 1.000000 1.000000
0.000000 0.000000 0.000000
0.000000 0.000000 0.000000
0.000000 0.000000 0.000000
0.000000 0.000000 0.000000
0.000000 0.000000 0.000000
0.034272 0.000000 0.000000
0.821627 0.000000 0.456687
1.000000 0.413066 1.000000
1.000000 1.000000 1.000000
0.000000 0.000000 0.000000
0.000000 0.000000 0.000000
0.000000 0.000000 0.000000
0.000000 0.000000 0.000000
0.000000 0.000000 0.000000
0.338829 0.000000 0.000000
0.983387 0.000000 0.674054
1.000000 0.585093 1.000000
1.000000 1.000000 1.000000
0.000000 0.000000 0.000000
0.000000 0.000000 0.000000
0.000000 0.000000 0.000000
0.000000 0.000000 0.000000
0.173782 0.000000 0.000000
0.655907 0.000000 0.164020
1.000000 0.546349 0.770769
1.000000 1.000000 1.000000
1.000000 1.000000 1.000000
0.000000 0.000000 0.000000
0.000000 0.000000 0.000000
0.000000 0.000000 0.000000
0.236743 0.000000 0.000000
0.594915 0.297393 0.000000
0.983979 0.778177 0.277082
1.000000 1.000000 0.792131
1.000000 1.000000 1.000000
1.000000 1.000000 1.000000
0.000000 0.000000 0.235791
0.157973 0.000000 0.000000
0.413160 0.221806 0.000000
0.687815 0.585826 0.000000
0.986220 0.974315 0.000000
1.000000 1.000000 0.373068
1.000000 1.000000 0.807713
1.000000 1.000000 1.000000
1.000000 1.000000 1.000000
0.337599 0.000000 1.000000
0.563677 0.034440 0.435728
0.797201 0.366712 0.117173
1.000000 0.704301 0.079142
1.000000 1.000000 0.244504
1.000000 1.000000 0.543024
1.000000 1.000000 0.911362
1.000000 1.000000 1.000000
1.000000 1.000000 1.000000
0.524131 0.000000 1.000000
0.760863 0.000000 1.000000
1.000000 0.000000 0.766598
1.000000 0.000000 0.599469
1.000000 0.236234 0.671010
1.000000 0.736805 0.902272
1.000000 1.000000 1.000000
1.000000 1.000000 1.000000
1.000000 1.000000 1.000000
