public/luts/cinestill_50d.cube
# Generated from ColorChecker fit
LUT_3D_SIZE 9
DOMAIN_MIN 0.0 0.0 0.0
DOMAIN_MAX 1.0 1.0 1.0
0.038753 0.000000 0.000000
0.000000 0.000000 0.000000
0.000000 0.000000 0.035493
0.000000 0.000000 0.117561
0.000000 0.000000 0.219801
0.000000 0.000000 0.314922
0.000000 0.000000 0.360615
0.000000 0.000000 0.299552
0.000000 0.000000 0.059389
0.173315 0.003803 0.240731
0.104982 0.006056 0.271007
0.000000 0.000000 0.333324
0.000000 0.000000 0.429226
0.000000 0.000000 0.545241
0.000000 0.000000 0.652882
0.000000 0.000000 0.708639
0.000000 0.000000 0.653989
0.000000 0.000000 0.415388
0.223513 0.087675 0.395723
0.173120 0.107350 0.429341
0.119032 0.107445 0.496652
0.034296 0.074489 0.598003
0.000000 0.005342 0.718727
0.000000 0.000000 0.829134
0.000000 0.000000 0.884519
0.000000 0.000000 0.825161
0.000000 0.000000 0.576318
0.227368 0.127816 0.474904
0.184744 0.167034 0.505783
0.164316 0.211485 0.571323
0.130131 0.236557 0.670676
0.058791 0.227968 0.787974
0.000000 0.181767 0.892331
0.000000 0.104334 0.937844
0.000000 0.012380 0.863593
0.000000 0.000000 0.593639
0.246228 0.136327 0.557893
0.205630 0.201690 0.580887
0.205835 0.288428 0.638828
0.201888 0.360789 0.729669
0.161389 0.393348 0.836343
0.064496 0.371016 0.926768
0.000000 0.289030 0.953844
0.000000 0.152960 0.855450
0.000000 0.000000 0.554452
0.364771 0.123200 0.759952
0.324885 0.225790 0.770851
0.337123 0.357227 0.816299
0.347528 0.470617 0.893048
0.314700 0.529398 0.982837
0.209794 0.507336 1.000000
0.016524 0.388529 1.000000
0.000000 0.167405 0.922542
0.000000 0.000000 0.581501
0.691004 0.096317 1.000000
0.654944 0.251696 1.000000
0.675043 0.434724 1.000000
0.688343 0.587367 1.000000
0.644443 0.661921 1.000000
0.505497 0.621012 1.000000
0.246216 0.437596 1.000000
0.000000 0.094961 1.000000
0.000000 0.000000 0.833174
1.000000 0.061452 1.000000
1.000000 0.289662 1.000000
1.000000 0.535654 1.000000
1.000000 0.730253 1.000000
1.000000 0.814613 1.000000
1.000000 0.740219 1.000000
0.750905 0.468888 1.000000
0.215407 0.000000 1.000000
0.000000 0.000000 1.000000
1.000000 0.022267 1.000000
1.000000 0.347832 1.000000
1.000000 0.672643 1.000000
1.000000 0.916381 1.000000
1.000000 1.000000 1.000000
1.000000 0.891026 1.000000
1.000000 0.512952 1.000000
1.000000 0.000000 1.000000
0.035997 0.000000 1.000000
0.093385 0.004625 0.000000
0.030694 0.002893 0.000000
0.000000 0.000000 0.000000
0.000000 0.000000 0.030680
0.000000 0.000000 0.127844
0.000000 0.000000 0.232003
0.000000 0.000000 0.303186
0.000000 0.000000 0.286407
0.000000 0.000000 0.111659
0.219336 0.151952 0.198158
0.173371 0.151855 0.200504
0.129024 0.134079 0.241373
0.061119 0.089798 0.324648
0.000000 0.020513 0.439200
0.000000 0.000000 0.558876
0.000000 0.000000 0.642510
0.000000 0.000000 0.633916
0.000000 0.000000 0.461891
0.264581 0.249715 0.318212
0.224299 0.253457 0.328542
0.216690 0.271542 0.378436
0.207578 0.284001 0.470579
0.175344 0.281194 0.592642
0.110926 0.263814 0.717276
0.017818 0.242882 0.802117
0.000000 0.239753 0.789781
0.000000 0.286110 0.607867
0.264373 0.310063 0.358704
0.223157 0.324331 0.370131
0.238385 0.376293 0.421477
0.266879 0.434838 0.514231
0.278019 0.479185 0.634865
0.253742 0.498887 0.754834
0.188540 0.493824 0.830574
0.089462 0.474208 0.803504
0.000000 0.460583 0.600024
0.277293 0.343039 0.398231
0.232956 0.379001 0.404802
0.261547 0.467336 0.450964
0.310888 0.565793 0.537009
0.341357 0.642452 0.648210
0.325891 0.675722 0.754824
0.249980 0.654344 0.812090
0.111672 0.577389 0.760229
0.000000 0.454259 0.524444
0.385253 0.356575 0.551034
0.340034 0.429877 0.547732
0.376943 0.561563 0.583009
0.434799 0.698241 0.655958
0.464982 0.796849 0.750657
0.431425 0.824655 0.836163
0.310617 0.759260 0.866518
0.091607 0.588593 0.780745
0.000000 0.310914 0.502848
0.693494 0.356494 0.966996
0.654060 0.487265 0.949738
0.698669 0.673760 0.969364
0.757139 0.851446 1.000000
0.771846 0.966121 1.000000
0.697724 0.973911 1.000000
0.502261 0.841276 1.000000
0.165504 0.545005 1.000000
0.000000 0.072217 0.692603
1.000000 0.346510 1.000000
1.000000 0.559358 1.000000
1.000000 0.816601 1.000000
1.000000 1.000000 1.000000
1.000000 1.000000 1.000000
1.000000 1.000000 1.000000
0.980049 0.930992 1.000000
0.492928 0.481705 1.000000
0.000000 0.000000 1.000000
1.000000 0.328228 1.000000
1.000000 0.652242 1.000000
1.000000 1.000000 1.000000
1.000000 1.000000 1.000000
1.000000 1.000000 1.000000
1.000000 1.000000 1.000000
1.000000 1.000000 1.000000
1.000000 0.431661 1.000000
0.316366 0.000000 1.000000
0.176925 0.101904 0.000000
0.115632 0.083570 0.000000
0.055260 0.039376 0.000000
0.000000 0.000000 0.000000
0.000000 0.000000 0.063951
0.000000 0.000000 0.167892
0.000000 0.000000 0.251932
0.000000 0.000000 0.263423
0.000000 0.000000 0.134698
0.289310 0.250163 0.188527
0.229955 0.215482 0.167570
0.207742 0.194168 0.188240
0.190272 0.170896 0.256759
0.157708 0.140668 0.364336
0.102764 0.108821 0.487160
0.030715 0.091018 0.586402
0.000000 0.113256 0.608217
0.000000 0.211861 0.483741
0.322788 0.355779 0.274802
0.257882 0.311521 0.266840
0.259051 0.311190 0.300930
0.284898 0.328316 0.382100
0.306582 0.346764 0.500360
0.307818 0.360727 0.630700
0.284879 0.374729 0.733094
0.246591 0.403625 0.752499
0.214341 0.472600 0.618853
0.309845 0.428843 0.277277
0.236325 0.386261 0.274613
0.250530 0.409493 0.313745
0.302061 0.460930 0.398503
0.353075 0.513295 0.517698
0.378287 0.549640 0.645122
0.364968 0.563349 0.739554
0.312944 0.558135 0.744749
0.234599 0.548043 0.589451
0.306295 0.477338 0.273526
0.225528 0.452163 0.269402
0.246849 0.506021 0.306132
0.310858 0.590162 0.386350
0.370713 0.666167 0.497668
0.392126 0.705948 0.612681
0.353366 0.691746 0.688969
0.245260 0.616134 0.669092
0.071188 0.482017 0.480592
0.391284 0.507137 0.376770
0.309062 0.519583 0.365360
0.336008 0.615610 0.393180
0.403719 0.735328 0.461665
0.456352 0.829175 0.557229
0.450618 0.857924 0.651272
0.355785 0.792675 0.700172
0.153677 0.614859 0.645293
0.000000 0.316240 0.412979
0.667284 0.522003 0.735870
0.593830 0.596764 0.712285
0.629337 0.750984 0.725622
0.696402 0.913632 0.776116
0.730178 1.000000 0.848986
0.678377 1.000000 0.914432
0.501266 0.896784 0.927635
0.171667 0.589438 0.828761
0.000000 0.090320 0.542957
1.000000 0.523592 1.000000
1.000000 0.689841 1.000000
1.000000 0.922759 1.000000
1.000000 1.000000 1.000000
1.000000 1.000000 1.000000
1.000000 1.000000 1.000000
0.942181 1.000000 1.000000
0.456028 0.572888 1.000000
0.000000 0.000000 1.000000
1.000000 0.511448 1.000000
1.000000 0.802842 1.000000
1.000000 1.000000 1.000000
1.000000 1.000000 1.000000
1.000000 1.000000 1.000000
1.000000 1.000000 1.000000
1.000000 1.000000 1.000000
1.000000 0.596120 1.000000
0.222157 0.000000 1.000000
0.301795 0.175782 0.033359
0.221868 0.128485 0.000000
0.177543 0.083496 0.000000
0.138202 0.030130 0.000000
0.085785 0.000000 0.044336
0.014787 0.000000 0.141702
0.000000 0.000000 0.228862
0.000000 0.000000 0.255508
0.000000 0.000000 0.156311
0.401742 0.323625 0.218981
0.309987 0.242165 0.182248
0.287933 0.200777 0.186865
0.295961 0.177639 0.241396
0.307010 0.161256 0.339388
0.306573 0.150463 0.459368
0.292702 0.154428 0.564850
0.276003 0.192648 0.604325
0.279641 0.294952 0.511271
0.422723 0.434292 0.275163
0.315204 0.330004 0.256800
0.304200 0.294887 0.279602
0.341091 0.295973 0.350934
0.389813 0.310628 0.463145
0.426859 0.326547 0.593566
0.441280 0.341756 0.704511
0.434681 0.364612 0.743275
0.421225 0.413801 0.642136
0.394455 0.515815 0.242818
0.271665 0.404518 0.234323
0.264918 0.382817 0.266122
0.316592 0.406605 0.344384
0.381623 0.442106 0.460261
0.427504 0.465875 0.589884
0.434282 0.464796 0.694370
0.394563 0.436084 0.719816
0.313507 0.387286 0.597303
0.369988 0.574117 0.198500
0.236846 0.476108 0.192305
0.231990 0.479452 0.224852
0.288797 0.528901 0.301109
0.353202 0.579537 0.411032
0.383696 0.596773 0.529554
0.351325 0.556354 0.616594
0.239692 0.444354 0.617051
0.044959 0.257177 0.460808
0.425698 0.613012 0.254407
0.291553 0.553071 0.243881
0.290651 0.597569 0.269859
0.347368 0.680116 0.336112
0.398639 0.744656 0.431397
0.393951 0.745458 0.529450
0.295352 0.647128 0.588992
0.077443 0.424597 0.553725
0.000000 0.063131 0.352332
0.661292 0.634205 0.558380
0.539920 0.641591 0.537826
0.549462 0.747832 0.550854
0.605296 0.875398 0.600039
0.635352 0.957089 0.672938
0.580118 0.936038 0.742090
0.392640 0.765706 0.765018
0.038518 0.409885 0.684226
0.000000 0.000000 0.427199
1.000000 0.637292 1.000000
1.000000 0.745744 1.000000
1.000000 0.938798 1.000000
1.000000 1.000000 1.000000
1.000000 1.000000 1.000000
1.000000 1.000000 1.000000
0.792792 0.938566 1.000000
0.276949 0.431175 1.000000
0.000000 0.000000 0.876375
1.000000 0.619758 1.000000
1.000000 0.867498 1.000000
1.000000 1.000000 1.000000
1.000000 1.000000 1.000000
1.000000 1.000000 1.000000
1.000000 1.000000 1.000000
1.000000 1.000000 1.000000
0.970098 0.517317 1.000000
0.000000 0.000000 1.000000
0.456414 0.231678 0.115502
0.354568 0.163093 0.039061
0.320041 0.120645 0.000429
0.314995 0.087152 0.011708
0.314144 0.055761 0.069981
0.304764 0.029952 0.157315
0.286683 0.023533 0.240758
0.272288 0.060647 0.272341
0.286523 0.175762 0.189077
0.551133 0.380991 0.281435
0.424716 0.260593 0.239351
0.397596 0.202635 0.234962
0.422932 0.178795 0.279172
0.466440 0.171080 0.367865
0.506393 0.171827 0.481911
0.533618 0.183706 0.587161
0.551501 0.219715 0.634446
0.575983 0.303185 0.559584
0.564968 0.497140 0.313735
0.413598 0.340831 0.295764
0.386217 0.274596 0.314689
0.426984 0.258972 0.380216
0.492613 0.264825 0.487033
0.552375 0.273352 0.614810
0.588097 0.276080 0.728201
0.594164 0.274868 0.776840
0.577515 0.281904 0.695346
0.524870 0.586098 0.252295
0.352592 0.414261 0.249126
0.321712 0.351463 0.281371
0.367385 0.347098 0.357538
0.437324 0.360893 0.471116
0.491801 0.362902 0.600579
0.503640 0.333514 0.709382
0.458224 0.263443 0.745961
0.353493 0.153740 0.643737
0.481119 0.651730 0.172646
0.296409 0.489229 0.175905
0.263217 0.446061 0.212412
0.307700 0.460480 0.289476
0.368569 0.481069 0.399390
0.397092 0.466745 0.519429
0.357095 0.386753 0.611849
0.224960 0.220669 0.623890
0.000000 0.000000 0.487774
0.507327 0.695790 0.185965
0.323086 0.571969 0.188214
0.293200 0.569106 0.220860
0.334824 0.614312 0.290015
0.377668 0.645032 0.386773
0.363999 0.609039 0.487212
0.248642 0.464438 0.552390
0.000000 0.179664 0.528350
0.000000 0.000000 0.346115
0.700434 0.717924 0.439071
0.533992 0.666608 0.433806
0.517457 0.729204 0.455404
0.558982 0.821683 0.508778
0.579275 0.870348 0.583825
0.511603 0.811831 0.655425
0.301788 0.593096 0.683438
0.000000 0.171437 0.612709
0.000000 0.000000 0.373064
1.000000 0.715668 1.000000
1.000000 0.775163 1.000000
1.000000 0.932854 1.000000
1.000000 1.000000 1.000000
1.000000 1.000000 1.000000
0.982311 1.000000 1.000000
0.663371 0.797147 1.000000
0.103926 0.224889 1.000000
0.000000 0.000000 0.758564
1.000000 0.684449 1.000000
1.000000 0.897541 1.000000
1.000000 1.000000 1.000000
1.000000 1.000000 1.000000
1.000000 1.000000 1.000000
1.000000 1.000000 1.000000
1.000000 1.000000 1.000000
0.760720 0.366812 1.000000
0.000000 0.000000 1.000000
0.605195 0.258474 0.197105
0.494895 0.196316 0.121721
0.480668 0.179785 0.077725
0.517451 0.185199 0.079557
0.572740 0.199209 0.126641
0.626586 0.218795 0.203383
0.671595 0.251268 0.279170
0.712933 0.314271 0.308374
0.768319 0.435776 0.230346
0.707981 0.414377 0.352575
0.561388 0.282922 0.318465
0.540725 0.231935 0.315014
0.591928 0.226595 0.355467
0.673491 0.242410 0.438048
0.756464 0.265221 0.545967
0.824452 0.291198 0.647412
0.873620 0.326841 0.695557
0.912686 0.388981 0.628556
0.726105 0.539674 0.369732
0.546392 0.359390 0.365842
0.515180 0.285746 0.391202
0.569404 0.272780 0.457855
0.658557 0.284860 0.562830
0.744688 0.296684 0.688137
0.802402 0.293281 0.800768
0.818859 0.270012 0.852698
0.793780 0.232568 0.780884
0.683752 0.638279 0.287445
0.478519 0.434115 0.303660
0.437072 0.354093 0.347028
0.487348 0.341110 0.428397
0.569835 0.348393 0.543597
0.637583 0.339499 0.673439
0.656195 0.288317 0.783719
0.603831 0.179065 0.825214
0.471209 0.006293 0.733681
0.628435 0.711998 0.180227
0.409711 0.513383 0.207365
0.362773 0.447743 0.258876
0.406557 0.446832 0.344411
0.472552 0.452737 0.458602
0.504804 0.417875 0.581063
0.459916 0.304992 0.676391
0.307046 0.087167 0.694164
0.027911 0.000000 0.568943
0.631000 0.760525 0.158233
0.415240 0.601370 0.188047
0.371983 0.575351 0.238772
0.411161 0.603083 0.318859
0.455263 0.615510 0.421743
0.439334 0.553910 0.525840
0.310975 0.369887 0.594549
0.030344 0.025379 0.576251
0.000000 0.000000 0.404308
0.785619 0.781448 0.367260
0.593708 0.700143 0.392440
0.567730 0.743466 0.434384
0.608616 0.820891 0.500344
0.629853 0.852221 0.582559
0.557485 0.767593 0.658245
0.330113 0.507471 0.689604
0.000000 0.022650 0.623820
0.000000 0.000000 0.393057
1.000000 0.770244 0.988749
1.000000 0.809659 1.000000
1.000000 0.956525 1.000000
1.000000 1.000000 1.000000
1.000000 1.000000 1.000000
0.998902 1.000000 1.000000
0.661403 0.740104 1.000000
0.061193 0.105822 1.000000
0.000000 0.000000 0.724113
1.000000 0.720279 1.000000
1.000000 0.927768 1.000000
1.000000 1.000000 1.000000
1.000000 1.000000 1.000000
1.000000 1.000000 1.000000
1.000000 1.000000 1.000000
1.000000 1.000000 1.000000
0.689073 0.299627 1.000000
0.000000 0.000000 1.000000
0.688550 0.228517 0.237101
0.600010 0.220538 0.178630
0.633331 0.273337 0.141746
0.736230 0.356732 0.143230
0.868979 0.450877 0.184843
1.000000 0.546253 0.253332
1.000000 0.643675 0.320424
1.000000 0.754284 0.342828
1.000000 0.899556 0.262238
0.818779 0.399364 0.393859
0.683246 0.304771 0.383944
0.697311 0.304334 0.394275
0.799689 0.356734 0.440436
0.941650 0.430981 0.522991
1.000000 0.506417 0.627487
1.000000 0.572713 0.724455
1.000000 0.629872 0.769406
1.000000 0.688228 0.702835
0.858710 0.540709 0.407136
0.682912 0.384535 0.433917
0.677162 0.347228 0.478920
0.771173 0.376326 0.556531
0.907217 0.429699 0.666116
1.000000 0.475548 0.792024
1.000000 0.492403 0.903589
1.000000 0.469127 0.955123
1.000000 0.404910 0.885923
0.829761 0.654407 0.314779
0.624852 0.466167 0.367333
0.603156 0.412834 0.435400
0.685386 0.430804 0.532168
0.804810 0.466808 0.655807
0.907254 0.477905 0.789468
0.951099 0.431484 0.901285
0.907283 0.305266 0.944374
0.759302 0.087302 0.856834
0.776679 0.740204 0.190280
0.558242 0.553893 0.258617
0.528898 0.509858 0.339076
0.600358 0.533357 0.443646
0.696889 0.559976 0.569298
0.755316 0.535636 0.697986
0.725019 0.416583 0.796647
0.567935 0.169399 0.817199
0.258557 0.000000 0.696542
0.767543 0.795736 0.142773
0.555588 0.649829 0.217841
0.531320 0.644899 0.300953
0.597449 0.695061 0.402903
0.669242 0.724762 0.519463
0.674521 0.668780 0.631390
0.553666 0.472223 0.704421
0.259612 0.090528 0.689278
0.000000 0.000000 0.521662
0.893757 0.816530 0.317034
0.712723 0.753985 0.390714
0.710685 0.822445 0.467679
0.781352 0.924887 0.557523
0.830988 0.974616 0.654821
0.778417 0.895268 0.739132
0.555015 0.620812 0.774996
0.104717 0.095543 0.711936
0.000000 0.000000 0.484456
1.000000 0.796005 0.893483
1.000000 0.864257 0.958593
1.000000 1.000000 1.000000
1.000000 1.000000 1.000000
1.000000 1.000000 1.000000
1.000000 1.000000 1.000000
0.870369 0.882652 1.000000
0.248982 0.209226 1.000000
0.000000 0.000000 0.772825
1.000000 0.725469 1.000000
1.000000 0.976435 1.000000
1.000000 1.000000 1.000000
1.000000 1.000000 1.000000
1.000000 1.000000 1.000000
1.000000 1.000000 1.000000
1.000000 1.000000 1.000000
0.861468 0.454250 1.000000
0.000000 0.000000 1.000000
0.622888 0.097618 0.179193
0.603068 0.211609 0.156390
0.727935 0.397188 0.141994
0.937983 0.617677 0.155124
1.000000 0.846730 0.199884
1.000000 1.000000 0.265358
1.000000 1.000000 0.325613
1.000000 1.000000 0.339698
1.000000 1.000000 0.251646
0.806018 0.294998 0.351516
0.729529 0.305224 0.384918
0.823342 0.418955 0.424773
1.000000 0.588372 0.489004
1.000000 0.775990 0.580515
1.000000 0.954650 0.687194
1.000000 1.000000 0.781910
1.000000 1.000000 0.822513
1.000000 1.000000 0.751838
0.891356 0.462526 0.374702
0.768479 0.398585 0.451642
0.834234 0.461397 0.532398
1.000000 0.592004 0.633694
1.000000 0.741776 0.757239
1.000000 0.872415 0.889720
1.000000 0.955954 1.000000
1.000000 0.974757 1.000000
1.000000 0.921517 0.982409
0.897553 0.599996 0.285578
0.742997 0.495970 0.394324
0.788116 0.533274 0.503565
0.946401 0.641809 0.628829
1.000000 0.761805 0.770623
1.000000 0.843824 0.914440
1.000000 0.848757 1.000000
1.000000 0.747826 1.000000
1.000000 0.522584 0.987667
0.866590 0.705097 0.156613
0.699491 0.599545 0.286370
0.735826 0.641231 0.412617
0.880085 0.748916 0.549683
1.000000 0.851688 0.696880
1.000000 0.888967 0.838499
1.000000 0.810504 0.943818
1.000000 0.576380 0.967093
0.756286 0.157008 0.847565
0.863776 0.773404 0.095920
0.707699 0.709368 0.236827
0.751530 0.789809 0.369536
0.890756 0.922344 0.507176
1.000000 1.000000 0.647862
1.000000 1.000000 0.774689
1.000000 0.863656 0.855733
0.750841 0.487361 0.844057
0.238834 0.000000 0.677700
0.977752 0.798387 0.247254
0.860690 0.823389 0.390386
0.932724 0.981435 0.519947
1.000000 1.000000 0.647869
1.000000 1.000000 0.771067
1.000000 1.000000 0.871440
1.000000 1.000000 0.915866
0.595824 0.505600 0.856207
0.000000 0.000000 0.629309
1.000000 0.771404 0.790013
1.000000 0.937445 0.927381
1.000000 1.000000 1.000000
1.000000 1.000000 1.000000
1.000000 1.000000 1.000000
1.000000 1.000000 1.000000
1.000000 1.000000 1.000000
0.743518 0.653820 1.000000
0.000000 0.000000 0.889274
1.000000 0.681704 1.000000
1.000000 1.000000 1.000000
1.000000 1.000000 1.000000
1.000000 1.000000 1.000000
1.000000 1.000000 1.000000
1.000000 1.000000 1.000000
1.000000 1.000000 1.000000
1.000000 0.952635 1.000000
0.119819 0.000000 1.000000
0.300614 0.000000 0.000000
0.413223 0.128842 0.000000
0.690382 0.530691 0.012739
1.000000 0.967423 0.052412
1.000000 1.000000 0.111834
1.000000 1.000000 0.182429
1.000000 1.000000 0.240605
1.000000 1.000000 0.247749
1.000000 1.000000 0.150233
0.568187 0.043788 0.156547
0.615474 0.246827 0.255285
0.850803 0.558381 0.343304
1.000000 0.924133 0.440867
1.000000 1.000000 0.553218
1.000000 1.000000 0.670582
1.000000 1.000000 0.768169
1.000000 1.000000 0.806169
1.000000 1.000000 0.729756
0.728615 0.250867 0.205958
0.724413 0.367320 0.355442
0.924463 0.614074 0.490958
1.000000 0.925672 0.631569
1.000000 1.000000 0.781322
1.000000 1.000000 0.929245
1.000000 1.000000 1.000000
1.000000 1.000000 1.000000
1.000000 1.000000 1.000000
0.797782 0.424024 0.135894
0.760355 0.492538 0.323586
0.936103 0.704468 0.493375
1.000000 0.983216 0.663128
1.000000 1.000000 0.835693
1.000000 1.000000 0.998900
1.000000 1.000000 1.000000
1.000000 1.000000 1.000000
1.000000 1.000000 1.000000
0.814902 0.558888 0.017803
0.766941 0.622589 0.232099
0.933792 0.834151 0.423875
1.000000 1.000000 0.609799
1.000000 1.000000 0.791521
1.000000 1.000000 0.955674
1.000000 1.000000 1.000000
1.000000 1.000000 1.000000
1.000000 1.000000 0.983783
0.842518 0.648977 0.000000
0.811142 0.755471 0.189010
0.988930 1.000000 0.391420
1.000000 1.000000 0.581479
1.000000 1.000000 0.759639
1.000000 1.000000 0.911334
1.000000 1.000000 1.000000
1.000000 1.000000 1.000000
1.000000 0.708633 0.836716
0.966504 0.685699 0.101549
0.983259 0.887074 0.337986
1.000000 1.000000 0.540616
1.000000 1.000000 0.723709
1.000000 1.000000 0.886522
1.000000 1.000000 1.000000
1.000000 1.000000 1.000000
1.000000 1.000000 1.000000
0.712749 0.519472 0.794437
1.000000 0.658354 0.624496
1.000000 1.000000 0.858341
1.000000 1.000000 1.000000
1.000000 1.000000 1.000000
1.000000 1.000000 1.000000
1.000000 1.000000 1.000000
1.000000 1.000000 1.000000
1.000000 1.000000 1.000000
0.644969 0.476028 1.000000
1.000000 0.554133 1.000000
1.000000 1.000000 1.000000
1.000000 1.000000 1.000000
1.000000 1.000000 1.000000
1.000000 1.000000 1.000000
1.000000 1.000000 1.000000
1.000000 1.000000 1.000000
1.000000 1.000000 1.000000
1.000000 0.601338 1.000000
