public/luts/cinestill_x.cube
# Generated from ColorChecker fit
LUT_3D_SIZE 33
DOMAIN_MIN 0.0 0.0 0.0
DOMAIN_MAX 1.0 1.0 1.0
0.116840 0.506657 0.000000
0.134783 0.458838 0.014358
0.151893 0.419337 0.056322
0.168214 0.387287 0.093893
0.183791 0.361869 0.127377
0.198669 0.342310 0.157074
0.212889 0.327884 0.183278
0.226495 0.317912 0.206274
0.239529 0.311761 0.226341
0.252031 0.308845 0.243752
0.264042 0.308626 0.258771
0.275601 0.310611 0.271658
0.286748 0.314355 0.282662
0.297520 0.319460 0.292027
0.307956 0.325574 0.299992
0.318091 0.332392 0.306786
0.327962 0.339655 0.312633
0.337604 0.347153 0.317748
0.347052 0.354721 0.322341
0.356339 0.362240 0.326614
0.365500 0.369641 0.330762
0.374566 0.376898 0.334974
0.383569 0.384035 0.339430
0.392541 0.391120 0.344306
0.401512 0.398270 0.349768
0.410510 0.405647 0.355977
0.419566 0.413462 0.363086
0.428708 0.421971 0.371242
0.437962 0.431477 0.380583
0.447357 0.442330 0.391243
0.456917 0.454927 0.403346
0.466669 0.469712 0.417012
0.476636 0.487176 0.432351
0.134783 0.458838 0.014358
0.152302 0.415326 0.058623
0.169002 0.379836 0.098287
0.184929 0.351512 0.133660
0.200127 0.329547 0.165050
0.214640 0.313179 0.192753
0.228510 0.301694 0.217061
0.241781 0.294424 0.238259
0.254493 0.290750 0.256624
0.266687 0.290096 0.272426
0.278404 0.291935 0.285928
0.289683 0.295788 0.297388
0.300563 0.301220 0.307053
0.311082 0.307845 0.315166
0.321277 0.315323 0.321964
0.331184 0.323360 0.327674
0.340840 0.331710 0.332518
0.350280 0.340173 0.336710
0.359538 0.348596 0.340458
0.368648 0.356874 0.343961
0.377643 0.364946 0.347415
0.386555 0.372801 0.351005
0.395416 0.380473 0.354910
0.404257 0.388042 0.359304
0.413108 0.395636 0.364351
0.421999 0.403431 0.370211
0.430958 0.411647 0.377035
0.440013 0.420553 0.384968
0.449191 0.430464 0.394147
0.458520 0.441741 0.404703
0.468025 0.454793 0.416759
0.477732 0.470075 0.430433
0.487664 0.488090 0.445834
0.151893 0.419337 0.056322
0.169002 0.379836 0.098287
0.185309 0.348067 0.135753
0.200856 0.323188 0.169034
0.215690 0.304402 0.198431
0.229852 0.290959 0.224242
0.243387 0.282158 0.246755
0.256336 0.277342 0.266254
0.268741 0.275902 0.283014
0.280642 0.277276 0.297303
0.292079 0.280948 0.309384
0.303092 0.286449 0.319510
0.313719 0.293359 0.327929
0.323998 0.301301 0.334883
0.333966 0.309947 0.340604
0.343660 0.319016 0.345319
0.353114 0.328272 0.349249
0.362365 0.337529 0.352605
0.371446 0.346644 0.355593
0.380392 0.355523 0.358413
0.389234 0.364119 0.361255
0.398005 0.372431 0.364305
0.406737 0.380504 0.367741
0.415460 0.388432 0.371733
0.424204 0.396354 0.376445
0.432999 0.404457 0.382034
0.441872 0.412973 0.388650
0.450853 0.422182 0.396435
0.459968 0.432411 0.405526
0.469243 0.444033 0.416052
0.478705 0.457470 0.428133
0.488378 0.473187 0.441887
0.498286 0.491698 0.457419
0.168214 0.387287 0.093893
0.184929 0.351512 0.133660
0.200856 0.323188 0.169034
0.216039 0.301484 0.200323
0.230523 0.285616 0.227828
0.244350 0.274845 0.251846
0.257564 0.268481 0.272662
0.270206 0.265880 0.290559
0.282318 0.266445 0.305810
0.293940 0.269624 0.318681
0.305111 0.274913 0.329434
0.315872 0.281857 0.338319
0.326259 0.290044 0.345584
0.336312 0.299112 0.351468
0.346067 0.308743 0.356201
0.355560 0.318668 0.360010
0.364826 0.328663 0.363111
0.373901 0.338553 0.365717
0.382819 0.348207 0.368030
0.391613 0.357544 0.370249
0.400315 0.366527 0.372562
0.408958 0.375167 0.375154
0.417573 0.383521 0.378199
0.426190 0.391695 0.381868
0.434840 0.399839 0.386322
0.443551 0.408151 0.391716
0.452351 0.416876 0.398198
0.461270 0.426306 0.405910
0.470332 0.436780 0.414986
0.479566 0.448681 0.425552
0.488995 0.462443 0.437730
0.498646 0.478544 0.451631
0.508542 0.497509 0.467363
0.183791 0.361869 0.127377
0.200127 0.329547 0.165050
0.215690 0.304402 0.198431
0.230523 0.285616 0.227828
0.244671 0.272415 0.253541
0.258178 0.264075 0.275863
0.271085 0.259914 0.295079
0.283434 0.259302 0.311469
0.295267 0.261652 0.325305
0.306623 0.266425 0.336852
0.317542 0.273130 0.346368
0.328064 0.281320 0.354104
0.338226 0.290598 0.360304
0.348067 0.300612 0.365205
0.357621 0.311056 0.369038
0.366927 0.321673 0.372026
0.376018 0.332251 0.374385
0.384931 0.342625 0.376324
0.393697 0.352678 0.378045
0.402352 0.362339 0.379744
0.410927 0.371584 0.381608
0.419454 0.380434 0.383820
0.427965 0.388960 0.386553
0.436489 0.397278 0.389975
0.445056 0.405550 0.394246
0.453695 0.413986 0.399520
0.462435 0.422843 0.405942
0.471302 0.432423 0.413653
0.480324 0.443078 0.422784
0.489527 0.455204 0.433461
0.498937 0.469244 0.445803
0.508577 0.485689 0.459920
0.518471 0.505076 0.475918
0.198669 0.342310 0.157074
0.214640 0.313179 0.192753
0.229852 0.290959 0.224242
0.244350 0.274845 0.251846
0.258178 0.264075 0.275863
0.271377 0.257933 0.296585
0.283992 0.255754 0.314296
0.296062 0.256916 0.329273
0.307630 0.260844 0.341786
0.318734 0.267013 0.352099
0.329415 0.274941 0.360469
0.339712 0.284194 0.367144
0.349662 0.294387 0.372367
0.359303 0.305179 0.376373
0.368671 0.316276 0.379391
0.377802 0.327432 0.381643
0.386731 0.338448 0.383342
0.395493 0.349171 0.384696
0.404122 0.359494 0.385905
0.412650 0.369358 0.387164
0.421110 0.378751 0.388658
0.429534 0.387707 0.390567
0.437952 0.396307 0.393065
0.446395 0.404678 0.396315
0.454891 0.412996 0.400477
0.463471 0.421481 0.405703
0.472161 0.430403 0.412137
0.480990 0.440076 0.419916
0.489983 0.450861 0.429172
0.499167 0.463168 0.440028
0.508567 0.477451 0.452600
0.518207 0.494213 0.467000
0.528112 0.514002 0.483328
0.212889 0.327884 0.183278
0.228510 0.301694 0.217061
0.243387 0.282158 0.246755
0.257564 0.268481 0.272662
0.271085 0.259914 0.295079
0.283992 0.255754 0.314296
0.296327 0.255345 0.330594
0.308132 0.258077 0.344249
0.319448 0.263389 0.355531
0.330315 0.270766 0.364701
0.340771 0.279737 0.372012
0.350856 0.289882 0.377714
0.360607 0.300826 0.382045
0.370061 0.312239 0.385242
0.379255 0.323841 0.387528
0.388225 0.335397 0.389126
0.397005 0.346718 0.390246
0.405630 0.357663 0.391096
0.414133 0.368139 0.391873
0.422547 0.378097 0.392769
0.430905 0.387537 0.393970
0.439237 0.396504 0.395652
0.447575 0.405091 0.397988
0.455948 0.413438 0.401140
0.464386 0.421731 0.405265
0.472917 0.430204 0.410514
0.481570 0.439136 0.417029
0.490370 0.448853 0.424946
0.499346 0.459729 0.434394
0.508522 0.472186 0.445494
0.517924 0.486688 0.458363
0.527576 0.503751 0.473108
0.537501 0.523935 0.489829
0.226495 0.317912 0.206274
0.241781 0.294424 0.238259
0.256336 0.277342 0.266254
0.270206 0.265880 0.290559
0.283434 0.259302 0.311469
0.296062 0.256916 0.329273
0.308132 0.258077 0.344249
0.319686 0.262189 0.356674
0.330764 0.268702 0.366813
0.341406 0.277110 0.374926
0.351651 0.286957 0.381266
0.361537 0.297834 0.386080
0.371102 0.309376 0.389605
0.380383 0.321266 0.392074
0.389416 0.333236 0.393711
0.398237 0.345062 0.394735
0.406880 0.356567 0.395357
0.415380 0.367622 0.395780
0.423769 0.378145 0.396202
0.432082 0.388099 0.396812
0.440349 0.397495 0.397794
0.448601 0.406391 0.399324
0.456871 0.414892 0.401570
0.465186 0.423148 0.404695
0.473577 0.431358 0.408854
0.482072 0.439767 0.414195
0.490698 0.448665 0.420859
0.499482 0.458392 0.428980
0.508452 0.469332 0.438686
0.517631 0.481918 0.450096
0.527046 0.496628 0.463325
0.536719 0.513988 0.478477
0.546676 0.534569 0.495652
0.239529 0.311761 0.226341
0.254493 0.290750 0.256624
0.268741 0.275902 0.283014
0.282318 0.266445 0.305810
0.295267 0.261652 0.325305
0.307630 0.260844 0.341786
0.319448 0.263389 0.355531
0.330764 0.268702 0.366813
0.341618 0.276242 0.375896
0.352048 0.285518 0.383039
0.362094 0.296085 0.388493
0.371795 0.307545 0.392502
0.381186 0.319544 0.395303
0.390307 0.331779 0.397126
0.399191 0.343992 0.398194
0.407875 0.355970 0.398724
0.416394 0.367550 0.398925
0.424781 0.378613 0.398999
0.433070 0.389089 0.399141
0.441292 0.398953 0.399539
0.449481 0.408228 0.400376
0.457666 0.416983 0.401825
0.465878 0.425334 0.404053
0.474148 0.433445 0.407221
0.482503 0.441524 0.411482
0.490972 0.449829 0.416982
0.499583 0.458663 0.423862
0.508362 0.468375 0.432252
0.517336 0.479363 0.442280
0.526529 0.492071 0.454062
0.535967 0.506988 0.467711
0.545674 0.524652 0.483332
0.555672 0.545647 0.501020
0.252031 0.308845 0.243752
0.266687 0.290096 0.272426
0.280642 0.277276 0.297303
0.293940 0.269624 0.318681
0.306623 0.266425 0.336852
0.318734 0.267013 0.352099
0.330315 0.270766 0.364701
0.341406 0.277110 0.374926
0.352048 0.285518 0.383039
0.362280 0.295510 0.389296
0.372140 0.306652 0.393947
0.381668 0.318558 0.397233
0.390899 0.330886 0.399390
0.399871 0.343345 0.400647
0.408620 0.355687 0.401225
0.417180 0.367712 0.401338
0.425586 0.379269 0.401194
0.433873 0.390250 0.400994
0.442072 0.400597 0.400930
0.450217 0.410296 0.401190
0.458338 0.419383 0.401952
0.466467 0.427938 0.403390
0.474634 0.436089 0.405669
0.482869 0.444011 0.408948
0.491200 0.451925 0.413378
0.499655 0.460099 0.419104
0.508261 0.468848 0.426263
0.517046 0.478534 0.434986
0.526035 0.489566 0.445398
0.535253 0.502399 0.457613
0.544726 0.517534 0.471743
0.554475 0.535522 0.487890
0.564525 0.556957 0.506150
0.264042 0.308626 0.258771
0.278404 0.291935 0.285928
0.292079 0.280948 0.309384
0.305111 0.274913 0.329434
0.317542 0.273130 0.346368
0.329415 0.274941 0.360469
0.340771 0.279737 0.372012
0.351651 0.286957 0.381266
0.362094 0.296085 0.388493
0.372140 0.306652 0.393947
0.381828 0.318237 0.397875
0.391195 0.330463 0.400519
0.400278 0.343003 0.402112
0.409115 0.355575 0.402881
0.417740 0.367945 0.403044
0.426188 0.379924 0.402816
0.434494 0.391371 0.402402
0.442692 0.402193 0.402000
0.450814 0.412340 0.401803
0.458892 0.421812 0.401994
0.466958 0.430656 0.402753
0.475043 0.438964 0.404249
0.483176 0.446876 0.406646
0.491387 0.454577 0.410102
0.499704 0.462301 0.414766
0.508156 0.470328 0.420781
0.516769 0.478985 0.428283
0.525570 0.488645 0.437400
0.534585 0.499728 0.448256
0.543838 0.512701 0.460964
0.553355 0.528078 0.475633
0.563158 0.546420 0.492364
0.573270 0.568335 0.511250
0.275601 0.310611 0.271658
0.289683 0.295788 0.297388
0.303092 0.286449 0.319510
0.315872 0.281857 0.338319
0.328064 0.281320 0.354104
0.339712 0.284194 0.367144
0.350856 0.289882 0.377714
0.361537 0.297834 0.386080
0.371795 0.307545 0.392502
0.381668 0.318558 0.397233
0.391195 0.330463 0.400519
0.400414 0.342897 0.402599
0.409362 0.355543 0.403705
0.418075 0.368132 0.404061
0.426588 0.380439 0.403886
0.434936 0.392289 0.403391
0.443154 0.403553 0.402779
0.451275 0.414147 0.402247
0.459331 0.424036 0.401986
0.467354 0.433231 0.402179
0.475376 0.441789 0.403001
0.483427 0.449814 0.404622
0.491538 0.457459 0.407203
0.499736 0.464920 0.410900
0.508051 0.472443 0.415862
0.516510 0.480319 0.422228
0.525141 0.488887 0.430134
0.533969 0.498531 0.439706
0.543020 0.509684 0.451064
0.552319 0.522825 0.464322
0.561890 0.538479 0.479587
0.571756 0.557218 0.496956
0.581940 0.579662 0.516523
0.286748 0.314355 0.282662
0.300563 0.301220 0.307053
0.313719 0.293359 0.327929
0.326259 0.290044 0.345584
0.338226 0.290598 0.360304
0.349662 0.294387 0.372367
0.360607 0.300826 0.382045
0.371102 0.309376 0.389605
0.381186 0.319544 0.395303
0.390899 0.330886 0.399390
0.400278 0.343003 0.402112
0.409362 0.355543 0.403705
0.418186 0.368202 0.404399
0.426787 0.380720 0.404418
0.435201 0.392887 0.403977
0.443461 0.404538 0.403286
0.451602 0.415556 0.402547
0.459657 0.425868 0.401956
0.467659 0.435452 0.401700
0.475639 0.444329 0.401961
0.483628 0.452570 0.402913
0.491657 0.460289 0.404723
0.499755 0.467650 0.407553
0.507952 0.474863 0.411555
0.516275 0.482184 0.416875
0.524752 0.489917 0.423653
0.533411 0.498411 0.432021
0.542276 0.508064 0.442106
0.551373 0.519318 0.454024
0.560728 0.532665 0.467888
0.570363 0.548642 0.483802
0.580303 0.567833 0.501864
0.590569 0.590868 0.522164
0.297520 0.319460 0.292027
0.311082 0.307845 0.315166
0.323998 0.301301 0.334883
0.336312 0.299112 0.351468
0.348067 0.300612 0.365205
0.359303 0.305179 0.376373
0.370061 0.312239 0.385242
0.380383 0.321266 0.392074
0.390307 0.331779 0.397126
0.399871 0.343345 0.400647
0.409115 0.355575 0.402881
0.418075 0.368132 0.404061
0.426787 0.380720 0.404418
0.435289 0.393094 0.404171
0.443614 0.405054 0.403536
0.451798 0.416447 0.402720
0.459874 0.427167 0.401923
0.467874 0.437155 0.401340
0.475833 0.446398 0.401156
0.483780 0.454931 0.401551
0.491748 0.462834 0.402698
0.499765 0.470235 0.404762
0.507863 0.477309 0.407901
0.516068 0.484277 0.412268
0.524410 0.491408 0.418007
0.532916 0.499017 0.425256
0.541612 0.507464 0.434145
0.550525 0.517160 0.444798
0.559679 0.528558 0.457331
0.569099 0.542162 0.471855
0.578809 0.558520 0.488472
0.588832 0.578228 0.507278
0.599190 0.601928 0.528361
0.307956 0.325574 0.299992
0.321277 0.315323 0.321964
0.333966 0.309947 0.340604
0.346067 0.308743 0.356201
0.357621 0.311056 0.369038
0.368671 0.316276 0.379391
0.379255 0.323841 0.387528
0.389416 0.333236 0.393711
0.399191 0.343992 0.398194
0.408620 0.355687 0.401225
0.417740 0.367945 0.403044
0.426588 0.380439 0.403886
0.435201 0.392887 0.403977
0.443614 0.405054 0.403536
0.451863 0.416752 0.402777
0.459981 0.427840 0.401904
0.468003 0.438224 0.401117
0.475961 0.447856 0.400608
0.483888 0.456734 0.400561
0.491814 0.464906 0.401154
0.499770 0.472464 0.402558
0.507787 0.479546 0.404937
0.515894 0.486341 0.408447
0.524119 0.493080 0.413238
0.532490 0.500044 0.419454
0.541035 0.507559 0.427230
0.549779 0.515998 0.436695
0.558749 0.525783 0.447972
0.567969 0.537380 0.461174
0.577465 0.551303 0.476410
0.587259 0.568112 0.493781
0.597374 0.588415 0.513380
0.607833 0.612866 0.535296
0.318091 0.332392 0.306786
0.331184 0.323360 0.327674
0.343660 0.319016 0.345319
0.355560 0.318668 0.360010
0.366927 0.321673 0.372026
0.377802 0.327432 0.381643
0.388225 0.335397 0.389126
0.398237 0.345062 0.394735
0.407875 0.355970 0.398724
0.417180 0.367712 0.401338
0.426188 0.379924 0.402816
0.434936 0.392289 0.403391
0.443461 0.404538 0.403286
0.451798 0.416447 0.402720
0.459981 0.427840 0.401904
0.468046 0.438588 0.401042
0.476025 0.448608 0.400330
0.483951 0.457863 0.399960
0.491856 0.466366 0.400113
0.499772 0.474173 0.400967
0.507728 0.481388 0.402689
0.515755 0.488164 0.405442
0.523881 0.494698 0.409382
0.532136 0.501235 0.414655
0.540546 0.508066 0.421404
0.549140 0.515530 0.429763
0.557942 0.524013 0.439858
0.566979 0.533945 0.451811
0.576276 0.545806 0.465733
0.585856 0.560121 0.481731
0.595744 0.577463 0.499906
0.605961 0.598451 0.520348
0.616530 0.623750 0.543143
0.327962 0.339655 0.312633
0.340840 0.331710 0.332518
0.353114 0.328272 0.349249
0.364826 0.328663 0.363111
0.376018 0.332251 0.374385
0.386731 0.338448 0.383342
0.397005 0.346718 0.390246
0.406880 0.356567 0.395357
0.416394 0.367550 0.398925
0.425586 0.379269 0.401194
0.434494 0.391371 0.402402
0.443154 0.403553 0.402779
0.451602 0.415556 0.402547
0.459874 0.427167 0.401923
0.468003 0.438224 0.401117
0.476025 0.448608 0.400330
0.483972 0.458248 0.399758
0.491877 0.467119 0.399589
0.499772 0.475245 0.400005
0.507687 0.482694 0.401179
0.515654 0.489583 0.403278
0.523701 0.496075 0.406464
0.531857 0.502380 0.410890
0.540152 0.508753 0.416702
0.548612 0.515499 0.424039
0.557264 0.522966 0.433033
0.566134 0.531553 0.443811
0.575248 0.541703 0.456491
0.584630 0.553906 0.471183
0.594305 0.568699 0.487993
0.604295 0.586667 0.507018
0.614623 0.608440 0.528349
0.625311 0.634696 0.552068
0.337604 0.347153 0.317748
0.350280 0.340173 0.336710
0.362365 0.337529 0.352605
0.373901 0.338553 0.365717
0.384931 0.342625 0.376324
0.395493 0.349171 0.384696
0.405630 0.357663 0.391096
0.415380 0.367622 0.395780
0.424781 0.378613 0.398999
0.433873 0.390250 0.400994
0.442692 0.402193 0.402000
0.451275 0.414147 0.402247
0.459657 0.425868 0.401956
0.467874 0.437155 0.401340
0.475961 0.447856 0.400608
0.483951 0.457863 0.399960
0.491877 0.467119 0.399589
0.499772 0.475610 0.399683
0.507667 0.483371 0.400420
0.515592 0.490482 0.401973
0.523579 0.497072 0.404508
0.531656 0.503315 0.408183
0.539853 0.509432 0.413150
0.548197 0.515692 0.419554
0.556716 0.522410 0.427531
0.565437 0.529947 0.437214
0.574385 0.538713 0.448725
0.583585 0.549161 0.462181
0.593062 0.561796 0.477692
0.602841 0.577164 0.495360
0.612943 0.595863 0.515282
0.623391 0.618534 0.537546
0.634207 0.645868 0.562234
0.347052 0.354721 0.322341
0.359538 0.348596 0.340458
0.371446 0.346644 0.355593
0.382819 0.348207 0.368030
0.393697 0.352678 0.378045
0.404122 0.359494 0.385905
0.414133 0.368139 0.391873
0.423769 0.378145 0.396202
0.433070 0.389089 0.399141
0.442072 0.400597 0.400930
0.450814 0.412340 0.401803
0.459331 0.424036 0.401986
0.467659 0.435452 0.401700
0.475833 0.446398 0.401156
0.483888 0.456734 0.400561
0.491856 0.466366 0.400113
0.499772 0.475245 0.400005
0.507667 0.483371 0.400420
0.515572 0.490789 0.401537
0.523518 0.497593 0.403526
0.531535 0.503922 0.406552
0.539653 0.509962 0.410771
0.547900 0.515947 0.416333
0.556304 0.522156 0.423380
0.564891 0.528916 0.432050
0.573690 0.536601 0.442470
0.582725 0.545630 0.454763
0.592020 0.556471 0.469043
0.601602 0.569638 0.485419
0.611493 0.585691 0.503991
0.621716 0.605237 0.524854
0.632293 0.628932 0.548094
0.643245 0.657475 0.573792
0.356339 0.362240 0.326614
0.368648 0.356874 0.343961
0.380392 0.355523 0.358413
0.391613 0.357544 0.370249
0.402352 0.362339 0.379744
0.412650 0.369358 0.387164
0.422547 0.378097 0.392769
0.432082 0.388099 0.396812
0.441292 0.398953 0.399539
0.450217 0.410296 0.401190
0.458892 0.421812 0.401994
0.467354 0.433231 0.402179
0.475639 0.444329 0.401961
0.483780 0.454931 0.401551
0.491814 0.464906 0.401154
0.499772 0.474173 0.400967
0.507687 0.482694 0.401179
0.515592 0.490482 0.401973
0.523518 0.497593 0.403526
0.531495 0.504132 0.406007
0.539552 0.510251 0.409578
0.547721 0.516147 0.414393
0.556027 0.522065 0.420602
0.564500 0.528297 0.428344
0.573166 0.535181 0.437755
0.582052 0.543102 0.448961
0.591183 0.552493 0.462082
0.600583 0.563831 0.477233
0.610278 0.577643 0.494518
0.620290 0.594501 0.514037
0.630643 0.615023 0.535883
0.641357 0.639876 0.560141
0.652455 0.669773 0.586889
0.365500 0.369641 0.330762
0.377643 0.364946 0.347415
0.389234 0.364119 0.361255
0.400315 0.366527 0.372562
0.410927 0.371584 0.381608
0.421110 0.378751 0.388658
0.430905 0.387537 0.393970
0.440349 0.397495 0.397794
0.449481 0.408228 0.400376
0.458338 0.419383 0.401952
0.466958 0.430656 0.402753
0.475376 0.441789 0.403001
0.483628 0.452570 0.402913
0.491748 0.462834 0.402698
0.499770 0.472464 0.402558
0.507728 0.481388 0.402689
0.515654 0.489583 0.403278
0.523579 0.497072 0.404508
0.531535 0.503922 0.406552
0.539552 0.510251 0.409578
0.547661 0.516222 0.413745
0.555889 0.522043 0.419209
0.564265 0.527972 0.426113
0.572816 0.534313 0.434599
0.581570 0.541414 0.444799
0.590552 0.549673 0.456837
0.599788 0.559533 0.470833
0.609302 0.571485 0.486897
0.619119 0.586067 0.505135
0.629261 0.603862 0.525644
0.639752 0.625500 0.548514
0.650612 0.651661 0.573829
0.661864 0.683067 0.601665
0.374566 0.376898 0.334974
0.386555 0.372801 0.351005
0.398005 0.372431 0.364305
0.408958 0.375167 0.375154
0.419454 0.380434 0.383820
0.429534 0.387707 0.390567
0.439237 0.396504 0.395652
0.448601 0.406391 0.399324
0.457666 0.416983 0.401825
0.466467 0.427938 0.403390
0.475043 0.438964 0.404249
0.483427 0.449814 0.404622
0.491657 0.460289 0.404723
0.499765 0.470235 0.404762
0.507787 0.479546 0.404937
0.515755 0.488164 0.405442
0.523701 0.496075 0.406464
0.531656 0.503315 0.408183
0.539653 0.509962 0.410771
0.547721 0.516147 0.414393
0.555889 0.522043 0.419209
0.564186 0.527872 0.425369
0.572640 0.533902 0.433018
0.581280 0.540447 0.442295
0.590130 0.547870 0.453329
0.599218 0.556580 0.466244
0.608567 0.567031 0.481158
0.618204 0.579726 0.498179
0.628152 0.595213 0.517411
0.638433 0.614089 0.538948
0.649070 0.636996 0.562881
0.660085 0.664622 0.589291
0.671498 0.697705 0.618252
0.383569 0.384035 0.339430
0.395416 0.380473 0.354910
0.406737 0.380504 0.367741
0.417573 0.383521 0.378199
0.427965 0.388960 0.386553
0.437952 0.396307 0.393065
0.447575 0.405091 0.397988
0.456871 0.414892 0.401570
0.465878 0.425334 0.404053
0.474634 0.436089 0.405669
0.483176 0.446876 0.406646
0.491538 0.457459 0.407203
0.499755 0.467650 0.407553
0.507863 0.477309 0.407901
0.515894 0.486341 0.408447
0.523881 0.494698 0.409382
0.531857 0.502380 0.410890
0.539853 0.509432 0.413150
0.547900 0.515947 0.416333
0.556027 0.522065 0.420602
0.564265 0.527972 0.426113
0.572640 0.533902 0.433018
0.581183 0.540133 0.441459
0.589919 0.546993 0.451571
0.598875 0.554855 0.463484
0.608077 0.564139 0.477320
0.617549 0.575313 0.493193
0.627317 0.588891 0.511211
0.637404 0.605432 0.531476
0.647832 0.625544 0.554081
0.658623 0.649882 0.579114
0.669801 0.679147 0.606654
0.681384 0.714086 0.636775
0.392541 0.391120 0.344306
0.404257 0.388042 0.359304
0.415460 0.388432 0.371733
0.426190 0.391695 0.381868
0.436489 0.397278 0.389975
0.446395 0.404678 0.396315
0.455948 0.413438 0.401140
0.465186 0.423148 0.404695
0.474148 0.433445 0.407221
0.482869 0.444011 0.408948
0.491387 0.454577 0.410102
0.499736 0.464920 0.410900
0.507952 0.474863 0.411555
0.516068 0.484277 0.412268
0.524119 0.493080 0.413238
0.532136 0.501235 0.414655
0.540152 0.508753 0.416702
0.548197 0.515692 0.419554
0.556304 0.522156 0.423380
0.564500 0.528297 0.428344
0.572816 0.534313 0.434599
0.581280 0.540447 0.442295
0.589919 0.546993 0.451571
0.598760 0.554288 0.462563
0.607831 0.562717 0.475397
0.617156 0.572713 0.490194
0.626759 0.584754 0.507066
0.636667 0.599365 0.526121
0.646900 0.617120 0.547457
0.657484 0.638636 0.571166
0.668438 0.664581 0.597335
0.679786 0.695666 0.626040
0.691547 0.732652 0.657353
0.401512 0.398270 0.349768
0.413108 0.395636 0.364351
0.424204 0.396354 0.376445
0.434840 0.399839 0.386322
0.445056 0.405550 0.394246
0.454891 0.412996 0.400477
0.464386 0.421731 0.405265
0.473577 0.431358 0.408854
0.482503 0.441524 0.411482
0.491200 0.451925 0.413378
0.499704 0.462301 0.414766
0.508051 0.472443 0.415862
0.516275 0.482184 0.416875
0.524410 0.491408 0.418007
0.532490 0.500044 0.419454
0.540546 0.508066 0.421404
0.548612 0.515499 0.424039
0.556716 0.522410 0.427531
0.564891 0.528916 0.432050
0.573166 0.535181 0.437755
0.581570 0.541414 0.444799
0.590130 0.547870 0.453329
0.598875 0.554855 0.463484
0.607831 0.562717 0.475397
0.617024 0.571854 0.489193
0.626480 0.582708 0.504991
0.636224 0.595772 0.522901
0.646278 0.611581 0.543029
0.656668 0.630720 0.565472
0.667414 0.653820 0.590320
0.678540 0.681558 0.617658
0.690065 0.714659 0.647560
0.702011 0.753893 0.680098
0.410510 0.405647 0.355977
0.421999 0.403431 0.370211
0.432999 0.404457 0.382034
0.443551 0.408151 0.391716
0.453695 0.413986 0.399520
0.463471 0.421481 0.405703
0.472917 0.430204 0.410514
0.482072 0.439767 0.414195
0.490972 0.449829 0.416982
0.499655 0.460099 0.419104
0.508156 0.470328 0.420781
0.516510 0.480319 0.422228
0.524752 0.489917 0.423653
0.532916 0.499017 0.425256
0.541035 0.507559 0.427230
0.549140 0.515530 0.429763
0.557264 0.522966 0.433033
0.565437 0.529947 0.437214
0.573690 0.536601 0.442470
0.582052 0.543102 0.448961
0.590552 0.549673 0.456837
0.599218 0.556580 0.466244
0.608077 0.564139 0.477320
0.617156 0.572713 0.490194
0.626480 0.582708 0.504991
0.636076 0.594582 0.521827
0.645967 0.608835 0.540812
0.656178 0.626018 0.562048
0.666730 0.646724 0.585632
0.677648 0.671598 0.611653
0.688952 0.701328 0.640191
0.700663 0.736651 0.671322
0.712801 0.778348 0.705113
0.419566 0.413462 0.363086
0.430958 0.411647 0.377035
0.441872 0.412973 0.388650
0.452351 0.416876 0.398198
0.462435 0.422843 0.405942
0.472161 0.430403 0.412137
0.481570 0.439136 0.417029
0.490698 0.448665 0.420859
0.499583 0.458663 0.423862
0.508261 0.468848 0.426263
0.516769 0.478985 0.428283
0.525141 0.488887 0.430134
0.533411 0.498411 0.432021
0.541612 0.507464 0.434145
0.549779 0.515998 0.436695
0.557942 0.524013 0.439858
0.566134 0.531553 0.443811
0.574385 0.538713 0.448725
0.582725 0.545630 0.454763
0.591183 0.552493 0.462082
0.599788 0.559533 0.470833
0.608567 0.567031 0.481158
0.617549 0.575313 0.493193
0.626759 0.584754 0.507066
0.636224 0.595772 0.522901
0.645967 0.608835 0.540812
0.656014 0.624458 0.560906
