public/luts/cinestill_x.cube
# Generated from ColorChecker fit
LUT_3D_SIZE 9
DOMAIN_MIN 0.0 0.0 0.0
DOMAIN_MAX 1.0 1.0 1.0
0.116840 0.506657 0.000000
0.183791 0.361869 0.127377
0.239529 0.311761 0.226341
0.286748 0.314355 0.282662
0.327962 0.339655 0.312633
0.365500 0.369641 0.330762
0.401512 0.398270 0.349768
0.437962 0.431477 0.380583
0.476636 0.487176 0.432351
0.183791 0.361869 0.127377
0.244671 0.272415 0.253541
0.295267 0.261652 0.325305
0.338226 0.290598 0.360304
0.376018 0.332251 0.374385
0.410927 0.371584 0.381608
0.445056 0.405550 0.394246
0.480324 0.443078 0.422784
0.518471 0.505076 0.475918
0.239529 0.311761 0.226341
0.295267 0.261652 0.325305
0.341618 0.276242 0.375896
0.381186 0.319544 0.395303
0.416394 0.367550 0.398925
0.449481 0.408228 0.400376
0.482503 0.441524 0.411482
0.517336 0.479363 0.442280
0.555672 0.545647 0.501020
0.286748 0.314355 0.282662
0.338226 0.290598 0.360304
0.381186 0.319544 0.395303
0.418186 0.368202 0.404399
0.451602 0.415556 0.402547
0.483628 0.452570 0.402913
0.516275 0.482184 0.416875
0.551373 0.519318 0.454024
0.590569 0.590868 0.522164
0.327962 0.339655 0.312633
0.376018 0.332251 0.374385
0.416394 0.367550 0.398925
0.451602 0.415556 0.402547
0.483972 0.458248 0.399758
0.515654 0.489583 0.403278
0.548612 0.515499 0.424039
0.584630 0.553906 0.471183
0.625311 0.634696 0.552068
0.365500 0.369641 0.330762
0.410927 0.371584 0.381608
0.449481 0.408228 0.400376
0.483628 0.452570 0.402913
0.515654 0.489583 0.403278
0.547661 0.516222 0.413745
0.581570 0.541414 0.444799
0.619119 0.586067 0.505135
0.661864 0.683067 0.601665
0.401512 0.398270 0.349768
0.445056 0.405550 0.394246
0.482503 0.441524 0.411482
0.516275 0.482184 0.416875
0.548612 0.515499 0.424039
0.581570 0.541414 0.444799
0.617024 0.571854 0.489193
0.656668 0.630720 0.565472
0.702011 0.753893 0.680098
0.437962 0.431477 0.380583
0.480324 0.443078 0.422784
0.517336 0.479363 0.442280
0.551373 0.519318 0.454024
0.584630 0.553906 0.471183
0.619119 0.586067 0.505135
0.656668 0.630720 0.565472
0.698925 0.714762 0.659996
0.747354 0.877066 0.794724
0.476636 0.487176 0.432351
0.518471 0.505076 0.475918
0.555672 0.545647 0.501020
0.590569 0.590868 0.522164
0.625311 0.634696 0.552068
0.661864 0.683067 0.601665
0.702011 0.753893 0.680098
0.747354 0.877066 0.794724
0.799313 1.000000 0.951112
0.183791 0.361869 0.127377
0.244671 0.272415 0.253541
0.295267 0.261652 0.325305
0.338226 0.290598 0.360304
0.376018 0.332251 0.374385
0.410927 0.371584 0.381608
0.445056 0.405550 0.394246
0.480324 0.443078 0.422784
0.518471 0.505076 0.475918
0.244671 0.272415 0.253541
0.299952 0.229801 0.349417
0.345862 0.250888 0.397069
0.385004 0.299689 0.413685
0.419801 0.352196 0.414666
0.452491 0.396376 0.413625
0.485132 0.432177 0.422387
0.519600 0.471522 0.450991
0.557586 0.538314 0.507686
0.295267 0.261652 0.325305
0.345862 0.250888 0.397069
0.387969 0.290832 0.426487
0.424146 0.348490 0.430301
0.456770 0.402849 0.423465
0.488034 0.444872 0.419144
0.519950 0.477499 0.428717
0.554347 0.515649 0.461776
0.592873 0.586218 0.526123
0.338226 0.290598 0.360304
0.385004 0.299689 0.413685
0.424146 0.348490 0.430301
0.458166 0.407003 0.426447
0.489394 0.457208 0.416628
0.519978 0.493062 0.413565
0.551885 0.520501 0.428189
0.586898 0.557438 0.469644
0.626618 0.633764 0.545287
0.376018 0.332251 0.374385
0.419801 0.352196 0.414666
0.456770 0.402849 0.423465
0.489394 0.457208 0.416628
0.519957 0.500247 0.408216
0.550562 0.528917 0.410502
0.583130 0.552148 0.433969
0.619399 0.590848 0.487316
0.660925 0.677902 0.577452
0.410927 0.371584 0.381608
0.452491 0.396376 0.413625
0.488034 0.444872 0.419144
0.519978 0.493062 0.413565
0.550562 0.528917 0.410502
0.581844 0.552381 0.421780
0.615698 0.575380 0.457437
0.653817 0.621814 0.525723
0.697712 0.727564 0.633102
0.445056 0.405550 0.394246
0.485132 0.432177 0.422387
0.519950 0.477499 0.428717
0.551885 0.520501 0.428189
0.583130 0.552148 0.433969
0.615698 0.575380 0.457437
0.651418 0.605114 0.508182
0.691937 0.668249 0.594010
0.738719 0.803657 0.720934
0.480324 0.443078 0.422784
0.519600 0.471522 0.450991
0.554347 0.515649 0.461776
0.586898 0.557438 0.469644
0.619399 0.590848 0.487316
0.653817 0.621814 0.525723
0.691937 0.668249 0.594010
0.735358 0.760043 0.699532
0.785501 0.939065 0.847858
0.518471 0.505076 0.475918
0.557586 0.538314 0.507686
0.592873 0.586218 0.526123
0.626618 0.633764 0.545287
0.660925 0.677902 0.577452
0.697712 0.727564 0.633102
0.738719 0.803657 0.720934
0.785501 0.939065 0.847858
0.839433 1.000000 1.000000
0.239529 0.311761 0.226341
0.295267 0.261652 0.325305
0.341618 0.276242 0.375896
0.381186 0.319544 0.395303
0.416394 0.367550 0.398925
0.449481 0.408228 0.400376
0.482503 0.441524 0.411482
0.517336 0.479363 0.442280
0.555672 0.545647 0.501020
0.295267 0.261652 0.325305
0.345862 0.250888 0.397069
0.387969 0.290832 0.426487
0.424146 0.348490 0.430301
0.456770 0.402849 0.423465
0.488034 0.444872 0.419144
0.519950 0.477499 0.428717
0.554347 0.515649 0.461776
0.592873 0.586218 0.526123
0.341618 0.276242 0.375896
0.387969 0.290832 0.426487
0.426700 0.344133 0.440462
0.460324 0.406149 0.434115
0.491171 0.458858 0.421953
0.521389 0.496218 0.416696
0.552945 0.524165 0.429274
0.587623 0.560612 0.468833
0.627024 0.635449 0.542729
0.381186 0.319544 0.395303
0.424146 0.348490 0.430301
0.460324 0.406149 0.434115
0.492186 0.465516 0.422592
0.522018 0.511567 0.409791
0.551922 0.541253 0.407986
0.583819 0.563504 0.427661
0.619448 0.599228 0.477513
0.660364 0.681309 0.564451
0.416394 0.367550 0.398925
0.456770 0.402849 0.423465
0.491171 0.458858 0.421953
0.522018 0.511567 0.409791
0.551550 0.548945 0.400592
0.581826 0.570939 0.406181
0.614720 0.589473 0.436595
0.651925 0.628448 0.500086
0.694950 0.723745 0.603116
0.449481 0.408228 0.400376
0.488034 0.444872 0.419144
0.521389 0.496218 0.416696
0.551922 0.541253 0.407986
0.581826 0.570939 0.406181
0.613114 0.588218 0.422658
0.647614 0.608007 0.467010
0.686974 0.657203 0.547039
0.732658 0.774680 0.668761
0.482503 0.441524 0.411482
0.519950 0.477499 0.428717
0.552945 0.524165 0.429274
0.583819 0.563504 0.427661
0.614720 0.589473 0.436595
0.647614 0.608007 0.467010
0.684285 0.637018 0.528049
0.726334 0.706399 0.627068
0.775180 0.858016 0.769637
0.517336 0.479363 0.442280
0.554347 0.515649 0.461776
0.587623 0.560612 0.468833
0.619448 0.599228 0.477513
0.651925 0.628448 0.500086
0.686974 0.657203 0.547039
0.726334 0.706399 0.627068
0.771560 0.808922 0.747083
0.824027 1.000000 0.912205
0.555672 0.545647 0.501020
0.592873 0.586218 0.526123
0.627024 0.635449 0.542729
0.660364 0.681309 0.564451
0.694950 0.723745 0.603116
0.732658 0.774680 0.668761
0.775180 0.858016 0.769637
0.824027 1.000000 0.912205
0.880526 1.000000 1.000000
0.286748 0.314355 0.282662
0.338226 0.290598 0.360304
0.381186 0.319544 0.395303
0.418186 0.368202 0.404399
0.451602 0.415556 0.402547
0.483628 0.452570 0.402913
0.516275 0.482184 0.416875
0.551373 0.519318 0.454024
0.590569 0.590868 0.522164
0.338226 0.290598 0.360304
0.385004 0.299689 0.413685
0.424146 0.348490 0.430301
0.458166 0.407003 0.426447
0.489394 0.457208 0.416628
0.519978 0.493062 0.413565
0.551885 0.520501 0.428189
0.586898 0.557438 0.469644
0.626618 0.633764 0.545287
0.381186 0.319544 0.395303
0.424146 0.348490 0.430301
0.460324 0.406149 0.434115
0.492186 0.465516 0.422592
0.522018 0.511567 0.409791
0.551922 0.541253 0.407986
0.583819 0.563504 0.427661
0.619448 0.599228 0.477513
0.660364 0.681309 0.564451
0.418186 0.368202 0.404399
0.458166 0.407003 0.426447
0.492186 0.465516 0.422592
0.522667 0.519731 0.408236
0.551849 0.557618 0.396991
0.581790 0.579121 0.400683
0.614364 0.596167 0.429350
0.651264 0.632656 0.491243
0.693999 0.724468 0.592823
0.451602 0.415556 0.402547
0.489394 0.457208 0.416628
0.522018 0.511567 0.409791
0.551849 0.557618 0.396991
0.581083 0.586324 0.391393
0.611731 0.600625 0.404375
0.645621 0.615442 0.445530
0.684402 0.657669 0.522660
0.729537 0.766180 0.641781
0.483628 0.452570 0.402913
0.519978 0.493062 0.413565
0.551922 0.541253 0.407986
0.581790 0.579121 0.400683
0.611731 0.600625 0.404375
0.643710 0.611700 0.429995
0.679512 0.630258 0.486685
0.720737 0.686190 0.581802
0.768806 0.821365 0.720916
0.516275 0.482184 0.416875
0.551885 0.520501 0.428189
0.583819 0.563504 0.427661
0.614364 0.596167 0.429350
0.645621 0.615442 0.445530
0.679512 0.630258 0.486685
0.717773 0.661523 0.561512
0.761962 0.742122 0.676920
0.813453 0.916919 0.838032
0.551373 0.519318 0.454024
0.586898 0.557438 0.469644
0.619448 0.599228 0.477513
0.651264 0.632656 0.491243
0.684402 0.657669 0.522660
0.720737 0.686190 0.581802
0.761962 0.742122 0.676920
0.809588 0.861345 0.814475
0.864943 1.000000 0.999144
0.590569 0.590868 0.522164
0.626618 0.633764 0.545287
0.660364 0.681309 0.564451
0.693999 0.724468 0.592823
0.729537 0.766180 0.641781
0.768806 0.821365 0.720916
0.813453 0.916919 0.838032
0.864943 1.000000 0.999144
0.924558 1.000000 1.000000
0.327962 0.339655 0.312633
0.376018 0.332251 0.374385
0.416394 0.367550 0.398925
0.451602 0.415556 0.402547
0.483972 0.458248 0.399758
0.515654 0.489583 0.403278
0.548612 0.515499 0.424039
0.584630 0.553906 0.471183
0.625311 0.634696 0.552068
0.376018 0.332251 0.374385
0.419801 0.352196 0.414666
0.456770 0.402849 0.423465
0.489394 0.457208 0.416628
0.519957 0.500247 0.408216
0.550562 0.528917 0.410502
0.583130 0.552148 0.433969
0.619399 0.590848 0.487316
0.660925 0.677902 0.577452
0.416394 0.367550 0.398925
0.456770 0.402849 0.423465
0.491171 0.458858 0.421953
0.522018 0.511567 0.409791
0.551550 0.548945 0.400592
0.581826 0.570939 0.406181
0.614720 0.589473 0.436595
0.651925 0.628448 0.500086
0.694950 0.723745 0.603116
0.451602 0.415556 0.402547
0.489394 0.457208 0.416628
0.522018 0.511567 0.409791
0.551849 0.557618 0.396991
0.581083 0.586324 0.391393
0.611731 0.600625 0.404375
0.645621 0.615442 0.445530
0.684402 0.657669 0.522660
0.729537 0.766180 0.641781
0.483972 0.458248 0.399758
0.519957 0.500247 0.408216
0.551550 0.548945 0.400592
0.581083 0.586324 0.391393
0.610704 0.606339 0.393338
0.642378 0.614927 0.417358
0.677890 0.630001 0.472599
0.718841 0.681450 0.566416
0.766650 0.811144 0.704378
0.515654 0.489583 0.403278
0.550562 0.528917 0.410502
0.581826 0.570939 0.406181
0.611731 0.600625 0.404375
0.642378 0.614927 0.417358
0.675689 0.622774 0.455614
0.713402 0.645074 0.527839
0.757072 0.714712 0.640945
0.808074 0.876550 0.800051
0.548612 0.515499 0.424039
0.583130 0.552148 0.433969
0.614720 0.589473 0.436595
0.645621 0.615442 0.445530
0.677890 0.630001 0.472599
0.713402 0.645074 0.527839
0.753849 0.684564 0.619502
0.800743 0.784349 0.754050
0.855410 0.992288 0.936157
0.584630 0.553906 0.471183
0.619399 0.590848 0.487316
0.651925 0.628448 0.500086
0.684402 0.657669 0.522660
0.718841 0.681450 0.566416
0.757072 0.714712 0.640945
0.800743 0.784349 0.754050
0.851317 0.929237 0.911747
0.910078 1.000000 1.000000
0.625311 0.634696 0.552068
0.660925 0.677902 0.577452
0.694950 0.723745 0.603116
0.729537 0.766180 0.641781
0.766650 0.811144 0.704378
0.808074 0.876550 0.800051
0.855410 0.992288 0.936157
0.910078 1.000000 1.000000
0.973314 1.000000 1.000000
0.365500 0.369641 0.330762
0.410927 0.371584 0.381608
0.449481 0.408228 0.400376
0.483628 0.452570 0.402913
0.515654 0.489583 0.403278
0.547661 0.516222 0.413745
0.581570 0.541414 0.444799
0.619119 0.586067 0.505135
0.661864 0.683067 0.601665
0.410927 0.371584 0.381608
0.452491 0.396376 0.413625
0.488034 0.444872 0.419144
0.519978 0.493062 0.413565
0.550562 0.528917 0.410502
0.581844 0.552381 0.421780
0.615698 0.575380 0.457437
0.653817 0.621814 0.525723
0.697712 0.727564 0.633102
0.449481 0.408228 0.400376
0.488034 0.444872 0.419144
0.521389 0.496218 0.416696
0.551922 0.541253 0.407986
0.581826 0.570939 0.406181
0.613114 0.588218 0.422658
0.647614 0.608007 0.467010
0.686974 0.657203 0.547039
0.732658 0.774680 0.668761
0.483628 0.452570 0.402913
0.519978 0.493062 0.413565
0.551922 0.541253 0.407986
0.581790 0.579121 0.400683
0.611731 0.600625 0.404375
0.643710 0.611700 0.429995
0.679512 0.630258 0.486685
0.720737 0.686190 0.581802
0.768806 0.821365 0.720916
0.515654 0.489583 0.403278
0.550562 0.528917 0.410502
0.581826 0.570939 0.406181
0.611731 0.600625 0.404375
0.642378 0.614927 0.417358
0.675689 0.622774 0.455614
0.713402 0.645074 0.527839
0.757072 0.714712 0.640945
0.808074 0.876550 0.800051
0.547661 0.516222 0.413745
0.581844 0.552381 0.421780
0.613114 0.588217 0.422658
0.643710 0.611700 0.429995
0.675689 0.622774 0.455614
0.710927 0.633365 0.509554
0.751115 0.667374 0.600065
0.797764 0.760681 0.733610
0.852203 0.961142 0.914864
0.581570 0.541414 0.444799
0.615698 0.575380 0.457437
0.647614 0.608007 0.467010
0.679512 0.630258 0.486685
0.713402 0.645074 0.527839
0.751115 0.667374 0.600065
0.794297 0.724054 0.711165
0.844413 0.853987 0.867155
0.902747 1.000000 1.000000
0.619119 0.586067 0.505135
0.653817 0.621814 0.525723
0.686974 0.657203 0.547039
0.720737 0.686190 0.581802
0.757072 0.714712 0.640945
0.797764 0.760681 0.733610
0.844413 0.853987 0.867155
0.898440 1.000000 1.000000
0.961080 1.000000 1.000000
0.661864 0.683067 0.601665
0.697712 0.727564 0.633102
0.732658 0.774680 0.668761
0.768806 0.821365 0.720916
0.808074 0.876550 0.800051
0.852203 0.961142 0.914864
0.902747 1.000000 1.000000
0.961080 1.000000 1.000000
1.000000 1.000000 1.000000
0.401512 0.398270 0.349768
0.445056 0.405550 0.394246
0.482503 0.441524 0.411482
0.516275 0.482184 0.416875
0.548612 0.515499 0.424039
0.581570 0.541414 0.444799
0.617024 0.571854 0.489193
0.656668 0.630720 0.565472
0.702011 0.753893 0.680098
0.445056 0.405550 0.394246
0.485132 0.432177 0.422387
0.519950 0.477499 0.428717
0.551885 0.520501 0.428189
0.583130 0.552148 0.433969
0.615698 0.575380 0.457437
0.651418 0.605114 0.508182
0.691937 0.668249 0.594010
0.738719 0.803657 0.720934
0.482503 0.441524 0.411482
0.519950 0.477499 0.428717
0.552945 0.524165 0.429274
0.583819 0.563504 0.427661
0.614720 0.589473 0.436595
0.647614 0.608007 0.467010
0.684285 0.637018 0.528049
0.726334 0.706399 0.627068
0.775180 0.858016 0.769637
0.516275 0.482184 0.416875
0.551885 0.520501 0.428189
0.583819 0.563504 0.427661
0.614364 0.596167 0.429350
0.645621 0.615442 0.445530
0.679512 0.630258 0.486685
0.717773 0.661523 0.561512
0.761962 0.742122 0.676920
0.813453 0.916919 0.838032
0.548612 0.515499 0.424039
0.583130 0.552148 0.433969
0.614720 0.589473 0.436595
0.645621 0.615442 0.445530
0.677890 0.630001 0.472599
0.713402 0.645074 0.527839
0.753849 0.684564 0.619502
0.800743 0.784349 0.754050
0.855410 0.992288 0.936157
0.581570 0.541414 0.444799
0.615698 0.575380 0.457437
0.647614 0.608007 0.467010
0.679512 0.630258 0.486685
0.713402 0.645074 0.527839
0.751115 0.667374 0.600065
0.794297 0.724054 0.711165
0.844413 0.853987 0.867155
0.902747 1.000000 1.000000
0.617024 0.571854 0.489193
0.651418 0.605114 0.508182
0.684285 0.637018 0.528049
0.717773 0.661523 0.561512
0.753849 0.684564 0.619502
0.794297 0.724054 0.711165
0.840717 0.809883 0.843856
0.894530 0.983921 1.000000
0.956971 1.000000 1.000000
0.656668 0.630720 0.565472
0.691937 0.668249 0.594010
0.726334 0.706399 0.627068
0.761962 0.742122 0.676920
0.800743 0.784349 0.754050
0.844413 0.853987 0.867155
0.894530 0.983921 1.000000
0.952466 1.000000 1.000000
1.000000 1.000000 1.000000
0.702011 0.753893 0.680098
0.738719 0.803657 0.720934
0.775180 0.858016 0.769637
0.813453 0.916919 0.838032
0.855410 0.992288 0.936157
0.902747 1.000000 1.000000
0.956971 1.000000 1.000000
1.000000 1.000000 1.000000
1.000000 1.000000 1.000000
0.437962 0.431477 0.380583
0.480324 0.443078 0.422784
0.517336 0.479363 0.442280
0.551373 0.519318 0.454024
0.584630 0.553906 0.471183
0.619119 0.586067 0.505135
0.656668 0.630720 0.565472
0.698925 0.714762 0.659996
0.747354 0.877066 0.794724
0.480324 0.443078 0.422784
0.519600 0.471522 0.450991
0.554347 0.515649 0.461776
0.586898 0.557438 0.469644
0.619399 0.590848 0.487316
0.653817 0.621814 0.525723
0.691937 0.668249 0.594010
0.735358 0.760043 0.699532
0.785501 0.939065 0.847858
0.517336 0.479363 0.442280
0.554347 0.515649 0.461776
0.587623 0.560612 0.468833
0.619448 0.599228 0.477513
0.651925 0.628448 0.500086
0.686974 0.657203 0.547039
0.726334 0.706399 0.627068
0.771560 0.808922 0.747083
0.824027 1.000000 0.912205
0.551373 0.519318 0.454024
0.586898 0.557438 0.469644
0.619448 0.599228 0.477513
0.651264 0.632656 0.491243
0.684402 0.657669 0.522660
0.720737 0.686190 0.581802
0.761962 0.742122 0.676920
0.809588 0.861345 0.814475
0.864943 1.000000 0.999144
0.584630 0.553906 0.471183
0.619399 0.590848 0.487316
0.651925 0.628448 0.500086
0.684402 0.657669 0.522660
0.718841 0.681450 0.566416
0.757072 0.714712 0.640945
0.800743 0.784349 0.754050
0.851317 0.929237 0.911747
0.910078 1.000000 1.000000
0.619119 0.586067 0.505135
0.653817 0.621814 0.525723
0.686974 0.657203 0.547039
0.720737 0.686190 0.581802
0.757072 0.714712 0.640945
0.797764 0.760681 0.733610
0.844413 0.853987 0.867155
0.898440 1.000000 1.000000
0.961080 1.000000 1.000000
0.656668 0.630720 0.565472
0.691937 0.668249 0.594010
0.726334 0.706399 0.627068
0.761962 0.742122 0.676920
0.800743 0.784349 0.754050
0.844413 0.853987 0.867155
0.894530 0.983921 1.000000
0.952466 1.000000 1.000000
1.000000 1.000000 1.000000
0.698925 0.714762 0.659996
0.735358 0.760043 0.699532
0.771560 0.808922 0.747083
0.809588 0.861345 0.814475
0.851317 0.929237 0.911747
0.898440 1.000000 1.000000
0.952466 1.000000 1.000000
1.000000 1.000000 1.000000
1.000000 1.000000 1.000000
0.747354 0.877066 0.794724
0.785501 0.939065 0.847858
0.824027 1.000000 0.912205
0.864943 1.000000 0.999144
0.910078 1.000000 1.000000
0.961080 1.000000 1.000000
1.000000 1.000000 1.000000
1.000000 1.000000 1.000000
1.000000 1.000000 1.000000
0.476636 0.487176 0.432351
0.518471 0.505076 0.475918
0.555672 0.545647 0.501020
0.590569 0.590868 0.522164
0.625311 0.634696 0.552068
0.661864 0.683067 0.601665
0.702011 0.753893 0.680098
0.747354 0.877066 0.794724
0.799313 1.000000 0.951112
0.518471 0.505076 0.475918
0.557586 0.538314 0.507686
0.592873 0.586218 0.526123
0.626618 0.633764 0.545287
0.660925 0.677902 0.577452
0.697712 0.727564 0.633102
0.738719 0.803657 0.720934
0.785501 0.939065 0.847858
0.839433 1.000000 1.000000
0.555672 0.545647 0.501020
0.592873 0.586218 0.526123
0.627024 0.635449 0.542729
0.660364 0.681309 0.564451
0.694950 0.723745 0.603116
0.732658 0.774680 0.668761
0.775180 0.858016 0.769637
0.824027 1.000000 0.912205
0.880526 1.000000 1.000000
0.590569 0.590868 0.522164
0.626618 0.633764 0.545287
0.660364 0.681309 0.564451
0.693999 0.724468 0.592823
0.729537 0.766180 0.641781
0.768806 0.821365 0.720916
0.813453 0.916919 0.838032
0.864943 1.000000 0.999144
0.924558 1.000000 1.000000
0.625311 0.634696 0.552068
0.660925 0.677902 0.577452
0.694950 0.723745 0.603116
0.729537 0.766180 0.641781
0.766650 0.811144 0.704378
0.808074 0.876550 0.800051
0.855410 0.992288 0.936157
0.910078 1.000000 1.000000
0.973314 1.000000 1.000000
0.661864 0.683067 0.601665
0.697712 0.727564 0.633102
0.732658 0.774680 0.668761
0.768806 0.821365 0.720916
0.808074 0.876550 0.800051
0.852203 0.961142 0.914864
0.902747 1.000000 1.000000
0.961080 1.000000 1.000000
1.000000 1.000000 1.000000
0.702011 0.753893 0.680098
0.738719 0.803657 0.720934
0.775180 0.858016 0.769637
0.813453 0.916919 0.838032
0.855410 0.992288 0.936157
0.902747 1.000000 1.000000
0.956971 1.000000 1.000000
1.000000 1.000000 1.000000
1.000000 1.000000 1.000000
0.747354 0.877066 0.794724
0.785501 0.939065 0.847858
0.824027 1.000000 0.912205
0.864943 1.000000 0.999144
0.910078 1.000000 1.000000
0.961080 1.000000 1.000000
1.000000 1.000000 1.000000
1.000000 1.000000 1.000000
1.000000 1.000000 1.000000
0.799313 1.000000 0.951112
0.839433 1.000000 1.000000
0.880526 1.000000 1.000000
0.924558 1.000000 1.000000
0.973314 1.000000 1.000000
1.000000 1.000000 1.000000
1.000000 1.000000 1.000000
1.000000 1.000000 1.000000
1.000000 1.000000 1.000000
