public/luts/cinestill_800.cube
# Generated from ColorChecker fit
LUT_3D_SIZE 5
DOMAIN_MIN 0.0 0.0 0.0
DOMAIN_MAX 1.0 1.0 1.0
0.153868 0.000000 0.085080
0.000000 0.000000 0.000000
0.000000 0.146447 0.194093
0.000000 0.402720 0.723947
0.000000 0.308183 1.000000
0.000000 0.000000 0.194532
0.000000 0.000000 0.120404
0.000000 0.000000 0.309683
0.000000 0.000000 0.597019
0.000000 0.000000 0.927382
0.000000 0.361801 0.000000
0.000000 0.361531 0.000000
0.000000 0.295088 0.198140
0.000000 0.287662 0.484438
0.000000 0.000000 0.528689
0.000000 0.000000 0.000000
0.000000 0.106859 0.000000
0.000000 0.288678 0.225433
0.085059 0.550357 0.797018
0.000000 0.531754 0.905976
0.000000 0.000000 0.000000
0.000000 0.000000 0.000000
0.000000 0.000000 1.000000
0.000000 0.000000 1.000000
0.000000 0.000000 1.000000
0.697728 0.051254 0.428890
0.421353 0.414188 0.000000
0.238095 0.752325 0.000000
0.249102 1.000000 0.126512
0.428474 1.000000 0.762585
0.577194 0.346208 0.651737
0.362157 0.305586 0.263598
0.243006 0.248253 0.231047
0.253710 0.286387 0.369819
0.301193 0.032259 0.605969
0.219011 0.835010 0.404981
0.198311 0.669827 0.141521
0.250738 0.507933 0.280611
0.343088 0.476089 0.498606
0.315107 0.201145 0.582180
0.000000 0.348727 0.000000
0.000000 0.378267 0.000000
0.142627 0.443013 0.362387
0.427712 0.684306 0.887302
0.409833 0.743576 1.000000
0.000000 0.000000 0.000000
0.000000 0.000000 0.177538
0.000000 0.000000 1.000000
0.149216 0.000000 1.000000
0.256147 0.000000 1.000000
0.882402 0.000000 0.589445
0.674312 0.163109 0.036450
0.592597 0.826899 0.000000
0.772693 1.000000 0.032226
1.000000 1.000000 0.563719
1.000000 0.263181 1.000000
0.721635 0.314564 0.429325
0.551602 0.328139 0.281815
0.590783 0.417658 0.355389
0.780393 0.196961 0.557190
0.906631 1.000000 0.983283
0.641710 0.828457 0.387969
0.506799 0.545109 0.317156
0.502981 0.397939 0.428283
0.504294 0.015369 0.489111
0.380506 0.947713 0.739504
0.339758 0.695608 0.160737
0.392550 0.508917 0.271201
0.472791 0.530555 0.588952
0.387341 0.403524 0.742372
0.000000 0.000000 0.861687
0.000000 0.000000 0.384400
0.000000 0.000000 0.825563
0.194875 0.000000 1.000000
0.153337 0.000000 1.000000
0.000000 0.000000 0.000000
0.063221 0.000000 0.000000
0.550860 0.000000 0.000000
1.000000 1.000000 0.293348
1.000000 1.000000 1.000000
0.538117 0.000000 0.362553
0.578534 0.000000 0.085355
0.751310 0.019387 0.277595
1.000000 0.639031 0.717178
1.000000 0.865601 1.000000
1.000000 0.562699 0.953396
0.917715 0.645686 0.382510
0.915034 0.676170 0.434572
1.000000 0.784056 0.748107
1.000000 0.599337 1.000000
1.000000 1.000000 1.000000
1.000000 1.000000 0.432026
1.000000 1.000000 0.389864
1.000000 1.000000 0.687795
1.000000 1.000000 0.935286
0.509025 0.000000 1.000000
0.631833 0.000000 0.834288
0.813028 0.000000 0.788698
0.953634 0.000000 1.000000
0.827624 0.075391 1.000000
0.000000 0.000000 0.000000
0.000000 0.000000 0.000000
0.000000 0.000000 0.000000
0.502247 0.000000 0.000000
1.000000 1.000000 1.000000
0.000000 0.000000 0.000000
0.000000 0.000000 0.000000
0.000000 0.000000 0.000000
0.821627 0.000000 0.456687
1.000000 1.000000 1.000000
0.000000 0.000000 0.000000
0.000000 0.000000 0.000000
0.173782 0.000000 0.000000
1.000000 0.546349 0.770769
1.000000 1.000000 1.000000
0.000000 0.000000 0.235791
0.413160 0.221806 0.000000
0.986220 0.974315 0.000000
1.000000 1.000000 0.807713
1.000000 1.000000 1.000000
0.524131 0.000000 1.000000
1.000000 0.000000 0.766598
1.000000 0.236234 0.671010
1.000000 1.000000 1.000000
1.000000 1.000000 1.000000
