public/luts/cinechrome.cube
# Generated from ColorChecker fit
LUT_3D_SIZE 5
DOMAIN_MIN 0.0 0.0 0.0
DOMAIN_MAX 1.0 1.0 1.0
0.000000 0.000000 0.226420
0.000000 0.000000 0.166941
0.181822 0.044445 0.495300
0.640724 0.000000 0.681474
0.000228 0.000000 0.000000
0.006516 0.259272 1.000000
0.000000 0.502256 0.859788
0.003103 0.531082 0.675078
0.000000 0.000000 0.000000
0.000000 0.000000 0.000000
0.000000 0.146761 1.000000
0.000000 0.711260 1.000000
0.000000 0.298708 0.753558
0.000000 0.000000 0.000000
0.000000 0.000000 0.000000
0.137753 1.000000 1.000000
0.761859 1.000000 1.000000
0.158981 1.000000 1.000000
0.000000 0.000000 1.000000
0.000000 0.000000 0.000000
1.000000 1.000000 1.000000
1.000000 1.000000 1.000000
1.000000 1.000000 1.000000
0.383536 0.217697 1.000000
0.000000 0.000000 1.000000
0.308088 0.071681 0.000000
0.000000 0.000000 0.000000
0.466282 0.000000 0.174847
1.000000 0.151771 1.000000
1.000000 0.000000 1.000000
0.458921 0.498875 0.452885
0.255388 0.316856 0.292590
0.493792 0.435538 0.589197
0.594501 0.035427 0.887178
0.000000 0.000000 0.320723
0.000000 0.253885 0.399423
0.142431 0.579267 0.427231
0.134971 0.432505 0.647638
0.000000 0.000000 0.441108
0.000000 0.000000 0.000000
0.293647 1.000000 1.000000
1.000000 1.000000 1.000000
0.981692 1.000000 1.000000
0.000000 0.000000 1.000000
0.000000 0.000000 0.497325
1.000000 1.000000 1.000000
1.000000 1.000000 1.000000
1.000000 1.000000 1.000000
1.000000 1.000000 1.000000
0.000000 0.000000 1.000000
0.847858 0.609404 0.000000
0.106026 0.000000 0.000000
0.586016 0.000000 0.124482
1.000000 0.987636 1.000000
1.000000 1.000000 1.000000
0.894756 0.904202 0.420351
0.442924 0.278073 0.278322
0.754020 0.507998 0.662967
1.000000 1.000000 1.000000
1.000000 0.724151 1.000000
0.263395 0.384108 0.118798
0.297443 0.426378 0.234781
0.496999 0.541906 0.569088
0.259183 0.052564 0.740683
0.000000 0.000000 0.000000
0.257937 0.828210 0.535209
1.000000 1.000000 1.000000
1.000000 1.000000 1.000000
0.212507 0.000000 1.000000
0.000000 0.000000 1.000000
1.000000 1.000000 1.000000
1.000000 1.000000 1.000000
1.000000 1.000000 1.000000
1.000000 1.000000 1.000000
0.000000 0.000000 1.000000
1.000000 1.000000 0.000000
0.237697 0.000000 0.000000
0.588733 0.000000 0.000000
1.000000 1.000000 1.000000
1.000000 1.000000 1.000000
1.000000 1.000000 0.613820
0.713516 0.373928 0.450360
1.000000 0.736719 0.622259
1.000000 1.000000 1.000000
1.000000 1.000000 1.000000
0.779799 0.748907 0.243120
0.620909 0.464303 0.414926
0.917774 0.838857 0.569694
1.000000 1.000000 0.564889
0.691297 1.000000 0.000000
0.538980 0.753603 0.297272
1.000000 1.000000 1.000000
1.000000 1.000000 1.000000
1.000000 1.000000 1.000000
0.000000 0.000000 0.720316
1.000000 1.000000 1.000000
1.000000 1.000000 1.000000
1.000000 1.000000 1.000000
1.000000 1.000000 1.000000
0.357653 0.000000 1.000000
1.000000 0.874731 0.000000
0.000000 0.000000 0.000000
0.000000 0.000000 0.000000
1.000000 1.000000 0.000000
1.000000 1.000000 0.231790
1.000000 1.000000 0.000000
0.512237 0.000000 0.000000
0.707902 0.508915 0.000000
1.000000 1.000000 0.000000
1.000000 1.000000 0.000000
1.000000 0.958716 0.000000
0.728333 0.303713 0.210226
1.000000 0.934261 0.000000
1.000000 1.000000 0.000000
1.000000 1.000000 0.000000
0.897394 0.765256 0.097361
1.000000 1.000000 1.000000
1.000000 1.000000 1.000000
1.000000 1.000000 1.000000
1.000000 1.000000 0.000000
1.000000 1.000000 1.000000
1.000000 1.000000 1.000000
1.000000 1.000000 1.000000
1.000000 1.000000 1.000000
1.000000 1.000000 1.000000
