public/luts/cinechrome.cube
# Generated from ColorChecker fit
LUT_3D_SIZE 33
DOMAIN_MIN 0.0 0.0 0.0
DOMAIN_MAX 1.0 1.0 1.0
0.000000 0.000000 0.226420
0.000000 0.000000 0.189738
0.000000 0.000000 0.161630
0.000000 0.000000 0.142112
0.000000 0.000000 0.131100
0.000000 0.000000 0.128411
0.000000 0.000000 0.133761
0.000000 0.000000 0.146766
0.000000 0.000000 0.166941
0.000000 0.000000 0.193701
0.000000 0.000000 0.226363
0.000000 0.000000 0.264141
0.000000 0.000000 0.306151
0.000000 0.000000 0.351407
0.034618 0.000000 0.398825
0.107190 0.014263 0.447217
0.181822 0.044445 0.495300
0.256972 0.065803 0.541687
0.330968 0.075470 0.584893
0.402009 0.070356 0.623330
0.468163 0.047154 0.655314
0.527368 0.002334 0.679056
0.577433 0.000000 0.692672
0.616035 0.000000 0.694174
0.640724 0.000000 0.681474
0.648917 0.000000 0.652387
0.637903 0.000000 0.604624
0.604839 0.000000 0.535799
0.546755 0.000000 0.443423
0.460549 0.000000 0.324909
0.342989 0.000000 0.177569
0.190712 0.000000 0.000000
0.000228 0.000000 0.000000
0.000000 0.000000 0.425686
0.000000 0.000000 0.384280
0.000000 0.000000 0.351182
0.000000 0.000000 0.326367
0.000000 0.000000 0.309713
0.000000 0.000000 0.300994
0.000000 0.000000 0.299887
0.000000 0.000000 0.305968
0.000000 0.000000 0.318713
0.000000 0.000000 0.337497
0.000000 0.000000 0.361595
0.000000 0.022274 0.390183
0.000000 0.061533 0.422335
0.030455 0.100187 0.457026
0.091814 0.136201 0.493132
0.155568 0.167318 0.529426
0.220254 0.191062 0.564584
0.284277 0.204736 0.597178
0.345915 0.205423 0.625683
0.403314 0.189987 0.648474
0.454490 0.155069 0.663823
0.497330 0.097092 0.669904
0.529590 0.012258 0.664791
0.548897 0.000000 0.646456
0.552747 0.000000 0.612773
0.538506 0.000000 0.561514
0.503412 0.000000 0.490353
0.444570 0.000000 0.396861
0.358956 0.000000 0.278512
0.243419 0.000000 0.132676
0.094672 0.000000 0.000000
0.000000 0.000000 0.000000
0.000000 0.000000 0.000000
0.000000 0.021626 0.600889
0.000000 0.002696 0.555235
0.000000 0.000000 0.517631
0.000000 0.000000 0.488014
0.000000 0.000000 0.466221
0.000000 0.000000 0.451987
0.000000 0.011777 0.444949
0.000000 0.033623 0.444642
0.000000 0.060880 0.450502
0.000000 0.092563 0.461864
0.000000 0.127469 0.477964
0.000000 0.164174 0.497937
0.024515 0.201033 0.520817
0.075279 0.236183 0.545540
0.128714 0.267538 0.570941
0.183433 0.292794 0.595753
0.237922 0.309424 0.618611
0.290536 0.314683 0.638049
0.339497 0.305606 0.652501
0.382903 0.279005 0.660301
0.418716 0.231475 0.659683
0.444771 0.159389 0.648779
0.458774 0.058899 0.625624
0.458298 0.000000 0.588150
0.440789 0.000000 0.534191
0.403560 0.000000 0.461479
0.343797 0.000000 0.367647
0.258554 0.000000 0.250227
0.144756 0.000000 0.106651
0.000000 0.000000 0.000000
0.000000 0.000000 0.000000
0.000000 0.000000 0.000000
0.000000 0.000000 0.000000
0.001099 0.108187 0.751949
0.000000 0.095954 0.702551
0.000000 0.089784 0.660959
0.000000 0.089966 0.627067
0.000000 0.096570 0.600672
0.000000 0.109444 0.581470
0.000000 0.128217 0.569058
0.000000 0.152297 0.562930
0.000000 0.180871 0.562483
0.000000 0.212908 0.567011
0.000000 0.247154 0.575711
0.016731 0.282137 0.587677
0.057623 0.316163 0.601904
0.101400 0.347318 0.617287
0.146755 0.373470 0.632620
0.192251 0.392263 0.646598
0.236321 0.401124 0.657816
0.277267 0.397257 0.664767
0.313262 0.377648 0.665845
0.342349 0.339062 0.659344
0.362441 0.278042 0.643457
0.371320 0.190914 0.616278
0.366639 0.073780 0.575801
0.345921 0.000000 0.519918
0.306559 0.000000 0.446422
0.245815 0.000000 0.353007
0.160822 0.000000 0.237264
0.048583 0.000000 0.096686
0.000000 0.000000 0.000000
0.000000 0.000000 0.000000
0.000000 0.000000 0.000000
0.000000 0.000000 0.000000
0.000000 0.000000 0.000000
0.033202 0.173442 0.879186
0.000000 0.168099 0.826585
0.000000 0.168142 0.781552
0.000000 0.173813 0.743945
0.000000 0.185130 0.713518
0.000000 0.201894 0.689927
0.000000 0.223684 0.672730
0.000000 0.249859 0.661382
0.000000 0.279557 0.655237
0.000000 0.311699 0.653552
0.006971 0.344980 0.655482
0.038814 0.377881 0.660081
0.073699 0.408659 0.666305
0.110394 0.435350 0.673008
0.147541 0.455772 0.678946
0.183652 0.467522 0.682771
0.217106 0.467977 0.683039
0.246156 0.454293 0.678204
0.268921 0.423406 0.666619
0.283393 0.372031 0.646538
0.287432 0.296664 0.616115
0.278770 0.193581 0.573403
0.255007 0.058836 0.516355
0.213614 0.000000 0.442825
0.151933 0.000000 0.350565
0.067174 0.000000 0.237228
0.000000 0.000000 0.100367
0.000000 0.000000 0.000000
0.000000 0.000000 0.000000
0.000000 0.000000 0.000000
0.000000 0.000000 0.000000
0.000000 0.000000 0.000000
0.000000 0.000000 0.000000
0.048157 0.219116 0.983329
0.013321 0.220877 0.928096
0.000000 0.227293 0.880205
0.000000 0.238554 0.839472
0.000000 0.254632 0.805615
0.000000 0.275277 0.778248
0.000000 0.300020 0.756888
0.000000 0.328171 0.740951
0.000000 0.358820 0.729751
0.000000 0.390837 0.722505
0.018755 0.422870 0.718327
0.045614 0.453349 0.716232
0.074458 0.480482 0.715136
0.104004 0.502259 0.713853
0.132843 0.516446 0.711097
0.159433 0.520592 0.705483
0.182104 0.512024 0.695525
0.199054 0.487851 0.679637
0.208353 0.444958 0.656132
0.207939 0.380012 0.623226
0.195622 0.289461 0.579030
0.169081 0.169529 0.521559
0.125865 0.016224 0.448725
0.063392 0.000000 0.358342
0.000000 0.000000 0.248122
0.000000 0.000000 0.115678
0.000000 0.000000 0.000000
0.000000 0.000000 0.000000
0.000000 0.000000 0.000000
0.000000 0.000000 0.000000
0.000000 0.000000 0.000000
0.000000 0.000000 0.000000
0.000000 0.000000 0.000000
0.047518 0.247160 1.000000
0.015773 0.256258 1.000000
0.000000 0.269222 0.958113
0.000000 0.286196 0.914880
0.000000 0.307102 0.878226
0.000000 0.331640 0.847727
0.000000 0.359293 0.822858
0.000000 0.389322 0.802996
0.000000 0.420767 0.787416
0.000000 0.452449 0.775293
0.017084 0.482969 0.765702
0.038986 0.510706 0.757619
0.061782 0.533819 0.749917
0.084139 0.550250 0.741373
0.104596 0.557715 0.730659
0.121558 0.553716 0.716351
0.133304 0.535529 0.696922
0.137979 0.500213 0.670747
0.133603 0.444607 0.636100
0.118061 0.365328 0.591153
0.089111 0.258773 0.533981
0.044380 0.121120 0.462557
0.000000 0.000000 0.374753
0.000000 0.000000 0.268344
0.000000 0.000000 0.141001
0.000000 0.000000 0.000000
0.000000 0.000000 0.000000
0.000000 0.000000 0.000000
0.000000 0.000000 0.000000
0.000000 0.000000 0.000000
0.000000 0.000000 0.000000
0.000000 0.000000 0.000000
0.000000 0.000000 0.000000
0.033008 0.259746 1.000000
0.004747 0.276433 1.000000
0.000000 0.296144 1.000000
0.000000 0.318973 0.971801
0.000000 0.344793 0.933017
0.000000 0.373256 0.900062
0.000000 0.403794 0.872372
0.000000 0.435621 0.849282
0.000000 0.467728 0.830028
0.000000 0.498886 0.813745
0.003950 0.527646 0.799469
0.020949 0.552340 0.786134
0.037719 0.571078 0.772575
0.052875 0.581751 0.757526
0.064902 0.582029 0.739622
0.072156 0.569361 0.717398
0.072862 0.540978 0.689287
0.065116 0.493888 0.653623
0.046882 0.424880 0.608640
0.015996 0.330524 0.552472
0.000000 0.207167 0.483152
0.000000 0.050939 0.398614
0.000000 0.000000 0.296689
0.000000 0.000000 0.175113
0.000000 0.000000 0.031516
0.000000 0.000000 0.000000
0.000000 0.000000 0.000000
0.000000 0.000000 0.000000
0.000000 0.000000 0.000000
0.000000 0.000000 0.000000
0.000000 0.000000 0.000000
0.000000 0.000000 0.000000
0.000000 0.000000 0.000000
0.006516 0.259272 1.000000
0.000000 0.283820 1.000000
0.000000 0.310494 1.000000
0.000000 0.339340 1.000000
0.000000 0.370180 0.972060
0.000000 0.402618 0.937358
0.000000 0.436038 0.907565
0.000000 0.469603 0.881976
0.000000 0.502256 0.859788
0.000000 0.532719 0.840095
0.000000 0.559495 0.821892
0.000000 0.580865 0.804075
0.004484 0.594891 0.785438
0.012452 0.599415 0.764675
0.016031 0.592058 0.740381
0.013523 0.570220 0.711051
0.003103 0.531082 0.675078
0.000000 0.471605 0.630755
0.000000 0.388528 0.576278
0.000000 0.278371 0.509739
0.000000 0.137434 0.429132
0.000000 0.000000 0.332350
0.000000 0.000000 0.217186
0.000000 0.000000 0.081333
0.000000 0.000000 0.000000
0.000000 0.000000 0.000000
0.000000 0.000000 0.000000
0.000000 0.000000 0.000000
0.000000 0.000000 0.000000
0.000000 0.000000 0.000000
0.000000 0.000000 0.000000
0.000000 0.000000 0.000000
0.000000 0.000000 0.000000
0.000000 0.248357 1.000000
0.000000 0.281058 1.000000
0.000000 0.314933 1.000000
0.000000 0.349976 1.000000
0.000000 0.385962 0.997833
0.000000 0.422446 0.962125
0.000000 0.458763 0.930980
0.000000 0.494027 0.903654
0.000000 0.527130 0.879302
0.000000 0.556748 0.856981
0.000000 0.581333 0.835644
0.000000 0.599118 0.814146
0.000000 0.608115 0.791243
0.000000 0.606118 0.765588
0.000000 0.590698 0.735737
0.000000 0.559207 0.700142
0.000000 0.508777 0.657159
0.000000 0.436319 0.605042
0.000000 0.338524 0.541943
0.000000 0.211862 0.465916
0.000000 0.052585 0.374915
0.000000 0.000000 0.266793
0.000000 0.000000 0.139303
0.000000 0.000000 0.000000
0.000000 0.000000 0.000000
0.000000 0.000000 0.000000
0.000000 0.000000 0.000000
0.000000 0.000000 0.000000
0.000000 0.000000 0.000000
0.000000 0.000000 0.000000
0.000000 0.000000 0.000000
0.000000 0.000000 0.000000
0.000000 0.000000 0.000000
0.000000 0.229846 1.000000
0.000000 0.271012 1.000000
0.000000 0.312343 1.000000
0.000000 0.353785 1.000000
0.000000 0.395063 1.000000
0.000000 0.435683 0.977276
0.000000 0.474932 0.945562
0.000000 0.511873 0.917293
0.000000 0.545352 0.891582
0.000000 0.573993 0.867445
0.000000 0.596200 0.843798
0.000000 0.610158 0.819454
0.000000 0.613830 0.793129
0.000000 0.604959 0.763437
0.000000 0.581069 0.728893
0.000000 0.539462 0.687910
0.000000 0.477221 0.638802
0.000000 0.391209 0.579783
0.000000 0.278066 0.508968
0.000000 0.134216 0.424369
0.000000 0.000000 0.323899
0.000000 0.000000 0.205373
0.000000 0.000000 0.066502
0.000000 0.000000 0.000000
0.000000 0.000000 0.000000
0.000000 0.000000 0.000000
0.000000 0.000000 0.000000
0.000000 0.000000 0.000000
0.000000 0.000000 0.000000
0.000000 0.000000 0.000000
0.000000 0.000000 0.000000
0.000000 0.000000 0.000000
0.000000 0.000000 0.000000
0.000000 0.206808 1.000000
0.000000 0.256770 1.000000
0.000000 0.305833 1.000000
0.000000 0.353894 1.000000
0.000000 0.400629 1.000000
0.000000 0.445495 0.986130
0.000000 0.487730 0.954664
0.000000 0.526348 0.926277
0.000000 0.560146 0.900043
0.000000 0.587699 0.874938
0.000000 0.607362 0.849836
0.000000 0.617271 0.823513
0.000000 0.615340 0.794643
0.000000 0.599263 0.761801
0.000000 0.566514 0.723460
0.000000 0.514348 0.677995
0.000000 0.439798 0.623679
0.000000 0.339676 0.558688
0.000000 0.210577 0.481093
0.000000 0.048873 0.388869
0.000000 0.000000 0.279889
0.000000 0.000000 0.151926
0.000000 0.000000 0.002653
0.000000 0.000000 0.000000
0.000000 0.000000 0.000000
0.000000 0.000000 0.000000
0.000000 0.000000 0.000000
0.000000 0.000000 0.000000
0.000000 0.000000 0.000000
0.000000 0.000000 0.000000
0.000000 0.000000 0.000000
0.000000 0.000000 0.000000
0.000000 0.000000 0.000000
0.000000 0.182535 1.000000
0.000000 0.241644 1.000000
0.000000 0.298734 1.000000
0.000000 0.353654 1.000000
0.000000 0.406031 1.000000
0.000000 0.455273 0.992413
0.000000 0.500567 0.962043
0.000000 0.540882 0.934396
0.000000 0.574962 0.908507
0.000000 0.601335 0.883312
0.000000 0.618307 0.857645
0.000000 0.623964 0.830241
0.000000 0.616172 0.799735
0.000000 0.592575 0.764661
0.000000 0.550600 0.723453
0.000000 0.487451 0.674445
0.000000 0.400112 0.615872
0.000000 0.285348 0.545867
0.000000 0.139702 0.462463
0.000000 0.000000 0.363594
0.000000 0.000000 0.247093
0.000000 0.000000 0.110694
0.000000 0.000000 0.000000
0.000000 0.000000 0.000000
0.000000 0.000000 0.000000
0.000000 0.000000 0.000000
0.000000 0.000000 0.000000
0.000000 0.000000 0.000000
0.000000 0.000000 0.000000
0.000000 0.000000 0.000000
0.000000 0.000000 0.000000
0.000000 0.000000 0.000000
0.000000 0.000000 0.000000
0.000000 0.160542 1.000000
0.000000 0.229168 1.000000
0.000000 0.294601 1.000000
0.000000 0.356639 1.000000
0.000000 0.414863 1.000000
0.000000 0.468630 1.000000
0.000000 0.517078 0.971859
0.000000 0.559127 0.945843
0.000000 0.593473 0.921200
0.000000 0.618594 0.896825
0.000000 0.632747 0.871514
0.000000 0.633970 0.843960
0.000000 0.620078 0.812759
0.000000 0.588669 0.776405
0.000000 0.537118 0.733292
0.000000 0.462581 0.681714
0.000000 0.361994 0.619864
0.000000 0.232072 0.545837
0.000000 0.069310 0.457626
0.000000 0.000000 0.353124
0.000000 0.000000 0.230125
0.000000 0.000000 0.086322
0.000000 0.000000 0.000000
0.000000 0.000000 0.000000
0.000000 0.000000 0.000000
0.000000 0.000000 0.000000
0.000000 0.000000 0.000000
0.000000 0.000000 0.000000
0.000000 0.000000 0.000000
0.000000 0.000000 0.000000
0.000000 0.000000 0.000000
0.000000 0.000000 0.000000
0.000000 0.000000 0.000000
0.000000 0.144569 1.000000
0.000000 0.223102 1.000000
0.000000 0.297213 1.000000
0.000000 0.366650 1.000000
0.000000 0.430943 1.000000
0.000000 0.489404 1.000000
0.000000 0.541120 0.988679
0.000000 0.584960 0.965216
0.000000 0.619575 0.942752
0.000000 0.643391 0.920142
0.000000 0.654618 0.896139
0.000000 0.651243 0.869400
0.000000 0.631034 0.838478
0.000000 0.591538 0.801827
0.000000 0.530082 0.757802
0.000000 0.443774 0.704657
0.000000 0.329499 0.640545
0.000000 0.183924 0.563521
0.000000 0.003495 0.471537
0.000000 0.000000 0.362447
0.000000 0.000000 0.234005
0.000000 0.000000 0.083862
0.000000 0.000000 0.000000
0.000000 0.000000 0.000000
0.000000 0.000000 0.000000
0.000000 0.000000 0.000000
0.000000 0.000000 0.000000
0.000000 0.000000 0.000000
0.000000 0.000000 0.000000
0.000000 0.000000 0.000000
0.000000 0.000000 0.000000
0.000000 0.000000 0.000000
0.000000 0.000000 0.000000
0.000000 0.138579 1.000000
0.000000 0.227430 1.000000
0.000000 0.310572 1.000000
0.000000 0.387706 1.000000
0.000000 0.458314 1.000000
0.000000 0.521656 1.000000
0.000000 0.576773 1.000000
0.000000 0.622484 0.997521
0.000000 0.657389 0.978201
0.000000 0.679868 0.958330
0.000000 0.688080 0.936622
0.000000 0.679964 0.911692
0.000000 0.653238 0.882055
0.000000 0.605401 0.846123
0.000000 0.533731 0.802213
0.000000 0.435286 0.748537
0.000000 0.306903 0.683210
0.000000 0.145199 0.604245
0.000000 0.000000 0.509555
0.000000 0.000000 0.396954
0.000000 0.000000 0.264155
0.000000 0.000000 0.108771
0.000000 0.000000 0.000000
0.000000 0.000000 0.000000
0.000000 0.000000 0.000000
0.000000 0.000000 0.000000
0.000000 0.000000 0.000000
0.000000 0.000000 0.000000
0.000000 0.000000 0.000000
0.000000 0.000000 0.000000
0.000000 0.000000 0.000000
0.000000 0.000000 0.000000
0.000000 0.000000 0.000000
0.000000 0.146761 1.000000
0.000000 0.246358 1.000000
0.000000 0.338905 1.000000
0.000000 0.424056 1.000000
0.000000 0.501241 1.000000
0.000000 0.569673 1.000000
0.000000 0.628343 1.000000
0.000000 0.676022 1.000000
0.000000 0.711260 1.000000
0.000000 0.732388 1.000000
0.000000 0.737516 0.998468
0.000000 0.724535 0.976376
0.000000 0.691113 0.949061
0.000000 0.634701 0.914898
0.000000 0.552527 0.872160
0.000000 0.441600 0.819023
0.000000 0.298708 0.753558
0.000000 0.120420 0.673741
0.000000 0.000000 0.577444
0.000000 0.000000 0.462441
0.000000 0.000000 0.326405
0.000000 0.000000 0.166908
0.000000 0.000000 0.000000
0.000000 0.000000 0.000000
0.000000 0.000000 0.000000
0.000000 0.000000 0.000000
0.000000 0.000000 0.000000
0.000000 0.000000 0.000000
0.000000 0.000000 0.000000
0.000000 0.000000 0.000000
0.000000 0.000000 0.000000
0.000000 0.000000 0.000000
0.000000 0.000000 0.000000
0.000000 0.173524 1.000000
0.000000 0.284316 1.000000
0.000000 0.386663 1.000000
0.000000 0.480168 1.000000
0.000000 0.564214 1.000000
0.000000 0.637964 1.000000
0.000000 0.700359 1.000000
0.000000 0.750122 1.000000
0.000000 0.785755 1.000000
0.000000 0.805539 1.000000
0.000000 0.807535 1.000000
0.000000 0.789584 1.000000
0.000000 0.749307 1.000000
0.000000 0.684104 1.000000
0.000000 0.591155 0.973683
0.000000 0.467421 0.922185
0.000000 0.309640 0.857695
0.000000 0.114331 0.778147
0.000000 0.000000 0.681374
0.000000 0.000000 0.565111
0.000000 0.000000 0.426989
0.000000 0.000000 0.264541
0.000000 0.000000 0.075201
0.000000 0.000000 0.000000
0.000000 0.000000 0.000000
0.000000 0.000000 0.000000
0.000000 0.000000 0.000000
0.000000 0.000000 0.000000
0.000000 0.000000 0.000000
0.000000 0.000000 0.000000
0.000000 0.000000 0.000000
0.000000 0.000000 0.000000
0.000000 0.000000 0.000000
0.000000 0.223503 1.000000
0.000000 0.345959 1.000000
0.000000 0.458519 1.000000
0.000000 0.560737 1.000000
0.000000 0.651946 1.000000
0.000000 0.731260 1.000000
0.000000 0.797573 1.000000
0.000000 0.849557 1.000000
0.000000 0.885666 1.000000
0.000000 0.904132 1.000000
0.000000 0.902966 1.000000
0.000000 0.879961 1.000000
0.000000 0.832689 1.000000
0.000000 0.758500 1.000000
0.000000 0.654527 1.000000
0.000000 0.517678 1.000000
0.000000 0.344646 1.000000
0.000000 0.131901 0.924004
0.000000 0.000000 0.827919
0.000000 0.000000 0.711569
0.000000 0.000000 0.572545
0.000000 0.000000 0.408341
0.000000 0.000000 0.216349
0.000000 0.000000 0.000000
0.000000 0.000000 0.000000
0.000000 0.000000 0.000000
0.000000 0.000000 0.000000
0.000000 0.000000 0.000000
0.000000 0.000000 0.000000
0.000000 0.000000 0.000000
0.000000 0.000000 0.000000
0.000000 0.000000 0.000000
0.000000 0.000000 0.000000
0.000000 0.301557 1.000000
0.000000 0.436166 1.000000
0.000000 0.559371 1.000000
0.000000 0.670679 1.000000
0.000000 0.769374 1.000000
0.000000 0.854520 1.000000
0.000000 0.924962 1.000000
0.000000 0.979324 1.000000
0.000000 1.000000 1.000000
0.000000 1.000000 1.000000
0.000000 1.000000 1.000000
0.000000 1.000000 1.000000
0.000000 0.946353 1.000000
0.000000 0.863003 1.000000
0.000000 0.747774 1.000000
0.000000 0.597526 1.000000
0.000000 0.408901 1.000000
0.000000 0.178321 1.000000
0.000000 0.000000 1.000000
0.000000 0.000000 0.908827
0.000000 0.000000 0.770118
0.000000 0.000000 0.605383
0.000000 0.000000 0.411977
0.000000 0.000000 0.187150
0.000000 0.000000 0.000000
0.000000 0.000000 0.000000
0.000000 0.000000 0.000000
0.000000 0.000000 0.000000
0.000000 0.000000 0.000000
0.000000 0.000000 0.000000
0.000000 0.000000 0.000000
0.000000 0.000000 0.000000
0.000000 0.000000 0.000000
0.000000 0.412769 1.000000
0.000000 0.560038 1.000000
0.000000 0.694341 1.000000
0.000000 0.815136 1.000000
0.000000 0.921658 1.000000
0.000000 1.000000 1.000000
0.000000 1.000000 1.000000
0.000000 1.000000 1.000000
0.012205 1.000000 1.000000
0.012994 1.000000 1.000000
0.000000 1.000000 1.000000
0.000000 1.000000 1.000000
0.000000 1.000000 1.000000
0.000000 1.000000 1.000000
0.000000 0.876254 1.000000
0.000000 0.712340 1.000000
0.000000 0.507801 1.000000
0.000000 0.259009 1.000000
0.000000 0.000000 1.000000
0.000000 0.000000 1.000000
0.000000 0.000000 1.000000
0.000000 0.000000 0.863150
0.000000 0.000000 0.669597
0.000000 0.000000 0.443709
0.000000 0.000000 0.182599
0.000000 0.000000 0.000000
0.000000 0.000000 0.000000
0.000000 0.000000 0.000000
0.000000 0.000000 0.000000
0.000000 0.000000 0.000000
0.000000 0.000000 0.000000
0.000000 0.000000 0.000000
0.000000 0.000000 0.000000
0.000000 0.562444 1.000000
0.000000 0.722900 1.000000
0.000000 0.868775 1.000000
0.000000 0.999474 1.000000
0.004415 1.000000 1.000000
0.053781 1.000000 1.000000
0.093568 1.000000 1.000000
0.122444 1.000000 1.000000
0.138950 1.000000 1.000000
0.141494 1.000000 1.000000
0.128357 1.000000 1.000000
0.097687 1.000000 1.000000
0.047505 1.000000 1.000000
0.000000 1.000000 1.000000
0.000000 1.000000 1.000000
0.000000 0.867721 1.000000
0.000000 0.646965 1.000000
0.000000 0.379605 1.000000
0.000000 0.061742 1.000000
0.000000 0.000000 1.000000
0.000000 0.000000 1.000000
0.000000 0.000000 1.000000
0.000000 0.000000 0.997128
0.000000 0.000000 0.771491
0.000000 0.000000 0.509687
0.000000 0.000000 0.208687
0.000000 0.000000 0.000000
0.000000 0.000000 0.000000
0.000000 0.000000 0.000000
0.000000 0.000000 0.000000
0.000000 0.000000 0.000000
0.000000 0.000000 0.000000
0.000000 0.000000 0.000000
0.000000 0.756112 1.000000
0.000000 0.930303 1.000000
0.002831 1.000000 1.000000
0.078246 1.000000 1.000000
0.145135 1.000000 1.000000
0.202377 1.000000 1.000000
0.248720 1.000000 1.000000
0.282781 1.000000 1.000000
0.303047 1.000000 1.000000
0.307877 1.000000 1.000000
0.295498 1.000000 1.000000
0.264007 1.000000 1.000000
0.211373 1.000000 1.000000
0.135432 1.000000 1.000000
0.033892 1.000000 1.000000
0.000000 1.000000 1.000000
0.000000 0.832239 1.000000
0.000000 0.545971 1.000000
0.000000 0.206745 1.000000
0.000000 0.000000 1.000000
0.000000 0.000000 1.000000
0.000000 0.000000 1.000000
0.000000 0.000000 1.000000
0.000000 0.000000 1.000000
0.000000 0.000000 0.917707
0.000000 0.000000 0.616392
0.000000 0.000000 0.271740
0.000000 0.000000 0.000000
0.000000 0.000000 0.000000
0.000000 0.000000 0.000000
0.000000 0.000000 0.000000
0.000000 0.000000 0.000000
0.000000 0.000000 0.000000
0.000000 0.999527 1.000000
0.066680 1.000000 1.000000
0.161945 1.000000 1.000000
0.248480 1.000000 1.000000
0.325240 1.000000 1.000000
0.391051 1.000000 1.000000
0.444608 1.000000 1.000000
0.484478 1.000000 1.000000
0.509096 1.000000 1.000000
0.516768 1.000000 1.000000
0.505670 1.000000 1.000000
0.473848 1.000000 1.000000
0.419216 1.000000 1.000000
0.339562 1.000000 1.000000
0.232540 1.000000 1.000000
0.095678 1.000000 1.000000
0.000000 1.000000 1.000000
0.000000 0.764196 1.000000
0.000000 0.403232 1.000000
0.000000 0.000000 1.000000
0.000000 0.000000 1.000000
0.000000 0.000000 1.000000
0.000000 0.000000 1.000000
0.000000 0.000000 1.000000
0.000000 0.000000 1.000000
0.000000 0.000000 1.000000
0.000000 0.000000 0.770643
0.000000 0.000000 0.378417
0.000000 0.000000 0.000000
0.000000 0.000000 0.000000
0.000000 0.000000 0.000000
0.000000 0.000000 0.000000
0.000000 0.000000 0.000000
0.137753 1.000000 1.000000
0.255154 1.000000 1.000000
0.363559 1.000000 1.000000
0.462001 1.000000 1.000000
0.549385 1.000000 1.000000
0.624483 1.000000 1.000000
0.685941 1.000000 1.000000
0.732272 1.000000 1.000000
0.761859 1.000000 1.000000
0.772958 1.000000 1.000000
0.763691 1.000000 1.000000
0.732054 1.000000 1.000000
0.675908 1.000000 1.000000
0.592989 1.000000 1.000000
0.480901 1.000000 1.000000
0.337117 1.000000 1.000000
0.158981 1.000000 1.000000
0.000000 1.000000 1.000000
0.000000 0.657535 1.000000
0.000000 0.212177 1.000000
0.000000 0.000000 1.000000
0.000000 0.000000 1.000000
0.000000 0.000000 1.000000
0.000000 0.000000 1.000000
0.000000 0.000000 1.000000
0.000000 0.000000 1.000000
0.000000 0.000000 1.000000
0.000000 0.000000 0.979592
0.000000 0.000000 0.535714
0.000000 0.000000 0.036153
0.000000 0.000000 0.000000
0.000000 0.000000 0.000000
0.000000 0.000000 0.000000
0.357444 1.000000 1.000000
0.490047 1.000000 1.000000
0.612439 1.000000 1.000000
0.723603 1.000000 1.000000
0.822390 1.000000 1.000000
0.907524 1.000000 1.000000
0.977594 1.000000 1.000000
1.000000 1.000000 1.000000
1.000000 1.000000 1.000000
1.000000 1.000000 1.000000
1.000000 1.000000 1.000000
1.000000 1.000000 1.000000
0.986487 1.000000 1.000000
0.900780 1.000000 1.000000
0.784067 1.000000 1.000000
0.633770 1.000000 1.000000
0.447181 1.000000 1.000000
0.221463 1.000000 1.000000
0.000000 0.976209 1.000000
0.000000 0.505753 1.000000
0.000000 0.000000 1.000000
0.000000 0.000000 1.000000
0.000000 0.000000 1.000000
0.000000 0.000000 1.000000
0.000000 0.000000 1.000000
0.000000 0.000000 1.000000
0.000000 0.000000 1.000000
0.000000 0.000000 1.000000
0.000000 0.000000 1.000000
0.000000 0.000000 0.750959
0.000000 0.000000 0.190717
0.000000 0.000000 0.000000
0.000000 0.000000 0.000000
0.627551 1.000000 1.000000
0.776264 1.000000 1.000000
0.913519 1.000000 1.000000
1.000000 1.000000 1.000000
1.000000 1.000000 1.000000
1.000000 1.000000 1.000000
1.000000 1.000000 1.000000
1.000000 1.000000 1.000000
1.000000 1.000000 1.000000
1.000000 1.000000 1.000000
1.000000 1.000000 1.000000
1.000000 1.000000 1.000000
1.000000 1.000000 1.000000
1.000000 1.000000 1.000000
1.000000 1.000000 1.000000
0.990922 1.000000 1.000000
0.796283 1.000000 1.000000
0.560488 1.000000 1.000000
0.280518 1.000000 1.000000
0.000000 0.870108 1.000000
0.000000 0.301900 1.000000
0.000000 0.000000 1.000000
0.000000 0.000000 1.000000
0.000000 0.000000 1.000000
0.000000 0.000000 1.000000
0.000000 0.000000 1.000000
0.000000 0.000000 1.000000
