public/luts/cinestill_800.cube
# Generated from ColorChecker fit
LUT_3D_SIZE 33
DOMAIN_MIN 0.0 0.0 0.0
DOMAIN_MAX 1.0 1.0 1.0
0.153868 0.000000 0.085080
0.131090 0.000000 0.049130
0.106028 0.000000 0.020030
0.079141 0.000000 0.000000
0.050852 0.000000 0.000000
0.021556 0.000000 0.000000
0.000000 0.000000 0.000000
0.000000 0.000000 0.000000
0.000000 0.000000 0.000000
0.000000 0.000000 0.000000
0.000000 0.000000 0.000000
0.000000 0.008415 0.020222
0.000000 0.032498 0.045719
0.000000 0.058277 0.075879
0.000000 0.085879 0.110663
0.000000 0.115308 0.150062
0.000000 0.146447 0.194093
0.000000 0.179055 0.242798
0.000000 0.212773 0.296249
0.000000 0.247114 0.354543
0.000000 0.281475 0.417803
0.000000 0.315127 0.486183
0.000000 0.347220 0.559858
0.000000 0.376782 0.639036
0.000000 0.402720 0.723947
0.000000 0.423817 0.814851
0.000000 0.438735 0.912034
0.000000 0.446015 1.000000
0.000000 0.444073 1.000000
0.000000 0.431206 1.000000
0.000000 0.405588 1.000000
0.000000 0.365271 1.000000
0.000000 0.308183 1.000000
0.141145 0.000000 0.126915
0.119757 0.000000 0.091070
0.096204 0.000000 0.062120
0.070927 0.000000 0.039696
0.044335 0.000000 0.023459
0.016806 0.000000 0.013095
0.000000 0.000000 0.008317
0.000000 0.000000 0.008864
0.000000 0.000000 0.014505
0.000000 0.000000 0.025033
0.000000 0.000000 0.040270
0.000000 0.000000 0.060062
0.000000 0.000000 0.084286
0.000000 0.000000 0.112842
0.000000 0.009465 0.145660
0.000000 0.033538 0.182695
0.000000 0.059302 0.223930
0.000000 0.086519 0.269374
0.000000 0.114832 0.319063
0.000000 0.143761 0.373062
0.000000 0.172704 0.431460
0.000000 0.200935 0.494375
0.000000 0.227610 0.561951
0.000000 0.251760 0.634358
0.000000 0.272293 0.711796
0.000000 0.287999 0.794488
0.000000 0.297542 0.882688
0.000000 0.299466 0.976673
0.000000 0.292191 1.000000
0.000000 0.274019 1.000000
0.000000 0.243125 1.000000
0.000000 0.197565 1.000000
0.000000 0.135273 1.000000
0.124945 0.000000 0.161381
0.105146 0.000000 0.125729
0.083296 0.000000 0.097033
0.059818 0.000000 0.074889
0.035105 0.000000 0.058925
0.009519 0.000000 0.048792
0.000000 0.000000 0.044169
0.000000 0.000000 0.044762
0.000000 0.000000 0.050306
0.000000 0.000000 0.060559
0.000000 0.000000 0.075308
0.000000 0.000000 0.094368
0.000000 0.000000 0.117579
0.000000 0.000000 0.144809
0.000000 0.000000 0.175953
0.000000 0.000000 0.210932
0.000000 0.000000 0.249695
0.000000 0.007177 0.292217
0.000000 0.030480 0.338501
0.000000 0.054393 0.388577
0.000000 0.078316 0.442499
0.000000 0.101530 0.500353
0.000000 0.123192 0.562247
0.000000 0.142337 0.628319
0.000000 0.157878 0.698733
0.000000 0.168606 0.773680
0.000000 0.173190 0.853378
0.000000 0.170177 0.938071
0.000000 0.157993 1.000000
0.000000 0.134940 1.000000
0.000000 0.099199 1.000000
0.000000 0.048829 1.000000
0.000000 0.000000 1.000000
0.105505 0.000000 0.188023
0.087504 0.000000 0.152663
0.067558 0.000000 0.124334
0.046075 0.000000 0.102602
0.023430 0.000000 0.087056
0.000000 0.000000 0.077316
0.000000 0.000000 0.073026
0.000000 0.000000 0.073859
0.000000 0.000000 0.079514
0.000000 0.000000 0.089716
0.000000 0.000000 0.104219
0.000000 0.000000 0.122802
0.000000 0.000000 0.145273
0.000000 0.000000 0.171465
0.000000 0.000000 0.201238
0.000000 0.000000 0.234481
0.000000 0.000000 0.271107
0.000000 0.000000 0.311059
0.000000 0.000000 0.354304
0.000000 0.000000 0.400838
0.000000 0.000000 0.450683
0.000000 0.018035 0.503889
0.000000 0.035099 0.560532
0.000000 0.049657 0.620713
0.000000 0.060625 0.684565
0.000000 0.066799 0.752243
0.000000 0.066852 0.823931
0.000000 0.059332 0.899841
0.000000 0.042670 0.980210
0.000000 0.015172 1.000000
0.000000 0.000000 1.000000
0.000000 0.000000 1.000000
0.000000 0.000000 1.000000
0.083001 0.000000 0.206478
0.067013 0.000000 0.171520
0.049180 0.000000 0.143685
0.029893 0.000000 0.122504
0.009513 0.000000 0.107535
0.000000 0.000000 0.098360
0.000000 0.000000 0.094592
0.000000 0.000000 0.095869
0.000000 0.000000 0.101855
0.000000 0.000000 0.112243
0.000000 0.000000 0.126751
0.000000 0.000000 0.145125
0.000000 0.000000 0.167139
0.000000 0.000000 0.192591
0.000000 0.000000 0.221308
0.000000 0.000000 0.253145
0.000000 0.000000 0.287981
0.000000 0.000000 0.325723
0.000000 0.000000 0.366307
0.000000 0.000000 0.409693
0.000000 0.000000 0.455870
0.000000 0.000000 0.504853
0.000000 0.000000 0.556684
0.000000 0.000000 0.611432
0.000000 0.000000 0.669193
0.000000 0.000000 0.730090
0.000000 0.000000 0.794273
0.000000 0.000000 0.861918
0.000000 0.000000 0.933229
0.000000 0.000000 1.000000
0.000000 0.000000 1.000000
0.000000 0.000000 1.000000
0.000000 0.000000 1.000000
0.057542 0.000000 0.216481
0.043788 0.000000 0.182045
0.028284 0.000000 0.154841
0.011404 0.000000 0.134365
0.000000 0.000000 0.120139
0.000000 0.000000 0.111714
0.000000 0.000000 0.108667
0.000000 0.000000 0.110603
0.000000 0.000000 0.117151
0.000000 0.000000 0.127971
0.000000 0.000000 0.142747
0.000000 0.000000 0.161191
0.000000 0.000000 0.183041
0.000000 0.000000 0.208063
0.000000 0.000000 0.236050
0.000000 0.000000 0.266822
0.000000 0.000000 0.300224
0.000000 0.000000 0.336130
0.000000 0.000000 0.374441
0.000000 0.000000 0.415084
0.000000 0.000000 0.458013
0.000000 0.000000 0.503208
0.000000 0.000000 0.550680
0.000000 0.000000 0.600461
0.000000 0.000000 0.652614
0.000000 0.000000 0.707229
0.000000 0.000000 0.764420
0.000000 0.000000 0.824331
0.000000 0.000000 0.887131
0.000000 0.000000 0.953017
0.000000 0.000000 1.000000
0.000000 0.000000 1.000000
0.000000 0.000000 1.000000
0.029171 0.000000 0.217859
0.017881 0.000000 0.184078
0.004928 0.000000 0.157652
0.000000 0.000000 0.138043
0.000000 0.000000 0.124740
0.000000 0.000000 0.117260
0.000000 0.000000 0.115145
0.000000 0.000000 0.117965
0.000000 0.000000 0.125319
0.000000 0.000000 0.136828
0.000000 0.000000 0.152145
0.000000 0.000000 0.170947
0.000000 0.000000 0.192939
0.000000 0.000000 0.217852
0.000000 0.000000 0.245445
0.000000 0.000000 0.275504
0.000000 0.000000 0.307841
0.000000 0.000000 0.342294
0.000000 0.000000 0.378732
0.000000 0.000000 0.417046
0.000000 0.000000 0.457158
0.000000 0.000000 0.499013
0.000000 0.000000 0.542587
0.000000 0.000000 0.587879
0.000000 0.000000 0.634919
0.000000 0.000000 0.683761
0.000000 0.000000 0.734486
0.000000 0.000000 0.787204
0.000000 0.000000 0.842050
0.000000 0.000000 0.899186
0.000000 0.000000 0.958803
0.000000 0.000000 1.000000
0.000000 0.000000 1.000000
0.000000 0.000000 0.210537
0.000000 0.000000 0.177553
0.000000 0.000000 0.152063
0.000000 0.000000 0.133496
0.000000 0.000000 0.121306
0.000000 0.000000 0.114975
0.000000 0.000000 0.114014
0.000000 0.000000 0.117957
0.000000 0.000000 0.126367
0.000000 0.000000 0.138836
0.000000 0.000000 0.154978
0.000000 0.000000 0.174439
0.000000 0.000000 0.196888
0.000000 0.000000 0.222024
0.000000 0.000000 0.249571
0.000000 0.000000 0.279280
0.000000 0.000000 0.310929
0.000000 0.000000 0.344325
0.000000 0.000000 0.379300
0.000000 0.000000 0.415712
0.000000 0.000000 0.453447
0.000000 0.000000 0.492420
0.000000 0.000000 0.532569
0.000000 0.000000 0.573863
0.000000 0.000000 0.616294
0.000000 0.000000 0.659883
0.000000 0.000000 0.704679
0.000000 0.000000 0.750756
0.000000 0.000000 0.798215
0.000000 0.000000 0.847186
0.000000 0.000000 0.897823
0.000000 0.000000 0.950309
0.000000 0.000000 1.000000
0.000000 0.000000 0.194532
0.000000 0.000000 0.162499
0.000000 0.000000 0.138115
0.000000 0.000000 0.120774
0.000000 0.000000 0.109898
0.000000 0.000000 0.104934
0.000000 0.000000 0.105358
0.000000 0.000000 0.110672
0.000000 0.000000 0.120404
0.000000 0.000000 0.134110
0.000000 0.000000 0.151373
0.000000 0.000000 0.171804
0.000000 0.000000 0.195038
0.000000 0.000000 0.220738
0.000000 0.000000 0.248597
0.000000 0.000000 0.278330
0.000000 0.000000 0.309683
0.000000 0.000000 0.342427
0.000000 0.000000 0.376359
0.000000 0.000000 0.411306
0.000000 0.000000 0.447119
0.000000 0.000000 0.483677
0.000000 0.000000 0.520887
0.000000 0.000000 0.558681
0.000000 0.000000 0.597019
0.000000 0.000000 0.635888
0.000000 0.000000 0.675302
0.000000 0.000000 0.715300
0.000000 0.000000 0.755952
0.000000 0.000000 0.797351
0.000000 0.000000 0.839619
0.000000 0.000000 0.882904
0.000000 0.000000 0.927382
0.000000 0.000000 0.169956
0.000000 0.000000 0.139039
0.000000 0.000000 0.115941
0.000000 0.000000 0.100023
0.000000 0.000000 0.090673
0.000000 0.000000 0.087303
0.000000 0.000000 0.089356
0.000000 0.000000 0.096299
0.000000 0.000000 0.107627
0.000000 0.000000 0.122863
0.000000 0.000000 0.141553
0.000000 0.000000 0.163275
0.000000 0.000000 0.187631
0.000000 0.000000 0.214251
0.000000 0.000000 0.242791
0.000000 0.000000 0.272933
0.000000 0.000000 0.304390
0.000000 0.000000 0.336898
0.000000 0.000000 0.370221
0.000000 0.000000 0.404151
0.000000 0.000000 0.438505
0.000000 0.000000 0.473128
0.000000 0.000000 0.507893
0.000000 0.000000 0.542699
0.000000 0.000000 0.577471
0.000000 0.000000 0.612162
0.000000 0.000000 0.646751
0.000000 0.000000 0.681246
0.000000 0.000000 0.715680
0.000000 0.000000 0.750113
0.000000 0.000000 0.784633
0.000000 0.000000 0.819354
0.000000 0.000000 0.854417
0.000000 0.000000 0.137019
0.000000 0.014686 0.107392
0.000000 0.024635 0.085772
0.000000 0.027774 0.071484
0.000000 0.025487 0.063882
0.000000 0.019034 0.062346
0.000000 0.009552 0.066282
0.000000 0.000000 0.075124
0.000000 0.000000 0.088334
0.000000 0.000000 0.105400
0.000000 0.000000 0.125835
0.000000 0.000000 0.149182
0.000000 0.000000 0.175009
0.000000 0.000000 0.202912
0.000000 0.000000 0.232513
0.000000 0.000000 0.263461
0.000000 0.000000 0.295433
0.000000 0.000000 0.328133
0.000000 0.000000 0.361290
0.000000 0.000000 0.394661
0.000000 0.000000 0.428031
0.000000 0.000000 0.461210
0.000000 0.000000 0.494037
0.000000 0.000000 0.526376
0.000000 0.000000 0.558119
0.000000 0.000000 0.589185
0.000000 0.000000 0.619520
0.000000 0.000000 0.649096
0.000000 0.000000 0.677912
0.000000 0.000000 0.705996
0.000000 0.000000 0.733400
0.000000 0.000000 0.760205
0.000000 0.000000 0.786518
0.000000 0.062468 0.096022
0.000000 0.079906 0.067873
0.000000 0.088990 0.047932
0.000000 0.091227 0.035492
0.000000 0.088004 0.029872
0.000000 0.080585 0.030418
0.000000 0.070113 0.036503
0.000000 0.057607 0.047526
0.000000 0.043965 0.062915
0.000000 0.029964 0.082123
0.000000 0.016256 0.104631
0.000000 0.003375 0.129946
0.000000 0.000000 0.157604
0.000000 0.000000 0.187165
0.000000 0.000000 0.218219
0.000000 0.000000 0.250380
0.000000 0.000000 0.283290
0.000000 0.000000 0.316620
0.000000 0.000000 0.350065
0.000000 0.000000 0.383348
0.000000 0.000000 0.416219
0.000000 0.000000 0.448455
0.000000 0.000000 0.479861
0.000000 0.000000 0.510266
0.000000 0.000000 0.539530
0.000000 0.000000 0.567536
0.000000 0.000000 0.594196
0.000000 0.000000 0.619448
0.000000 0.000000 0.643259
0.000000 0.000000 0.665620
0.000000 0.000000 0.686551
0.000000 0.000000 0.706099
0.000000 0.000000 0.724336
0.000000 0.129918 0.047362
0.000000 0.146973 0.020888
0.000000 0.155636 0.002841
0.000000 0.157420 0.000000
0.000000 0.153713 0.000000
0.000000 0.145783 0.000000
0.000000 0.134777 0.000482
0.000000 0.121717 0.013978
0.000000 0.107505 0.031853
0.000000 0.092922 0.053527
0.000000 0.078623 0.078447
0.000000 0.065145 0.106086
0.000000 0.052900 0.135945
0.000000 0.042181 0.167552
0.000000 0.033156 0.200460
0.000000 0.025873 0.234251
0.000000 0.020257 0.268533
0.000000 0.016110 0.302943
0.000000 0.013114 0.337140
0.000000 0.010829 0.370816
0.000000 0.008690 0.403685
0.000000 0.006013 0.435491
0.000000 0.001990 0.466004
0.000000 0.000000 0.495020
0.000000 0.000000 0.522363
0.000000 0.000000 0.547883
0.000000 0.000000 0.571460
0.000000 0.000000 0.592996
0.000000 0.000000 0.612423
0.000000 0.000000 0.629701
0.000000 0.000000 0.644814
0.000000 0.000000 0.657774
0.000000 0.000000 0.668620
0.000000 0.196419 0.000000
0.000000 0.213544 0.000000
0.000000 0.222243 0.000000
0.000000 0.224030 0.000000
0.000000 0.220300 0.000000
0.000000 0.212323 0.000000
0.000000 0.201249 0.000000
0.000000 0.188106 0.000000
0.000000 0.173797 0.000000
0.000000 0.159106 0.020204
0.000000 0.144695 0.047886
0.000000 0.131101 0.078214
0.000000 0.118743 0.110656
0.000000 0.107914 0.144705
0.000000 0.098788 0.179881
0.000000 0.091415 0.215731
0.000000 0.085724 0.251830
0.000000 0.081523 0.287779
0.000000 0.078494 0.323206
0.000000 0.076201 0.357766
0.000000 0.074085 0.391141
0.000000 0.071464 0.423040
0.000000 0.067534 0.453198
0.000000 0.061370 0.481379
0.000000 0.051924 0.507373
0.000000 0.038026 0.530995
0.000000 0.018384 0.552089
0.000000 0.000000 0.570527
0.000000 0.000000 0.586205
0.000000 0.000000 0.599048
0.000000 0.000000 0.609007
0.000000 0.000000 0.616060
0.000000 0.000000 0.620213
0.000000 0.259293 0.000000
0.000000 0.276949 0.000000
0.000000 0.286148 0.000000
0.000000 0.288407 0.000000
0.000000 0.285124 0.000000
0.000000 0.277574 0.000000
0.000000 0.266910 0.000000
0.000000 0.254162 0.000000
0.000000 0.240238 0.000000
0.000000 0.225926 0.000000
0.000000 0.211890 0.013643
0.000000 0.198672 0.047038
0.000000 0.186694 0.082456
0.000000 0.176252 0.119355
0.000000 0.167525 0.157223
0.000000 0.160566 0.195572
0.000000 0.155306 0.233943
0.000000 0.151558 0.271903
0.000000 0.149008 0.309046
0.000000 0.147223 0.344993
0.000000 0.145647 0.379392
0.000000 0.143602 0.411918
0.000000 0.140288 0.442273
0.000000 0.134782 0.470185
0.000000 0.126042 0.495410
0.000000 0.112900 0.517730
0.000000 0.094068 0.536956
0.000000 0.068136 0.552924
0.000000 0.033573 0.565497
0.000000 0.000000 0.574565
0.000000 0.000000 0.580047
0.000000 0.000000 0.581885
0.000000 0.000000 0.580052
0.000000 0.315531 0.000000
0.000000 0.334191 0.000000
0.000000 0.344365 0.000000
0.000000 0.347574 0.000000
0.000000 0.345219 0.000000
0.000000 0.338580 0.000000
0.000000 0.328811 0.000000
0.000000 0.316947 0.000000
0.000000 0.303901 0.000000
0.000000 0.290463 0.000000
0.000000 0.277300 0.000000
0.000000 0.264960 0.013360
0.000000 0.253865 0.052157
0.000000 0.244318 0.092326
0.000000 0.236499 0.133321
0.000000 0.230465 0.174620
0.000000 0.226153 0.215729
0.000000 0.223376 0.256182
0.000000 0.221827 0.295540
0.000000 0.221074 0.333387
0.000000 0.220565 0.369340
0.000000 0.219626 0.403038
0.000000 0.217460 0.434149
0.000000 0.213150 0.462369
0.000000 0.205654 0.487418
0.000000 0.193809 0.509046
0.000000 0.176332 0.527027
0.000000 0.151815 0.541164
0.000000 0.118730 0.551288
0.000000 0.075425 0.557253
0.000000 0.020128 0.558943
0.000000 0.000000 0.556269
0.000000 0.000000 0.549168
0.000000 0.361801 0.000000
0.000000 0.381946 0.000000
0.000000 0.393579 0.000000
0.000000 0.398226 0.000000
0.000000 0.397290 0.000000
0.000000 0.392054 0.000000
0.000000 0.383677 0.000000
0.000000 0.373198 0.000000
0.000000 0.361531 0.000000
0.000000 0.349472 0.000000
0.000000 0.337691 0.000000
0.000000 0.326738 0.000000
0.000000 0.317040 0.020667
0.000000 0.308904 0.064537
0.000000 0.302513 0.109104
0.000000 0.297928 0.153814
0.000000 0.295088 0.198140
0.000000 0.293812 0.241580
0.000000 0.293793 0.283660
0.000000 0.294606 0.323933
0.000000 0.295701 0.361980
0.000000 0.296409 0.397406
0.000000 0.295935 0.429846
0.000000 0.293365 0.458961
0.000000 0.287662 0.484438
0.000000 0.277666 0.505991
0.000000 0.262098 0.523362
0.000000 0.239553 0.536321
0.000000 0.208506 0.544660
0.000000 0.167311 0.548205
0.000000 0.114198 0.546802
0.000000 0.047275 0.540329
0.000000 0.000000 0.528689
0.000000 0.394441 0.000000
0.000000 0.416564 0.000000
0.000000 0.430150 0.000000
0.000000 0.436732 0.000000
0.000000 0.437715 0.000000
0.000000 0.434385 0.000000
0.000000 0.427907 0.000000
0.000000 0.419321 0.000000
0.000000 0.409546 0.000000
0.000000 0.399380 0.000000
0.000000 0.389498 0.000000
0.000000 0.380453 0.000000
0.000000 0.372677 0.000000
0.000000 0.366479 0.037001
0.000000 0.362045 0.085598
0.000000 0.359440 0.134192
0.000000 0.358608 0.182222
0.000000 0.359370 0.229152
0.000000 0.361424 0.274475
0.000000 0.364346 0.317710
0.000000 0.367593 0.358402
0.000000 0.370496 0.396124
0.000000 0.372266 0.430475
0.000000 0.371993 0.461084
0.000000 0.368641 0.487603
0.000000 0.361056 0.509712
0.000000 0.347961 0.527119
0.000000 0.327955 0.539559
0.000000 0.299518 0.546793
0.000000 0.261005 0.548609
0.000000 0.210650 0.544823
0.000000 0.146566 0.535276
0.000000 0.066744 0.519837
0.000000 0.409465 0.000000
0.000000 0.434065 0.000000
0.000000 0.450110 0.000000
0.000000 0.459133 0.000000
0.000000 0.462546 0.000000
0.000000 0.461636 0.000000
0.000000 0.457572 0.000000
0.000000 0.451397 0.000000
0.000000 0.444036 0.000000
0.000000 0.436288 0.000000
0.000000 0.428833 0.000000
0.000000 0.422228 0.000000
0.000000 0.416906 0.000000
0.000000 0.413181 0.010827
0.000000 0.411244 0.063922
0.000000 0.411162 0.116884
0.000000 0.412883 0.169117
0.000000 0.416231 0.220053
0.000000 0.420907 0.269150
0.000000 0.426494 0.315892
0.000000 0.432448 0.359791
0.000000 0.438107 0.400387
0.007778 0.442684 0.437244
0.011847 0.445272 0.469956
0.011199 0.444840 0.498142
0.005313 0.440237 0.521448
0.000000 0.430189 0.539548
0.000000 0.413300 0.552143
0.000000 0.388051 0.558959
0.000000 0.352803 0.559751
0.000000 0.305793 0.554300
0.000000 0.245138 0.542415
0.000000 0.168830 0.523929
0.000000 0.402556 0.000000
0.000000 0.430146 0.000000
0.000000 0.449163 0.000000
0.000000 0.461146 0.000000
0.000000 0.467507 0.000000
0.000000 0.469540 0.000000
0.000000 0.468416 0.000000
0.000000 0.465182 0.000000
0.000000 0.460766 0.000000
0.000000 0.455971 0.000000
0.000000 0.451480 0.000000
0.000000 0.447854 0.000000
0.000000 0.445530 0.000000
0.000000 0.444825 0.000000
0.000000 0.445933 0.045290
0.000000 0.448926 0.103114
0.000000 0.453755 0.160061
0.000000 0.460246 0.215529
0.000000 0.468107 0.268941
0.000000 0.476921 0.319749
0.000000 0.486150 0.367429
0.014776 0.495133 0.411487
0.025859 0.503089 0.451455
0.032378 0.509114 0.486890
0.033825 0.512180 0.517379
0.029664 0.511140 0.542535
0.019325 0.504723 0.561995
0.002209 0.491537 0.575428
0.000000 0.470067 0.582526
0.000000 0.438677 0.583009
0.000000 0.395608 0.576624
0.000000 0.338979 0.563146
0.000000 0.266787 0.542376
0.000000 0.369073 0.000000
0.000000 0.400174 0.000000
0.000000 0.422688 0.000000
0.000000 0.438156 0.000000
0.000000 0.447997 0.000000
0.000000 0.453505 0.000000
0.000000 0.455856 0.000000
0.000000 0.456102 0.000000
0.000000 0.455172 0.000000
0.000000 0.453874 0.000000
0.000000 0.452895 0.000000
0.000000 0.452798 0.000000
0.000000 0.454025 0.000000
0.000000 0.456896 0.000000
0.000000 0.461609 0.031012
0.000000 0.468239 0.094204
0.000000 0.476740 0.156386
0.000000 0.486943 0.216923
0.000000 0.498558 0.275203
0.000000 0.511172 0.330644
0.007980 0.524252 0.382689
0.026463 0.537140 0.430810
0.040531 0.549057 0.474503
0.049690 0.559103 0.513294
0.053418 0.566256 0.546734
0.051160 0.569370 0.574401
0.042332 0.567178 0.595901
0.026317 0.558292 0.610866
0.002468 0.541200 0.618956
0.000000 0.514270 0.619855
0.000000 0.475747 0.613279
0.000000 0.423753 0.598966
0.000000 0.356289 0.576684
0.000000 0.304049 0.000000
0.000000 0.339191 0.000000
0.000000 0.365735 0.000000
0.000000 0.385226 0.000000
0.000000 0.399085 0.000000
0.000000 0.408612 0.000000
0.000000 0.414984 0.000000
0.000000 0.419257 0.000000
0.000000 0.422365 0.000000
0.000000 0.425119 0.000000
0.000000 0.428208 0.000000
0.000000 0.432201 0.000000
0.000000 0.437542 0.000000
0.000000 0.444554 0.000000
0.000000 0.453440 0.022492
0.000000 0.464278 0.091568
0.000000 0.477026 0.159518
0.000000 0.491518 0.225671
0.000000 0.507468 0.289383
0.000000 0.524467 0.350037
0.011744 0.541983 0.407042
0.033751 0.559364 0.459836
0.051008 0.575835 0.507882
0.063006 0.590498 0.550671
0.069207 0.602334 0.587719
0.069039 0.610203 0.618572
0.061902 0.612840 0.642801
0.047162 0.608860 0.660004
0.024156 0.596756 0.669806
0.000000 0.574899 0.671860
0.000000 0.541536 0.665844
0.000000 0.494796 0.651464
0.000000 0.432681 0.628455
0.000000 0.202186 0.000000
0.000000 0.241911 0.000000
0.000000 0.273029 0.000000
0.000000 0.297089 0.000000
0.000000 0.315516 0.000000
0.000000 0.329614 0.000000
0.000000 0.340562 0.000000
0.000000 0.349421 0.000000
0.000000 0.357127 0.000000
0.000000 0.364497 0.000000
0.000000 0.372222 0.000000
0.000000 0.380874 0.000000
0.000000 0.390901 0.000000
0.000000 0.402631 0.000000
0.000000 0.416269 0.021229
0.000000 0.431897 0.096716
0.000000 0.449476 0.170976
0.000000 0.468844 0.243305
0.000000 0.489719 0.313023
0.000000 0.511695 0.379481
0.010032 0.534245 0.442053
0.035780 0.556718 0.500142
0.056439 0.578344 0.553178
0.071482 0.598228 0.600618
0.080355 0.615356 0.641944
0.082471 0.628590 0.676667
0.077211 0.636669 0.704326
0.063927 0.638212 0.724482
0.041939 0.631715 0.736729
0.010535 0.615553 0.740684
0.000000 0.587977 0.735993
0.000000 0.547117 0.722326
0.000000 0.490982 0.699384
0.000000 0.057863 0.000000
0.000000 0.102721 0.000000
0.000000 0.138967 0.000000
0.000000 0.168153 0.000000
0.000000 0.191707 0.000000
0.000000 0.210937 0.000000
0.000000 0.227027 0.000000
0.000000 0.241040 0.000000
0.000000 0.253916 0.000000
0.000000 0.266475 0.000000
0.000000 0.279412 0.000000
0.000000 0.293303 0.000000
0.000000 0.308600 0.000000
0.000000 0.325633 0.000000
0.000000 0.344611 0.028817
0.000000 0.365620 0.111253
0.000000 0.388624 0.192378
0.000000 0.413466 0.271452
0.000000 0.439866 0.347762
0.000000 0.467422 0.420624
0.001914 0.495610 0.489380
0.031629 0.523785 0.553397
0.055908 0.551177 0.612072
0.074210 0.576898 0.664826
0.085962 0.599935 0.711111
0.090561 0.619154 0.750401
0.087374 0.633299 0.782200
0.075733 0.640991 0.806038
0.054944 0.640731 0.821473
0.024279 0.630895 0.828088
0.000000 0.609740 0.825495
0.000000 0.575400 0.813331
0.000000 0.525885 0.791262
0.000000 0.000000 0.000000
0.000000 0.000000 0.000000
0.000000 0.000000 0.000000
0.000000 0.000000 0.000000
0.000000 0.021747 0.000000
0.000000 0.046682 0.000000
0.000000 0.068488 0.000000
0.000000 0.088232 0.000000
0.000000 0.106859 0.000000
0.000000 0.125191 0.000000
0.000000 0.143928 0.000000
0.000000 0.163647 0.000000
0.000000 0.184805 0.000000
0.000000 0.207737 0.000000
0.000000 0.232653 0.046944
0.000000 0.259644 0.136879
0.000000 0.288678 0.225433
0.000000 0.319601 0.311833
0.000000 0.352136 0.395332
0.000000 0.385885 0.475211
0.000000 0.420328 0.550777
0.020308 0.454822 0.621367
0.048434 0.488603 0.686339
0.070214 0.520784 0.745085
0.085059 0.550357 0.797018
0.092349 0.576192 0.841581
0.091435 0.597035 0.878243
0.081634 0.611513 0.906501
0.062232 0.618128 0.925877
0.032488 0.615261 0.935923
0.000000 0.601172 0.936214
0.000000 0.573998 0.926354
0.000000 0.531754 0.905976
0.000000 0.000000 0.000000
0.000000 0.000000 0.000000
0.000000 0.000000 0.000000
0.000000 0.000000 0.000000
0.000000 0.000000 0.000000
0.000000 0.000000 0.000000
0.000000 0.000000 0.000000
0.000000 0.000000 0.000000
0.000000 0.000000 0.000000
0.000000 0.000000 0.000000
0.000000 0.000000 0.000000
0.000000 0.000000 0.000000
0.000000 0.013360 0.000000
0.000000 0.042795 0.000000
0.000000 0.074258 0.077393
0.000000 0.107842 0.175387
0.000000 0.143520 0.271947
0.000000 0.181140 0.366264
0.000000 0.220429 0.457559
0.000000 0.260994 0.545078
0.000000 0.302317 0.628095
0.000763 0.343759 0.705911
0.032969 0.384559 0.777852
0.058454 0.423836 0.843274
0.076613 0.460582 0.901558
0.086809 0.493673 0.952112
0.088376 0.521858 0.994371
0.080616 0.543767 1.000000
0.062799 0.557906 1.000000
0.034165 0.562660 1.000000
0.000000 0.556291 1.000000
0.000000 0.536942 1.000000
0.000000 0.502629 1.000000
0.000000 0.000000 0.000000
0.000000 0.000000 0.000000
0.000000 0.000000 0.000000
0.000000 0.000000 0.000000
0.000000 0.000000 0.000000
0.000000 0.000000 0.000000
0.000000 0.000000 0.000000
0.000000 0.000000 0.000000
0.000000 0.000000 0.000000
0.000000 0.000000 0.000000
0.000000 0.000000 0.000000
0.000000 0.000000 0.000000
0.000000 0.000000 0.000000
0.000000 0.000000 0.014813
0.000000 0.000000 0.122043
0.000000 0.000000 0.228668
0.000000 0.000000 0.333819
0.000000 0.000000 0.436657
0.000000 0.038320 0.536366
0.000000 0.086332 0.632160
0.000000 0.135170 0.723277
0.000000 0.184199 0.808985
0.008400 0.232661 0.888576
0.037824 0.279676 0.961372
0.059525 0.324243 1.000000
0.072849 0.365240 1.000000
0.077113 0.401419 1.000000
