public/luts/cinestill_50d.cube
# Generated from ColorChecker fit
LUT_3D_SIZE 5
DOMAIN_MIN 0.0 0.0 0.0
DOMAIN_MAX 1.0 1.0 1.0
0.038753 0.000000 0.000000
0.000000 0.000000 0.035493
0.000000 0.000000 0.219801
0.000000 0.000000 0.360615
0.000000 0.000000 0.059389
0.223513 0.087675 0.395723
0.119032 0.107445 0.496652
0.000000 0.005342 0.718727
0.000000 0.000000 0.884519
0.000000 0.000000 0.576318
0.246228 0.136327 0.557893
0.205835 0.288428 0.638828
0.161389 0.393348 0.836343
0.000000 0.289030 0.953844
0.000000 0.000000 0.554452
0.691004 0.096317 1.000000
0.675043 0.434724 1.000000
0.644443 0.661921 1.000000
0.246216 0.437596 1.000000
0.000000 0.000000 0.833174
1.000000 0.022267 1.000000
1.000000 0.672643 1.000000
1.000000 1.000000 1.000000
1.000000 0.512952 1.000000
0.035997 0.000000 1.000000
0.176925 0.101904 0.000000
0.055260 0.039376 0.000000
0.000000 0.000000 0.063951
0.000000 0.000000 0.251932
0.000000 0.000000 0.134698
0.322788 0.355779 0.274802
0.259051 0.311190 0.300930
0.306582 0.346764 0.500360
0.284879 0.374729 0.733094
0.214341 0.472600 0.618853
0.306295 0.477338 0.273526
0.246849 0.506021 0.306132
0.370713 0.666167 0.497668
0.353366 0.691746 0.688969
0.071188 0.482017 0.480592
0.667284 0.522003 0.735870
0.629337 0.750984 0.725622
0.730178 1.000000 0.848986
0.501266 0.896784 0.927635
0.000000 0.090320 0.542957
1.000000 0.511448 1.000000
1.000000 1.000000 1.000000
1.000000 1.000000 1.000000
1.000000 1.000000 1.000000
0.222157 0.000000 1.000000
0.456414 0.231678 0.115502
0.320041 0.120645 0.000429
0.314144 0.055761 0.069981
0.286683 0.023533 0.240758
0.286523 0.175762 0.189077
0.564968 0.497140 0.313735
0.386217 0.274596 0.314689
0.492613 0.264825 0.487033
0.588097 0.276080 0.728201
0.577515 0.281904 0.695346
0.481119 0.651730 0.172646
0.263217 0.446061 0.212412
0.368569 0.481069 0.399390
0.357095 0.386753 0.611849
0.000000 0.000000 0.487774
0.700434 0.717924 0.439071
0.517457 0.729204 0.455404
0.579275 0.870348 0.583825
0.301788 0.593096 0.683438
0.000000 0.000000 0.373064
1.000000 0.684449 1.000000
1.000000 1.000000 1.000000
1.000000 1.000000 1.000000
1.000000 1.000000 1.000000
0.000000 0.000000 1.000000
0.688550 0.228517 0.237101
0.633331 0.273337 0.141746
0.868979 0.450877 0.184843
1.000000 0.643675 0.320424
1.000000 0.899556 0.262238
0.858710 0.540709 0.407136
0.677162 0.347228 0.478920
0.907217 0.429699 0.666116
1.000000 0.492403 0.903589
1.000000 0.404910 0.885923
0.776679 0.740204 0.190280
0.528898 0.509858 0.339076
0.696889 0.559976 0.569298
0.725019 0.416583 0.796647
0.258557 0.000000 0.696542
0.893757 0.816530 0.317034
0.710685 0.822445 0.467679
0.830988 0.974616 0.654821
0.555015 0.620812 0.774996
0.000000 0.000000 0.484456
1.000000 0.725469 1.000000
1.000000 1.000000 1.000000
1.000000 1.000000 1.000000
1.000000 1.000000 1.000000
0.000000 0.000000 1.000000
0.300614 0.000000 0.000000
0.690382 0.530691 0.012739
1.000000 1.000000 0.111834
1.000000 1.000000 0.240605
1.000000 1.000000 0.150233
0.728615 0.250867 0.205958
0.924463 0.614074 0.490958
1.000000 1.000000 0.781322
1.000000 1.000000 1.000000
1.000000 1.000000 1.000000
0.814902 0.558888 0.017803
0.933792 0.834151 0.423875
1.000000 1.000000 0.791521
1.000000 1.000000 1.000000
1.000000 1.000000 0.983783
0.966504 0.685699 0.101549
1.000000 1.000000 0.540616
1.000000 1.000000 0.886522
1.000000 1.000000 1.000000
0.712749 0.519472 0.794437
1.000000 0.554133 1.000000
1.000000 1.000000 1.000000
1.000000 1.000000 1.000000
1.000000 1.000000 1.000000
1.000000 0.601338 1.000000
