public/luts/cinechrome.cube
# Generated from ColorChecker fit
LUT_3D_SIZE 9
DOMAIN_MIN 0.0 0.0 0.0
DOMAIN_MAX 1.0 1.0 1.0
0.000000 0.000000 0.226420
0.000000 0.000000 0.131100
0.000000 0.000000 0.166941
0.000000 0.000000 0.306151
0.181822 0.044445 0.495300
0.468163 0.047154 0.655314
0.640724 0.000000 0.681474
0.546755 0.000000 0.443423
0.000228 0.000000 0.000000
0.033202 0.173442 0.879186
0.000000 0.185130 0.713518
0.000000 0.279557 0.655237
0.073699 0.408659 0.666305
0.217106 0.467977 0.683039
0.287432 0.296664 0.616115
0.151933 0.000000 0.350565
0.000000 0.000000 0.000000
0.000000 0.000000 0.000000
0.006516 0.259272 1.000000
0.000000 0.370180 0.972060
0.000000 0.502256 0.859788
0.004484 0.594891 0.785438
0.003103 0.531082 0.675078
0.000000 0.137434 0.429132
0.000000 0.000000 0.000000
0.000000 0.000000 0.000000
0.000000 0.000000 0.000000
0.000000 0.182535 1.000000
0.000000 0.406031 1.000000
0.000000 0.574962 0.908507
0.000000 0.616172 0.799735
0.000000 0.400112 0.615872
0.000000 0.000000 0.247093
0.000000 0.000000 0.000000
0.000000 0.000000 0.000000
0.000000 0.000000 0.000000
0.000000 0.146761 1.000000
0.000000 0.501241 1.000000
0.000000 0.711260 1.000000
0.000000 0.691113 0.949061
0.000000 0.298708 0.753558
0.000000 0.000000 0.326405
0.000000 0.000000 0.000000
0.000000 0.000000 0.000000
0.000000 0.000000 0.000000
0.000000 0.412769 1.000000
0.000000 0.921658 1.000000
0.012205 1.000000 1.000000
0.000000 1.000000 1.000000
0.000000 0.507801 1.000000
0.000000 0.000000 1.000000
0.000000 0.000000 0.182599
0.000000 0.000000 0.000000
0.000000 0.000000 0.000000
0.137753 1.000000 1.000000
0.549385 1.000000 1.000000
0.761859 1.000000 1.000000
0.675908 1.000000 1.000000
0.158981 1.000000 1.000000
0.000000 0.000000 1.000000
0.000000 0.000000 1.000000
0.000000 0.000000 0.535714
0.000000 0.000000 0.000000
1.000000 1.000000 1.000000
1.000000 1.000000 1.000000
1.000000 1.000000 1.000000
1.000000 1.000000 1.000000
1.000000 1.000000 1.000000
0.376600 1.000000 1.000000
0.000000 0.000000 1.000000
0.000000 0.000000 1.000000
0.000000 0.000000 1.000000
1.000000 1.000000 1.000000
1.000000 1.000000 1.000000
1.000000 1.000000 1.000000
1.000000 1.000000 1.000000
1.000000 1.000000 1.000000
1.000000 1.000000 1.000000
0.383536 0.217697 1.000000
0.000000 0.000000 1.000000
0.000000 0.000000 1.000000
0.074920 0.000000 0.000000
0.000000 0.000000 0.000000
0.000000 0.000000 0.000000
0.045801 0.000000 0.000000
0.376833 0.000000 0.291808
0.782021 0.000000 0.714456
1.000000 0.000000 1.000000
1.000000 0.000000 1.000000
1.000000 0.000000 1.000000
0.309692 0.299360 0.394364
0.141986 0.163177 0.250894
0.132546 0.152066 0.252175
0.260291 0.239343 0.375073
0.470862 0.341932 0.570813
0.676616 0.320366 0.764975
0.756632 0.000000 0.857499
0.556707 0.000000 0.722682
0.000000 0.000000 0.209178
0.274467 0.381072 0.725377
0.162865 0.366076 0.558355
0.161719 0.413959 0.512156
0.236674 0.485492 0.553395
0.320097 0.485054 0.623046
0.311072 0.260630 0.636440
0.075405 0.000000 0.483266
0.000000 0.000000 0.027571
0.000000 0.000000 0.000000
0.080698 0.292302 0.776001
0.051440 0.413432 0.631034
0.076170 0.521086 0.585556
0.107259 0.563488 0.595934
0.063801 0.432472 0.592890
0.000000 0.000000 0.481506
0.000000 0.000000 0.141220
0.000000 0.000000 0.000000
0.000000 0.000000 0.000000
0.000000 0.234131 0.761216
0.000000 0.511356 0.692181
0.043789 0.684585 0.703899
0.046889 0.689498 0.742484
0.000000 0.405381 0.728410
0.000000 0.000000 0.556509
0.000000 0.000000 0.095966
0.000000 0.000000 0.000000
0.000000 0.000000 0.000000
0.000000 0.464932 0.999681
0.117959 0.923248 1.000000
0.274997 1.000000 1.000000
0.272938 1.000000 1.000000
0.004326 0.682264 1.000000
0.000000 0.000000 1.000000
0.000000 0.000000 0.715794
0.000000 0.000000 0.000000
0.000000 0.000000 0.000000
0.300632 1.000000 1.000000
0.745373 1.000000 1.000000
1.000000 1.000000 1.000000
1.000000 1.000000 1.000000
0.692334 1.000000 1.000000
0.000000 0.196175 1.000000
0.000000 0.000000 1.000000
0.000000 0.000000 1.000000
0.000000 0.000000 0.000000
1.000000 1.000000 1.000000
1.000000 1.000000 1.000000
1.000000 1.000000 1.000000
1.000000 1.000000 1.000000
1.000000 1.000000 1.000000
1.000000 1.000000 1.000000
0.000000 0.000000 1.000000
0.000000 0.000000 1.000000
0.000000 0.000000 1.000000
1.000000 1.000000 1.000000
1.000000 1.000000 1.000000
1.000000 1.000000 1.000000
1.000000 1.000000 1.000000
1.000000 1.000000 1.000000
1.000000 1.000000 1.000000
1.000000 1.000000 1.000000
0.000000 0.000000 1.000000
0.000000 0.000000 1.000000
0.308088 0.071681 0.000000
0.008885 0.000000 0.000000
0.000000 0.000000 0.000000
0.100608 0.000000 0.000000
0.466282 0.000000 0.174847
0.972860 0.000000 0.779796
1.000000 0.151771 1.000000
1.000000 0.027813 1.000000
1.000000 0.000000 1.000000
0.519023 0.447135 0.118912
0.273131 0.160968 0.000000
0.216589 0.044736 0.012954
0.340138 0.093137 0.200441
0.601238 0.244476 0.511627
0.924067 0.380667 0.886999
1.000000 0.327231 1.000000
1.000000 0.000000 1.000000
1.000000 0.000000 1.000000
0.458921 0.498875 0.452885
0.286485 0.354305 0.303181
0.255388 0.316856 0.292590
0.343095 0.368681 0.402635
0.493792 0.435538 0.589197
0.618386 0.386795 0.782513
0.594501 0.035427 0.887178
0.266484 0.000000 0.782145
0.000000 0.000000 0.320723
0.235159 0.368246 0.474753
0.163278 0.381786 0.356629
0.176064 0.425469 0.353532
0.237711 0.468902 0.436736
0.279130 0.425298 0.551870
0.197955 0.151479 0.618922
0.000000 0.000000 0.532235
0.000000 0.000000 0.160513
0.000000 0.000000 0.000000
0.000000 0.253885 0.399423
0.060368 0.447075 0.366558
0.142431 0.579267 0.427231
0.194753 0.607521 0.542464
0.134971 0.432505 0.647638
0.000000 0.000000 0.652488
0.000000 0.000000 0.441108
0.000000 0.000000 0.000000
0.000000 0.000000 0.000000
0.000000 0.411716 0.545481
0.177149 0.811124 0.659826
0.360834 1.000000 0.848816
0.427517 1.000000 1.000000
0.281564 0.733195 1.000000
0.000000 0.000000 1.000000
0.000000 0.000000 0.982012
0.000000 0.000000 0.292947
0.000000 0.000000 0.000000
0.293647 1.000000 1.000000
0.755545 1.000000 1.000000
1.000000 1.000000 1.000000
1.000000 1.000000 1.000000
0.981692 1.000000 1.000000
0.307532 0.521066 1.000000
0.000000 0.000000 1.000000
0.000000 0.000000 1.000000
0.000000 0.000000 0.497325
1.000000 1.000000 1.000000
1.000000 1.000000 1.000000
1.000000 1.000000 1.000000
1.000000 1.000000 1.000000
1.000000 1.000000 1.000000
1.000000 1.000000 1.000000
0.075710 0.000000 1.000000
0.000000 0.000000 1.000000
0.000000 0.000000 1.000000
1.000000 1.000000 1.000000
1.000000 1.000000 1.000000
1.000000 1.000000 1.000000
1.000000 1.000000 1.000000
1.000000 1.000000 1.000000
1.000000 1.000000 1.000000
1.000000 1.000000 1.000000
0.000000 0.000000 1.000000
0.000000 0.000000 1.000000
0.558068 0.310594 0.000000
0.155186 0.000000 0.000000
0.010576 0.000000 0.000000
0.140074 0.000000 0.000000
0.526233 0.000000 0.136608
1.000000 0.052669 0.849300
1.000000 0.522358 1.000000
1.000000 0.837849 1.000000
1.000000 0.745806 1.000000
0.741581 0.657608 0.042264
0.407609 0.219358 0.000000
0.292352 0.000000 0.000000
0.398373 0.010926 0.149186
0.694950 0.216510 0.518040
1.000000 0.518483 1.000000
1.000000 0.763748 1.000000
1.000000 0.742814 1.000000
1.000000 0.189798 1.000000
0.650916 0.667499 0.362874
0.406858 0.389702 0.222121
0.333300 0.265799 0.222455
0.419530 0.299323 0.360306
0.621555 0.437414 0.606460
0.862101 0.570821 0.906061
1.000000 0.533900 1.000000
0.983262 0.104615 1.000000
0.542927 0.000000 1.000000
0.389373 0.479169 0.338297
0.263184 0.379909 0.239108
0.250623 0.356944 0.254169
0.327704 0.401260 0.369657
0.437159 0.447452 0.546109
0.488442 0.373722 0.718419
0.357725 0.001881 0.795836
0.000000 0.000000 0.661970
0.000000 0.000000 0.174787
0.102783 0.288805 0.183368
0.129372 0.391195 0.179225
0.204058 0.478115 0.265089
0.289582 0.528008 0.416887
0.315402 0.462922 0.584906
0.177698 0.148513 0.693789
0.000000 0.000000 0.642536
0.000000 0.000000 0.304505
0.000000 0.000000 0.000000
0.000000 0.349885 0.216601
0.200737 0.682064 0.369257
0.395874 0.892847 0.590272
0.514385 0.948130 0.845325
0.472458 0.757414 1.000000
0.152997 0.173811 1.000000
0.000000 0.000000 1.000000
0.000000 0.000000 0.621984
0.000000 0.000000 0.000000
0.250445 0.973175 0.860192
0.715127 1.000000 1.000000
1.000000 1.000000 1.000000
1.000000 1.000000 1.000000
1.000000 1.000000 1.000000
0.679996 0.785520 1.000000
0.000000 0.000000 1.000000
0.000000 0.000000 1.000000
0.000000 0.000000 0.985630
1.000000 1.000000 1.000000
1.000000 1.000000 1.000000
1.000000 1.000000 1.000000
1.000000 1.000000 1.000000
1.000000 1.000000 1.000000
1.000000 1.000000 1.000000
0.724959 0.238529 1.000000
0.000000 0.000000 1.000000
0.000000 0.000000 1.000000
1.000000 1.000000 1.000000
1.000000 1.000000 1.000000
1.000000 1.000000 1.000000
1.000000 1.000000 1.000000
1.000000 1.000000 1.000000
1.000000 1.000000 1.000000
1.000000 1.000000 1.000000
0.352132 0.000000 1.000000
0.000000 0.000000 1.000000
0.847858 0.609404 0.000000
0.333882 0.000000 0.000000
0.106026 0.000000 0.000000
0.191946 0.000000 0.000000
0.586016 0.000000 0.124482
1.000000 0.221293 0.876145
1.000000 0.987636 1.000000
1.000000 1.000000 1.000000
1.000000 1.000000 1.000000
1.000000 0.934052 0.109057
0.580654 0.341635 0.000000
0.396653 0.016474 0.000000
0.473394 0.000000 0.183289
0.791979 0.261367 0.557813
1.000000 0.737163 1.000000
1.000000 1.000000 1.000000
1.000000 1.000000 1.000000
1.000000 1.000000 1.000000
0.894756 0.904202 0.420351
0.569868 0.489539 0.285964
0.442924 0.278073 0.278322
0.515032 0.294719 0.408758
0.754020 0.507998 0.662967
1.000000 0.830040 1.000000
1.000000 1.000000 1.000000
1.000000 1.000000 1.000000
1.000000 0.724151 1.000000
0.598297 0.656307 0.352010
0.407698 0.439053 0.269632
0.357968 0.346775 0.284406
0.436941 0.391841 0.397418
0.599172 0.530227 0.584109
0.765934 0.661516 0.794279
0.825221 0.628900 0.952086
0.631744 0.219177 0.956044
0.006938 0.000000 0.679025
0.263395 0.384108 0.118798
0.242851 0.388947 0.141711
0.297443 0.426378 0.234781
0.401732 0.496221 0.388843
0.496999 0.541906 0.569088
0.491243 0.450472 0.715065
0.259183 0.052564 0.740683
0.000000 0.000000 0.534204
0.000000 0.000000 0.000000
0.074335 0.338636 0.039156
0.266566 0.595281 0.228915
0.459542 0.777967 0.464432
0.614550 0.873972 0.726290
0.659597 0.814178 0.969431
0.489410 0.473078 1.000000
0.000000 0.000000 1.000000
0.000000 0.000000 0.751330
0.000000 0.000000 0.000000
0.257937 0.828210 0.535209
0.712614 1.000000 0.961640
1.000000 1.000000 1.000000
1.000000 1.000000 1.000000
1.000000 1.000000 1.000000
1.000000 1.000000 1.000000
0.212507 0.000000 1.000000
0.000000 0.000000 1.000000
0.000000 0.000000 1.000000
1.000000 1.000000 1.000000
1.000000 1.000000 1.000000
1.000000 1.000000 1.000000
1.000000 1.000000 1.000000
1.000000 1.000000 1.000000
1.000000 1.000000 1.000000
1.000000 0.890043 1.000000
0.000000 0.000000 1.000000
0.000000 0.000000 1.000000
1.000000 1.000000 1.000000
1.000000 1.000000 1.000000
1.000000 1.000000 1.000000
1.000000 1.000000 1.000000
1.000000 1.000000 1.000000
1.000000 1.000000 1.000000
1.000000 1.000000 1.000000
1.000000 0.000000 1.000000
0.000000 0.000000 1.000000
1.000000 0.919841 0.000000
0.522822 0.000000 0.000000
0.204167 0.000000 0.000000
0.237238 0.000000 0.000000
0.628229 0.000000 0.041067
1.000000 0.424285 0.768708
1.000000 1.000000 1.000000
1.000000 1.000000 1.000000
1.000000 1.000000 1.000000
1.000000 1.000000 0.219135
0.780768 0.493527 0.076215
0.519573 0.064587 0.064318
0.556868 0.014200 0.219935
0.885576 0.344815 0.553915
1.000000 1.000000 1.000000
1.000000 1.000000 1.000000
1.000000 1.000000 1.000000
1.000000 1.000000 1.000000
1.000000 1.000000 0.545527
0.774669 0.633519 0.420704
0.584995 0.333397 0.391964
0.631919 0.334602 0.485547
0.895088 0.627038 0.702053
1.000000 1.000000 1.000000
1.000000 1.000000 1.000000
1.000000 1.000000 1.000000
1.000000 1.000000 1.000000
0.870153 0.893332 0.456473
0.606624 0.552903 0.394561
0.509485 0.388663 0.396387
0.578393 0.434361 0.477942
0.779723 0.667354 0.629575
1.000000 1.000000 0.815991
1.000000 1.000000 0.976253
1.000000 1.000000 1.000000
1.000000 1.000000 0.846360
0.498353 0.547447 0.166663
0.421261 0.448000 0.220747
0.444625 0.431735 0.308820
0.554826 0.519854 0.436624
0.704966 0.677169 0.584257
0.814865 0.812098 0.706173
0.771064 0.776668 0.731187
0.426823 0.366512 0.562468
0.000000 0.000000 0.077545
0.252822 0.399602 0.000000
0.405744 0.572421 0.225904
0.584529 0.721251 0.464177
0.762285 0.854748 0.704778
0.878838 0.925178 0.917554
0.840737 0.828414 1.000000
0.521248 0.403934 1.000000
0.000000 0.000000 0.702774
0.000000 0.000000 0.000000
0.356300 0.755669 0.361937
0.789767 1.000000 0.840354
1.000000 1.000000 1.000000
1.000000 1.000000 1.000000
1.000000 1.000000 1.000000
1.000000 1.000000 1.000000
0.793751 0.540528 1.000000
0.000000 0.000000 1.000000
0.000000 0.000000 1.000000
1.000000 1.000000 1.000000
1.000000 1.000000 1.000000
1.000000 1.000000 1.000000
1.000000 1.000000 1.000000
1.000000 1.000000 1.000000
1.000000 1.000000 1.000000
1.000000 1.000000 1.000000
0.304070 0.000000 1.000000
0.000000 0.000000 1.000000
1.000000 1.000000 1.000000
1.000000 1.000000 1.000000
1.000000 1.000000 1.000000
1.000000 1.000000 1.000000
1.000000 1.000000 1.000000
1.000000 1.000000 1.000000
1.000000 1.000000 1.000000
1.000000 1.000000 1.000000
0.000000 0.000000 1.000000
1.000000 1.000000 0.000000
0.653122 0.059212 0.000000
0.237697 0.000000 0.000000
0.210229 0.000000 0.000000
0.588733 0.000000 0.000000
1.000000 0.575884 0.390572
1.000000 1.000000 1.000000
1.000000 1.000000 1.000000
1.000000 1.000000 1.000000
1.000000 1.000000 0.227544
0.949717 0.603191 0.091606
0.604463 0.070949 0.042464
0.593727 0.000000 0.131516
0.922253 0.395059 0.384516
1.000000 1.000000 0.801578
1.000000 1.000000 1.000000
1.000000 1.000000 1.000000
1.000000 1.000000 1.000000
1.000000 1.000000 0.613820
0.973680 0.763785 0.507539
0.713516 0.373928 0.450360
0.725774 0.361144 0.483432
1.000000 0.736719 0.622259
1.000000 1.000000 0.856704
1.000000 1.000000 1.000000
1.000000 1.000000 1.000000
1.000000 1.000000 1.000000
1.000000 1.000000 0.547473
0.823032 0.677581 0.515464
0.669829 0.438745 0.497461
0.718296 0.484971 0.524360
0.946629 0.814998 0.601417
1.000000 1.000000 0.708244
1.000000 1.000000 0.798810
1.000000 1.000000 0.801443
1.000000 1.000000 0.618826
0.779799 0.748907 0.243120
0.638325 0.538454 0.338271
0.620909 0.464303 0.414926
0.725751 0.569040 0.493732
0.917774 0.838857 0.569694
1.000000 1.000000 0.612173
1.000000 1.000000 0.564889
1.000000 1.000000 0.345919
0.691297 1.000000 0.000000
0.497761 0.516850 0.019060
0.602646 0.597567 0.302529
0.756793 0.706795 0.537596
0.945129 0.874571 0.734659
1.000000 1.000000 0.878472
1.000000 1.000000 0.928145
1.000000 1.000000 0.817149
0.574131 0.758194 0.453309
0.000000 0.000000 0.000000
0.538980 0.753603 0.297272
0.941612 1.000000 0.838488
1.000000 1.000000 1.000000
1.000000 1.000000 1.000000
1.000000 1.000000 1.000000
1.000000 1.000000 1.000000
1.000000 1.000000 1.000000
0.482476 0.298129 1.000000
0.000000 0.000000 0.720316
1.000000 1.000000 1.000000
1.000000 1.000000 1.000000
1.000000 1.000000 1.000000
1.000000 1.000000 1.000000
1.000000 1.000000 1.000000
1.000000 1.000000 1.000000
1.000000 1.000000 1.000000
1.000000 0.670530 1.000000
0.000000 0.000000 1.000000
1.000000 1.000000 1.000000
1.000000 1.000000 1.000000
1.000000 1.000000 1.000000
1.000000 1.000000 1.000000
1.000000 1.000000 1.000000
1.000000 1.000000 1.000000
1.000000 1.000000 1.000000
1.000000 1.000000 1.000000
0.357653 0.000000 1.000000
1.000000 1.000000 0.000000
0.609162 0.000000 0.000000
0.092580 0.000000 0.000000
0.000000 0.000000 0.000000
0.356656 0.000000 0.000000
1.000000 0.552762 0.000000
1.000000 1.000000 0.295924
1.000000 1.000000 1.000000
1.000000 1.000000 1.000000
1.000000 1.000000 0.000000
0.982534 0.561223 0.000000
0.547938 0.000000 0.000000
0.482169 0.000000 0.000000
0.801792 0.302738 0.000000
1.000000 1.000000 0.168596
1.000000 1.000000 0.591811
1.000000 1.000000 1.000000
1.000000 1.000000 1.000000
1.000000 1.000000 0.455851
1.000000 0.784911 0.382870
0.735751 0.304254 0.295695
0.705448 0.278948 0.250378
0.984964 0.741660 0.277332
1.000000 1.000000 0.381325
1.000000 1.000000 0.541483
1.000000 1.000000 0.711290
1.000000 1.000000 0.818587
1.000000 1.000000 0.476000
0.973259 0.731642 0.489112
0.756918 0.415590 0.450180
0.776151 0.462256 0.405006
1.000000 0.891760 0.373752
1.000000 1.000000 0.350936
1.000000 1.000000 0.305434
1.000000 1.000000 0.180480
1.000000 1.000000 0.000000
1.000000 0.921011 0.219529
0.821032 0.592845 0.371423
0.754866 0.456634 0.436019
0.844660 0.576344 0.448868
1.000000 0.959549 0.419883
1.000000 1.000000 0.333331
1.000000 1.000000 0.147837
1.000000 1.000000 0.000000
1.000000 1.000000 0.000000
0.745210 0.636883 0.004664
0.794913 0.617236 0.356300
0.915556 0.681131 0.587980
1.000000 0.879986 0.725005
1.000000 1.000000 0.767037
1.000000 1.000000 0.688092
1.000000 1.000000 0.436546
1.000000 1.000000 0.000000
0.617501 1.000000 0.000000
0.752686 0.782492 0.253312
1.000000 1.000000 0.873922
1.000000 1.000000 1.000000
1.000000 1.000000 1.000000
1.000000 1.000000 1.000000
1.000000 1.000000 1.000000
1.000000 1.000000 1.000000
1.000000 1.000000 1.000000
0.051720 0.545516 0.065614
1.000000 1.000000 1.000000
1.000000 1.000000 1.000000
1.000000 1.000000 1.000000
1.000000 1.000000 1.000000
1.000000 1.000000 1.000000
1.000000 1.000000 1.000000
1.000000 1.000000 1.000000
1.000000 1.000000 1.000000
0.269624 0.087445 1.000000
1.000000 1.000000 1.000000
1.000000 1.000000 1.000000
1.000000 1.000000 1.000000
1.000000 1.000000 1.000000
1.000000 1.000000 1.000000
1.000000 1.000000 1.000000
1.000000 1.000000 1.000000
1.000000 1.000000 1.000000
1.000000 0.832440 1.000000
1.000000 0.874731 0.000000
0.228588 0.000000 0.000000
0.000000 0.000000 0.000000
0.000000 0.000000 0.000000
0.000000 0.000000 0.000000
0.611321 0.194027 0.000000
1.000000 1.000000 0.000000
1.000000 1.000000 0.000000
1.000000 1.000000 0.231790
1.000000 1.000000 0.000000
0.727519 0.220652 0.000000
0.199879 0.000000 0.000000
0.073658 0.000000 0.000000
0.377238 0.000000 0.000000
1.000000 1.000000 0.000000
1.000000 1.000000 0.000000
1.000000 1.000000 0.000000
1.000000 1.000000 0.000000
1.000000 1.000000 0.000000
0.930336 0.563906 0.000000
0.512237 0.000000 0.000000
0.433055 0.000000 0.000000
0.707902 0.508915 0.000000
1.000000 1.000000 0.000000
1.000000 1.000000 0.000000
1.000000 1.000000 0.000000
1.000000 1.000000 0.000000
1.000000 1.000000 0.048250
0.926909 0.596077 0.127482
0.641937 0.200204 0.072302
0.624726 0.247236 0.000000
0.877111 0.778672 0.000000
1.000000 1.000000 0.000000
1.000000 1.000000 0.000000
1.000000 1.000000 0.000000
1.000000 1.000000 0.000000
1.000000 0.958716 0.000000
0.849637 0.506145 0.152550
0.728333 0.303713 0.210226
0.794974 0.436767 0.145942
1.000000 0.934261 0.000000
1.000000 1.000000 0.000000
1.000000 1.000000 0.000000
1.000000 1.000000 0.000000
1.000000 1.000000 0.000000
0.884494 0.668637 0.000000
0.873451 0.540380 0.239935
0.953308 0.553226 0.473826
1.000000 0.779975 0.540095
1.000000 1.000000 0.453309
1.000000 1.000000 0.202391
1.000000 1.000000 0.000000
1.000000 1.000000 0.000000
1.000000 1.000000 0.000000
0.897394 0.765256 0.097361
1.000000 1.000000 0.819742
1.000000 1.000000 1.000000
1.000000 1.000000 1.000000
1.000000 1.000000 1.000000
1.000000 1.000000 1.000000
1.000000 1.000000 1.000000
1.000000 1.000000 0.251526
1.000000 1.000000 0.000000
1.000000 1.000000 1.000000
1.000000 1.000000 1.000000
1.000000 1.000000 1.000000
1.000000 1.000000 1.000000
1.000000 1.000000 1.000000
1.000000 1.000000 1.000000
1.000000 1.000000 1.000000
1.000000 1.000000 1.000000
1.000000 1.000000 1.000000
1.000000 1.000000 1.000000
1.000000 1.000000 1.000000
1.000000 1.000000 1.000000
1.000000 1.000000 1.000000
1.000000 1.000000 1.000000
1.000000 1.000000 1.000000
1.000000 1.000000 1.000000
1.000000 1.000000 1.000000
1.000000 1.000000 1.000000
