public/luts/cinestill_x.cube
# Generated from ColorChecker fit
LUT_3D_SIZE 5
DOMAIN_MIN 0.0 0.0 0.0
DOMAIN_MAX 1.0 1.0 1.0
0.116840 0.506657 0.000000
0.239529 0.311761 0.226341
0.327962 0.339655 0.312633
0.401512 0.398270 0.349768
0.476636 0.487176 0.432351
0.239529 0.311761 0.226341
0.341618 0.276242 0.375896
0.416394 0.367550 0.398925
0.482503 0.441524 0.411482
0.555672 0.545647 0.501020
0.327962 0.339655 0.312633
0.416394 0.367550 0.398925
0.483972 0.458248 0.399758
0.548612 0.515499 0.424039
0.625311 0.634696 0.552068
0.401512 0.398270 0.349768
0.482503 0.441524 0.411482
0.548612 0.515499 0.424039
0.617024 0.571854 0.489193
0.702011 0.753893 0.680098
0.476636 0.487176 0.432351
0.555672 0.545647 0.501020
0.625311 0.634696 0.552068
0.702011 0.753893 0.680098
0.799313 1.000000 0.951112
0.239529 0.311761 0.226341
0.341618 0.276242 0.375896
0.416394 0.367550 0.398925
0.482503 0.441524 0.411482
0.555672 0.545647 0.501020
0.341618 0.276242 0.375896
0.426700 0.344133 0.440462
0.491171 0.458858 0.421953
0.552945 0.524165 0.429274
0.627024 0.635449 0.542729
0.416394 0.367550 0.398925
0.491171 0.458858 0.421953
0.551550 0.548945 0.400592
0.614720 0.589473 0.436595
0.694950 0.723745 0.603116
0.482503 0.441524 0.411482
0.552945 0.524165 0.429274
0.614720 0.589473 0.436595
0.684285 0.637018 0.528049
0.775180 0.858016 0.769637
0.555672 0.545647 0.501020
0.627024 0.635449 0.542729
0.694950 0.723745 0.603116
0.775180 0.858016 0.769637
0.880526 1.000000 1.000000
0.327962 0.339655 0.312633
0.416394 0.367550 0.398925
0.483972 0.458248 0.399758
0.548612 0.515499 0.424039
0.625311 0.634696 0.552068
0.416394 0.367550 0.398925
0.491171 0.458858 0.421953
0.551550 0.548945 0.400592
0.614720 0.589473 0.436595
0.694950 0.723745 0.603116
0.483972 0.458248 0.399758
0.551550 0.548945 0.400592
0.610704 0.606339 0.393338
0.677890 0.630001 0.472599
0.766650 0.811144 0.704378
0.548612 0.515499 0.424039
0.614720 0.589473 0.436595
0.677890 0.630001 0.472599
0.753849 0.684564 0.619502
0.855410 0.992288 0.936157
0.625311 0.634696 0.552068
0.694950 0.723745 0.603116
0.766650 0.811144 0.704378
0.855410 0.992288 0.936157
0.973314 1.000000 1.000000
0.401512 0.398270 0.349768
0.482503 0.441524 0.411482
0.548612 0.515499 0.424039
0.617024 0.571854 0.489193
0.702011 0.753893 0.680098
0.482503 0.441524 0.411482
0.552945 0.524165 0.429274
0.614720 0.589473 0.436595
0.684285 0.637018 0.528049
0.775180 0.858016 0.769637
0.548612 0.515499 0.424039
0.614720 0.589473 0.436595
0.677890 0.630001 0.472599
0.753849 0.684564 0.619502
0.855410 0.992288 0.936157
0.617024 0.571854 0.489193
0.684285 0.637018 0.528049
0.753849 0.684564 0.619502
0.840717 0.809883 0.843856
0.956971 1.000000 1.000000
0.702011 0.753893 0.680098
0.775180 0.858016 0.769637
0.855410 0.992288 0.936157
0.956971 1.000000 1.000000
1.000000 1.000000 1.000000
0.476636 0.487176 0.432351
0.555672 0.545647 0.501020
0.625311 0.634696 0.552068
0.702011 0.753893 0.680098
0.799313 1.000000 0.951112
0.555672 0.545647 0.501020
0.627024 0.635449 0.542729
0.694950 0.723745 0.603116
0.775180 0.858016 0.769637
0.880526 1.000000 1.000000
0.625311 0.634696 0.552068
0.694950 0.723745 0.603116
0.766650 0.811144 0.704378
0.855410 0.992288 0.936157
0.973314 1.000000 1.000000
0.702011 0.753893 0.680098
0.775180 0.858016 0.769637
0.855410 0.992288 0.936157
0.956971 1.000000 1.000000
1.000000 1.000000 1.000000
0.799313 1.000000 0.951112
0.880526 1.000000 1.000000
0.973314 1.000000 1.000000
1.000000 1.000000 1.000000
1.000000 1.000000 1.000000
