public/luts/classic_chrome.cube
# Generated from ColorChecker fit
LUT_3D_SIZE 33
DOMAIN_MIN 0.0 0.0 0.0
DOMAIN_MAX 1.0 1.0 1.0
0.202980 0.071753 0.109898
0.157522 0.051828 0.146234
0.121870 0.036655 0.187417
0.095281 0.026154 0.232636
0.077008 0.020185 0.281038
0.066301 0.018540 0.331718
0.062403 0.020953 0.383727
0.064552 0.027090 0.436069
0.071981 0.036557 0.487701
0.083919 0.048897 0.537533
0.099589 0.063589 0.584428
0.118210 0.080048 0.627202
0.138993 0.097627 0.664626
0.161148 0.115616 0.695421
0.183877 0.133241 0.718265
0.206379 0.149667 0.731785
0.227846 0.163993 0.734565
0.247467 0.175258 0.725140
0.264423 0.182434 0.701999
0.277894 0.184433 0.663583
0.287052 0.180104 0.608288
0.291064 0.168230 0.534463
0.289093 0.147534 0.440408
0.280298 0.116675 0.324378
0.263830 0.074248 0.184581
0.238837 0.018785 0.019179
0.204462 0.000000 0.000000
0.159841 0.000000 0.000000
0.104109 0.000000 0.000000
0.036391 0.000000 0.000000
0.000000 0.000000 0.000000
0.000000 0.000000 0.000000
0.000000 0.000000 0.000000
0.153161 0.031153 0.134758
0.116012 0.020459 0.170045
0.088340 0.014111 0.210267
0.069327 0.011963 0.254587
0.058152 0.013810 0.302123
0.053989 0.019381 0.351946
0.056007 0.028344 0.403080
0.063367 0.040303 0.454503
0.075230 0.054799 0.505146
0.090748 0.071311 0.553891
0.109069 0.089252 0.599575
0.129336 0.107974 0.640990
0.150688 0.126767 0.676877
0.172258 0.144855 0.705934
0.193173 0.161401 0.726809
0.212557 0.175504 0.738107
0.229528 0.186200 0.738383
0.243198 0.192463 0.726145
0.252676 0.193203 0.699858
0.257064 0.187266 0.657935
0.255461 0.173435 0.598746
0.246958 0.150433 0.520613
0.230643 0.116915 0.421811
0.205600 0.071478 0.300568
0.170906 0.012651 0.155066
0.125633 0.000000 0.000000
0.068849 0.000000 0.000000
0.000000 0.000000 0.000000
0.000000 0.000000 0.000000
0.000000 0.000000 0.000000
0.000000 0.000000 0.000000
0.000000 0.000000 0.000000
0.000000 0.000000 0.000000
0.095645 0.000000 0.149303
0.066690 0.000000 0.183813
0.046838 0.000000 0.223319
0.035200 0.000000 0.266961
0.030879 0.006233 0.313829
0.032973 0.019028 0.362967
0.040576 0.034514 0.413375
0.052776 0.052229 0.464002
0.068656 0.071651 0.513754
0.087294 0.092194 0.561486
0.107764 0.113208 0.606010
0.129134 0.133981 0.646090
0.150467 0.153736 0.680442
0.170821 0.171635 0.707736
0.189249 0.186777 0.726596
0.204800 0.198196 0.735599
0.216515 0.204864 0.733273
0.223434 0.205690 0.718102
0.224588 0.199520 0.688521
0.219006 0.185137 0.642921
0.205710 0.161259 0.579643
0.183719 0.126544 0.496982
0.152044 0.079584 0.393189
0.109694 0.018910 0.266464
0.055671 0.000000 0.114963
0.000000 0.000000 0.000000
0.000000 0.000000 0.000000
0.000000 0.000000 0.000000
0.000000 0.000000 0.000000
0.000000 0.000000 0.000000
0.000000 0.000000 0.000000
0.000000 0.000000 0.000000
0.000000 0.000000 0.000000
0.032067 0.000000 0.154480
0.011157 0.000000 0.188472
0.000000 0.000000 0.227498
0.000000 0.000000 0.270672
0.000000 0.000000 0.317057
0.004731 0.017798 0.365673
0.017557 0.039768 0.415491
0.034191 0.063164 0.465435
0.053641 0.087401 0.514383
0.074910 0.111826 0.561167
0.096996 0.135726 0.604569
0.118893 0.158325 0.643329
0.139588 0.178783 0.676135
0.158065 0.196196 0.701633
0.173301 0.209599 0.718418
0.184270 0.217962 0.725042
0.189940 0.220193 0.720006
0.189273 0.215137 0.701769
0.181228 0.201575 0.668739
0.164756 0.178226 0.619279
0.138807 0.143745 0.551705
0.102322 0.096723 0.464287
0.054239 0.035690 0.355248
0.000000 0.000000 0.222762
0.000000 0.000000 0.064958
0.000000 0.000000 0.000000
0.000000 0.000000 0.000000
0.000000 0.000000 0.000000
0.000000 0.000000 0.000000
0.000000 0.000000 0.000000
0.000000 0.000000 0.000000
0.000000 0.000000 0.000000
0.000000 0.000000 0.000000
0.000000 0.000000 0.151501
0.000000 0.000000 0.185222
0.000000 0.000000 0.223993
0.000000 0.000000 0.266898
0.000000 0.000000 0.312976
0.000000 0.016007 0.361220
0.000000 0.044412 0.410574
0.009248 0.073405 0.459936
0.031789 0.102332 0.508158
0.055167 0.130480 0.554045
0.078305 0.157071 0.596354
0.100121 0.181263 0.633797
0.119528 0.202153 0.665037
0.135434 0.218773 0.688692
0.146743 0.230093 0.703333
0.152352 0.235019 0.707483
0.151154 0.232395 0.699619
0.142037 0.221001 0.678172
0.123884 0.199555 0.641524
0.095573 0.166710 0.588012
0.055976 0.121059 0.515926
0.003962 0.061127 0.423509
0.000000 0.000000 0.308957
0.000000 0.000000 0.170419
0.000000 0.000000 0.005998
0.000000 0.000000 0.000000
0.000000 0.000000 0.000000
0.000000 0.000000 0.000000
0.000000 0.000000 0.000000
0.000000 0.000000 0.000000
0.000000 0.000000 0.000000
0.000000 0.000000 0.000000
0.000000 0.000000 0.000000
0.000000 0.000000 0.141842
0.000000 0.000000 0.175531
0.000000 0.000000 0.214258
0.000000 0.000000 0.257084
0.000000 0.000000 0.303019
0.000000 0.013968 0.351029
0.000000 0.048751 0.400034
0.000000 0.083244 0.448906
0.004920 0.116731 0.496468
0.029854 0.148433 0.541500
0.053447 0.177507 0.582733
0.074544 0.203050 0.618851
0.091982 0.224091 0.648493
0.104593 0.239601 0.670249
0.111207 0.248483 0.682664
0.110645 0.249581 0.684235
0.101726 0.241674 0.673413
0.083264 0.223477 0.648601
0.054064 0.193645 0.608157
0.012932 0.150766 0.550390
0.000000 0.093367 0.473564
0.000000 0.019913 0.375896
0.000000 0.000000 0.255554
0.000000 0.000000 0.110663
0.000000 0.000000 0.000000
0.000000 0.000000 0.000000
0.000000 0.000000 0.000000
0.000000 0.000000 0.000000
0.000000 0.000000 0.000000
0.000000 0.000000 0.000000
0.000000 0.000000 0.000000
0.000000 0.000000 0.000000
0.000000 0.000000 0.000000
0.000000 0.000000 0.127246
0.000000 0.000000 0.161129
0.000000 0.000000 0.200016
0.000000 0.000000 0.242938
0.000000 0.000000 0.288884
0.000000 0.011993 0.336790
0.000000 0.053085 0.385550
0.000000 0.092974 0.434010
0.000000 0.130878 0.480967
0.000979 0.165955 0.525175
0.024402 0.197298 0.565337
0.044109 0.223937 0.600113
0.058864 0.244841 0.628114
0.067425 0.258913 0.647904
0.068544 0.264994 0.658001
0.060971 0.261863 0.656877
0.043447 0.248234 0.642956
0.014711 0.222760 0.614614
0.000000 0.184028 0.570183
0.000000 0.130566 0.507947
0.000000 0.060835 0.426142
0.000000 0.000000 0.322958
0.000000 0.000000 0.196540
0.000000 0.000000 0.044983
0.000000 0.000000 0.000000
0.000000 0.000000 0.000000
0.000000 0.000000 0.000000
0.000000 0.000000 0.000000
0.000000 0.000000 0.000000
0.000000 0.000000 0.000000
0.000000 0.000000 0.000000
0.000000 0.000000 0.000000
0.000000 0.000000 0.000000
0.000000 0.000000 0.109721
0.000000 0.000000 0.144014
0.000000 0.000000 0.183251
0.000000 0.000000 0.226438
0.000000 0.000000 0.272535
0.000000 0.010391 0.320455
0.000000 0.057716 0.369064
0.000000 0.102886 0.417180
0.000000 0.145056 0.463577
0.000000 0.183318 0.506980
0.000000 0.216704 0.546067
0.010980 0.244178 0.579471
0.022309 0.264643 0.605777
0.026031 0.276941 0.623522
0.020827 0.279847 0.631199
0.005369 0.272076 0.627253
0.000000 0.252278 0.610080
0.000000 0.219040 0.578032
0.000000 0.170889 0.529414
0.000000 0.106284 0.462483
0.000000 0.023625 0.375449
0.000000 0.000000 0.266476
0.000000 0.000000 0.133681
0.000000 0.000000 0.000000
0.000000 0.000000 0.000000
0.000000 0.000000 0.000000
0.000000 0.000000 0.000000
0.000000 0.000000 0.000000
0.000000 0.000000 0.000000
0.000000 0.000000 0.000000
0.000000 0.000000 0.000000
0.000000 0.000000 0.000000
0.000000 0.000000 0.000000
0.000000 0.000000 0.091540
0.000000 0.000000 0.126448
0.000000 0.000000 0.166215
0.000000 0.000000 0.209823
0.000000 0.000000 0.256203
0.000000 0.009473 0.304243
0.000000 0.062942 0.352782
0.000000 0.113268 0.400614
0.000000 0.159542 0.446483
0.000000 0.200793 0.489090
0.000000 0.235985 0.527087
0.000000 0.264020 0.559078
0.000000 0.283738 0.583624
0.000000 0.293915 0.599236
0.000000 0.293262 0.604379
0.000000 0.280430 0.597471
0.000000 0.254005 0.576885
0.000000 0.212511 0.540944
0.000000 0.154407 0.487926
0.000000 0.078091 0.416064
0.000000 0.000000 0.323540
0.000000 0.000000 0.208493
0.000000 0.000000 0.069012
0.000000 0.000000 0.000000
0.000000 0.000000 0.000000
0.000000 0.000000 0.000000
0.000000 0.000000 0.000000
0.000000 0.000000 0.000000
0.000000 0.000000 0.000000
0.000000 0.000000 0.000000
0.000000 0.000000 0.000000
0.000000 0.000000 0.000000
0.000000 0.000000 0.000000
0.000000 0.000000 0.075244
0.000000 0.000000 0.110960
0.000000 0.000000 0.151427
0.000000 0.000000 0.195599
0.000000 0.000000 0.242383
0.000000 0.009546 0.290639
0.000000 0.069062 0.339180
0.000000 0.124410 0.386773
0.000000 0.174616 0.432138
0.000000 0.218646 0.473946
0.000000 0.255399 0.510825
0.000000 0.283714 0.541353
0.000000 0.302365 0.564064
0.000000 0.310064 0.577441
0.000000 0.305459 0.579925
0.000000 0.287135 0.569908
0.000000 0.253616 0.545733
0.000000 0.203359 0.505701
0.000000 0.134762 0.448062
0.000000 0.046157 0.371021
0.000000 0.000000 0.272735
0.000000 0.000000 0.151317
0.000000 0.000000 0.004831
0.000000 0.000000 0.000000
0.000000 0.000000 0.000000
0.000000 0.000000 0.000000
0.000000 0.000000 0.000000
0.000000 0.000000 0.000000
0.000000 0.000000 0.000000
0.000000 0.000000 0.000000
0.000000 0.000000 0.000000
0.000000 0.000000 0.000000
0.000000 0.000000 0.000000
0.000000 0.000000 0.063636
0.000000 0.000000 0.100343
0.000000 0.000000 0.141669
0.000000 0.000000 0.186539
0.000000 0.000000 0.233836
0.000000 0.010915 0.282393
0.000000 0.076370 0.330997
0.000000 0.136595 0.378387
0.000000 0.190553 0.423258
0.000000 0.237144 0.464255
0.000000 0.275203 0.499978
0.000000 0.303505 0.528981
0.000000 0.320759 0.549769
0.000000 0.325614 0.560802
0.000000 0.316654 0.560491
0.000000 0.292399 0.547203
0.000000 0.251307 0.519256
0.000000 0.191775 0.474923
0.000000 0.112132 0.412428
0.000000 0.010649 0.329951
0.000000 0.000000 0.225621
0.000000 0.000000 0.097525
0.000000 0.000000 0.000000
0.000000 0.000000 0.000000
0.000000 0.000000 0.000000
0.000000 0.000000 0.000000
0.000000 0.000000 0.000000
0.000000 0.000000 0.000000
0.000000 0.000000 0.000000
0.000000 0.000000 0.000000
0.000000 0.000000 0.000000
0.000000 0.000000 0.000000
0.000000 0.000000 0.000000
0.000000 0.000000 0.059788
0.000000 0.000000 0.097658
0.000000 0.000000 0.139989
0.000000 0.000000 0.185681
0.000000 0.000000 0.233589
0.000000 0.013884 0.282521
0.000000 0.085162 0.331236
0.000000 0.150111 0.378449
0.000000 0.207629 0.422826
0.000000 0.256552 0.462987
0.000000 0.295652 0.497507
0.000000 0.323638 0.524911
0.000000 0.339157 0.543679
0.000000 0.340792 0.552244
0.000000 0.327063 0.548993
0.000000 0.296426 0.532263
0.000000 0.247275 0.500349
0.000000 0.177942 0.451495
0.000000 0.086693 0.383900
0.000000 0.000000 0.295716
0.000000 0.000000 0.185049
0.000000 0.000000 0.049957
0.000000 0.000000 0.000000
0.000000 0.000000 0.000000
0.000000 0.000000 0.000000
0.000000 0.000000 0.000000
0.000000 0.000000 0.000000
0.000000 0.000000 0.000000
0.000000 0.000000 0.000000
0.000000 0.000000 0.000000
0.000000 0.000000 0.000000
0.000000 0.000000 0.000000
0.000000 0.000000 0.000000
0.000000 0.000000 0.067034
0.000000 0.000000 0.106229
0.000000 0.000000 0.149702
0.000000 0.000000 0.196327
0.000000 0.000000 0.244934
0.000000 0.018756 0.294303
0.000000 0.095730 0.343169
0.000000 0.165238 0.390218
0.000000 0.226115 0.434091
0.000000 0.277133 0.473382
0.000000 0.316999 0.506638
0.000000 0.344358 0.532359
0.000000 0.357792 0.548999
0.000000 0.355821 0.554964
0.000000 0.336900 0.548613
0.000000 0.299421 0.528261
0.000000 0.241715 0.492172
0.000000 0.162047 0.438565
0.000000 0.058620 0.365615
0.000000 0.000000 0.271446
0.000000 0.000000 0.154136
0.000000 0.000000 0.011719
0.000000 0.000000 0.000000
0.000000 0.000000 0.000000
0.000000 0.000000 0.000000
0.000000 0.000000 0.000000
0.000000 0.000000 0.000000
0.000000 0.000000 0.000000
0.000000 0.000000 0.000000
0.000000 0.000000 0.000000
0.000000 0.000000 0.000000
0.000000 0.000000 0.000000
0.000000 0.000000 0.000000
0.000000 0.000000 0.088978
0.000000 0.000000 0.129647
0.000000 0.000000 0.174387
0.000000 0.000000 0.222047
0.000000 0.000000 0.271429
0.000000 0.025832 0.321288
0.000000 0.108365 0.370331
0.000000 0.182259 0.417219
0.000000 0.246285 0.460567
0.000000 0.299149 0.498941
0.000000 0.339496 0.530863
0.000000 0.365906 0.554807
0.000000 0.376897 0.569199
0.000000 0.370924 0.572419
0.000000 0.346378 0.562801
0.000000 0.301587 0.538632
0.000000 0.234818 0.498151
0.000000 0.144271 0.439551
0.000000 0.028087 0.360978
0.000000 0.000000 0.260532
0.000000 0.000000 0.136265
0.000000 0.000000 0.000000
0.000000 0.000000 0.000000
0.000000 0.000000 0.000000
0.000000 0.000000 0.000000
0.000000 0.000000 0.000000
0.000000 0.000000 0.000000
0.000000 0.000000 0.000000
0.000000 0.000000 0.000000
0.000000 0.000000 0.000000
0.000000 0.000000 0.000000
0.000000 0.000000 0.000000
0.000000 0.000000 0.000000
0.000000 0.000000 0.129486
0.000000 0.000000 0.171768
0.000000 0.000000 0.217890
0.000000 0.000000 0.266675
0.000000 0.000000 0.316898
0.000000 0.035413 0.367287
0.000000 0.123358 0.416524
0.000000 0.201454 0.463243
0.000000 0.268407 0.506033
0.000000 0.322860 0.543434
0.000000 0.363393 0.573941
0.000000 0.388523 0.596001
0.000000 0.396702 0.608014
0.000000 0.386321 0.608335
0.000000 0.355708 0.595271
0.000000 0.303126 0.567081
0.000000 0.226776 0.521979
0.000000 0.124797 0.458133
0.000000 0.000000 0.373660
0.000000 0.000000 0.266635
0.000000 0.000000 0.135084
0.000000 0.000000 0.000000
0.000000 0.000000 0.000000
0.000000 0.000000 0.000000
0.000000 0.000000 0.000000
0.000000 0.000000 0.000000
0.000000 0.000000 0.000000
0.000000 0.000000 0.000000
0.000000 0.000000 0.000000
0.000000 0.000000 0.000000
0.000000 0.000000 0.000000
0.000000 0.000000 0.000000
0.000000 0.000000 0.000000
0.000000 0.000000 0.192691
0.000000 0.000000 0.236714
0.000000 0.000000 0.284321
0.000000 0.000000 0.334310
0.000000 0.000000 0.385428
0.000000 0.047795 0.436378
0.000000 0.140995 0.485815
0.001462 0.223100 0.532347
0.017447 0.292751 0.574535
0.020632 0.348526 0.610895
0.009115 0.388941 0.639894
0.000000 0.412448 0.659953
0.000000 0.417436 0.669446
0.000000 0.402232 0.666702
0.000000 0.365099 0.650001
0.000000 0.304236 0.617576
0.000000 0.217780 0.567614
0.000000 0.103805 0.498257
0.000000 0.000000 0.407596
0.000000 0.000000 0.293679
0.000000 0.000000 0.154506
0.000000 0.000000 0.000000
0.000000 0.000000 0.000000
0.000000 0.000000 0.000000
0.000000 0.000000 0.000000
0.000000 0.000000 0.000000
0.000000 0.000000 0.000000
0.000000 0.000000 0.000000
0.000000 0.000000 0.000000
0.000000 0.000000 0.000000
0.000000 0.000000 0.000000
0.000000 0.000000 0.000000
0.000000 0.000000 0.000000
0.000000 0.000000 0.282991
0.000000 0.000000 0.328872
0.000000 0.000000 0.378058
0.000000 0.000000 0.429318
0.008558 0.000000 0.481376
0.050523 0.063275 0.532906
0.084091 0.161565 0.582537
0.107302 0.247475 0.628851
0.118188 0.319583 0.670384
0.114777 0.376402 0.705623
0.095092 0.416384 0.733011
0.057152 0.437918 0.750941
0.000000 0.439327 0.757763
0.000000 0.418875 0.751777
0.000000 0.374759 0.731237
0.000000 0.305115 0.694350
0.000000 0.208017 0.639279
0.000000 0.081473 0.564135
0.000000 0.000000 0.466988
0.000000 0.000000 0.345855
0.000000 0.000000 0.198712
0.000000 0.000000 0.023485
0.000000 0.000000 0.000000
0.000000 0.000000 0.000000
0.000000 0.000000 0.000000
0.000000 0.000000 0.000000
0.000000 0.000000 0.000000
0.000000 0.000000 0.000000
0.000000 0.000000 0.000000
0.000000 0.000000 0.000000
0.000000 0.000000 0.000000
0.000000 0.000000 0.000000
0.000000 0.000000 0.000000
0.000000 0.000000 0.405050
0.000238 0.000000 0.452896
0.057351 0.000000 0.503742
0.110832 0.000000 0.556331
0.158661 0.000000 0.609360
0.198810 0.082149 0.661478
0.229248 0.185352 0.711287
0.247938 0.274854 0.757343
0.252839 0.349169 0.798155
0.241903 0.406745 0.832184
0.213078 0.445971 0.857846
0.164308 0.465169 0.873510
0.093530 0.462601 0.877496
0.000000 0.436465 0.868080
0.000000 0.384894 0.843489
0.000000 0.305961 0.801905
0.000000 0.197674 0.741462
0.000000 0.057977 0.660247
0.000000 0.000000 0.556302
0.000000 0.000000 0.427619
0.000000 0.000000 0.272147
0.000000 0.000000 0.087784
0.000000 0.000000 0.000000
0.000000 0.000000 0.000000
0.000000 0.000000 0.000000
0.000000 0.000000 0.000000
0.000000 0.000000 0.000000
0.000000 0.000000 0.000000
0.000000 0.000000 0.000000
0.000000 0.000000 0.000000
0.000000 0.000000 0.000000
0.000000 0.000000 0.000000
0.000000 0.000000 0.000000
0.131947 0.000000 0.563798
0.192750 0.000000 0.613704
0.250881 0.000000 0.666280
0.304248 0.000000 0.720245
0.350755 0.000000 0.774268
0.388299 0.104709 0.826971
0.414775 0.212640 0.876931
0.428070 0.305511 0.922677
0.426067 0.381772 0.962691
0.406645 0.439809 0.995410
0.367677 0.477943 1.000000
0.307030 0.494436 1.000000
0.222568 0.487483 1.000000
0.112148 0.455218 1.000000
0.000000 0.395711 0.991535
0.000000 0.306969 0.945005
0.000000 0.186936 0.878918
0.000000 0.033494 0.791335
0.000000 0.000000 0.680270
0.000000 0.000000 0.543692
0.000000 0.000000 0.379520
0.000000 0.000000 0.185628
0.000000 0.000000 0.000000
0.000000 0.000000 0.000000
0.000000 0.000000 0.000000
0.000000 0.000000 0.000000
0.000000 0.000000 0.000000
0.000000 0.000000 0.000000
0.000000 0.000000 0.000000
0.000000 0.000000 0.000000
0.000000 0.000000 0.000000
0.000000 0.000000 0.000000
0.000000 0.000000 0.000000
0.372237 0.000000 0.764430
0.434468 0.000000 0.816479
0.492925 0.000000 0.870847
0.545444 0.000000 0.926222
0.589851 0.003884 0.981249
0.623970 0.131248 1.000000
0.645620 0.243710 1.000000
0.652613 0.339718 1.000000
0.642758 0.417656 1.000000
0.613858 0.475845 1.000000
0.563711 0.512545 1.000000
0.490110 0.525951 1.000000
0.390843 0.514195 1.000000
0.263693 0.475346 1.000000
0.106438 0.407410 1.000000
0.000000 0.308331 1.000000
0.000000 0.175987 1.000000
0.000000 0.008196 0.962408
0.000000 0.000000 0.843892
0.000000 0.000000 0.699061
0.000000 0.000000 0.525808
0.000000 0.000000 0.321981
0.000000 0.000000 0.085382
0.000000 0.000000 0.000000
0.000000 0.000000 0.000000
0.000000 0.000000 0.000000
0.000000 0.000000 0.000000
0.000000 0.000000 0.000000
0.000000 0.000000 0.000000
0.000000 0.000000 0.000000
0.000000 0.000000 0.000000
0.000000 0.000000 0.000000
0.000000 0.000000 0.000000
0.667738 0.000000 1.000000
0.730715 0.000000 1.000000
0.788777 0.000000 1.000000
0.839680 0.000000 1.000000
0.881179 0.028998 1.000000
0.911021 0.162056 1.000000
0.926950 0.278843 1.000000
0.926704 0.377745 1.000000
0.908017 0.457080 1.000000
0.868615 0.515106 1.000000
0.806224 0.550018 1.000000
0.718559 0.559946 1.000000
0.603335 0.542959 1.000000
0.458259 0.497061 1.000000
0.281035 0.420195 1.000000
0.069359 0.310239 1.000000
0.000000 0.165009 1.000000
0.000000 0.000000 1.000000
0.000000 0.000000 1.000000
0.000000 0.000000 0.898979
0.000000 0.000000 0.716253
0.000000 0.000000 0.502075
0.000000 0.000000 0.254218
0.000000 0.000000 0.000000
0.000000 0.000000 0.000000
0.000000 0.000000 0.000000
0.000000 0.000000 0.000000
0.000000 0.000000 0.000000
0.000000 0.000000 0.000000
0.000000 0.000000 0.000000
0.000000 0.000000 0.000000
0.000000 0.000000 0.000000
0.000000 0.000000 0.000000
1.000000 0.000000 1.000000
1.000000 0.000000 1.000000
1.000000 0.000000 1.000000
1.000000 0.000000 1.000000
1.000000 0.058847 1.000000
1.000000 0.197421 1.000000
1.000000 0.318319 1.000000
1.000000 0.419861 1.000000
1.000000 0.500304 1.000000
1.000000 0.557840 1.000000
1.000000 0.590600 1.000000
0.997606 0.596650 1.000000
0.865242 0.573995 1.000000
0.701014 0.520574 1.000000
0.502551 0.434266 1.000000
0.267476 0.312885 1.000000
0.000000 0.154182 1.000000
0.000000 0.000000 1.000000
0.000000 0.000000 1.000000
0.000000 0.000000 1.000000
0.000000 0.000000 0.956363
0.000000 0.000000 0.731405
0.000000 0.000000 0.471840
0.000000 0.000000 0.175367
0.000000 0.000000 0.000000
0.000000 0.000000 0.000000
0.000000 0.000000 0.000000
0.000000 0.000000 0.000000
0.000000 0.000000 0.000000
0.000000 0.000000 0.000000
0.000000 0.000000 0.000000
0.000000 0.000000 0.000000
0.000000 0.000000 0.000000
1.000000 0.000000 1.000000
1.000000 0.000000 1.000000
1.000000 0.000000 1.000000
1.000000 0.000000 1.000000
1.000000 0.093730 1.000000
1.000000 0.237630 1.000000
1.000000 0.362413 1.000000
1.000000 0.466334 1.000000
1.000000 0.547585 1.000000
1.000000 0.604295 1.000000
1.000000 0.634530 1.000000
1.000000 0.636292 1.000000
1.000000 0.607520 1.000000
0.997342 0.546092 1.000000
0.776341 0.449821 1.000000
0.516522 0.316456 1.000000
0.215429 0.143686 1.000000
0.000000 0.000000 1.000000
0.000000 0.000000 1.000000
0.000000 0.000000 1.000000
0.000000 0.000000 1.000000
0.000000 0.000000 1.000000
0.000000 0.000000 0.743996
0.000000 0.000000 0.434371
0.000000 0.000000 0.084487
0.000000 0.000000 0.000000
0.000000 0.000000 0.000000
0.000000 0.000000 0.000000
0.000000 0.000000 0.000000
0.000000 0.000000 0.000000
0.000000 0.000000 0.000000
0.000000 0.000000 0.000000
0.000000 0.000000 0.000000
1.000000 0.000000 1.000000
1.000000 0.000000 1.000000
1.000000 0.000000 1.000000
1.000000 0.000000 1.000000
1.000000 0.133941 1.000000
1.000000 0.282970 1.000000
1.000000 0.411403 1.000000
1.000000 0.517430 1.000000
1.000000 0.599181 1.000000
1.000000 0.654718 1.000000
1.000000 0.682044 1.000000
1.000000 0.679097 1.000000
1.000000 0.643753 1.000000
1.000000 0.573823 1.000000
1.000000 0.467057 1.000000
0.822040 0.321140 1.000000
0.492506 0.133697 1.000000
0.116840 0.000000 1.000000
0.000000 0.000000 1.000000
0.000000 0.000000 1.000000
0.000000 0.000000 1.000000
0.000000 0.000000 1.000000
0.000000 0.000000 1.000000
0.000000 0.000000 0.753429
0.000000 0.000000 0.388863
0.000000 0.000000 0.000000
0.000000 0.000000 0.000000
0.000000 0.000000 0.000000
0.000000 0.000000 0.000000
0.000000 0.000000 0.000000
0.000000 0.000000 0.000000
0.000000 0.000000 0.000000
0.000000 0.000000 0.000000
1.000000 0.000000 1.000000
1.000000 0.000000 1.000000
1.000000 0.000000 1.000000
1.000000 0.005523 1.000000
1.000000 0.179775 1.000000
1.000000 0.333724 1.000000
1.000000 0.465562 1.000000
1.000000 0.573414 1.000000
1.000000 0.655344 1.000000
1.000000 0.709353 1.000000
1.000000 0.733377 1.000000
1.000000 0.725292 1.000000
1.000000 0.682907 1.000000
1.000000 0.603971 1.000000
1.000000 0.486170 1.000000
1.000000 0.327123 1.000000
0.830367 0.124391 1.000000
0.422371 0.000000 1.000000
0.000000 0.000000 1.000000
0.000000 0.000000 1.000000
0.000000 0.000000 1.000000
0.000000 0.000000 1.000000
0.000000 0.000000 1.000000
0.000000 0.000000 1.000000
0.000000 0.000000 0.759029
0.000000 0.000000 0.334428
0.000000 0.000000 0.000000
0.000000 0.000000 0.000000
0.000000 0.000000 0.000000
0.000000 0.000000 0.000000
0.000000 0.000000 0.000000
0.000000 0.000000 0.000000
0.000000 0.000000 0.000000
1.000000 0.000000 1.000000
1.000000 0.000000 1.000000
1.000000 0.000000 1.000000
1.000000 0.051080 1.000000
1.000000 0.231523 1.000000
1.000000 0.390175 1.000000
1.000000 0.525163 1.000000
1.000000 0.634548 1.000000
1.000000 0.716329 1.000000
1.000000 0.768443 1.000000
1.000000 0.788763 1.000000
1.000000 0.775099 1.000000
1.000000 0.725197 1.000000
1.000000 0.636742 1.000000
1.000000 0.507353 1.000000
1.000000 0.334589 1.000000
1.000000 0.115944 1.000000
0.793110 0.000000 1.000000
0.297511 0.000000 1.000000
0.000000 0.000000 1.000000
0.000000 0.000000 1.000000
0.000000 0.000000 1.000000
0.000000 0.000000 1.000000
0.000000 0.000000 1.000000
0.000000 0.000000 1.000000
0.000000 0.000000 0.760044
0.000000 0.000000 0.270105
0.000000 0.000000 0.000000
0.000000 0.000000 0.000000
0.000000 0.000000 0.000000
0.000000 0.000000 0.000000
0.000000 0.000000 0.000000
0.000000 0.000000 0.000000
1.000000 0.000000 1.000000
1.000000 0.000000 1.000000
1.000000 0.000000 1.000000
1.000000 0.103033 1.000000
1.000000 0.289477 1.000000
1.000000 0.452604 1.000000
1.000000 0.590477 1.000000
1.000000 0.701093 1.000000
1.000000 0.782387 1.000000
1.000000 0.832230 1.000000
1.000000 0.848433 1.000000
1.000000 0.828741 1.000000
1.000000 0.770835 1.000000
1.000000 0.672336 1.000000
1.000000 0.530800 1.000000
1.000000 0.343720 1.000000
1.000000 0.108527 1.000000
1.000000 0.000000 1.000000
0.701586 0.000000 1.000000
0.108856 0.000000 1.000000
0.000000 0.000000 1.000000
0.000000 0.000000 1.000000
0.000000 0.000000 1.000000
0.000000 0.000000 1.000000
0.000000 0.000000 1.000000
0.000000 0.000000 1.000000
0.000000 0.000000 0.755643
