public/luts/classic_cinema.cube
# Generated from ColorChecker fit
LUT_3D_SIZE 9
DOMAIN_MIN 0.0 0.0 0.0
DOMAIN_MAX 1.0 1.0 1.0
0.045958 0.000000 0.155380
0.000000 0.000000 0.133366
0.000000 0.000000 0.183213
0.000000 0.000000 0.273524
0.000000 0.000000 0.381652
0.000000 0.000000 0.493703
0.000000 0.000000 0.604532
0.000000 0.000000 0.717744
0.000000 0.145838 0.845696
0.000000 0.000000 0.000000
0.000000 0.000000 0.000000
0.000000 0.000000 0.114830
0.000000 0.000000 0.257652
0.000000 0.000000 0.393706
0.000000 0.000000 0.502276
0.000000 0.000000 0.571394
0.000000 0.265362 0.597846
0.000000 0.812937 0.587167
0.000000 0.000000 0.000000
0.000000 0.000000 0.000000
0.000000 0.000000 0.071515
0.000000 0.000000 0.266229
0.000000 0.000000 0.427552
0.000000 0.015212 0.527948
0.000000 0.274911 0.548628
0.000000 0.653176 0.479556
0.070267 1.000000 0.319445
0.000000 0.000000 0.000000
0.000000 0.000000 0.000000
0.000000 0.000000 0.041655
0.000000 0.020949 0.287457
0.000000 0.141782 0.471212
0.000000 0.298904 0.558560
0.000000 0.515104 0.523892
0.000000 0.810116 0.350350
0.000000 1.000000 0.029827
0.000000 0.000000 0.000000
0.000000 0.068447 0.000000
0.000000 0.217126 0.017602
0.000000 0.319528 0.313511
0.034103 0.398942 0.516678
0.000000 0.475603 0.585924
0.000000 0.566683 0.488817
0.000000 0.686302 0.201678
0.000000 0.845517 0.000000
0.000000 0.173680 0.000000
0.000000 0.405489 0.000000
0.064313 0.531957 0.000000
0.155876 0.573816 0.340534
0.101907 0.548741 0.559914
0.000000 0.471347 0.605820
0.000000 0.353195 0.439001
0.000000 0.202788 0.028957
0.000000 0.025569 0.000000
0.098680 0.491454 0.000000
0.404191 0.699765 0.000000
0.563377 0.759499 0.000000
0.539916 0.685770 0.368640
0.300391 0.490640 0.600850
0.000000 0.183109 0.617999
0.000000 0.000000 0.374016
0.000000 0.000000 0.000000
0.000000 0.000000 0.000000
1.000000 0.680830 0.000000
1.000000 0.829148 0.000000
1.000000 0.775131 0.000000
1.000000 0.528280 0.401913
0.798358 0.095041 0.643389
0.000000 0.000000 0.626183
0.000000 0.000000 0.297399
0.000000 0.000000 0.000000
0.000000 0.000000 0.000000
1.000000 0.593107 0.000000
1.000000 0.642444 0.000000
1.000000 0.425171 0.000000
1.000000 0.000000 0.448406
1.000000 0.000000 0.695404
0.482231 0.000000 0.638061
0.000000 0.000000 0.216660
0.000000 0.000000 0.000000
0.000000 0.000000 0.000000
0.464949 0.435700 0.342609
0.089322 0.270288 0.238271
0.000000 0.072886 0.218707
0.000000 0.000000 0.259153
0.000000 0.000000 0.343591
0.000000 0.000000 0.464756
0.000000 0.000000 0.624135
0.000000 0.000000 0.831962
0.000000 0.000000 1.000000
0.284270 0.096695 0.175000
0.097037 0.047497 0.151638
0.000000 0.000000 0.201848
0.000000 0.000000 0.294040
0.000000 0.000000 0.405379
0.000000 0.000000 0.521777
0.000000 0.000000 0.637898
0.000000 0.164531 0.757158
0.069067 0.443017 0.891721
0.064678 0.000000 0.028792
0.039782 0.000000 0.088415
0.027454 0.014555 0.208370
0.026692 0.040323 0.350247
0.039400 0.085351 0.484386
0.070390 0.165939 0.589881
0.127380 0.295331 0.654573
0.220995 0.483711 0.675057
0.364766 0.738208 0.656677
0.000000 0.000000 0.000000
0.000000 0.090393 0.034919
0.066574 0.181666 0.224410
0.146840 0.256187 0.413726
0.201484 0.327697 0.566385
0.226055 0.406882 0.654660
0.219009 0.501368 0.659571
0.181708 0.615727 0.570890
0.118420 0.751470 0.387141
0.000000 0.142405 0.000000
0.000000 0.320063 0.000000
0.127970 0.442608 0.240074
0.231265 0.521225 0.474402
0.258734 0.564041 0.641119
0.196662 0.576126 0.705675
0.034243 0.559491 0.642270
0.000000 0.513092 0.433855
0.000000 0.432826 0.072131
0.000000 0.411717 0.000000
0.148845 0.616098 0.000000
0.323573 0.733286 0.249437
0.387041 0.768851 0.526170
0.313366 0.725305 0.702301
0.079570 0.602103 0.736459
0.000000 0.395641 0.596023
0.000000 0.099259 0.257121
0.000000 0.000000 0.000000
0.401373 0.685324 0.000000
0.668105 0.887828 0.000000
0.798462 0.960540 0.250546
0.754391 0.903415 0.566893
0.500745 0.713350 0.747614
0.005286 0.384183 0.744513
0.000000 0.000000 0.518148
0.000000 0.000000 0.037827
0.000000 0.000000 0.000000
1.000000 0.845984 0.000000
1.000000 1.000000 0.000000
1.000000 1.000000 0.245415
1.000000 0.800204 0.598407
0.989386 0.400970 0.778710
0.137466 0.000000 0.731307
0.000000 0.000000 0.409935
0.000000 0.000000 0.000000
0.000000 0.000000 0.000000
1.000000 0.747392 0.000000
1.000000 0.850381 0.000000
1.000000 0.706822 0.240030
1.000000 0.305439 0.626516
1.000000 0.000000 0.801213
0.672914 0.000000 0.702285
0.000000 0.000000 0.276646
0.000000 0.000000 0.000000
0.000000 0.000000 0.000000
0.796347 0.940746 0.492836
0.328212 0.690061 0.294013
0.000000 0.434494 0.195133
0.000000 0.192525 0.178060
0.000000 0.000000 0.233407
0.000000 0.000000 0.360539
0.000000 0.000000 0.567574
0.000000 0.000000 0.871376
0.000000 0.000000 1.000000
0.621874 0.527284 0.351318
0.341466 0.387167 0.234263
0.112673 0.252803 0.205685
0.000000 0.137060 0.240627
0.000000 0.049748 0.322882
0.000000 0.000000 0.444993
0.000000 0.000000 0.608255
0.073259 0.010643 0.822713
0.393044 0.074011 1.000000
0.394315 0.295826 0.234995
0.278736 0.253045 0.200272
0.203422 0.216135 0.240525
0.165641 0.192348 0.323975
0.165568 0.185878 0.427595
0.206284 0.197864 0.537106
0.293778 0.226386 0.646981
0.436945 0.266466 0.760445
0.647587 0.310069 0.889471
0.168727 0.247783 0.128115
0.190223 0.286617 0.176108
0.229520 0.320920 0.283539
0.274623 0.352327 0.411810
0.316445 0.379420 0.531071
0.348804 0.397719 0.620221
0.368427 0.399691 0.666913
0.374945 0.374742 0.667550
0.370898 0.309223 0.627284
0.033317 0.355500 0.018898
0.159274 0.457738 0.149808
0.269457 0.534521 0.322585
0.342606 0.581872 0.491807
0.360372 0.592756 0.620802
0.307310 0.557079 0.681651
0.170884 0.461690 0.655182
0.000000 0.290383 0.530979
0.000000 0.023892 0.307371
0.109439 0.562259 0.000000
0.302389 0.707197 0.113382
0.434873 0.795240 0.349489
0.476373 0.816792 0.555610
0.399273 0.759205 0.688253
0.178868 0.606770 0.712677
0.000000 0.340721 0.602889
0.000000 0.000000 0.341650
0.000000 0.000000 0.000000
0.551597 0.782279 0.000000
0.769211 0.946724 0.062805
0.870558 1.000000 0.360046
0.815854 0.963833 0.598834
0.568222 0.783023 0.728857
0.093695 0.448558 0.708551
0.000000 0.000000 0.505104
0.000000 0.000000 0.094453
0.000000 0.000000 0.000000
1.000000 0.900713 0.000000
1.000000 1.000000 0.000000
1.000000 1.000000 0.354023
1.000000 0.900677 0.621065
1.000000 0.539401 0.742018
0.215154 0.000000 0.668497
0.000000 0.000000 0.360868
0.000000 0.000000 0.000000
0.000000 0.000000 0.000000
1.000000 0.773652 0.000000
1.000000 0.897566 0.000000
1.000000 0.807143 0.335157
1.000000 0.475941 0.625857
1.000000 0.000000 0.731109
0.739760 0.000000 0.595706
0.000000 0.000000 0.173193
0.000000 0.000000 0.000000
0.000000 0.000000 0.000000
1.000000 1.000000 0.642190
0.480696 0.981223 0.345516
0.000000 0.657715 0.166205
0.000000 0.371898 0.092750
0.000000 0.124037 0.122398
0.000000 0.000000 0.261143
0.000000 0.000000 0.523731
0.000000 0.000000 0.933659
0.000000 0.000000 1.000000
0.908421 0.866746 0.504203
0.508077 0.613551 0.291118
0.199100 0.406002 0.183670
0.000000 0.241803 0.163532
0.000000 0.115602 0.221127
0.000000 0.018991 0.355628
0.016495 0.000000 0.574961
0.294508 0.000000 0.895802
0.736298 0.000000 1.000000
0.672866 0.571688 0.397796
0.443694 0.415352 0.267422
0.292643 0.305416 0.228923
0.215249 0.233971 0.257150
0.209958 0.190049 0.335706
0.278122 0.159624 0.456942
0.424000 0.125615 0.621963
0.654756 0.067881 0.840621
0.980464 0.000000 1.000000
0.420051 0.457732 0.304968
0.337457 0.387939 0.256245
0.308622 0.354783 0.283600
0.319821 0.344736 0.355062
0.360236 0.341218 0.447410
0.421957 0.324586 0.546178
0.499979 0.272145 0.645646
0.592205 0.158137 0.748848
0.699444 0.000000 0.867566
0.237891 0.499620 0.211689
0.272423 0.503565 0.243377
0.325238 0.523862 0.333308
0.373351 0.541369 0.442691
0.396680 0.533888 0.541484
0.378052 0.476165 0.608398
0.303201 0.339887 0.630893
0.160765 0.093682 0.605181
0.000000 0.000000 0.536223
0.247451 0.643031 0.107899
0.364797 0.705416 0.218575
0.453839 0.753349 0.367625
0.482329 0.762073 0.509434
0.420923 0.703775 0.607142
0.243185 0.547585 0.632636
0.000000 0.259574 0.566556
0.000000 0.000000 0.398291
0.000000 0.000000 0.125983
0.602941 0.804578 0.000000
0.763933 0.907615 0.175568
0.838923 0.954876 0.380096
0.786396 0.915990 0.548657
0.567748 0.757529 0.637567
0.147278 0.443005 0.611894
0.000000 0.000000 0.445455
0.000000 0.000000 0.120819
0.000000 0.000000 0.000000
1.000000 0.871809 0.000000
1.000000 0.995220 0.112054
1.000000 1.000000 0.368240
1.000000 0.883199 0.557695
1.000000 0.572736 0.629915
0.253406 0.037523 0.543145
0.000000 0.000000 0.264382
0.000000 0.000000 0.000000
0.000000 0.000000 0.000000
1.000000 0.703212 0.000000
1.000000 0.824228 0.029702
1.000000 0.775261 0.333542
1.000000 0.514712 0.537853
1.000000 0.000000 0.585309
0.757790 0.000000 0.427332
0.000000 0.000000 0.024099
0.000000 0.000000 0.000000
0.000000 0.000000 0.000000
1.000000 1.000000 0.805529
0.576038 1.000000 0.416427
0.000000 0.759751 0.164361
0.000000 0.441362 0.044457
0.000000 0.182004 0.060589
0.000000 0.000000 0.225383
0.000000 0.000000 0.560215
0.000000 0.000000 1.000000
0.343840 0.000000 1.000000
1.000000 1.000000 0.652127
0.629767 0.739483 0.349468
0.226838 0.457637 0.171859
0.000000 0.256020 0.107603
0.000000 0.114116 0.153753
0.000000 0.008352 0.316114
0.132927 0.000000 0.609241
0.540591 0.000000 1.000000
1.000000 0.000000 1.000000
0.934024 0.776361 0.539281
0.571185 0.492974 0.320744
0.334478 0.308666 0.213235
0.217712 0.200362 0.198234
0.217602 0.141934 0.265973
0.333770 0.104193 0.415436
0.568744 0.054895 0.654356
0.927962 0.000000 0.999217
1.000000 0.000000 1.000000
0.652817 0.608410 0.446743
0.449910 0.416257 0.309826
0.346877 0.314056 0.267877
0.328262 0.273117 0.295556
0.381520 0.261696 0.376273
0.497009 0.244990 0.502191
0.667995 0.185138 0.674222
0.890651 0.041223 0.902028
1.000000 0.000000 1.000000
0.417976 0.592297 0.358233
0.348708 0.483978 0.300251
0.341941 0.445963 0.319142
0.372960 0.443950 0.382745
0.419953 0.440577 0.467649
0.464017 0.395426 0.559194
0.489156 0.265023 0.651471
0.482280 0.002833 0.747321
0.433206 0.000000 0.858338
0.350272 0.676096 0.261442
0.383492 0.641719 0.279530
0.430729 0.647480 0.354359
0.458003 0.653461 0.446949
0.434242 0.616686 0.527065
0.331279 0.491122 0.573227
0.123855 0.227677 0.572705
0.000000 0.000000 0.521519
0.000000 0.000000 0.424440
0.603627 0.778816 0.148030
0.703327 0.805999 0.239140
0.757445 0.832634 0.364825
0.722741 0.813188 0.479282
0.558879 0.699070 0.545456
0.228428 0.438632 0.535045
0.000000 0.000000 0.428497
0.000000 0.000000 0.215011
0.000000 0.000000 0.000000
1.000000 0.790403 0.013626
1.000000 0.864272 0.174531
1.000000 0.886389 0.345808
1.000000 0.805605 0.474832
0.961501 0.567712 0.517727
0.318246 0.115448 0.439371
0.000000 0.000000 0.213389
0.000000 0.000000 0.000000
0.000000 0.000000 0.000000
1.000000 0.571737 0.000000
1.000000 0.674930 0.085122
1.000000 0.664645 0.296545
1.000000 0.484119 0.432654
1.000000 0.073530 0.442753
0.796662 0.000000 0.284898
0.000000 0.000000 0.000000
0.000000 0.000000 0.000000
0.000000 0.000000 0.000000
1.000000 1.000000 0.976437
0.638136 1.000000 0.509122
0.000000 0.762141 0.200772
0.000000 0.431356 0.053140
0.000000 0.192827 0.076732
0.000000 0.013433 0.290804
0.000000 0.000000 0.723362
0.000000 0.000000 1.000000
0.813210 0.000000 1.000000
1.000000 1.000000 0.792286
0.734064 0.782130 0.415301
0.226248 0.433781 0.185033
0.000000 0.214685 0.096414
0.000000 0.089164 0.153128
0.000000 0.018482 0.367610
0.278871 0.000000 0.761044
0.856041 0.000000 1.000000
1.000000 0.000000 1.000000
1.000000 0.922645 0.660262
0.692368 0.507615 0.369844
0.362923 0.256488 0.211857
0.209858 0.131028 0.174414
0.228160 0.089943 0.254377
0.415722 0.088882 0.457360
0.773342 0.080438 0.797726
1.000000 0.014145 1.000000
1.000000 0.000000 1.000000
0.898983 0.717150 0.557867
0.562373 0.397806 0.350068
0.381909 0.233876 0.258381
0.340407 0.181509 0.264096
0.423590 0.193797 0.357255
0.620088 0.220774 0.536648
0.921437 0.209418 0.809820
1.000000 0.103649 1.000000
1.000000 0.000000 1.000000
0.609159 0.655397 0.466572
0.426553 0.429744 0.337265
0.360823 0.340497 0.305714
0.385524 0.338189 0.346388
0.477115 0.370296 0.442506
0.614964 0.381239 0.586040
0.781344 0.312378 0.777709
0.961436 0.102019 1.000000
1.000000 0.000000 1.000000
0.457125 0.687855 0.371818
0.400530 0.551408 0.316694
0.410431 0.521838 0.338934
0.451118 0.544064 0.406186
0.489787 0.559947 0.494847
0.496544 0.508290 0.590067
0.444398 0.324842 0.685746
0.309268 0.000000 0.784535
0.069979 0.000000 0.897833
0.596509 0.735928 0.263015
0.633078 0.681711 0.277584
0.674648 0.694323 0.347089
0.676245 0.713067 0.432357
0.595805 0.674190 0.502963
0.394168 0.510880 0.537236
0.035083 0.153269 0.522255
0.000000 0.000000 0.453847
0.000000 0.000000 0.336594
1.000000 0.691959 0.133545
1.000000 0.710504 0.213136
1.000000 0.745311 0.323198
1.000000 0.730067 0.417738
0.962516 0.595405 0.459510
0.470328 0.268896 0.420020
0.000000 0.000000 0.279527
0.000000 0.000000 0.027036
0.000000 0.000000 0.000000
1.000000 0.419224 0.000000
1.000000 0.498574 0.120518
1.000000 0.533098 0.264249
1.000000 0.450869 0.359136
1.000000 0.176904 0.361112
0.920661 0.000000 0.234863
0.000000 0.000000 0.000000
0.000000 0.000000 0.000000
0.000000 0.000000 0.000000
1.000000 1.000000 1.000000
0.685516 1.000000 0.604704
0.000000 0.690759 0.265330
0.000000 0.376658 0.117485
0.000000 0.200184 0.178305
0.000000 0.113055 0.473676
0.000000 0.063929 1.000000
0.269565 0.000000 1.000000
1.000000 0.000000 1.000000
1.000000 1.000000 0.900606
0.843129 0.762999 0.473336
0.222325 0.364842 0.216702
0.000000 0.157109 0.132267
0.000000 0.088959 0.230344
0.000000 0.106496 0.530000
0.490658 0.152764 1.000000
1.000000 0.167751 1.000000
1.000000 0.088387 1.000000
1.000000 1.000000 0.740279
0.833035 0.485314 0.403051
0.406602 0.183825 0.221913
0.223147 0.069812 0.191607
0.275929 0.086821 0.315626
0.561108 0.175339 0.606214
1.000000 0.272795 1.000000
1.000000 0.313561 1.000000
1.000000 0.228954 1.000000
1.000000 0.805623 0.621495
0.704269 0.363159 0.368919
0.445976 0.153719 0.255851
0.391346 0.118289 0.270214
0.524372 0.194799 0.408677
0.831955 0.318121 0.676664
1.000000 0.420068 1.000000
1.000000 0.429399 1.000000
1.000000 0.271813 1.000000
0.841663 0.715122 0.523475
0.539013 0.375970 0.349979
0.417774 0.251471 0.297376
0.449768 0.276996 0.346764
0.609726 0.384859 0.487993
0.875286 0.504317 0.719665
1.000000 0.561569 1.000000
1.000000 0.479758 1.000000
1.000000 0.178966 1.000000
0.601861 0.709042 0.429410
0.452599 0.474122 0.329243
0.432469 0.424964 0.329316
0.504029 0.491324 0.403905
0.632749 0.599902 0.536040
0.787002 0.674339 0.717500
0.938070 0.635218 0.948815
1.000000 0.400067 1.000000
1.000000 0.000000 1.000000
0.619070 0.711183 0.326462
0.593508 0.578924 0.293691
0.633684 0.593017 0.338470
0.692896 0.677603 0.428255
0.727349 0.753766 0.539255
0.696154 0.739532 0.656426
0.561331 0.549870 0.773478
0.287804 0.096691 0.892869
0.000000 0.000000 1.000000
1.000000 0.616281 0.205763
1.000000 0.582622 0.234273
1.000000 0.645385 0.315607
1.000000 0.723097 0.410402
1.000000 0.731225 0.488043
0.764941 0.582181 0.526666
0.254114 0.185318 0.513160
0.000000 0.000000 0.443162
0.000000 0.000000 0.321060
1.000000 0.290010 0.062415
1.000000 0.348398 0.145908
1.000000 0.442760 0.255466
1.000000 0.486006 0.344902
1.000000 0.387988 0.376781
1.000000 0.055504 0.322417
0.206910 0.000000 0.161876
0.000000 0.000000 0.000000
0.000000 0.000000 0.000000
1.000000 1.000000 1.000000
0.731340 1.000000 0.663001
0.000000 0.575816 0.326657
0.000000 0.316382 0.214906
0.000000 0.252093 0.351513
0.000000 0.319504 0.768996
0.000000 0.452113 1.000000
0.679388 0.580359 1.000000
1.000000 0.631627 1.000000
1.000000 1.000000 0.931738
0.973754 0.707932 0.487016
0.234695 0.285563 0.239102
0.000000 0.126937 0.196189
0.000000 0.166051 0.375222
0.122602 0.333845 0.801896
0.799250 0.558201 1.000000
1.000000 0.763945 1.000000
1.000000 0.872843 1.000000
1.000000 1.000000 0.737599
1.000000 0.456447 0.387426
0.488774 0.129954 0.219254
0.283672 0.064895 0.234456
0.389833 0.189651 0.443155
0.801688 0.429548 0.864225
1.000000 0.706852 1.000000
1.000000 0.940773 1.000000
1.000000 1.000000 1.000000
1.000000 0.899835 0.599508
0.899655 0.347224 0.337050
0.565969 0.117395 0.239753
0.510805 0.136171 0.302165
0.716426 0.326318 0.527590
1.000000 0.607547 0.928079
1.000000 0.896508 1.000000
1.000000 1.000000 1.000000
1.000000 1.000000 1.000000
1.000000 0.802014 0.494437
0.713778 0.362098 0.312682
0.543315 0.227229 0.277208
0.599047 0.317617 0.375745
0.853975 0.550414 0.604774
1.000000 0.839712 0.969525
1.000000 1.000000 1.000000
1.000000 1.000000 1.000000
1.000000 1.000000 1.000000
0.812967 0.774733 0.403329
0.571018 0.453836 0.295080
0.530994 0.409735 0.312199
0.653725 0.557022 0.435594
0.902949 0.807235 0.654923
1.000000 1.000000 0.968596
1.000000 1.000000 1.000000
1.000000 1.000000 1.000000
1.000000 0.961049 1.000000
0.703429 0.744187 0.311096
0.619567 0.546146 0.268978
0.672338 0.586127 0.329276
0.813312 0.773110 0.466079
0.996963 1.000000 0.662224
1.000000 1.000000 0.909299
1.000000 1.000000 1.000000
1.000000 1.000000 1.000000
1.000000 0.513266 1.000000
0.997923 0.607510 0.206621
1.000000 0.533667 0.223074
1.000000 0.648556 0.316958
1.000000 0.855539 0.455540
1.000000 1.000000 0.614835
1.000000 1.000000 0.779609
1.000000 1.000000 0.943381
0.645060 0.564667 1.000000
0.000000 0.000000 1.000000
1.000000 0.232768 0.082755
1.000000 0.281979 0.150040
1.000000 0.460109 0.267735
1.000000 0.664907 0.396284
1.000000 0.791063 0.504881
1.000000 0.730211 0.571472
1.000000 0.370925 0.582753
0.034074 0.000000 0.534171
0.000000 0.000000 0.429923
1.000000 1.000000 1.000000
0.783400 0.950107 0.622570
0.000000 0.451862 0.332101
0.000000 0.293978 0.301542
0.000000 0.400906 0.561289
0.000000 0.694036 1.000000
0.000000 1.000000 1.000000
1.000000 1.000000 1.000000
1.000000 1.000000 1.000000
1.000000 1.000000 0.819062
1.000000 0.647110 0.398511
0.277617 0.235028 0.203194
0.000000 0.172155 0.247934
0.000000 0.377325 0.556307
0.329414 0.766317 1.000000
1.000000 1.000000 1.000000
1.000000 1.000000 1.000000
1.000000 1.000000 1.000000
1.000000 1.000000 0.589214
1.000000 0.455727 0.268752
0.627329 0.138491 0.158456
0.412157 0.168793 0.266329
0.593431 0.459852 0.609124
1.000000 0.921831 1.000000
1.000000 1.000000 1.000000
1.000000 1.000000 1.000000
1.000000 1.000000 1.000000
1.000000 1.000000 0.432513
1.000000 0.389249 0.203863
0.763409 0.173054 0.168277
0.723138 0.292205 0.326935
1.000000 0.654307 0.689769
1.000000 1.000000 1.000000
1.000000 1.000000 1.000000
1.000000 1.000000 1.000000
1.000000 1.000000 1.000000
1.000000 0.950949 0.323682
0.973165 0.431907 0.178387
0.762600 0.320454 0.207017
0.861350 0.521638 0.403930
1.000000 0.937447 0.772239
1.000000 1.000000 1.000000
1.000000 1.000000 1.000000
1.000000 1.000000 1.000000
1.000000 1.000000 1.000000
1.000000 0.924337 0.241412
0.781739 0.538864 0.170835
0.734793 0.533366 0.253006
0.931824 0.807275 0.475465
1.000000 1.000000 0.834500
1.000000 1.000000 1.000000
1.000000 1.000000 1.000000
1.000000 1.000000 1.000000
1.000000 1.000000 1.000000
0.876335 0.878885 0.168369
0.740838 0.636223 0.163688
0.823028 0.735401 0.288545
1.000000 1.000000 0.523657
1.000000 1.000000 0.858492
1.000000 1.000000 1.000000
1.000000 1.000000 1.000000
1.000000 1.000000 1.000000
1.000000 1.000000 1.000000
0.998909 0.714121 0.091184
1.000000 0.621019 0.143398
1.000000 0.821105 0.299903
1.000000 1.000000 0.534595
1.000000 1.000000 0.830120
1.000000 1.000000 1.000000
1.000000 1.000000 1.000000
1.000000 1.000000 1.000000
1.000000 1.000000 1.000000
1.000000 0.300509 0.000460
1.000000 0.361228 0.100387
1.000000 0.655960 0.277321
1.000000 1.000000 0.498338
1.000000 1.000000 0.739263
1.000000 1.000000 0.984671
1.000000 1.000000 1.000000
1.000000 1.000000 1.000000
0.797486 0.549391 1.000000
