public/luts/classic_chrome.cube
# Generated from ColorChecker fit
LUT_3D_SIZE 5
DOMAIN_MIN 0.0 0.0 0.0
DOMAIN_MAX 1.0 1.0 1.0
0.202980 0.071753 0.109898
0.071981 0.036557 0.487701
0.227846 0.163993 0.734565
0.263830 0.074248 0.184581
0.000000 0.000000 0.000000
0.000000 0.000000 0.091540
0.000000 0.159542 0.446483
0.000000 0.254005 0.576885
0.000000 0.000000 0.000000
0.000000 0.000000 0.000000
0.000000 0.000000 0.282991
0.118188 0.319583 0.670384
0.000000 0.208017 0.639279
0.000000 0.000000 0.000000
0.000000 0.000000 0.000000
1.000000 0.000000 1.000000
1.000000 0.655344 1.000000
0.830367 0.124391 1.000000
0.000000 0.000000 0.759029
0.000000 0.000000 0.000000
1.000000 0.000000 1.000000
1.000000 1.000000 1.000000
1.000000 0.095147 1.000000
0.000000 0.000000 1.000000
0.000000 0.000000 0.559291
0.826627 0.692936 0.173631
0.204751 0.009810 0.021704
0.332573 0.000000 0.229109
1.000000 0.118325 0.360849
1.000000 0.269178 0.000000
0.337296 0.445270 0.281848
0.270836 0.350969 0.314290
0.475062 0.336949 0.606188
0.566262 0.000000 0.614593
0.140060 0.000000 0.000000
0.202612 0.287899 0.277192
0.427725 0.764294 0.489431
0.268838 0.694351 0.760900
0.000000 0.000000 0.440692
0.000000 0.000000 0.000000
1.000000 0.369059 1.000000
1.000000 1.000000 1.000000
1.000000 1.000000 1.000000
0.000000 0.000000 1.000000
0.000000 0.000000 0.000000
1.000000 0.830644 1.000000
1.000000 1.000000 1.000000
1.000000 1.000000 1.000000
0.000000 0.000000 1.000000
0.000000 0.000000 1.000000
1.000000 1.000000 0.452480
0.339347 0.000000 0.000000
0.109395 0.000000 0.000000
1.000000 0.242067 0.152988
1.000000 1.000000 0.481950
1.000000 0.981226 0.563391
0.485874 0.235073 0.295999
0.623946 0.097392 0.504840
1.000000 0.302557 0.877874
1.000000 0.326468 0.911322
0.459075 0.691372 0.230623
0.414192 0.616156 0.245571
0.465433 0.553108 0.530251
0.252116 0.000000 0.664671
0.000000 0.000000 0.037097
1.000000 0.628625 1.000000
1.000000 1.000000 1.000000
1.000000 0.974143 1.000000
0.000000 0.000000 1.000000
0.000000 0.000000 0.000000
1.000000 0.904146 1.000000
1.000000 1.000000 1.000000
1.000000 1.000000 1.000000
0.244487 0.000000 1.000000
0.000000 0.000000 1.000000
1.000000 1.000000 0.000000
0.347895 0.208846 0.000000
0.000000 0.000000 0.000000
1.000000 1.000000 0.000000
1.000000 1.000000 0.208587
1.000000 1.000000 0.465495
0.779700 0.326712 0.211128
0.774796 0.303950 0.382547
1.000000 1.000000 0.898625
1.000000 1.000000 1.000000
0.930135 1.000000 0.209505
0.643221 0.549547 0.295213
0.879998 0.712430 0.593935
1.000000 1.000000 0.916589
1.000000 1.000000 0.882352
1.000000 0.736952 0.765288
1.000000 0.923826 1.000000
1.000000 1.000000 1.000000
0.573157 0.569241 0.937769
0.000000 0.000000 0.000000
1.000000 0.695008 1.000000
1.000000 1.000000 1.000000
1.000000 1.000000 1.000000
1.000000 0.000000 1.000000
0.000000 0.000000 0.775909
1.000000 1.000000 0.000000
0.000000 0.340105 0.000000
0.000000 0.487779 0.000000
0.000000 1.000000 0.000000
1.000000 1.000000 0.000000
1.000000 1.000000 0.000000
0.532481 0.335552 0.000000
0.508462 0.920054 0.000000
1.000000 1.000000 0.254268
1.000000 1.000000 1.000000
1.000000 1.000000 0.000000
0.841734 0.433660 0.172294
1.000000 1.000000 0.776076
1.000000 1.000000 1.000000
1.000000 1.000000 1.000000
1.000000 0.468995 0.578996
1.000000 0.650174 1.000000
1.000000 1.000000 1.000000
1.000000 1.000000 1.000000
1.000000 1.000000 0.895478
1.000000 0.137706 1.000000
1.000000 0.994494 1.000000
1.000000 1.000000 1.000000
1.000000 1.000000 1.000000
0.851052 0.107576 1.000000
