public/luts/classic_cinema.cube
# Generated from ColorChecker fit
LUT_3D_SIZE 33
DOMAIN_MIN 0.0 0.0 0.0
DOMAIN_MAX 1.0 1.0 1.0
0.045958 0.000000 0.155380
0.000000 0.000000 0.141094
0.000000 0.000000 0.133086
0.000000 0.000000 0.130714
0.000000 0.000000 0.133366
0.000000 0.000000 0.140467
0.000000 0.000000 0.151474
0.000000 0.000000 0.165881
0.000000 0.000000 0.183213
0.000000 0.000000 0.203031
0.000000 0.000000 0.224931
0.000000 0.000000 0.248540
0.000000 0.000000 0.273524
0.000000 0.000000 0.299578
0.000000 0.000000 0.326434
0.000000 0.000000 0.353859
0.000000 0.000000 0.381652
0.000000 0.000000 0.409648
0.000000 0.000000 0.437714
0.000000 0.000000 0.465754
0.000000 0.000000 0.493703
0.000000 0.000000 0.521534
0.000000 0.000000 0.549250
0.000000 0.000000 0.576892
0.000000 0.000000 0.604532
0.000000 0.000000 0.632278
0.000000 0.000000 0.660273
0.000000 0.000000 0.688691
0.000000 0.000000 0.717744
0.000000 0.000000 0.747675
0.000000 0.000000 0.778763
0.000000 0.005780 0.811321
0.000000 0.145838 0.845696
0.004076 0.000000 0.097752
0.000000 0.000000 0.088604
0.000000 0.000000 0.085656
0.000000 0.000000 0.088236
0.000000 0.000000 0.095709
0.000000 0.000000 0.107472
0.000000 0.000000 0.122955
0.000000 0.000000 0.141626
0.000000 0.000000 0.162982
0.000000 0.000000 0.186560
0.000000 0.000000 0.211926
0.000000 0.000000 0.238684
0.000000 0.000000 0.266469
0.000000 0.000000 0.294954
0.000000 0.000000 0.323841
0.000000 0.000000 0.352872
0.000000 0.000000 0.381819
0.000000 0.000000 0.410489
0.000000 0.000000 0.438724
0.000000 0.000000 0.466401
0.000000 0.000000 0.493429
0.000000 0.000000 0.519753
0.000000 0.000000 0.545350
0.000000 0.000000 0.570234
0.000000 0.000000 0.594451
0.000000 0.000000 0.618082
0.000000 0.000000 0.641243
0.000000 0.000000 0.664083
0.000000 0.000000 0.686785
0.000000 0.000000 0.709567
0.000000 0.062688 0.732680
0.000000 0.195195 0.756412
0.000000 0.341281 0.781082
0.000000 0.000000 0.042058
0.000000 0.000000 0.038116
0.000000 0.000000 0.040286
0.000000 0.000000 0.047872
0.000000 0.000000 0.060210
0.000000 0.000000 0.076671
0.000000 0.000000 0.096659
0.000000 0.000000 0.119613
0.000000 0.000000 0.145007
0.000000 0.000000 0.172348
0.000000 0.000000 0.201177
0.000000 0.000000 0.231071
0.000000 0.000000 0.261640
0.000000 0.000000 0.292526
0.000000 0.000000 0.323410
0.000000 0.000000 0.354003
0.000000 0.000000 0.384052
0.000000 0.000000 0.413337
0.000000 0.000000 0.441675
0.000000 0.000000 0.468914
0.000000 0.000000 0.494937
0.000000 0.000000 0.519662
0.000000 0.000000 0.543042
0.000000 0.000000 0.565061
0.000000 0.000000 0.585740
0.000000 0.000000 0.605134
0.000000 0.000000 0.623330
0.000000 0.000000 0.640452
0.000000 0.000000 0.656657
0.000000 0.104903 0.672134
0.000000 0.229577 0.687111
0.000000 0.366978 0.701846
0.000000 0.517533 0.716632
0.000000 0.000000 0.000000
0.000000 0.000000 0.000000
0.000000 0.000000 0.000000
0.000000 0.000000 0.009374
0.000000 0.000000 0.026621
0.000000 0.000000 0.047815
0.000000 0.000000 0.072334
0.000000 0.000000 0.099592
0.000000 0.000000 0.129034
0.000000 0.000000 0.160143
0.000000 0.000000 0.192431
0.000000 0.000000 0.225449
0.000000 0.000000 0.258780
0.000000 0.000000 0.292041
0.000000 0.000000 0.324884
0.000000 0.000000 0.356996
0.000000 0.000000 0.388095
0.000000 0.000000 0.417936
0.000000 0.000000 0.446308
0.000000 0.000000 0.473033
0.000000 0.000000 0.497967
0.000000 0.000000 0.521003
0.000000 0.000000 0.542065
0.000000 0.000000 0.561111
0.000000 0.000000 0.578137
0.000000 0.000000 0.593169
0.000000 0.000000 0.606269
0.000000 0.030232 0.617534
0.000000 0.135413 0.627094
0.000000 0.252032 0.635112
0.000000 0.380517 0.641788
0.000000 0.521285 0.647354
0.000000 0.674740 0.652078
0.000000 0.000000 0.000000
0.000000 0.000000 0.000000
0.000000 0.000000 0.000000
0.000000 0.000000 0.000000
0.000000 0.000000 0.000000
0.000000 0.000000 0.020669
0.000000 0.000000 0.049748
0.000000 0.000000 0.081328
0.000000 0.000000 0.114830
0.000000 0.000000 0.149708
0.000000 0.000000 0.185450
0.000000 0.000000 0.221579
0.000000 0.000000 0.257652
0.000000 0.000000 0.293259
0.000000 0.000000 0.328025
0.000000 0.000000 0.361610
0.000000 0.000000 0.393706
0.000000 0.000000 0.424042
0.000000 0.000000 0.452380
0.000000 0.000000 0.478514
0.000000 0.000000 0.502276
0.000000 0.000000 0.523529
0.000000 0.000000 0.542172
0.000000 0.000000 0.558138
0.000000 0.000000 0.571394
0.000000 0.000000 0.581940
0.000000 0.059137 0.589813
0.000000 0.156961 0.595080
0.000000 0.265362 0.597846
0.000000 0.384760 0.598249
0.000000 0.515561 0.596460
0.000000 0.658159 0.592686
0.000000 0.812937 0.587167
0.000000 0.000000 0.000000
0.000000 0.000000 0.000000
0.000000 0.000000 0.000000
0.000000 0.000000 0.000000
0.000000 0.000000 0.000000
0.000000 0.000000 0.000000
0.000000 0.000000 0.028680
0.000000 0.000000 0.064601
0.000000 0.000000 0.102173
0.000000 0.000000 0.140823
0.000000 0.000000 0.180014
0.000000 0.000000 0.219240
0.000000 0.000000 0.258033
0.000000 0.000000 0.295956
0.000000 0.000000 0.332607
0.000000 0.000000 0.367620
0.000000 0.000000 0.400661
0.000000 0.000000 0.431430
0.000000 0.000000 0.459663
0.000000 0.000000 0.485130
0.000000 0.000000 0.507633
0.000000 0.000000 0.527011
0.000000 0.000000 0.543135
0.000000 0.000000 0.555911
0.000000 0.000590 0.565280
0.000000 0.081672 0.571216
0.000000 0.172044 0.573727
0.000000 0.272126 0.572856
0.000000 0.382325 0.568680
0.000000 0.503038 0.561310
0.000000 0.634649 0.550892
0.000000 0.777529 0.537605
0.000000 0.932041 0.521663
0.000000 0.000000 0.000000
0.000000 0.000000 0.000000
0.000000 0.000000 0.000000
0.000000 0.000000 0.000000
0.000000 0.000000 0.000000
0.000000 0.000000 0.000000
0.000000 0.000000 0.008928
0.000000 0.000000 0.049207
0.000000 0.000000 0.090858
0.000000 0.000000 0.133282
0.000000 0.000000 0.175915
0.000000 0.000000 0.218224
0.000000 0.000000 0.259715
0.000000 0.000000 0.299923
0.000000 0.000000 0.338422
0.000000 0.000000 0.374816
0.000000 0.000000 0.408747
0.000000 0.000000 0.439888
0.000000 0.000000 0.467947
0.000000 0.000000 0.492668
0.000000 0.000000 0.513827
0.000000 0.000000 0.531236
0.000000 0.000000 0.544738
0.000000 0.025563 0.554215
0.000000 0.100029 0.559579
0.000000 0.182917 0.560778
0.000000 0.274635 0.557794
0.000000 0.375583 0.550643
0.000000 0.486146 0.539376
0.000000 0.606699 0.524076
0.000000 0.737604 0.504863
0.000000 0.879212 0.481890
0.000000 1.000000 0.455343
0.000000 0.000000 0.000000
0.000000 0.000000 0.000000
0.000000 0.000000 0.000000
0.000000 0.000000 0.000000
0.000000 0.000000 0.000000
0.000000 0.000000 0.000000
0.000000 0.000000 0.000000
0.000000 0.000000 0.034958
0.000000 0.000000 0.080697
0.000000 0.000000 0.126896
0.000000 0.000000 0.172963
0.000000 0.000000 0.218340
0.000000 0.000000 0.262505
0.000000 0.000000 0.304969
0.000000 0.000000 0.345276
0.000000 0.000000 0.383005
0.000000 0.000000 0.417771
0.000000 0.000000 0.449220
0.000000 0.000000 0.477035
0.000000 0.000000 0.500931
0.000000 0.000000 0.520659
0.000000 0.000000 0.536004
0.000000 0.048271 0.546783
0.000000 0.116156 0.552849
0.000000 0.191584 0.554090
0.000000 0.274956 0.550426
0.000000 0.366661 0.541813
0.000000 0.467073 0.528240
0.000000 0.576557 0.509730
0.000000 0.695467 0.486343
0.000000 0.824141 0.458169
0.000000 0.962908 0.425334
0.032766 1.000000 0.388000
0.000000 0.000000 0.000000
0.000000 0.000000 0.000000
0.000000 0.000000 0.000000
0.000000 0.000000 0.000000
0.000000 0.000000 0.000000
0.000000 0.000000 0.000000
0.000000 0.000000 0.000000
0.000000 0.000000 0.021680
0.000000 0.000000 0.071515
0.000000 0.000000 0.121489
0.000000 0.000000 0.170983
0.000000 0.000000 0.219413
0.000000 0.000000 0.266229
0.000000 0.000000 0.310915
0.000000 0.000000 0.352990
0.000000 0.000000 0.392007
0.000000 0.000000 0.427552
0.000000 0.000000 0.459246
0.000000 0.000000 0.486745
0.000000 0.000000 0.509738
0.000000 0.015212 0.527948
0.000000 0.070355 0.541133
0.000000 0.131754 0.549085
0.000000 0.199809 0.551630
0.000000 0.274911 0.548628
0.000000 0.357439 0.539974
0.000000 0.447758 0.525596
0.000000 0.546223 0.505458
0.000000 0.653176 0.479556
0.000000 0.768948 0.447921
0.002694 0.893856 0.410619
0.034727 1.000000 0.367749
0.070267 1.000000 0.319445
0.000000 0.000000 0.000000
0.000000 0.000000 0.000000
0.000000 0.000000 0.000000
0.000000 0.000000 0.000000
0.000000 0.000000 0.000000
0.000000 0.000000 0.000000
0.000000 0.000000 0.000000
0.000000 0.000000 0.009217
0.000000 0.000000 0.063155
0.000000 0.000000 0.116903
0.000000 0.000000 0.169815
0.000000 0.000000 0.221281
0.000000 0.000000 0.270723
0.000000 0.000000 0.317600
0.000000 0.000000 0.361404
0.000000 0.000000 0.401659
0.000000 0.000000 0.437928
0.000000 0.000000 0.469803
0.000000 0.000000 0.496913
0.000000 0.043517 0.518922
0.000000 0.093213 0.535525
0.000000 0.148279 0.546455
0.000000 0.209107 0.551476
0.000000 0.276075 0.550387
0.000000 0.349554 0.543023
0.000000 0.429898 0.529251
0.000000 0.517452 0.508974
0.000000 0.612548 0.482126
0.000000 0.715507 0.448679
0.006764 0.826638 0.408638
0.026626 0.946236 0.362040
0.048538 1.000000 0.308959
0.072755 1.000000 0.249502
0.000000 0.000000 0.000000
0.000000 0.000000 0.000000
0.000000 0.000000 0.000000
0.000000 0.000000 0.000000
0.000000 0.000000 0.000000
0.000000 0.000000 0.000000
0.000000 0.000000 0.000000
0.000000 0.000000 0.000000
0.000000 0.000000 0.055474
0.000000 0.000000 0.112995
0.000000 0.000000 0.169316
0.000000 0.000000 0.223800
0.000000 0.000000 0.275843
0.000000 0.000000 0.324878
0.000000 0.000000 0.370369
0.000000 0.000000 0.411814
0.000000 0.000000 0.448749
0.000000 0.033130 0.480740
0.000000 0.073523 0.507389
0.000000 0.117997 0.528333
0.000000 0.166945 0.543241
0.000000 0.220749 0.551819
0.000000 0.279780 0.553804
0.000000 0.344395 0.548969
0.000000 0.414941 0.537122
0.000000 0.491753 0.518104
0.000000 0.575152 0.491790
0.000000 0.665449 0.458089
0.002055 0.762942 0.416945
0.010586 0.867918 0.368336
0.019750 0.980651 0.312274
0.029754 1.000000 0.248806
0.040816 1.000000 0.178012
0.000000 0.000000 0.000000
0.000000 0.000000 0.000000
0.000000 0.000000 0.000000
0.000000 0.000000 0.000000
0.000000 0.000000 0.000000
0.000000 0.000000 0.000000
0.000000 0.000000 0.000000
0.000000 0.000000 0.000000
0.000000 0.000000 0.048344
0.000000 0.000000 0.109636
0.000000 0.000000 0.169356
0.000000 0.000000 0.226840
0.000000 0.000000 0.281460
0.000000 0.000000 0.332618
0.000000 0.005000 0.379754
0.000000 0.036174 0.422340
0.000000 0.069731 0.459883
0.000000 0.106078 0.491924
0.000000 0.145611 0.518038
0.000000 0.188715 0.537836
0.000000 0.235761 0.550959
0.000000 0.287109 0.557087
0.000000 0.343108 0.555931
0.000000 0.404094 0.547237
0.000000 0.470391 0.530786
0.000000 0.542311 0.506392
0.000000 0.620155 0.473904
0.000000 0.704212 0.433204
0.000000 0.794757 0.384210
0.000000 0.892056 0.326873
0.000000 0.996360 0.261179
0.000000 1.000000 0.187146
0.000000 1.000000 0.104830
0.000000 0.000000 0.000000
0.000000 0.000000 0.000000
0.000000 0.000000 0.000000
0.000000 0.000000 0.000000
0.000000 0.000000 0.000000
0.000000 0.000000 0.000000
0.000000 0.000000 0.000000
0.000000 0.000000 0.000000
0.000000 0.000000 0.041655
0.000000 0.000000 0.106714
0.000000 0.000000 0.169822
0.000000 0.000000 0.230289
0.000000 0.020949 0.287457
0.000000 0.049117 0.340704
0.000000 0.078373 0.389443
0.000000 0.109129 0.433119
0.000000 0.141782 0.471212
0.000000 0.176718 0.503237
0.000000 0.214311 0.528743
0.000000 0.254922 0.547311
0.000000 0.298904 0.558560
0.000000 0.346592 0.562140
0.000000 0.398314 0.557737
0.000000 0.454384 0.545070
0.000000 0.515104 0.523892
0.000000 0.580765 0.493992
0.000000 0.651645 0.455192
0.000000 0.728010 0.407348
0.000000 0.810116 0.350350
0.000000 0.898205 0.284123
0.000000 0.992507 0.208626
0.000000 1.000000 0.123851
0.000000 1.000000 0.029827
0.000000 0.000000 0.000000
0.000000 0.000000 0.000000
0.000000 0.000000 0.000000
0.000000 0.000000 0.000000
0.000000 0.000000 0.000000
0.000000 0.000000 0.000000
0.000000 0.000000 0.000000
0.000000 0.000000 0.000000
0.000000 0.000000 0.035308
0.000000 0.011752 0.104133
0.000000 0.040148 0.170618
0.000000 0.067915 0.234047
0.000000 0.095477 0.293737
0.000000 0.123246 0.349038
0.000000 0.151621 0.399336
0.000000 0.180991 0.444051
0.000000 0.211732 0.482635
0.000000 0.244207 0.514577
0.004355 0.278769 0.539398
0.008267 0.315758 0.556655
0.008682 0.355501 0.565938
0.005582 0.398316 0.566872
0.000000 0.444506 0.559114
0.000000 0.494365 0.542359
0.000000 0.548171 0.516332
0.000000 0.606194 0.480796
0.000000 0.668691 0.435546
0.000000 0.735905 0.380410
0.000000 0.808070 0.315254
0.000000 0.885407 0.239974
0.000000 0.968123 0.154504
0.000000 1.000000 0.058809
0.000000 1.000000 0.000000
0.000000 0.000000 0.000000
0.000000 0.000000 0.000000
0.000000 0.000000 0.000000
0.000000 0.000000 0.000000
0.000000 0.000000 0.000000
0.000000 0.000000 0.000000
0.000000 0.000000 0.000000
0.000000 0.026004 0.000000
0.000000 0.057972 0.029225
0.000000 0.088014 0.101810
0.000000 0.116556 0.171660
0.000000 0.144012 0.238032
0.000000 0.170782 0.300215
0.000000 0.197258 0.357534
0.000000 0.223816 0.409348
0.000000 0.250824 0.455049
0.005518 0.278634 0.494065
0.013170 0.307590 0.525856
0.016475 0.338021 0.549917
0.015360 0.370245 0.565779
0.009760 0.404569 0.573005
0.000000 0.441286 0.571192
0.000000 0.480681 0.559973
0.000000 0.523021 0.539014
0.000000 0.568568 0.508015
0.000000 0.617565 0.466711
0.000000 0.670250 0.414871
0.000000 0.726843 0.352297
0.000000 0.787556 0.278827
0.000000 0.852588 0.194332
0.000000 0.922124 0.098717
0.000000 0.996341 0.000000
0.000000 1.000000 0.000000
0.000000 0.000000 0.000000
0.000000 0.000000 0.000000
0.000000 0.000000 0.000000
0.000000 0.000000 0.000000
0.000000 0.000000 0.000000
0.000000 0.031000 0.000000
0.000000 0.069287 0.000000
0.000000 0.104349 0.000000
0.000000 0.136615 0.023340
0.000000 0.166500 0.099680
0.000000 0.194407 0.172882
0.000000 0.220728 0.242176
0.000000 0.245844 0.306824
0.000000 0.270122 0.366124
0.000000 0.293918 0.419409
0.012553 0.317576 0.466045
0.020945 0.341429 0.505431
0.024157 0.365796 0.537003
0.022066 0.390986 0.560228
0.014560 0.417295 0.574610
0.001540 0.445007 0.579686
0.000000 0.474394 0.575027
0.000000 0.505718 0.560238
0.000000 0.539226 0.534959
0.000000 0.575155 0.498864
0.000000 0.613730 0.451660
0.000000 0.655164 0.393089
0.000000 0.699656 0.322929
0.000000 0.747397 0.240989
0.000000 0.798562 0.147115
0.000000 0.853316 0.041184
0.000000 0.911813 0.000000
0.000000 0.974194 0.000000
0.000000 0.000000 0.000000
0.000000 0.000000 0.000000
0.000000 0.000000 0.000000
0.000000 0.021026 0.000000
0.000000 0.068447 0.000000
0.000000 0.111344 0.000000
0.000000 0.150146 0.000000
0.000000 0.185271 0.000000
0.000000 0.217126 0.017602
0.000000 0.246103 0.097693
0.000000 0.272584 0.174234
0.000000 0.296940 0.246427
0.000000 0.319528 0.313511
0.005491 0.340694 0.374755
0.020883 0.360772 0.429466
0.030480 0.380085 0.476983
0.034103 0.398942 0.516678
0.031581 0.417643 0.547961
0.022755 0.436472 0.570273
0.007477 0.455704 0.583091
0.000000 0.475603 0.585924
0.000000 0.496417 0.578317
0.000000 0.518387 0.559849
0.000000 0.541737 0.530134
0.000000 0.566683 0.488817
0.000000 0.593428 0.435580
0.000000 0.622162 0.370140
0.000000 0.653064 0.292244
0.000000 0.686302 0.201678
0.000000 0.722028 0.098259
0.000000 0.760388 0.000000
0.000000 0.801511 0.000000
0.000000 0.845517 0.000000
0.000000 0.000000 0.000000
0.000000 0.000000 0.000000
0.000000 0.049296 0.000000
0.000000 0.102910 0.000000
0.000000 0.151131 0.000000
0.000000 0.194378 0.000000
0.000000 0.233059 0.000000
0.000000 0.267570 0.000000
0.000000 0.298295 0.011979
0.000000 0.325605 0.095814
0.000000 0.349860 0.175679
0.000000 0.371408 0.250750
0.015657 0.390585 0.320239
0.033416 0.407716 0.383390
0.044675 0.423111 0.439480
0.049205 0.437073 0.487824
0.046788 0.449888 0.527767
0.037218 0.461833 0.558691
0.020300 0.473172 0.580012
0.000000 0.484158 0.591179
0.000000 0.495031 0.591676
0.000000 0.506020 0.581020
0.000000 0.517341 0.558764
0.000000 0.529199 0.524493
0.000000 0.541786 0.477830
0.000000 0.555284 0.418427
0.000000 0.569861 0.345974
0.000000 0.585674 0.260194
0.000000 0.602867 0.160844
0.000000 0.621575 0.047716
0.000000 0.641917 0.000000
0.000000 0.664003 0.000000
0.000000 0.687930 0.000000
0.000000 0.005165 0.000000
0.000000 0.072449 0.000000
0.000000 0.133040 0.000000
0.000000 0.187359 0.000000
0.000000 0.235816 0.000000
0.000000 0.278809 0.000000
0.000000 0.316723 0.000000
0.000000 0.349933 0.000000
0.000000 0.378799 0.006451
0.000000 0.403673 0.094022
0.005219 0.424891 0.177197
0.032630 0.442781 0.255124
0.053164 0.457655 0.326987
0.066531 0.469816 0.392005
0.072455 0.479554 0.449428
0.070672 0.487148 0.498544
0.060926 0.492864 0.538672
0.042976 0.496956 0.569167
0.016589 0.499666 0.589419
0.000000 0.501226 0.598848
0.000000 0.501852 0.596914
0.000000 0.501753 0.583107
0.000000 0.501123 0.556952
0.000000 0.500143 0.518009
0.000000 0.498986 0.465872
0.000000 0.497810 0.400169
0.000000 0.496762 0.320561
0.000000 0.495976 0.226747
0.000000 0.495576 0.118455
0.000000 0.495673 0.000000
0.000000 0.496365 0.000000
0.000000 0.497741 0.000000
0.000000 0.499874 0.000000
0.000000 0.088832 0.000000
0.000000 0.157243 0.000000
0.000000 0.218494 0.000000
0.000000 0.272986 0.000000
0.000000 0.321106 0.000000
0.000000 0.363230 0.000000
0.000000 0.399722 0.000000
0.000000 0.430933 0.000000
0.000000 0.457204 0.001015
0.028367 0.478862 0.092316
0.059529 0.496223 0.178784
0.083236 0.509593 0.259543
0.099150 0.519261 0.333749
0.106947 0.525510 0.400594
0.106316 0.528607 0.459303
0.096954 0.528808 0.509136
0.078571 0.526358 0.549385
0.050888 0.521489 0.579380
0.013639 0.514421 0.598483
0.000000 0.505364 0.606088
0.000000 0.494513 0.601627
0.000000 0.482054 0.584565
0.000000 0.468159 0.554400
0.000000 0.452988 0.510666
0.000000 0.436691 0.452929
0.000000 0.419405 0.380790
0.000000 0.401254 0.293886
0.000000 0.382351 0.191886
0.000000 0.362798 0.074493
0.000000 0.342683 0.000000
0.000000 0.322084 0.000000
0.000000 0.301066 0.000000
0.000000 0.279682 0.000000
0.000000 0.173680 0.000000
0.000000 0.242756 0.000000
0.000000 0.304167 0.000000
0.000000 0.358290 0.000000
0.000000 0.405489 0.000000
0.000000 0.446120 0.000000
0.000000 0.480523 0.000000
0.021449 0.509030 0.000000
0.064313 0.531957 0.000000
0.099576 0.549612 0.090705
0.126844 0.562287 0.180451
0.145735 0.570265 0.264017
0.155876 0.573816 0.340534
0.156907 0.573199 0.409166
0.148479 0.568660 0.469113
0.130255 0.560433 0.519606
0.101907 0.548741 0.559914
0.063122 0.533793 0.589336
0.013596 0.515789 0.607209
0.000000 0.494916 0.612903
0.000000 0.471347 0.605820
0.000000 0.445246 0.585399
0.000000 0.416763 0.551113
0.000000 0.386037 0.502467
0.000000 0.353195 0.439001
0.000000 0.318353 0.360292
0.000000 0.281612 0.265947
0.000000 0.243064 0.155610
0.000000 0.202788 0.028957
0.000000 0.160851 0.000000
0.000000 0.117309 0.000000
0.000000 0.072204 0.000000
0.000000 0.025569 0.000000
0.000000 0.258121 0.000000
0.000000 0.327395 0.000000
0.000000 0.388454 0.000000
0.000000 0.441655 0.000000
0.000000 0.487341 0.000000
0.013281 0.525845 0.000000
0.068632 0.557485 0.000000
0.116386 0.582571 0.000000
0.156090 0.601397 0.000000
0.187302 0.614249 0.089218
0.209590 0.621398 0.182224
0.222536 0.623105 0.268573
0.225731 0.619617 0.347367
0.218780 0.611172 0.417746
0.201297 0.597993 0.478881
0.172907 0.580292 0.529979
0.133250 0.558272 0.570279
0.081973 0.532119 0.599056
0.018736 0.502010 0.615619
0.000000 0.468111 0.619312
0.000000 0.430574 0.609511
0.000000 0.389539 0.585627
0.000000 0.345136 0.547106
0.000000 0.297481 0.493428
0.000000 0.246680 0.424107
0.000000 0.192825 0.338690
0.000000 0.135997 0.236760
0.000000 0.076265 0.117933
0.000000 0.013688 0.000000
0.000000 0.000000 0.000000
0.000000 0.000000 0.000000
0.000000 0.000000 0.000000
0.000000 0.000000 0.000000
0.000000 0.340458 0.000000
0.000000 0.409449 0.000000
0.000000 0.469637 0.000000
0.005842 0.521355 0.000000
0.074186 0.564925 0.000000
0.135082 0.600657 0.000000
0.188019 0.628849 0.000000
0.232496 0.649788 0.000000
0.268022 0.663747 0.000000
0.294121 0.670988 0.087897
0.310324 0.671762 0.184146
0.316177 0.666306 0.273251
0.311236 0.654848 0.354290
0.295067 0.637602 0.426373
0.267250 0.614769 0.488647
0.227374 0.586541 0.540291
0.175041 0.553096 0.580518
0.109863 0.514601 0.608577
0.031465 0.471210 0.623749
0.000000 0.423066 0.625352
0.000000 0.370300 0.612735
0.000000 0.313031 0.585283
0.000000 0.251365 0.542415
0.000000 0.185398 0.483584
0.000000 0.115212 0.408277
0.000000 0.040879 0.316016
0.000000 0.000000 0.206356
0.000000 0.000000 0.078887
0.000000 0.000000 0.000000
0.000000 0.000000 0.000000
0.000000 0.000000 0.000000
0.000000 0.000000 0.000000
0.000000 0.000000 0.000000
0.000000 0.418878 0.000000
0.001693 0.487097 0.000000
0.083250 0.545882 0.000000
0.157656 0.595546 0.000000
0.224340 0.636388 0.000000
0.282743 0.668695 0.000000
0.332315 0.692745 0.000000
0.372521 0.708801 0.000000
0.402833 0.717115 0.000000
0.422738 0.717928 0.086800
0.431733 0.711467 0.186273
0.429327 0.697950 0.278108
0.415038 0.677580 0.361357
0.388398 0.650551 0.435103
0.348950 0.617041 0.498465
0.296247 0.577221 0.550597
0.229854 0.531246 0.590686
0.149348 0.479262 0.617952
0.054316 0.421401 0.631651
0.000000 0.357784 0.631073
0.000000 0.288519 0.615542
0.000000 0.213704 0.584416
0.000000 0.133423 0.537087
0.000000 0.047751 0.472981
0.000000 0.000000 0.391559
0.000000 0.000000 0.292315
0.000000 0.000000 0.174780
0.000000 0.000000 0.038515
0.000000 0.000000 0.000000
0.000000 0.000000 0.000000
0.000000 0.000000 0.000000
0.000000 0.000000 0.000000
0.000000 0.000000 0.000000
0.098680 0.491454 0.000000
0.186680 0.558403 0.000000
0.267342 0.615246 0.000000
0.340048 0.662274 0.000000
0.404191 0.699765 0.000000
0.459174 0.727985 0.000000
0.504413 0.747188 0.000000
0.539335 0.757615 0.000000
0.563377 0.759499 0.000000
0.575990 0.753055 0.086001
0.576634 0.738492 0.188679
0.564782 0.716003 0.283217
0.539916 0.685770 0.368640
0.501532 0.647965 0.444006
0.449136 0.602746 0.508406
0.382246 0.550260 0.560967
0.300391 0.490640 0.600850
0.203110 0.424010 0.627248
0.089956 0.350481 0.639392
0.000000 0.270152 0.636543
0.000000 0.183109 0.617999
0.000000 0.089428 0.583092
0.000000 0.000000 0.531187
0.000000 0.000000 0.461683
0.000000 0.000000 0.374016
0.000000 0.000000 0.267652
0.000000 0.000000 0.142094
0.000000 0.000000 0.000000
0.000000 0.000000 0.000000
0.000000 0.000000 0.000000
0.000000 0.000000 0.000000
0.000000 0.000000 0.000000
0.000000 0.000000 0.000000
0.319893 0.556147 0.000000
0.406996 0.621317 0.000000
0.485949 0.675668 0.000000
0.556097 0.719470 0.000000
0.616797 0.752979 0.000000
0.667416 0.776438 0.000000
0.707333 0.790079 0.000000
0.735940 0.794124 0.000000
0.752638 0.788780 0.000000
0.756840 0.774243 0.085589
0.747972 0.750698 0.191452
0.725469 0.718318 0.288665
0.688778 0.677262 0.376227
0.637358 0.627680 0.453169
0.570680 0.569708 0.518555
0.488224 0.503471 0.571486
0.389484 0.429082 0.611095
0.273963 0.346641 0.636550
0.141177 0.256237 0.647054
0.000000 0.157947 0.641843
0.000000 0.051837 0.620187
0.000000 0.000000 0.581392
0.000000 0.000000 0.524795
0.000000 0.000000 0.449771
0.000000 0.000000 0.355726
0.000000 0.000000 0.242103
0.000000 0.000000 0.108375
0.000000 0.000000 0.000000
0.000000 0.000000 0.000000
0.000000 0.000000 0.000000
0.000000 0.000000 0.000000
0.000000 0.000000 0.000000
0.000000 0.000000 0.000000
0.580470 0.610804 0.000000
0.665886 0.673676 0.000000
0.742297 0.724977 0.000000
0.809010 0.764952 0.000000
0.865347 0.793836 0.000000
0.910638 0.811852 0.000000
0.944227 0.819209 0.000000
0.965469 0.816105 0.000000
0.973729 0.802727 0.000000
0.968383 0.779250 0.085668
0.948822 0.745836 0.194696
0.914444 0.702635 0.294556
0.864660 0.649786 0.384220
0.798894 0.587415 0.462693
0.716579 0.515638 0.529013
0.617160 0.434557 0.582253
0.500094 0.344263 0.621520
0.364849 0.244835 0.645956
0.210903 0.136339 0.654736
0.037749 0.018831 0.647071
0.000000 0.000000 0.622203
0.000000 0.000000 0.579411
0.000000 0.000000 0.518007
0.000000 0.000000 0.437338
0.000000 0.000000 0.336785
0.000000 0.000000 0.215761
0.000000 0.000000 0.073717
