public/luts/classic_chrome.cube
# Generated from ColorChecker fit
LUT_3D_SIZE 9
DOMAIN_MIN 0.0 0.0 0.0
DOMAIN_MAX 1.0 1.0 1.0
0.202980 0.071753 0.109898
0.077008 0.020185 0.281038
0.071981 0.036557 0.487701
0.138993 0.097627 0.664626
0.227846 0.163993 0.734565
0.287052 0.180104 0.608288
0.263830 0.074248 0.184581
0.104109 0.000000 0.000000
0.000000 0.000000 0.000000
0.000000 0.000000 0.151501
0.000000 0.000000 0.312976
0.031789 0.102332 0.508158
0.119528 0.202153 0.665037
0.151154 0.232395 0.699619
0.055976 0.121059 0.515926
0.000000 0.000000 0.005998
0.000000 0.000000 0.000000
0.000000 0.000000 0.000000
0.000000 0.000000 0.091540
0.000000 0.000000 0.256203
0.000000 0.159542 0.446483
0.000000 0.283738 0.583624
0.000000 0.254005 0.576885
0.000000 0.000000 0.323540
0.000000 0.000000 0.000000
0.000000 0.000000 0.000000
0.000000 0.000000 0.000000
0.000000 0.000000 0.067034
0.000000 0.000000 0.244934
0.000000 0.226115 0.434091
0.000000 0.357792 0.548999
0.000000 0.241715 0.492172
0.000000 0.000000 0.154136
0.000000 0.000000 0.000000
0.000000 0.000000 0.000000
0.000000 0.000000 0.000000
0.000000 0.000000 0.282991
0.008558 0.000000 0.481376
0.118188 0.319583 0.670384
0.000000 0.439327 0.757763
0.000000 0.208017 0.639279
0.000000 0.000000 0.198712
0.000000 0.000000 0.000000
0.000000 0.000000 0.000000
0.000000 0.000000 0.000000
0.667738 0.000000 1.000000
0.881179 0.028998 1.000000
0.908017 0.457080 1.000000
0.603335 0.542959 1.000000
0.000000 0.165009 1.000000
0.000000 0.000000 0.716253
0.000000 0.000000 0.000000
0.000000 0.000000 0.000000
0.000000 0.000000 0.000000
1.000000 0.000000 1.000000
1.000000 0.179775 1.000000
1.000000 0.655344 1.000000
1.000000 0.682907 1.000000
0.830367 0.124391 1.000000
0.000000 0.000000 1.000000
0.000000 0.000000 0.759029
0.000000 0.000000 0.000000
0.000000 0.000000 0.000000
1.000000 0.000000 1.000000
1.000000 0.425157 1.000000
1.000000 0.930718 1.000000
1.000000 0.872994 1.000000
1.000000 0.097468 1.000000
0.318664 0.000000 1.000000
0.000000 0.000000 1.000000
0.000000 0.000000 0.726889
0.000000 0.000000 0.000000
1.000000 0.000000 1.000000
1.000000 0.783607 1.000000
1.000000 1.000000 1.000000
1.000000 1.000000 1.000000
1.000000 0.095147 1.000000
1.000000 0.000000 1.000000
0.000000 0.000000 1.000000
0.000000 0.000000 1.000000
0.000000 0.000000 0.559291
0.492156 0.411825 0.084031
0.247632 0.195503 0.099987
0.162908 0.081128 0.206671
0.209719 0.057246 0.353250
0.358510 0.096251 0.476911
0.578433 0.154378 0.502854
0.837350 0.171710 0.344297
1.000000 0.072174 0.000000
1.000000 0.000000 0.000000
0.291510 0.284369 0.198530
0.189329 0.221330 0.234193
0.209581 0.220148 0.358374
0.304799 0.252923 0.513495
0.426225 0.275603 0.629993
0.523811 0.227980 0.626323
0.546214 0.033688 0.408956
0.440804 0.000000 0.000000
0.153657 0.000000 0.000000
0.039818 0.154958 0.178001
0.061478 0.249984 0.242481
0.157224 0.357302 0.386997
0.260387 0.432567 0.547224
0.303007 0.415281 0.646853
0.215832 0.228790 0.597591
0.000000 0.000000 0.299162
0.000000 0.000000 0.000000
0.000000 0.000000 0.000000
0.000000 0.044637 0.152846
0.014608 0.299991 0.252449
0.148336 0.508597 0.417335
0.210952 0.609666 0.576431
0.115294 0.526253 0.646682
0.000000 0.165258 0.533048
0.000000 0.000000 0.128505
0.000000 0.000000 0.000000
0.000000 0.000000 0.000000
0.073569 0.000000 0.321454
0.255286 0.389482 0.459686
0.381455 0.689646 0.642175
0.347003 0.797312 0.791101
0.045567 0.619092 0.816663
0.000000 0.045440 0.617073
0.000000 0.000000 0.078560
0.000000 0.000000 0.000000
0.000000 0.000000 0.000000
0.844247 0.000000 0.950205
1.000000 0.536188 1.000000
1.000000 0.915661 1.000000
0.915091 1.000000 1.000000
0.332347 0.703976 1.000000
0.000000 0.000000 1.000000
0.000000 0.000000 0.398895
0.000000 0.000000 0.000000
0.000000 0.000000 0.000000
1.000000 0.032721 1.000000
1.000000 0.757448 1.000000
1.000000 1.000000 1.000000
1.000000 1.000000 1.000000
1.000000 0.790683 1.000000
0.000000 0.000000 1.000000
0.000000 0.000000 1.000000
0.000000 0.000000 0.000000
0.000000 0.000000 0.000000
1.000000 0.201282 1.000000
1.000000 1.000000 1.000000
1.000000 1.000000 1.000000
1.000000 1.000000 1.000000
1.000000 0.888597 1.000000
0.981385 0.000000 1.000000
0.000000 0.000000 1.000000
0.000000 0.000000 1.000000
0.000000 0.000000 0.000000
1.000000 0.488211 1.000000
1.000000 1.000000 1.000000
1.000000 1.000000 1.000000
1.000000 1.000000 1.000000
1.000000 1.000000 1.000000
1.000000 0.000000 1.000000
0.000000 0.000000 1.000000
0.000000 0.000000 1.000000
0.000000 0.000000 1.000000
0.826627 0.692936 0.173631
0.418003 0.280109 0.033054
0.204751 0.009810 0.021704
0.179246 0.000000 0.103183
0.332573 0.000000 0.229109
0.654527 0.000000 0.339114
1.000000 0.118325 0.360849
1.000000 0.242636 0.209979
1.000000 0.269178 0.000000
0.619378 0.567329 0.312240
0.379676 0.320679 0.217939
0.300161 0.178362 0.250266
0.354006 0.124270 0.366073
0.513096 0.126139 0.510231
0.748021 0.135554 0.615626
1.000000 0.087942 0.603160
1.000000 0.000000 0.381753
1.000000 0.000000 0.000000
0.337296 0.445270 0.281848
0.247055 0.369788 0.239192
0.270836 0.350969 0.314290
0.362611 0.356258 0.457247
0.475062 0.336949 0.606188
0.559579 0.228179 0.687251
0.566262 0.000000 0.614593
0.443916 0.000000 0.290383
0.140060 0.000000 0.000000
0.129866 0.345884 0.206242
0.161595 0.444041 0.217795
0.250202 0.541716 0.331956
0.330457 0.589909 0.492084
0.335840 0.523469 0.629557
0.198539 0.261086 0.663765
0.000000 0.000000 0.502117
0.000000 0.000000 0.040038
0.000000 0.000000 0.000000
0.202612 0.287899 0.277192
0.320792 0.559647 0.342716
0.427725 0.764294 0.489431
0.438982 0.836395 0.653949
0.268838 0.694351 0.760900
0.000000 0.240409 0.722927
0.000000 0.000000 0.440692
0.000000 0.000000 0.000000
0.000000 0.000000 0.000000
0.817101 0.289646 0.754461
0.978183 0.732419 0.870917
1.000000 1.000000 1.000000
0.925662 1.000000 1.000000
0.503503 0.857851 1.000000
0.000000 0.171886 1.000000
0.000000 0.000000 0.673267
0.000000 0.000000 0.000000
0.000000 0.000000 0.000000
1.000000 0.369059 1.000000
1.000000 0.977772 1.000000
1.000000 1.000000 1.000000
1.000000 1.000000 1.000000
1.000000 1.000000 1.000000
0.013819 0.060857 1.000000
0.000000 0.000000 1.000000
0.000000 0.000000 0.396664
0.000000 0.000000 0.000000
1.000000 0.543678 1.000000
1.000000 1.000000 1.000000
1.000000 1.000000 1.000000
1.000000 1.000000 1.000000
1.000000 1.000000 1.000000
1.000000 0.000000 1.000000
0.000000 0.000000 1.000000
0.000000 0.000000 1.000000
0.000000 0.000000 0.000000
1.000000 0.830644 1.000000
1.000000 1.000000 1.000000
1.000000 1.000000 1.000000
1.000000 1.000000 1.000000
1.000000 1.000000 1.000000
1.000000 0.000000 1.000000
0.000000 0.000000 1.000000
0.000000 0.000000 1.000000
0.000000 0.000000 1.000000
1.000000 1.000000 0.329862
0.638226 0.378046 0.049535
0.260155 0.000000 0.000000
0.122759 0.000000 0.000000
0.237764 0.000000 0.014869
0.615606 0.000000 0.158916
1.000000 0.097438 0.294220
1.000000 0.469153 0.350879
1.000000 0.861002 0.247006
1.000000 0.848211 0.477348
0.600153 0.400839 0.267069
0.387846 0.106849 0.204824
0.364008 0.000000 0.261899
0.521166 0.000000 0.397597
0.850553 0.021236 0.559236
1.000000 0.136064 0.682150
1.000000 0.221144 0.689690
1.000000 0.191384 0.493223
0.669091 0.701426 0.421355
0.440474 0.437103 0.282748
0.362529 0.280386 0.282910
0.409871 0.210515 0.386379
0.555824 0.190573 0.545712
0.772417 0.167488 0.701479
1.000000 0.072034 0.782267
1.000000 0.000000 0.704680
1.000000 0.000000 0.373338
0.370292 0.580117 0.279050
0.291570 0.501522 0.210937
0.308560 0.475283 0.266056
0.376674 0.464195 0.402198
0.450032 0.414896 0.565171
0.481464 0.257867 0.688799
0.422509 0.000000 0.694923
0.223414 0.000000 0.493400
0.000000 0.000000 0.000000
0.307171 0.501091 0.235588
0.341867 0.608384 0.233989
0.406333 0.703311 0.333812
0.436780 0.732217 0.486102
0.368127 0.625296 0.629920
0.134000 0.296586 0.692342
0.000000 0.000000 0.588462
0.000000 0.000000 0.221390
0.000000 0.000000 0.000000
0.732222 0.480759 0.544113
0.835827 0.771583 0.602246
0.892283 0.975840 0.733719
0.818596 1.000000 0.882831
0.530484 0.828110 0.981895
0.000000 0.287462 0.951240
0.000000 0.000000 0.699214
0.000000 0.000000 0.122178
0.000000 0.000000 0.000000
1.000000 0.535134 1.000000
1.000000 1.000000 1.000000
1.000000 1.000000 1.000000
1.000000 1.000000 1.000000
1.000000 1.000000 1.000000
0.174966 0.233914 1.000000
0.000000 0.000000 1.000000
0.000000 0.000000 0.497282
0.000000 0.000000 0.000000
1.000000 0.679835 1.000000
1.000000 1.000000 1.000000
1.000000 1.000000 1.000000
1.000000 1.000000 1.000000
1.000000 1.000000 1.000000
1.000000 0.138966 1.000000
0.000000 0.000000 1.000000
0.000000 0.000000 1.000000
0.000000 0.000000 0.000000
1.000000 0.930082 1.000000
1.000000 1.000000 1.000000
1.000000 1.000000 1.000000
1.000000 1.000000 1.000000
1.000000 1.000000 1.000000
1.000000 0.005244 1.000000
0.091715 0.000000 1.000000
0.000000 0.000000 1.000000
0.000000 0.000000 1.000000
1.000000 1.000000 0.452480
0.905981 0.543031 0.067325
0.339347 0.000000 0.000000
0.063029 0.000000 0.000000
0.109395 0.000000 0.000000
0.509523 0.000000 0.000000
1.000000 0.242067 0.152988
1.000000 0.900604 0.351889
1.000000 1.000000 0.481950
1.000000 1.000000 0.627168
0.870115 0.525497 0.333031
0.504533 0.085157 0.191635
0.379246 0.000000 0.188697
0.507420 0.000000 0.297953
0.900932 0.012155 0.481151
1.000000 0.321043 0.688059
1.000000 0.714765 0.856459
1.000000 1.000000 0.912150
1.000000 0.981226 0.563391
0.682762 0.525586 0.358153
0.485874 0.235073 0.295999
0.468281 0.100717 0.355899
0.623946 0.097392 0.504840
0.945544 0.183817 0.697825
1.000000 0.302557 0.877874
1.000000 0.380023 0.976023
1.000000 0.326468 0.911322
0.667076 0.815106 0.371696
0.467234 0.556062 0.250438
0.398653 0.408790 0.256333
0.437386 0.347874 0.361606
0.558196 0.331743 0.526496
0.734553 0.302671 0.699260
0.938637 0.186778 0.816170
1.000000 0.000000 0.801515
1.000000 0.000000 0.567598
0.459075 0.691372 0.230623
0.402882 0.629293 0.185621
0.414192 0.616156 0.245571
0.449855 0.610100 0.375950
0.465433 0.553108 0.530251
0.415194 0.371010 0.649983
0.252116 0.000000 0.664671
0.000000 0.000000 0.491857
0.000000 0.000000 0.037097
0.683109 0.624514 0.386697
0.725099 0.757249 0.407427
0.759853 0.866623 0.504635
0.725021 0.894328 0.637052
0.556961 0.765902 0.751423
0.190741 0.390730 0.782510
0.000000 0.000000 0.653091
0.000000 0.000000 0.273961
0.000000 0.000000 0.000000
1.000000 0.628625 1.000000
1.000000 0.951506 1.000000
1.000000 1.000000 1.000000
1.000000 1.000000 1.000000
1.000000 0.974143 1.000000
0.320507 0.363329 1.000000
0.000000 0.000000 1.000000
0.000000 0.000000 0.442726
0.000000 0.000000 0.000000
1.000000 0.717402 1.000000
1.000000 1.000000 1.000000
1.000000 1.000000 1.000000
1.000000 1.000000 1.000000
1.000000 1.000000 1.000000
1.000000 0.289910 1.000000
0.000000 0.000000 1.000000
0.000000 0.000000 1.000000
0.000000 0.000000 0.000000
1.000000 0.904146 1.000000
1.000000 1.000000 1.000000
1.000000 1.000000 1.000000
1.000000 1.000000 1.000000
1.000000 1.000000 1.000000
1.000000 0.171180 1.000000
0.244487 0.000000 1.000000
0.000000 0.000000 1.000000
0.000000 0.000000 1.000000
1.000000 1.000000 0.389836
1.000000 0.778459 0.000000
0.400132 0.047932 0.000000
0.000000 0.000000 0.000000
0.000000 0.000000 0.000000
0.331713 0.000000 0.000000
1.000000 0.634907 0.000000
1.000000 1.000000 0.188320
1.000000 1.000000 0.488462
1.000000 1.000000 0.643607
1.000000 0.708019 0.315871
0.629700 0.142511 0.128880
0.391739 0.000000 0.082785
0.476421 0.000000 0.165752
0.916262 0.185114 0.353963
1.000000 0.735545 0.611616
1.000000 1.000000 0.890926
1.000000 1.000000 1.000000
1.000000 1.000000 0.623417
0.962527 0.658573 0.399007
0.642021 0.254225 0.305294
0.551531 0.081919 0.335679
0.705665 0.128320 0.471583
1.000000 0.363940 0.682439
1.000000 0.743135 0.925700
1.000000 1.000000 1.000000
1.000000 1.000000 1.000000
1.000000 1.000000 0.433199
0.698866 0.640967 0.303452
0.543303 0.391400 0.288080
0.547960 0.305970 0.373739
0.708240 0.354896 0.535100
1.000000 0.492245 0.734852
1.000000 0.655926 0.923698
1.000000 0.767695 1.000000
1.000000 0.733153 1.000000
0.677733 0.886157 0.244872
0.535790 0.665647 0.198323
0.495796 0.561964 0.243557
0.535245 0.545038 0.360480
0.630337 0.568642 0.517017
0.755983 0.570398 0.669110
0.885803 0.471771 0.760716
0.992125 0.178069 0.723808
1.000000 0.000000 0.478376
0.710844 0.758297 0.298345
0.699621 0.742664 0.320728
0.717791 0.773449 0.406027
0.723647 0.804135 0.527403
0.674187 0.772053 0.646033
0.525120 0.598377 0.711113
0.230864 0.188125 0.659851
0.000000 0.000000 0.417474
0.000000 0.000000 0.000000
1.000000 0.696887 0.901518
1.000000 0.881671 0.975762
1.000000 1.000000 1.000000
1.000000 1.000000 1.000000
1.000000 0.967226 1.000000
0.575908 0.575758 1.000000
0.000000 0.000000 0.912187
0.000000 0.000000 0.409640
0.000000 0.000000 0.000000
1.000000 0.713705 1.000000
1.000000 1.000000 1.000000
1.000000 1.000000 1.000000
1.000000 1.000000 1.000000
1.000000 1.000000 1.000000
1.000000 0.501724 1.000000
0.000000 0.000000 1.000000
0.000000 0.000000 1.000000
0.000000 0.000000 0.000000
1.000000 0.820130 1.000000
1.000000 1.000000 1.000000
1.000000 1.000000 1.000000
1.000000 1.000000 1.000000
1.000000 1.000000 1.000000
1.000000 0.375060 1.000000
0.548888 0.000000 1.000000
0.000000 0.000000 1.000000
0.000000 0.000000 1.000000
1.000000 1.000000 0.000000
1.000000 1.000000 0.000000
0.347895 0.208846 0.000000
0.000000 0.000000 0.000000
0.000000 0.000000 0.000000
0.025188 0.341017 0.000000
1.000000 1.000000 0.000000
1.000000 1.000000 0.000000
1.000000 1.000000 0.208587
1.000000 1.000000 0.357168
1.000000 0.911443 0.064228
0.690407 0.257810 0.000000
0.341090 0.000000 0.000000
0.380312 0.078561 0.000000
0.861232 0.566595 0.098859
1.000000 1.000000 0.392146
1.000000 1.000000 0.750553
1.000000 1.000000 1.000000
1.000000 1.000000 0.465495
1.000000 0.809075 0.287507
0.779700 0.326712 0.211128
0.620897 0.158851 0.244191
0.774796 0.303950 0.382547
1.000000 0.744310 0.610064
1.000000 1.000000 0.898625
1.000000 1.000000 1.000000
1.000000 1.000000 1.000000
1.000000 1.000000 0.361173
0.944325 0.739218 0.285733
0.712912 0.421955 0.295187
0.691339 0.353184 0.390623
0.895652 0.514916 0.561145
1.000000 0.873008 0.783873
1.000000 1.000000 1.000000
1.000000 1.000000 1.000000
1.000000 1.000000 1.000000
0.930135 1.000000 0.209505
0.720123 0.710399 0.221405
0.643221 0.549547 0.295213
0.697565 0.561702 0.425271
0.879998 0.712430 0.593935
1.000000 0.951141 0.771578
1.000000 1.000000 0.916589
1.000000 1.000000 0.975373
1.000000 1.000000 0.882352
0.804089 0.869168 0.243783
0.760597 0.730748 0.325013
0.779845 0.715099 0.438894
0.840763 0.787498 0.573020
0.920993 0.897064 0.703000
0.996885 0.976763 0.792460
1.000000 0.943406 0.793042
1.000000 0.697647 0.644404
0.942667 0.123989 0.274221
1.000000 0.736952 0.765288
1.000000 0.807998 0.895036
1.000000 0.923826 1.000000
1.000000 1.000000 1.000000
1.000000 1.000000 1.000000
1.000000 0.947532 1.000000
0.573157 0.569241 0.937769
0.000000 0.000000 0.523265
0.000000 0.000000 0.000000
1.000000 0.675746 1.000000
1.000000 0.949486 1.000000
1.000000 1.000000 1.000000
1.000000 1.000000 1.000000
1.000000 1.000000 1.000000
1.000000 0.860709 1.000000
0.488201 0.083340 1.000000
0.000000 0.000000 0.961611
0.000000 0.000000 0.000000
1.000000 0.695008 1.000000
1.000000 1.000000 1.000000
1.000000 1.000000 1.000000
1.000000 1.000000 1.000000
1.000000 1.000000 1.000000
1.000000 0.713159 1.000000
1.000000 0.000000 1.000000
0.000000 0.000000 1.000000
0.000000 0.000000 0.775909
1.000000 1.000000 0.000000
1.000000 1.000000 0.000000
0.035606 0.350143 0.000000
0.000000 0.000000 0.000000
0.000000 0.158402 0.000000
0.000000 0.909242 0.000000
0.569887 1.000000 0.000000
1.000000 1.000000 0.000000
1.000000 1.000000 0.000000
1.000000 1.000000 0.000000
1.000000 1.000000 0.000000
0.561292 0.359632 0.000000
0.114480 0.128955 0.000000
0.118818 0.383150 0.000000
0.648107 1.000000 0.000000
1.000000 1.000000 0.000000
1.000000 1.000000 0.341395
1.000000 1.000000 0.826199
1.000000 1.000000 0.000000
1.000000 0.899777 0.000000
0.795223 0.391080 0.000000
0.585231 0.285921 0.000000
0.752736 0.594547 0.122935
1.000000 1.000000 0.384039
1.000000 1.000000 0.718124
1.000000 1.000000 1.000000
1.000000 1.000000 1.000000
1.000000 1.000000 0.001828
1.000000 0.783470 0.061626
0.825464 0.448971 0.160136
0.798051 0.453893 0.312878
1.000000 0.792040 0.523388
1.000000 1.000000 0.783218
1.000000 1.000000 1.000000
1.000000 1.000000 1.000000
1.000000 1.000000 1.000000
1.000000 1.000000 0.004288
0.882993 0.706174 0.152767
0.796122 0.537391 0.316581
0.889015 0.634440 0.504502
1.000000 0.974678 0.713319
1.000000 1.000000 0.927836
1.000000 1.000000 1.000000
1.000000 1.000000 1.000000
1.000000 1.000000 1.000000
0.899086 0.893864 0.136332
0.856814 0.674098 0.351740
0.907340 0.660032 0.552832
1.000000 0.828733 0.741636
1.000000 1.000000 0.908191
1.000000 1.000000 1.000000
1.000000 1.000000 1.000000
1.000000 1.000000 0.995029
1.000000 1.000000 0.733333
1.000000 0.695527 0.692623
1.000000 0.693054 0.950405
1.000000 0.820187 1.000000
1.000000 1.000000 1.000000
1.000000 1.000000 1.000000
1.000000 1.000000 1.000000
1.000000 1.000000 1.000000
1.000000 1.000000 0.857436
1.000000 0.968650 0.244974
1.000000 0.560201 1.000000
1.000000 0.768459 1.000000
1.000000 1.000000 1.000000
1.000000 1.000000 1.000000
1.000000 1.000000 1.000000
1.000000 1.000000 1.000000
1.000000 1.000000 1.000000
0.656383 0.423513 1.000000
0.000000 0.000000 0.149043
1.000000 0.495425 1.000000
1.000000 0.905331 1.000000
1.000000 1.000000 1.000000
1.000000 1.000000 1.000000
1.000000 1.000000 1.000000
1.000000 1.000000 1.000000
1.000000 0.502054 1.000000
0.317836 0.000000 1.000000
0.000000 0.000000 0.853765
1.000000 1.000000 0.000000
0.571312 1.000000 0.000000
0.000000 0.340105 0.000000
0.000000 0.088894 0.000000
0.000000 0.487779 0.000000
0.000000 1.000000 0.000000
0.000000 1.000000 0.000000
1.000000 1.000000 0.000000
1.000000 1.000000 0.000000
1.000000 1.000000 0.000000
0.997224 0.981543 0.000000
0.064574 0.326228 0.000000
0.000000 0.222806 0.000000
0.000000 0.709762 0.000000
0.136735 1.000000 0.000000
1.000000 1.000000 0.000000
1.000000 1.000000 0.000000
1.000000 1.000000 0.097283
1.000000 1.000000 0.000000
1.000000 0.803041 0.000000
0.532481 0.335552 0.000000
0.300969 0.367210 0.000000
0.508462 0.920054 0.000000
1.000000 1.000000 0.000000
1.000000 1.000000 0.254268
1.000000 1.000000 0.709221
1.000000 1.000000 1.000000
1.000000 1.000000 0.000000
1.000000 0.656057 0.000000
0.746524 0.370640 0.000000
0.746202 0.522150 0.000000
1.000000 1.000000 0.289183
1.000000 1.000000 0.618377
1.000000 1.000000 0.971304
1.000000 1.000000 1.000000
1.000000 1.000000 1.000000
1.000000 1.000000 0.000000
0.899093 0.545276 0.000000
0.841734 0.433660 0.172294
1.000000 0.687275 0.480943
1.000000 1.000000 0.776076
1.000000 1.000000 1.000000
1.000000 1.000000 1.000000
1.000000 1.000000 1.000000
1.000000 1.000000 1.000000
0.879659 0.718798 0.000000
0.884637 0.474987 0.280962
1.000000 0.526380 0.646032
1.000000 0.861834 0.949578
1.000000 1.000000 1.000000
1.000000 1.000000 1.000000
1.000000 1.000000 1.000000
1.000000 1.000000 1.000000
1.000000 1.000000 1.000000
1.000000 0.468995 0.578996
1.000000 0.449082 1.000000
1.000000 0.650174 1.000000
1.000000 1.000000 1.000000
1.000000 1.000000 1.000000
1.000000 1.000000 1.000000
1.000000 1.000000 1.000000
1.000000 1.000000 1.000000
1.000000 1.000000 0.895478
1.000000 0.273425 1.000000
1.000000 0.471056 1.000000
1.000000 0.806019 1.000000
1.000000 1.000000 1.000000
1.000000 1.000000 1.000000
1.000000 1.000000 1.000000
1.000000 1.000000 1.000000
1.000000 1.000000 1.000000
1.000000 1.000000 0.801766
1.000000 0.137706 1.000000
1.000000 0.544009 1.000000
1.000000 0.994494 1.000000
1.000000 1.000000 1.000000
1.000000 1.000000 1.000000
1.000000 1.000000 1.000000
1.000000 1.000000 1.000000
1.000000 1.000000 1.000000
0.851052 0.107576 1.000000
