public/luts/classic_cinema.cube
# Generated from ColorChecker fit
LUT_3D_SIZE 5
DOMAIN_MIN 0.0 0.0 0.0
DOMAIN_MAX 1.0 1.0 1.0
0.045958 0.000000 0.155380
0.000000 0.000000 0.183213
0.000000 0.000000 0.381652
0.000000 0.000000 0.604532
0.000000 0.145838 0.845696
0.000000 0.000000 0.000000
0.000000 0.000000 0.071515
0.000000 0.000000 0.427552
0.000000 0.274911 0.548628
0.070267 1.000000 0.319445
0.000000 0.000000 0.000000
0.000000 0.217126 0.017602
0.034103 0.398942 0.516678
0.000000 0.566683 0.488817
0.000000 0.845517 0.000000
0.098680 0.491454 0.000000
0.563377 0.759499 0.000000
0.300391 0.490640 0.600850
0.000000 0.000000 0.374016
0.000000 0.000000 0.000000
1.000000 0.593107 0.000000
1.000000 0.425171 0.000000
1.000000 0.000000 0.695404
0.000000 0.000000 0.216660
0.000000 0.000000 0.000000
0.796347 0.940746 0.492836
0.000000 0.434494 0.195133
0.000000 0.000000 0.233407
0.000000 0.000000 0.567574
0.000000 0.000000 1.000000
0.394315 0.295826 0.234995
0.203422 0.216135 0.240525
0.165568 0.185878 0.427595
0.293778 0.226386 0.646981
0.647587 0.310069 0.889471
0.033317 0.355500 0.018898
0.269457 0.534521 0.322585
0.360372 0.592756 0.620802
0.170884 0.461690 0.655182
0.000000 0.023892 0.307371
0.551597 0.782279 0.000000
0.870558 1.000000 0.360046
0.568222 0.783023 0.728857
0.000000 0.000000 0.505104
0.000000 0.000000 0.000000
1.000000 0.773652 0.000000
1.000000 0.807143 0.335157
1.000000 0.000000 0.731109
0.000000 0.000000 0.173193
0.000000 0.000000 0.000000
1.000000 1.000000 0.805529
0.000000 0.759751 0.164361
0.000000 0.182004 0.060589
0.000000 0.000000 0.560215
0.343840 0.000000 1.000000
0.934024 0.776361 0.539281
0.334478 0.308666 0.213235
0.217602 0.141934 0.265973
0.568744 0.054895 0.654356
1.000000 0.000000 1.000000
0.417976 0.592297 0.358233
0.341941 0.445963 0.319142
0.419953 0.440577 0.467649
0.489156 0.265023 0.651471
0.433206 0.000000 0.858338
0.603627 0.778816 0.148030
0.757445 0.832634 0.364825
0.558879 0.699070 0.545456
0.000000 0.000000 0.428497
0.000000 0.000000 0.000000
1.000000 0.571737 0.000000
1.000000 0.664645 0.296545
1.000000 0.073530 0.442753
0.000000 0.000000 0.000000
0.000000 0.000000 0.000000
1.000000 1.000000 1.000000
0.000000 0.690759 0.265330
0.000000 0.200184 0.178305
0.000000 0.063929 1.000000
1.000000 0.000000 1.000000
1.000000 1.000000 0.740279
0.406602 0.183825 0.221913
0.275929 0.086821 0.315626
1.000000 0.272795 1.000000
1.000000 0.228954 1.000000
0.841663 0.715122 0.523475
0.417774 0.251471 0.297376
0.609726 0.384859 0.487993
1.000000 0.561569 1.000000
1.000000 0.178966 1.000000
0.619070 0.711183 0.326462
0.633684 0.593017 0.338470
0.727349 0.753766 0.539255
0.561331 0.549870 0.773478
0.000000 0.000000 1.000000
1.000000 0.290010 0.062415
1.000000 0.442760 0.255466
1.000000 0.387988 0.376781
0.206910 0.000000 0.161876
0.000000 0.000000 0.000000
1.000000 1.000000 1.000000
0.000000 0.451862 0.332101
0.000000 0.400906 0.561289
0.000000 1.000000 1.000000
1.000000 1.000000 1.000000
1.000000 1.000000 0.589214
0.627329 0.138491 0.158456
0.593431 0.459852 0.609124
1.000000 1.000000 1.000000
1.000000 1.000000 1.000000
1.000000 0.950949 0.323682
0.762600 0.320454 0.207017
1.000000 0.937447 0.772239
1.000000 1.000000 1.000000
1.000000 1.000000 1.000000
0.876335 0.878885 0.168369
0.823028 0.735401 0.288545
1.000000 1.000000 0.858492
1.000000 1.000000 1.000000
1.000000 1.000000 1.000000
1.000000 0.300509 0.000460
1.000000 0.655960 0.277321
1.000000 1.000000 0.739263
1.000000 1.000000 1.000000
0.797486 0.549391 1.000000
