public/luts/dreamneg.cube
# Generated from ColorChecker fit
LUT_3D_SIZE 5
DOMAIN_MIN 0.0 0.0 0.0
DOMAIN_MAX 1.0 1.0 1.0
0.000000 0.000000 0.045784
0.000000 0.000000 0.242489
0.000000 0.000000 0.405351
0.000000 0.000000 0.695776
0.326536 0.869366 1.000000
0.000000 0.000000 0.000000
0.000000 0.000000 0.240271
0.000000 0.000000 0.532759
0.000000 0.000000 0.438545
0.218617 0.804448 0.417258
0.000000 0.000000 0.000000
0.000000 0.133638 0.437076
0.000000 0.305661 0.712677
0.000000 0.227279 0.011720
0.000000 0.427622 0.000000
0.000000 0.000000 0.000000
0.111700 0.279014 1.000000
0.000000 0.215595 1.000000
0.000000 0.000000 0.000000
0.000000 0.000000 0.000000
0.355494 0.000000 1.000000
0.300900 0.000000 1.000000
0.000000 0.000000 1.000000
0.000000 0.000000 0.000000
0.000000 0.000000 0.000000
0.499968 0.656252 0.464541
0.196354 0.550432 0.238588
0.064800 0.352077 0.271625
0.294033 0.215372 0.879042
1.000000 0.797333 1.000000
0.219703 0.123201 0.060492
0.207021 0.237274 0.267497
0.256060 0.271896 0.482283
0.406556 0.212433 0.793517
0.861471 0.547085 1.000000
0.149263 0.404991 0.000000
0.310946 0.614642 0.464823
0.355273 0.694840 0.681945
0.172989 0.462134 0.441993
0.000000 0.235905 0.131857
0.329260 0.535680 0.137761
0.498419 0.670468 0.843982
0.302409 0.562715 0.828787
0.000000 0.000000 0.000000
0.000000 0.000000 0.000000
0.820192 0.000000 1.000000
0.779618 0.000000 1.000000
0.057325 0.000000 1.000000
0.000000 0.000000 0.000000
0.000000 0.000000 0.000000
1.000000 1.000000 0.951037
0.586587 0.886122 0.319473
0.497521 0.600257 0.206555
0.861431 0.376188 1.000000
1.000000 0.661185 1.000000
0.512341 0.516414 0.416604
0.355131 0.284640 0.243480
0.440038 0.217551 0.374126
0.722343 0.090768 1.000000
1.000000 0.182743 1.000000
0.289167 0.656341 0.219496
0.311626 0.505388 0.368091
0.400879 0.503362 0.529991
0.363213 0.257064 0.721122
0.168142 0.000000 1.000000
0.380763 0.582212 0.254132
0.431679 0.375327 0.532489
0.305326 0.238523 0.458091
0.000000 0.000000 0.000000
0.000000 0.000000 0.000000
0.832939 0.000000 0.696023
0.710777 0.000000 0.856943
0.098549 0.000000 0.223457
0.000000 0.000000 0.000000
0.000000 0.000000 0.000000
1.000000 1.000000 1.000000
0.873875 1.000000 0.456766
0.874436 0.904440 0.337293
1.000000 0.935822 1.000000
1.000000 1.000000 1.000000
0.846695 0.758592 0.594299
0.512380 0.267202 0.223323
0.685834 0.315766 0.418925
1.000000 0.470159 1.000000
1.000000 0.799089 1.000000
0.546208 0.823633 0.332448
0.402406 0.403990 0.285468
0.594800 0.542787 0.550937
0.845221 0.637079 1.000000
1.000000 0.586756 1.000000
0.593698 0.593454 0.255989
0.504871 0.142492 0.308148
0.511929 0.205367 0.343033
0.187713 0.010319 0.303831
0.000000 0.000000 0.658672
1.000000 0.000000 0.366197
0.800577 0.000000 0.237398
0.367704 0.000000 0.000000
0.000000 0.000000 0.000000
0.000000 0.000000 0.000000
1.000000 1.000000 1.000000
0.863605 0.812625 0.522496
1.000000 1.000000 0.691404
1.000000 1.000000 1.000000
1.000000 1.000000 1.000000
1.000000 0.509229 0.393555
0.596964 0.057899 0.162539
0.991287 0.652928 0.727728
1.000000 1.000000 1.000000
1.000000 1.000000 1.000000
0.871746 0.717150 0.150999
0.614287 0.334177 0.255950
1.000000 1.000000 0.939313
1.000000 1.000000 1.000000
1.000000 1.000000 1.000000
1.000000 0.530475 0.110277
0.861806 0.146479 0.293440
1.000000 0.851210 0.761628
1.000000 1.000000 1.000000
1.000000 1.000000 1.000000
1.000000 0.000000 0.098429
1.000000 0.000000 0.046808
1.000000 0.000000 0.000000
0.584865 0.000000 0.000000
0.000000 0.000000 0.000000
