public/luts/dreamneg.cube
# Generated from ColorChecker fit
LUT_3D_SIZE 9
DOMAIN_MIN 0.0 0.0 0.0
DOMAIN_MAX 1.0 1.0 1.0
0.000000 0.000000 0.045784
0.000000 0.000000 0.137950
0.000000 0.000000 0.242489
0.000000 0.000000 0.330366
0.000000 0.000000 0.405351
0.000000 0.000000 0.504024
0.000000 0.000000 0.695776
0.000000 0.093414 1.000000
0.326536 0.869366 1.000000
0.000000 0.000000 0.000000
0.000000 0.000000 0.015416
0.000000 0.000000 0.217250
0.000000 0.000000 0.368839
0.000000 0.000000 0.459786
0.000000 0.000000 0.512501
0.000000 0.000000 0.582203
0.000000 0.137018 0.756920
0.367890 0.832540 1.000000
0.000000 0.000000 0.000000
0.000000 0.000000 0.000000
0.000000 0.000000 0.240271
0.000000 0.000000 0.443074
0.000000 0.000000 0.532759
0.000000 0.000000 0.517566
0.000000 0.000000 0.438545
0.000000 0.231853 0.369554
0.218617 0.804448 0.417258
0.000000 0.000000 0.000000
0.000000 0.000000 0.000000
0.000000 0.000000 0.308655
0.000000 0.006762 0.546720
0.000000 0.066887 0.614467
0.000000 0.090159 0.505966
0.000000 0.137556 0.248097
0.000000 0.301483 0.000000
0.000000 0.705774 0.000000
0.000000 0.000000 0.000000
0.000000 0.000000 0.003820
0.000000 0.133638 0.437076
0.000000 0.264378 0.690998
0.000000 0.305661 0.712677
0.000000 0.276485 0.482015
0.000000 0.227279 0.011720
0.000000 0.239898 0.000000
0.000000 0.427622 0.000000
0.000000 0.000000 0.000000
0.000000 0.119820 0.179038
0.018100 0.316817 0.657774
0.011195 0.420338 0.904696
0.000000 0.407404 0.852727
0.000000 0.286465 0.467597
0.000000 0.097398 0.000000
0.000000 0.000000 0.000000
0.000000 0.000000 0.000000
0.000000 0.000000 0.000000
0.059810 0.123162 0.517927
0.111700 0.279014 1.000000
0.044086 0.321001 1.000000
0.000000 0.215595 1.000000
0.000000 0.000000 0.502163
0.000000 0.000000 0.000000
0.000000 0.000000 0.000000
0.000000 0.000000 0.000000
0.106222 0.000000 0.367110
0.210793 0.000000 1.000000
0.204309 0.000000 1.000000
0.040432 0.000000 1.000000
0.000000 0.000000 1.000000
0.000000 0.000000 0.642732
0.000000 0.000000 0.000000
0.000000 0.000000 0.000000
0.000000 0.000000 0.000000
0.355494 0.000000 1.000000
0.400162 0.000000 1.000000
0.300900 0.000000 1.000000
0.002059 0.000000 1.000000
0.000000 0.000000 1.000000
0.000000 0.000000 0.963892
0.000000 0.000000 0.000000
0.000000 0.000000 0.000000
0.000000 0.000000 0.000000
0.176233 0.247591 0.239091
0.031970 0.265871 0.215378
0.000000 0.253976 0.232057
0.000000 0.197148 0.269713
0.000000 0.112055 0.341744
0.000000 0.046793 0.494351
0.000000 0.080885 0.806550
0.267293 0.325280 1.000000
0.854660 0.922355 1.000000
0.078781 0.000000 0.010798
0.016552 0.000000 0.105353
0.000000 0.045988 0.223159
0.000000 0.065578 0.330634
0.000000 0.047819 0.427002
0.000000 0.030255 0.544298
0.097175 0.081858 0.747364
0.364261 0.303027 1.000000
0.820144 0.825587 1.000000
0.016548 0.000000 0.000000
0.026097 0.000000 0.058520
0.039026 0.071936 0.267623
0.050277 0.147267 0.430360
0.064996 0.172223 0.531786
0.098528 0.173795 0.589765
0.176422 0.210405 0.654970
0.334428 0.371900 0.810882
0.618496 0.779555 1.000000
0.000000 0.000000 0.000000
0.061589 0.099864 0.064547
0.121733 0.259740 0.351663
0.159729 0.367254 0.551654
0.171409 0.407422 0.635405
0.162809 0.396686 0.606610
0.150163 0.382915 0.501772
0.159909 0.445406 0.390203
0.228688 0.694882 0.374023
0.015505 0.150022 0.000000
0.125256 0.331762 0.130668
0.211772 0.507741 0.479061
0.251373 0.620996 0.694846
0.230579 0.645992 0.734736
0.146113 0.588619 0.588258
0.004899 0.486197 0.277743
0.000000 0.407470 0.000000
0.000000 0.452610 0.000000
0.088684 0.341789 0.000000
0.220569 0.518003 0.281687
0.309468 0.684703 0.671169
0.322389 0.774374 0.877833
0.236540 0.750929 0.844227
0.039332 0.609710 0.545703
0.000000 0.377482 0.000000
0.000000 0.112441 0.000000
0.000000 0.000000 0.000000
0.221061 0.354287 0.019729
0.352242 0.500653 0.559975
0.416391 0.629808 0.966904
0.371201 0.663688 1.000000
0.184571 0.555653 0.995889
0.000000 0.290493 0.507505
0.000000 0.000000 0.000000
0.000000 0.000000 0.000000
0.000000 0.000000 0.000000
0.421738 0.002887 0.449385
0.526232 0.092201 1.000000
0.535351 0.152664 1.000000
0.397477 0.095660 1.000000
0.071194 0.000000 1.000000
0.000000 0.000000 0.519796
0.000000 0.000000 0.000000
0.000000 0.000000 0.000000
0.000000 0.000000 0.000000
0.701059 0.000000 1.000000
0.749739 0.000000 1.000000
0.670403 0.000000 1.000000
0.402124 0.000000 1.000000
0.000000 0.000000 1.000000
0.000000 0.000000 0.646272
0.000000 0.000000 0.000000
0.000000 0.000000 0.000000
0.000000 0.000000 0.000000
0.499968 0.656252 0.464541
0.332073 0.604903 0.318397
0.196354 0.550432 0.238588
0.101100 0.464970 0.215324
0.064800 0.352077 0.271625
0.116147 0.246740 0.463319
0.294033 0.215372 0.879042
0.647555 0.355814 1.000000
1.000000 0.797333 1.000000
0.335369 0.245986 0.221798
0.247086 0.248860 0.196090
0.188647 0.262769 0.221849
0.159028 0.249295 0.275114
0.167408 0.201445 0.364734
0.233165 0.143656 0.532369
0.385882 0.131789 0.852483
0.665342 0.253135 1.000000
1.000000 0.626409 1.000000
0.219703 0.123201 0.060492
0.201754 0.169612 0.148058
0.207021 0.237274 0.267497
0.225168 0.277216 0.380679
0.256060 0.271896 0.482283
0.309767 0.235198 0.599797
0.406556 0.212433 0.793517
0.576900 0.280341 1.000000
0.861471 0.547085 1.000000
0.156182 0.211520 0.000000
0.196145 0.287901 0.153078
0.248399 0.391804 0.350857
0.293296 0.463709 0.503892
0.321391 0.475522 0.592690
0.333438 0.430576 0.630571
0.340397 0.363632 0.663660
0.363425 0.340876 0.770893
0.433885 0.459923 1.000000
0.149263 0.404991 0.000000
0.231569 0.494890 0.207496
0.310946 0.614642 0.464823
0.358433 0.694173 0.634193
0.355273 0.694840 0.681945
0.292910 0.609424 0.607226
0.172989 0.462134 0.441993
0.007359 0.308606 0.251012
0.000000 0.235905 0.131857
0.204641 0.568081 0.000000
0.310578 0.652165 0.325224
0.394069 0.764489 0.619855
0.416841 0.824427 0.778591
0.350826 0.782785 0.753602
0.178155 0.621793 0.529866
0.000000 0.355110 0.125169
0.000000 0.027820 0.000000
0.000000 0.000000 0.000000
0.329260 0.535680 0.137761
0.436969 0.591733 0.537745
0.498419 0.670468 0.843982
0.466026 0.680711 0.961663
0.302409 0.562715 0.828787
0.000000 0.288159 0.416163
0.000000 0.000000 0.000000
0.000000 0.000000 0.000000
0.000000 0.000000 0.000000
0.531301 0.113098 0.468451
0.615780 0.116019 0.894108
0.625890 0.132124 1.000000
0.504737 0.059687 1.000000
0.205627 0.000000 0.946192
0.000000 0.000000 0.301357
0.000000 0.000000 0.000000
0.000000 0.000000 0.000000
0.000000 0.000000 0.000000
0.820192 0.000000 1.000000
0.853292 0.000000 1.000000
0.779618 0.000000 1.000000
0.532965 0.000000 1.000000
0.057325 0.000000 1.000000
0.000000 0.000000 0.238255
0.000000 0.000000 0.000000
0.000000 0.000000 0.000000
0.000000 0.000000 0.000000
0.770688 0.994058 0.708482
0.561777 0.852371 0.443074
0.409737 0.742808 0.267872
0.317578 0.624394 0.182708
0.298512 0.487579 0.220227
0.375952 0.354239 0.445879
0.583513 0.277680 0.957926
0.965010 0.342633 1.000000
1.000000 0.665256 1.000000
0.539133 0.511769 0.431110
0.407757 0.415949 0.288914
0.331155 0.368551 0.224324
0.303025 0.318049 0.223006
0.327265 0.244341 0.303432
0.417976 0.158755 0.516884
0.599463 0.104042 0.947451
0.906230 0.154384 1.000000
1.000000 0.415388 1.000000
0.368279 0.339842 0.252239
0.306141 0.281309 0.224035
0.292382 0.283553 0.256116
0.311389 0.284498 0.319975
0.357749 0.253490 0.419915
0.436251 0.191305 0.593049
0.561885 0.130145 0.909296
0.759846 0.133640 1.000000
1.000000 0.296845 1.000000
0.260420 0.391841 0.143209
0.256077 0.359132 0.216326
0.289423 0.395614 0.327680
0.335532 0.428657 0.434596
0.379680 0.417057 0.527206
0.417344 0.351040 0.628453
0.454203 0.252256 0.794086
0.506138 0.173784 1.000000
0.599231 0.200128 1.000000
0.219094 0.551753 0.092928
0.257957 0.530522 0.251242
0.319523 0.582953 0.421021
0.369554 0.625863 0.545421
0.384014 0.607498 0.600403
0.349068 0.507532 0.594741
0.261083 0.337064 0.570013
0.126628 0.138622 0.600610
0.000000 0.000000 0.793728
0.249081 0.673983 0.107872
0.313417 0.647004 0.331806
0.381174 0.694212 0.535710
0.408801 0.721875 0.648568
0.362951 0.667688 0.632173
0.220478 0.500773 0.481127
0.000000 0.221679 0.222840
0.000000 0.000000 0.000000
0.000000 0.000000 0.000000
0.356404 0.583361 0.212085
0.425334 0.530522 0.478611
0.474107 0.548453 0.688886
0.449861 0.532873 0.757725
0.309935 0.410924 0.632750
0.021871 0.141177 0.294393
0.000000 0.000000 0.000000
0.000000 0.000000 0.000000
0.000000 0.000000 0.000000
0.548329 0.075137 0.447181
0.597830 0.000000 0.729817
0.599299 0.000000 0.915258
0.490563 0.000000 0.904147
0.219649 0.000000 0.629937
0.000000 0.000000 0.058891
0.000000 0.000000 0.000000
0.000000 0.000000 0.000000
0.000000 0.000000 0.000000
0.833363 0.000000 0.872340
0.836267 0.000000 1.000000
0.758968 0.000000 1.000000
0.529982 0.000000 1.000000
0.088024 0.000000 0.669105
0.000000 0.000000 0.000000
0.000000 0.000000 0.000000
0.000000 0.000000 0.000000
0.000000 0.000000 0.000000
1.000000 1.000000 0.951037
0.762026 1.000000 0.579255
0.586587 0.886122 0.319473
0.495774 0.743777 0.181151
0.497521 0.600257 0.206555
0.609961 0.464329 0.470759
0.861431 0.376188 1.000000
1.000000 0.407457 1.000000
1.000000 0.661185 1.000000
0.733088 0.736827 0.624076
0.546560 0.535297 0.378886
0.445063 0.427774 0.235370
0.417017 0.349621 0.188815
0.461043 0.267628 0.267320
0.585963 0.180013 0.531788
0.810801 0.116419 1.000000
1.000000 0.137918 1.000000
1.000000 0.337008 1.000000
0.512341 0.516414 0.416604
0.394300 0.346276 0.286731
0.355131 0.284640 0.243480
0.373940 0.256319 0.267969
0.440038 0.217551 0.374126
0.552935 0.156003 0.608684
0.722343 0.090768 1.000000
0.968177 0.072366 1.000000
1.000000 0.182743 1.000000
0.363494 0.531610 0.289071
0.303477 0.383507 0.259787
0.311875 0.354458 0.297349
0.358485 0.358726 0.368706
0.423304 0.341998 0.473613
0.496530 0.281389 0.644637
0.578564 0.185440 0.947151
0.680008 0.094122 1.000000
0.821666 0.078830 1.000000
0.289167 0.656341 0.219496
0.273564 0.518032 0.272621
0.311626 0.505388 0.368091
0.363836 0.522119 0.458686
0.400879 0.503362 0.529991
0.403642 0.415680 0.600401
0.363213 0.257064 0.721122
0.280882 0.056933 0.976166
0.168142 0.000000 1.000000
0.293222 0.734952 0.203465
0.305280 0.591315 0.317366
0.351956 0.576010 0.444388
0.384420 0.582196 0.523139
0.364045 0.534458 0.525035
0.262406 0.388809 0.454302
0.061280 0.132689 0.347974
0.000000 0.000000 0.275894
0.000000 0.000000 0.340713
0.380763 0.582212 0.254132
0.400584 0.415242 0.403725
0.431679 0.375327 0.532489
0.415906 0.345076 0.564862
0.305326 0.238523 0.458091
0.062203 0.001130 0.202231
0.000000 0.000000 0.000000
0.000000 0.000000 0.000000
0.000000 0.000000 0.000000
0.558138 0.000000 0.402221
0.562679 0.000000 0.558968
0.550852 0.000000 0.656212
0.455207 0.000000 0.604220
0.218491 0.000000 0.346071
0.000000 0.000000 0.000000
0.000000 0.000000 0.000000
0.000000 0.000000 0.000000
0.000000 0.000000 0.000000
0.832939 0.000000 0.696023
0.796010 0.000000 0.827934
0.710777 0.000000 0.856943
0.500478 0.000000 0.679148
0.098549 0.000000 0.223457
0.000000 0.000000 0.000000
0.000000 0.000000 0.000000
0.000000 0.000000 0.000000
0.000000 0.000000 0.000000
1.000000 1.000000 1.000000
0.945663 1.000000 0.710557
0.744725 0.999491 0.386733
0.658487 0.855578 0.213714
0.689603 0.735911 0.243391
0.850928 0.636148 0.560462
1.000000 0.583375 1.000000
1.000000 0.636106 1.000000
1.000000 0.884281 1.000000
0.932152 0.923022 0.779812
0.683388 0.622108 0.454843
0.555243 0.468981 0.253542
0.530856 0.385895 0.180820
0.603570 0.326530 0.274397
0.776929 0.275995 0.604802
1.000000 0.250825 1.000000
1.000000 0.298981 1.000000
1.000000 0.499854 1.000000
0.673857 0.664202 0.537921
0.493176 0.389140 0.330200
0.427188 0.278501 0.233365
0.449722 0.243986 0.238159
0.544807 0.228727 0.368131
0.706676 0.207281 0.679642
0.939764 0.185630 1.000000
1.000000 0.201186 1.000000
1.000000 0.322788 1.000000
0.494422 0.651537 0.389992
0.372340 0.395075 0.282734
0.354730 0.315728 0.268858
0.406108 0.314649 0.324935
0.501193 0.324415 0.460346
0.624904 0.309033 0.717279
0.772365 0.263936 1.000000
0.948898 0.215983 1.000000
1.000000 0.223462 1.000000
0.395549 0.748889 0.303155
0.319437 0.500893 0.276124
0.333279 0.438762 0.320245
0.392280 0.453097 0.397920
0.461847 0.465926 0.504359
0.517588 0.430703 0.667581
0.545313 0.332310 0.948415
0.541034 0.187057 1.000000
0.510963 0.042678 1.000000
0.380180 0.790547 0.262104
0.334264 0.537998 0.291612
0.359489 0.476123 0.365317
0.401748 0.484969 0.431452
0.417136 0.476014 0.471057
0.371948 0.392161 0.497982
0.242683 0.207741 0.558883
0.016040 0.000000 0.733229
0.000000 0.000000 1.000000
0.452504 0.581216 0.269107
0.417865 0.308215 0.328011
0.431258 0.226752 0.399435
0.429263 0.206323 0.417440
0.358664 0.147855 0.348897
0.176444 0.000000 0.193484
0.000000 0.000000 0.000000
0.000000 0.000000 0.000000
0.000000 0.000000 0.000000
0.617950 0.000000 0.343995
0.572524 0.000000 0.401703
0.547724 0.000000 0.435527
0.470820 0.000000 0.365359
0.279282 0.000000 0.143900
0.000000 0.000000 0.000000
0.000000 0.000000 0.000000
0.000000 0.000000 0.000000
0.000000 0.000000 0.000000
0.883190 0.000000 0.524170
0.801768 0.000000 0.546635
0.709271 0.000000 0.504089
0.523656 0.000000 0.302254
0.173082 0.000000 0.000000
0.000000 0.000000 0.000000
0.000000 0.000000 0.000000
0.000000 0.000000 0.000000
0.000000 0.000000 0.000000
1.000000 1.000000 1.000000
1.000000 1.000000 0.814376
0.873875 1.000000 0.456766
0.800417 0.956356 0.277234
0.874436 0.904440 0.337293
1.000000 0.892936 0.731266
1.000000 0.935822 1.000000
1.000000 1.000000 1.000000
1.000000 1.000000 1.000000
1.000000 1.000000 0.871209
0.810038 0.655683 0.499398
0.658468 0.484814 0.271175
0.646292 0.432852 0.201074
0.761575 0.440369 0.336438
1.000000 0.479364 0.757422
1.000000 0.553263 1.000000
1.000000 0.696919 1.000000
1.000000 0.976611 1.000000
0.846695 0.758592 0.594299
0.601616 0.398628 0.342272
0.512380 0.267202 0.223323
0.547535 0.262907 0.237816
0.685834 0.315766 0.418925
0.916231 0.387225 0.832634
1.000000 0.470159 1.000000
1.000000 0.588871 1.000000
1.000000 0.799089 1.000000
0.654123 0.736430 0.429299
0.468565 0.391987 0.278216
0.428861 0.290914 0.244976
0.494251 0.321256 0.315774
0.634175 0.402481 0.509615
0.828273 0.485486 0.878311
1.000000 0.552596 1.000000
1.000000 0.617560 1.000000
1.000000 0.725557 1.000000
0.546208 0.823633 0.332448
0.408521 0.486681 0.260016
0.402406 0.403990 0.285468
0.477789 0.453053 0.380831
0.594800 0.542787 0.550937
0.723766 0.613538 0.833430
0.845221 0.637079 1.000000
0.949896 0.616610 1.000000
1.000000 0.586756 1.000000
0.524977 0.844426 0.277553
0.420366 0.504053 0.258027
0.428749 0.424889 0.311702
0.490740 0.473875 0.396434
0.557155 0.549377 0.502887
0.589011 0.581191 0.654534
0.557529 0.530537 0.907657
0.444129 0.390065 1.000000
0.240434 0.183849 1.000000
0.593698 0.593454 0.255989
0.504225 0.235866 0.260172
0.504871 0.142492 0.308148
0.526937 0.169720 0.343604
0.511929 0.205367 0.343033
0.411552 0.168676 0.315738
0.187713 0.010319 0.303831
0.000000 0.000000 0.382233
0.000000 0.000000 0.658672
0.756883 0.000000 0.276700
0.661464 0.000000 0.271941
0.628992 0.000000 0.276844
0.581458 0.000000 0.220925
0.451054 0.000000 0.066506
0.180175 0.000000 0.000000
0.000000 0.000000 0.000000
0.000000 0.000000 0.000000
0.000000 0.000000 0.000000
1.000000 0.000000 0.366197
0.894692 0.000000 0.316395
0.800577 0.000000 0.237398
0.650621 0.000000 0.044551
0.367704 0.000000 0.000000
0.000000 0.000000 0.000000
0.000000 0.000000 0.000000
0.000000 0.000000 0.000000
0.000000 0.000000 0.000000
1.000000 1.000000 1.000000
1.000000 1.000000 0.861883
0.935660 1.000000 0.510465
0.888166 1.000000 0.362323
1.000000 1.000000 0.488595
1.000000 1.000000 0.993226
1.000000 1.000000 1.000000
1.000000 1.000000 1.000000
1.000000 1.000000 1.000000
1.000000 1.000000 0.864934
0.890205 0.579426 0.488940
0.723412 0.432018 0.274378
0.736977 0.460579 0.245407
0.913688 0.592572 0.458996
1.000000 0.786887 1.000000
1.000000 1.000000 1.000000
1.000000 1.000000 1.000000
1.000000 1.000000 1.000000
0.996624 0.739072 0.557623
0.690367 0.327567 0.304555
0.586429 0.216911 0.204680
0.648082 0.292591 0.267988
0.848800 0.471516 0.537276
1.000000 0.702026 1.000000
1.000000 0.963887 1.000000
1.000000 1.000000 1.000000
1.000000 1.000000 1.000000
0.815417 0.735204 0.384095
0.569947 0.336495 0.233056
0.517044 0.255609 0.222247
0.610669 0.367481 0.347489
0.814982 0.578469 0.637407
1.000000 0.826362 1.000000
1.000000 1.000000 1.000000
1.000000 1.000000 1.000000
1.000000 1.000000 1.000000
0.721017 0.838908 0.289697
0.525665 0.447072 0.216339
0.508833 0.386090 0.265524
0.615167 0.520343 0.418901
0.799517 0.745642 0.690928
1.000000 0.989223 1.000000
1.000000 1.000000 1.000000
1.000000 1.000000 1.000000
1.000000 1.000000 1.000000
0.714533 0.864349 0.237349
0.555486 0.470579 0.213871
0.556612 0.416750 0.290523
0.653249 0.556694 0.434786
0.790934 0.775669 0.646947
0.925406 0.990359 0.960102
1.000000 1.000000 1.000000
1.000000 1.000000 1.000000
1.000000 1.000000 1.000000
0.798317 0.596113 0.207535
0.658613 0.188720 0.202683
0.656444 0.126412 0.270825
0.717833 0.252471 0.365271
0.779005 0.441603 0.472138
0.786387 0.599942 0.610353
0.696610 0.665050 0.831652
0.476502 0.605916 1.000000
0.103098 0.422953 1.000000
0.975962 0.000000 0.198309
0.835498 0.000000 0.177378
0.805632 0.000000 0.197579
0.803075 0.000000 0.198053
0.754741 0.000000 0.150747
0.597746 0.000000 0.060417
0.279406 0.000000 0.000000
0.000000 0.000000 0.000000
0.000000 0.000000 0.070990
1.000000 0.000000 0.225294
1.000000 0.000000 0.150124
1.000000 0.000000 0.079501
0.904378 0.000000 0.000000
0.710401 0.000000 0.000000
0.348594 0.000000 0.000000
0.000000 0.000000 0.000000
0.000000 0.000000 0.000000
0.000000 0.000000 0.000000
1.000000 1.000000 1.000000
1.000000 0.918444 0.818023
0.863605 0.812625 0.522496
0.860238 0.931585 0.453369
1.000000 1.000000 0.691404
1.000000 1.000000 1.000000
1.000000 1.000000 1.000000
1.000000 1.000000 1.000000
1.000000 1.000000 1.000000
1.000000 0.728548 0.721432
0.859489 0.300842 0.393632
0.690651 0.231437 0.243035
0.748466 0.403259 0.303426
1.000000 0.730663 0.641395
1.000000 1.000000 1.000000
1.000000 1.000000 1.000000
1.000000 1.000000 1.000000
1.000000 1.000000 1.000000
1.000000 0.509229 0.393555
0.702077 0.092885 0.192429
0.596964 0.057899 0.162539
0.703969 0.276646 0.323498
0.991287 0.652928 0.727728
1.000000 1.000000 1.000000
1.000000 1.000000 1.000000
1.000000 1.000000 1.000000
1.000000 1.000000 1.000000
0.923024 0.560868 0.225257
0.626186 0.154952 0.127853
0.573956 0.149507 0.190992
0.715015 0.406357 0.420119
1.000000 0.818753 0.853484
1.000000 1.000000 1.000000
1.000000 1.000000 1.000000
1.000000 1.000000 1.000000
1.000000 1.000000 1.000000
0.871746 0.717150 0.150999
0.627620 0.317843 0.130911
0.614287 0.334177 0.255950
0.771118 0.617426 0.517391
1.000000 1.000000 0.939313
1.000000 1.000000 1.000000
1.000000 1.000000 1.000000
1.000000 1.000000 1.000000
1.000000 1.000000 1.000000
0.907671 0.782177 0.122806
0.703422 0.382778 0.150178
0.711856 0.410248 0.302536
0.863032 0.705310 0.556984
1.000000 1.000000 0.923432
1.000000 1.000000 1.000000
1.000000 1.000000 1.000000
1.000000 1.000000 1.000000
1.000000 1.000000 1.000000
1.000000 0.530475 0.110277
0.851881 0.121400 0.151798
0.861806 0.146479 0.293440
0.982755 0.435883 0.498136
1.000000 0.851210 0.761628
1.000000 1.000000 1.000000
1.000000 1.000000 1.000000
1.000000 1.000000 1.000000
1.000000 1.000000 1.000000
1.000000 0.000000 0.100573
1.000000 0.000000 0.119482
1.000000 0.000000 0.208922
1.000000 0.000000 0.317655
1.000000 0.000000 0.427254
1.000000 0.279196 0.552098
1.000000 0.545928 0.739378
0.711366 0.662526 1.000000
0.177977 0.605745 1.000000
1.000000 0.000000 0.098429
1.000000 0.000000 0.054511
1.000000 0.000000 0.046808
1.000000 0.000000 0.009915
1.000000 0.000000 0.000000
0.991823 0.000000 0.000000
0.584865 0.000000 0.000000
0.000000 0.000000 0.000000
0.000000 0.000000 0.000000
