public/luts/dreamneg.cube
# Generated from ColorChecker fit
LUT_3D_SIZE 33
DOMAIN_MIN 0.0 0.0 0.0
DOMAIN_MAX 1.0 1.0 1.0
0.000000 0.000000 0.045784
0.000000 0.000000 0.064844
0.000000 0.000000 0.087224
0.000000 0.000000 0.111893
0.000000 0.000000 0.137950
0.000000 0.000000 0.164619
0.000000 0.000000 0.191256
0.000000 0.000000 0.217343
0.000000 0.000000 0.242489
0.000000 0.000000 0.266434
0.000000 0.000000 0.289043
0.000000 0.000000 0.310313
0.000000 0.000000 0.330366
0.000000 0.000000 0.349452
0.000000 0.000000 0.367952
0.000000 0.000000 0.386373
0.000000 0.000000 0.405351
0.000000 0.000000 0.425648
0.000000 0.000000 0.448159
0.000000 0.000000 0.473901
0.000000 0.000000 0.504024
0.000000 0.000000 0.539805
0.000000 0.000000 0.582647
0.000000 0.000000 0.634084
0.000000 0.000000 0.695776
0.000000 0.000000 0.769513
0.000000 0.000000 0.857212
0.000000 0.000000 0.960917
0.000000 0.093414 1.000000
0.000000 0.241968 1.000000
0.000000 0.418885 1.000000
0.147196 0.627024 1.000000
0.326536 0.869366 1.000000
0.000000 0.000000 0.000000
0.000000 0.000000 0.006592
0.000000 0.000000 0.036400
0.000000 0.000000 0.068333
0.000000 0.000000 0.101433
0.000000 0.000000 0.134870
0.000000 0.000000 0.167944
0.000000 0.000000 0.200081
0.000000 0.000000 0.230836
0.000000 0.000000 0.259892
0.000000 0.000000 0.287062
0.000000 0.000000 0.312283
0.000000 0.000000 0.335624
0.000000 0.000000 0.357281
0.000000 0.000000 0.377577
0.000000 0.000000 0.396965
0.000000 0.000000 0.416025
0.000000 0.000000 0.435466
0.000000 0.000000 0.456124
0.000000 0.000000 0.478964
0.000000 0.000000 0.505078
0.000000 0.000000 0.535689
0.000000 0.000000 0.572145
0.000000 0.000000 0.615923
0.000000 0.000000 0.668629
0.000000 0.000000 0.731998
0.000000 0.000000 0.807890
0.000000 0.000000 0.898296
0.000000 0.096445 1.000000
0.000000 0.242249 1.000000
0.031490 0.415563 1.000000
0.182946 0.619205 1.000000
0.353599 0.856115 1.000000
0.000000 0.000000 0.000000
0.000000 0.000000 0.000000
0.000000 0.000000 0.000000
0.000000 0.000000 0.028919
0.000000 0.000000 0.069027
0.000000 0.000000 0.109179
0.000000 0.000000 0.148618
0.000000 0.000000 0.186715
0.000000 0.000000 0.222970
0.000000 0.000000 0.257011
0.000000 0.000000 0.288594
0.000000 0.000000 0.317602
0.000000 0.000000 0.344049
0.000000 0.000000 0.368075
0.000000 0.000000 0.389949
0.000000 0.000000 0.410066
0.000000 0.000000 0.428953
0.000000 0.000000 0.447262
0.000000 0.000000 0.465774
0.000000 0.000000 0.485399
0.000000 0.000000 0.507175
0.000000 0.000000 0.532267
0.000000 0.000000 0.561969
0.000000 0.000000 0.597703
0.000000 0.000000 0.641020
0.000000 0.000000 0.693598
0.000000 0.000000 0.757242
0.000000 0.000000 0.833889
0.000000 0.105191 0.925601
0.000000 0.247638 1.000000
0.065250 0.416727 1.000000
0.208403 0.615235 1.000000
0.369736 0.846060 1.000000
0.000000 0.000000 0.000000
0.000000 0.000000 0.000000
0.000000 0.000000 0.000000
0.000000 0.000000 0.000000
0.000000 0.000000 0.040432
0.000000 0.000000 0.087232
0.000000 0.000000 0.132950
0.000000 0.000000 0.176903
0.000000 0.000000 0.218536
0.000000 0.000000 0.257421
0.000000 0.000000 0.293259
0.000000 0.000000 0.325877
0.000000 0.000000 0.355234
0.000000 0.000000 0.381415
0.000000 0.000000 0.404632
0.000000 0.000000 0.425228
0.000000 0.000000 0.443671
0.000000 0.000000 0.460559
0.000000 0.000000 0.476620
0.000000 0.000000 0.492705
0.000000 0.000000 0.509798
0.000000 0.000000 0.529010
0.000000 0.000000 0.551578
0.000000 0.000000 0.578869
0.000000 0.000000 0.612378
0.000000 0.000000 0.653729
0.000000 0.000000 0.704672
0.000000 0.003652 0.767087
0.000000 0.118979 0.842982
0.000000 0.257451 0.934491
0.089023 0.421681 1.000000
0.223244 0.614404 1.000000
0.374610 0.838479 1.000000
0.000000 0.000000 0.000000
0.000000 0.000000 0.000000
0.000000 0.000000 0.000000
0.000000 0.000000 0.000000
0.000000 0.000000 0.015416
0.000000 0.000000 0.068783
0.000000 0.000000 0.120682
0.000000 0.000000 0.170375
0.000000 0.000000 0.217250
0.000000 0.000000 0.260825
0.000000 0.000000 0.300744
0.000000 0.000000 0.336782
0.000000 0.000000 0.368839
0.000000 0.000000 0.396947
0.000000 0.000000 0.421262
0.000000 0.000000 0.442070
0.000000 0.000000 0.459786
0.000000 0.000000 0.474953
0.000000 0.000000 0.488241
0.000000 0.000000 0.500448
0.000000 0.000000 0.512501
0.000000 0.000000 0.525456
0.000000 0.000000 0.540496
0.000000 0.000000 0.558932
0.000000 0.000000 0.582203
0.000000 0.000000 0.611878
0.000000 0.000000 0.649652
0.000000 0.025438 0.697348
0.000000 0.137018 0.756920
0.000000 0.270886 0.830448
0.102502 0.429612 0.920139
0.227149 0.615891 1.000000
0.367890 0.832540 1.000000
0.000000 0.000000 0.000000
0.000000 0.000000 0.000000
0.000000 0.000000 0.000000
0.000000 0.000000 0.000000
0.000000 0.000000 0.000000
0.000000 0.000000 0.053657
0.000000 0.000000 0.111625
0.000000 0.000000 0.166926
0.000000 0.000000 0.218894
0.000000 0.000000 0.266991
0.000000 0.000000 0.310806
0.000000 0.000000 0.350058
0.000000 0.000000 0.384594
0.000000 0.000000 0.414386
0.000000 0.000000 0.439539
0.000000 0.000000 0.460282
0.000000 0.000000 0.476975
0.000000 0.000000 0.490104
0.000000 0.000000 0.500286
0.000000 0.000000 0.508262
0.000000 0.000000 0.514905
0.000000 0.000000 0.521215
0.000000 0.000000 0.528319
0.000000 0.000000 0.537473
0.000000 0.000000 0.550062
0.000000 0.000000 0.567598
0.000000 0.000000 0.591720
0.000000 0.051196 0.624199
0.000000 0.158404 0.666930
0.004903 0.287026 0.721939
0.105385 0.439592 0.791379
0.219805 0.618755 0.877531
0.349250 0.827291 0.982804
0.000000 0.000000 0.000000
0.000000 0.000000 0.000000
0.000000 0.000000 0.000000
0.000000 0.000000 0.000000
0.000000 0.000000 0.000000
0.000000 0.000000 0.041746
0.000000 0.000000 0.105657
0.000000 0.000000 0.166422
0.000000 0.000000 0.223321
0.000000 0.000000 0.275758
0.000000 0.000000 0.323270
0.000000 0.000000 0.365519
0.000000 0.000000 0.402295
0.000000 0.000000 0.433518
0.000000 0.000000 0.459235
0.000000 0.000000 0.479621
0.000000 0.000000 0.494980
0.000000 0.000000 0.505743
0.000000 0.000000 0.512471
0.000000 0.000000 0.515852
0.000000 0.000000 0.516700
0.000000 0.000000 0.515962
0.000000 0.000000 0.514709
0.000000 0.000000 0.514143
0.000000 0.000000 0.515591
0.000000 0.000000 0.520511
0.000000 0.000000 0.530488
0.000000 0.079917 0.547235
0.000000 0.182116 0.572594
0.006740 0.304839 0.608534
0.097376 0.450578 0.657154
0.200901 0.621942 0.720678
0.318368 0.821666 0.801461
0.000000 0.000000 0.000000
0.000000 0.000000 0.000000
0.000000 0.000000 0.000000
0.000000 0.000000 0.000000
0.000000 0.000000 0.000000
0.000000 0.000000 0.033011
0.000000 0.000000 0.102725
0.000000 0.000000 0.168797
0.000000 0.000000 0.230450
0.000000 0.000000 0.287034
0.000000 0.000000 0.338029
0.000000 0.000000 0.383043
0.000000 0.000000 0.421810
0.000000 0.000000 0.454195
0.000000 0.000000 0.480189
0.000000 0.000000 0.499913
0.000000 0.000000 0.513614
0.000000 0.000000 0.521669
0.000000 0.000000 0.524583
0.000000 0.000000 0.522988
0.000000 0.000000 0.517645
0.000000 0.000000 0.509443
0.000000 0.000000 0.499399
0.000000 0.000000 0.488658
0.000000 0.000000 0.478494
0.000000 0.000000 0.470309
0.000000 0.031228 0.465632
0.000000 0.110474 0.466121
0.000000 0.207016 0.473562
0.000000 0.323178 0.489870
0.078182 0.461410 0.517087
0.170135 0.624281 0.557383
0.274927 0.814484 0.613058
0.000000 0.000000 0.000000
0.000000 0.000000 0.000000
0.000000 0.000000 0.000000
0.000000 0.000000 0.000000
0.000000 0.000000 0.000000
0.000000 0.000000 0.027480
0.000000 0.000000 0.102846
0.000000 0.000000 0.174053
0.000000 0.000000 0.240271
0.000000 0.000000 0.300793
0.000000 0.000000 0.355045
0.000000 0.000000 0.402579
0.000000 0.000000 0.443074
0.000000 0.000000 0.476338
0.000000 0.000000 0.502310
0.000000 0.000000 0.521052
0.000000 0.000000 0.532759
0.000000 0.000000 0.537750
0.000000 0.000000 0.536476
0.000000 0.000000 0.529512
0.000000 0.000000 0.517566
0.000000 0.000000 0.501471
0.000000 0.000000 0.482187
0.000000 0.000000 0.460806
0.000000 0.000000 0.438545
0.000000 0.008268 0.416751
0.000000 0.067820 0.396898
0.000000 0.141627 0.380589
0.000000 0.231853 0.369554
0.000000 0.340779 0.365652
0.047515 0.470814 0.370871
0.127205 0.624486 0.387325
0.218617 0.804448 0.417258
0.000000 0.000000 0.000000
0.000000 0.000000 0.000000
0.000000 0.000000 0.000000
0.000000 0.000000 0.000000
0.000000 0.000000 0.000000
0.000000 0.000000 0.025254
0.000000 0.000000 0.106104
0.000000 0.000000 0.182262
0.000000 0.000000 0.252841
0.000000 0.000000 0.317080
0.000000 0.000000 0.374349
0.000000 0.000000 0.424144
0.000000 0.000000 0.466090
0.000000 0.000000 0.499939
0.000000 0.000000 0.525574
0.000000 0.000000 0.543003
0.000000 0.000000 0.552363
0.000000 0.000000 0.553922
0.000000 0.000000 0.548071
0.000000 0.000000 0.535334
0.000000 0.000000 0.516360
0.000000 0.000000 0.491928
0.000000 0.000000 0.462944
0.000000 0.000000 0.430442
0.000000 0.007091 0.395586
0.000000 0.049995 0.359667
0.000000 0.104306 0.324102
0.000000 0.172020 0.290441
0.000000 0.255259 0.260357
0.000000 0.356263 0.235656
0.005095 0.477400 0.218267
0.071818 0.621157 0.210252
0.149129 0.790145 0.213797
0.000000 0.000000 0.000000
0.000000 0.000000 0.000000
0.000000 0.000000 0.000000
0.000000 0.000000 0.000000
0.000000 0.000000 0.000000
0.000000 0.000000 0.026497
0.000000 0.000000 0.112653
0.000000 0.000000 0.193563
0.000000 0.000000 0.268287
0.000000 0.000000 0.336008
0.000000 0.000000 0.396040
0.000000 0.000000 0.447825
0.000000 0.000000 0.490931
0.000000 0.000000 0.525056
0.000000 0.000000 0.550026
0.000000 0.000000 0.565796
0.000000 0.000000 0.572447
0.000000 0.000000 0.570189
0.000000 0.000000 0.559362
0.000000 0.000000 0.540431
0.000000 0.000000 0.513991
0.000000 0.000000 0.480766
0.000000 0.001821 0.441606
0.000000 0.023877 0.397491
0.000000 0.052969 0.349528
0.000000 0.090807 0.298952
0.000000 0.139226 0.247128
0.000000 0.200181 0.195547
0.000000 0.275751 0.145829
0.000000 0.368137 0.099723
0.000000 0.479663 0.059104
0.003684 0.612776 0.025978
0.066161 0.770046 0.002477
0.000000 0.000000 0.000000
0.000000 0.000000 0.000000
0.000000 0.000000 0.000000
0.000000 0.000000 0.000000
0.000000 0.000000 0.000000
0.000000 0.000000 0.031447
0.000000 0.000000 0.122714
0.000000 0.000000 0.208166
0.000000 0.000000 0.286804
0.000000 0.000000 0.357758
0.000000 0.000000 0.420287
0.000000 0.000000 0.473775
0.000000 0.000000 0.517737
0.000000 0.000000 0.551816
0.000000 0.000000 0.575782
0.000000 0.000000 0.589533
0.000000 0.001309 0.593096
0.000000 0.009731 0.586626
0.000000 0.016992 0.570407
0.000000 0.024026 0.544849
0.000000 0.031887 0.510492
0.000000 0.041754 0.468004
0.000000 0.054928 0.418180
0.000000 0.072832 0.361944
0.000000 0.097013 0.300348
0.000000 0.129140 0.234573
0.000000 0.171005 0.165927
0.000000 0.224523 0.095846
0.000000 0.291730 0.025894
0.000000 0.374789 0.000000
0.000000 0.475980 0.000000
0.000000 0.597711 0.000000
0.000000 0.742509 0.000000
0.000000 0.000000 0.000000
0.000000 0.000000 0.000000
0.000000 0.000000 0.000000
0.000000 0.000000 0.000000
0.000000 0.000000 0.000000
0.000000 0.000000 0.040405
0.000000 0.000000 0.136578
0.000000 0.000000 0.226346
0.000000 0.000000 0.308655
0.000000 0.000000 0.382581
0.000000 0.000000 0.447325
0.000000 0.000000 0.502218
0.000000 0.006762 0.546720
0.000000 0.027402 0.580416
0.000000 0.044015 0.603022
0.000000 0.057002 0.614382
0.000000 0.066887 0.614467
0.000000 0.074315 0.603375
0.000000 0.080055 0.581336
0.000000 0.084998 0.548705
0.000000 0.090159 0.505966
0.000000 0.096674 0.453731
0.000000 0.105803 0.392741
0.000000 0.118928 0.323864
0.000000 0.137556 0.248097
0.000000 0.163313 0.166564
0.000000 0.197950 0.080520
0.000000 0.243342 0.000000
0.000000 0.301483 0.000000
0.000000 0.374494 0.000000
0.000000 0.464616 0.000000
0.000000 0.574213 0.000000
0.000000 0.705774 0.000000
0.000000 0.000000 0.000000
0.000000 0.000000 0.000000
0.000000 0.000000 0.000000
0.000000 0.000000 0.000000
0.000000 0.000000 0.000000
0.000000 0.000000 0.053747
0.000000 0.000000 0.154604
0.000000 0.000000 0.248449
0.000000 0.000000 0.334173
0.000000 0.000000 0.410794
0.000000 0.017650 0.477460
0.000000 0.047905 0.533446
0.000000 0.073406 0.578156
0.000000 0.094267 0.611120
0.000000 0.110722 0.632000
0.000000 0.123133 0.640582
0.000000 0.131980 0.636783
0.000000 0.137868 0.620647
0.000000 0.141524 0.592346
0.000000 0.143800 0.552181
0.000000 0.145668 0.500581
0.000000 0.148223 0.438103
0.000000 0.152684 0.365431
0.000000 0.160392 0.283379
0.000000 0.172812 0.192888
0.000000 0.191529 0.095028
0.000000 0.218254 0.000000
0.000000 0.254819 0.000000
0.000000 0.303179 0.000000
0.000000 0.365412 0.000000
0.000000 0.443718 0.000000
0.000000 0.540420 0.000000
0.000000 0.657965 0.000000
0.000000 0.000000 0.000000
0.000000 0.000000 0.000000
0.000000 0.000000 0.000000
0.000000 0.000000 0.000000
0.000000 0.000000 0.000000
0.000000 0.000000 0.071911
0.000000 0.000000 0.177220
0.000000 0.000000 0.274890
0.000000 0.007446 0.363758
0.000000 0.047948 0.442786
0.000000 0.083608 0.511066
0.000000 0.114252 0.567819
0.000000 0.139830 0.612392
0.000000 0.160415 0.644262
0.000000 0.176202 0.663033
0.000000 0.187509 0.668438
0.000000 0.194776 0.660337
0.000000 0.198566 0.638720
0.000000 0.199567 0.603703
0.000000 0.198587 0.555531
0.000000 0.196558 0.494578
0.000000 0.194534 0.421346
0.000000 0.193693 0.336464
0.000000 0.195334 0.240689
0.000000 0.200881 0.134909
0.000000 0.211878 0.020137
0.000000 0.229995 0.000000
0.000000 0.257022 0.000000
0.000000 0.294874 0.000000
0.000000 0.345586 0.000000
0.000000 0.411318 0.000000
0.000000 0.494352 0.000000
0.000000 0.597094 0.000000
0.000000 0.000000 0.000000
0.000000 0.000000 0.000000
0.000000 0.000000 0.000000
0.000000 0.000000 0.000000
0.000000 0.000000 0.000000
0.000000 0.000000 0.095409
0.000000 0.000000 0.204923
0.000000 0.025938 0.306152
0.000000 0.071631 0.397879
0.000000 0.112575 0.479012
0.000000 0.148433 0.548586
0.000000 0.178989 0.605766
0.000000 0.204153 0.649845
0.000000 0.223956 0.680244
0.000000 0.238551 0.696512
0.000000 0.248216 0.698326
0.000000 0.253350 0.685492
0.000000 0.254475 0.657943
0.000000 0.252235 0.615741
0.000000 0.247400 0.559075
0.000000 0.240859 0.488264
0.000000 0.233626 0.403754
0.000000 0.226837 0.306119
0.000000 0.221750 0.196061
0.000000 0.219747 0.074412
0.000000 0.222333 0.000000
0.000000 0.231134 0.000000
0.000000 0.247901 0.000000
0.000000 0.274505 0.000000
0.000000 0.312943 0.000000
0.000000 0.365333 0.000000
0.000000 0.433915 0.000000
0.000000 0.521053 0.000000
0.000000 0.000000 0.000000
0.000000 0.000000 0.000000
0.000000 0.000000 0.000000
0.000000 0.000000 0.000000
0.000000 0.000000 0.003820
0.000000 0.000000 0.124820
0.000000 0.037376 0.238276
0.000000 0.087741 0.342787
0.000000 0.133638 0.437076
0.000000 0.174567 0.519996
0.000000 0.210150 0.590529
0.000000 0.240132 0.647784
0.000000 0.264378 0.690998
0.000000 0.282881 0.719536
0.000000 0.295751 0.732893
0.000000 0.303225 0.730690
0.000000 0.305661 0.712677
0.000000 0.303540 0.678733
0.000000 0.297465 0.628863
0.000000 0.288164 0.563203
0.000000 0.276485 0.482015
0.000000 0.263401 0.385689
0.000000 0.250007 0.274745
0.000000 0.237519 0.149830
0.000000 0.227279 0.011720
0.000000 0.220750 0.000000
0.000000 0.219517 0.000000
0.000000 0.225289 0.000000
0.000000 0.239898 0.000000
0.000000 0.265297 0.000000
0.000000 0.303564 0.000000
0.000000 0.356898 0.000000
0.000000 0.427622 0.000000
0.000000 0.000000 0.000000
0.000000 0.000000 0.000000
0.000000 0.000000 0.000000
0.000000 0.000000 0.000000
0.000000 0.000000 0.035493
0.000000 0.041141 0.160789
0.000000 0.095443 0.277915
0.000000 0.145751 0.385414
0.000000 0.191400 0.481954
0.000000 0.231846 0.566333
0.000000 0.266672 0.637477
0.000000 0.295579 0.694440
0.000000 0.318395 0.736404
0.000000 0.335067 0.762678
0.000000 0.345667 0.772702
0.000000 0.350389 0.766042
0.000000 0.349552 0.742392
0.000000 0.343593 0.701575
0.000000 0.333077 0.643543
0.000000 0.318688 0.568374
0.000000 0.301234 0.476276
0.000000 0.281646 0.367584
0.000000 0.260979 0.242762
0.000000 0.240407 0.102402
0.000000 0.221231 0.000000
0.000000 0.204872 0.000000
0.000000 0.192875 0.000000
0.000000 0.186907 0.000000
0.000000 0.188759 0.000000
0.000000 0.200344 0.000000
0.000000 0.223696 0.000000
0.000000 0.260976 0.000000
0.000000 0.314463 0.000000
0.000000 0.000000 0.000000
0.000000 0.000000 0.000000
0.000000 0.000000 0.000000
0.000000 0.000000 0.000000
0.000000 0.036734 0.074711
0.000000 0.094031 0.204033
0.000000 0.147996 0.324542
0.000000 0.197799 0.434722
0.000000 0.242735 0.533189
0.000000 0.282220 0.618684
0.000000 0.315793 0.690078
0.000000 0.343116 0.746369
0.000000 0.363974 0.786684
0.000000 0.378275 0.810278
0.000000 0.386049 0.816533
0.000000 0.387449 0.804962
0.000000 0.382750 0.775202
0.000000 0.372352 0.727023
0.000000 0.356776 0.660319
0.000000 0.336666 0.575114
0.000000 0.312788 0.471560
0.000000 0.286033 0.349938
0.000000 0.257412 0.210655
0.000000 0.228062 0.054248
0.000000 0.199239 0.000000
0.000000 0.172325 0.000000
0.000000 0.148823 0.000000
0.000000 0.130359 0.000000
0.000000 0.118682 0.000000
0.000000 0.115665 0.000000
0.000000 0.123300 0.000000
0.000000 0.143707 0.000000
0.000000 0.179124 0.000000
0.000000 0.000000 0.000000
0.000000 0.000000 0.000000
0.000000 0.000000 0.000000
0.000000 0.023783 0.000000
0.000000 0.082919 0.122270
0.000000 0.139575 0.255337
0.000000 0.192758 0.378926
0.000000 0.241597 0.491469
0.000000 0.285345 0.591525
0.002950 0.323377 0.677779
0.006585 0.355192 0.749048
0.004729 0.380410 0.804274
0.000000 0.398775 0.842528
0.000000 0.410152 0.863011
0.000000 0.414532 0.865050
0.000000 0.412026 0.848100
0.000000 0.402869 0.811746
0.000000 0.387417 0.755700
0.000000 0.366152 0.679801
0.000000 0.339676 0.584019
0.000000 0.308715 0.468450
0.000000 0.274116 0.333319
0.000000 0.236852 0.178979
0.000000 0.198017 0.005910
0.000000 0.158826 0.000000
0.000000 0.120620 0.000000
0.000000 0.084860 0.000000
0.000000 0.053132 0.000000
0.000000 0.027144 0.000000
0.000000 0.008725 0.000000
0.000000 0.000000 0.000000
0.000000 0.002534 0.000000
0.000000 0.019037 0.000000
0.000000 0.000000 0.000000
0.000000 0.000000 0.000000
0.000000 0.002041 0.000000
0.000000 0.061650 0.034118
0.000000 0.119820 0.179038
0.000000 0.175394 0.315553
0.000000 0.227339 0.441909
0.005495 0.274743 0.556481
0.018100 0.316817 0.657774
0.025287 0.352895 0.744418
0.026720 0.382434 0.815173
0.022107 0.405014 0.868927
0.011195 0.420338 0.904696
0.000000 0.428229 0.921624
0.000000 0.428636 0.918984
0.000000 0.421630 0.896175
0.000000 0.407404 0.852727
0.000000 0.386274 0.788296
0.000000 0.358679 0.702667
0.000000 0.325182 0.595754
0.000000 0.286465 0.467597
0.000000 0.243337 0.318366
0.000000 0.196728 0.148358
0.000000 0.147689 0.000000
0.000000 0.097398 0.000000
0.000000 0.047151 0.000000
0.000000 0.000000 0.000000
0.000000 0.000000 0.000000
0.000000 0.000000 0.000000
0.000000 0.000000 0.000000
0.000000 0.000000 0.000000
0.000000 0.000000 0.000000
0.000000 0.000000 0.000000
0.000000 0.000000 0.000000
0.000000 0.000000 0.000000
0.000000 0.029888 0.000000
0.000000 0.088184 0.097247
0.000000 0.144951 0.245950
0.000000 0.198993 0.385603
0.014426 0.249234 0.514397
0.030877 0.294720 0.630652
0.041818 0.334622 0.732817
0.046841 0.368233 0.819467
0.045575 0.394968 0.889307
0.037690 0.414367 0.941169
0.022897 0.426089 0.974014
0.000945 0.429919 0.986930
0.000000 0.425763 0.979135
0.000000 0.413652 0.949973
0.000000 0.393736 0.898918
0.000000 0.366292 0.825572
0.000000 0.331716 0.729663
0.000000 0.290530 0.611050
0.000000 0.243376 0.469719
0.000000 0.191020 0.305783
0.000000 0.134352 0.119485
0.000000 0.074383 0.000000
0.000000 0.012246 0.000000
0.000000 0.000000 0.000000
0.000000 0.000000 0.000000
0.000000 0.000000 0.000000
0.000000 0.000000 0.000000
0.000000 0.000000 0.000000
0.000000 0.000000 0.000000
0.000000 0.000000 0.000000
0.000000 0.000000 0.000000
0.000000 0.000000 0.000000
0.000000 0.000000 0.000000
0.000000 0.044245 0.011923
0.000000 0.100796 0.171827
0.000000 0.155715 0.324009
0.021400 0.207761 0.466477
0.041694 0.255819 0.597368
0.056485 0.298894 0.714947
0.065286 0.336116 0.817605
0.067652 0.366735 0.903864
0.063176 0.390127 0.972373
0.051492 0.405788 1.000000
0.032274 0.413339 1.000000
0.005235 0.412522 1.000000
0.000000 0.403202 1.000000
0.000000 0.385369 1.000000
0.000000 0.359132 0.951162
0.000000 0.324725 0.868356
0.000000 0.282505 0.761604
0.000000 0.232952 0.630710
0.000000 0.176667 0.475605
0.000000 0.114375 0.296346
0.000000 0.046923 0.093121
0.000000 0.000000 0.000000
0.000000 0.000000 0.000000
0.000000 0.000000 0.000000
0.000000 0.000000 0.000000
0.000000 0.000000 0.000000
0.000000 0.000000 0.000000
0.000000 0.000000 0.000000
0.000000 0.000000 0.000000
0.000000 0.000000 0.000000
0.000000 0.000000 0.000000
0.000000 0.000000 0.000000
0.000000 0.000000 0.000000
0.000000 0.042421 0.095255
0.000000 0.096785 0.258945
0.027084 0.149395 0.414287
0.051108 0.198972 0.559234
0.069730 0.244358 0.691868
0.082388 0.284518 0.810396
0.088560 0.318538 0.913156
0.087763 0.345631 0.998614
0.079555 0.365128 1.000000
0.063532 0.376486 1.000000
0.039333 0.379283 1.000000
0.006635 0.373222 1.000000
0.000000 0.358126 1.000000
0.000000 0.333942 1.000000
0.000000 0.300740 1.000000
0.000000 0.258712 0.917545
0.000000 0.208175 0.799374
0.000000 0.149565 0.655604
0.000000 0.083443 0.486111
0.000000 0.010494 0.290897
0.000000 0.000000 0.070094
0.000000 0.000000 0.000000
0.000000 0.000000 0.000000
0.000000 0.000000 0.000000
0.000000 0.000000 0.000000
0.000000 0.000000 0.000000
0.000000 0.000000 0.000000
0.000000 0.000000 0.000000
0.000000 0.000000 0.000000
0.000000 0.000000 0.000000
0.000000 0.000000 0.000000
0.000000 0.000000 0.000000
0.000000 0.000000 0.018666
0.000223 0.021608 0.192592
0.032280 0.073329 0.359756
0.059810 0.123162 0.517927
0.082136 0.169785 0.665003
0.098618 0.211998 0.799009
0.108659 0.248725 0.918100
0.111700 0.279014 1.000000
0.107222 0.302032 1.000000
0.094747 0.317073 1.000000
0.073834 0.323550 1.000000
0.044086 0.321001 1.000000
0.005142 0.309087 1.000000
0.000000 0.287590 1.000000
0.000000 0.256417 1.000000
0.000000 0.215595 1.000000
0.000000 0.165277 0.974104
0.000000 0.105736 0.843924
0.000000 0.037368 0.686671
0.000000 0.000000 0.502163
0.000000 0.000000 0.290348
0.000000 0.000000 0.051304
0.000000 0.000000 0.000000
0.000000 0.000000 0.000000
0.000000 0.000000 0.000000
0.000000 0.000000 0.000000
0.000000 0.000000 0.000000
0.000000 0.000000 0.000000
0.000000 0.000000 0.000000
0.000000 0.000000 0.000000
0.000000 0.000000 0.000000
0.000000 0.000000 0.000000
0.000000 0.000000 0.000000
0.003074 0.000000 0.127490
0.037932 0.000000 0.305171
0.068633 0.027495 0.475482
0.094423 0.074069 0.636137
0.114586 0.117241 0.784978
0.128449 0.155770 0.919976
0.135376 0.188538 1.000000
0.134772 0.214552 1.000000
0.126083 0.232938 1.000000
0.108793 0.242948 1.000000
0.082427 0.243956 1.000000
0.046548 0.235457 1.000000
0.000762 0.217070 1.000000
0.000000 0.188538 1.000000
0.000000 0.149724 1.000000
0.000000 0.100617 1.000000
0.000000 0.041327 1.000000
0.000000 0.000000 0.896277
0.000000 0.000000 0.724917
0.000000 0.000000 0.524754
0.000000 0.000000 0.295680
0.000000 0.000000 0.037718
0.000000 0.000000 0.000000
0.000000 0.000000 0.000000
0.000000 0.000000 0.000000
0.000000 0.000000 0.000000
0.000000 0.000000 0.000000
0.000000 0.000000 0.000000
0.000000 0.000000 0.000000
0.000000 0.000000 0.000000
0.000000 0.000000 0.000000
0.000000 0.000000 0.000000
0.008004 0.000000 0.066543
0.045121 0.000000 0.253184
0.078547 0.000000 0.434297
0.107450 0.000000 0.607415
0.131040 0.000000 0.770195
0.148566 0.038268 0.920425
0.159316 0.072590 1.000000
0.162621 0.100861 1.000000
0.157847 0.122045 1.000000
0.144404 0.135230 1.000000
0.121740 0.139625 1.000000
0.089343 0.134563 1.000000
0.046742 0.119498 1.000000
0.000000 0.094008 1.000000
0.000000 0.057793 1.000000
0.000000 0.010678 1.000000
0.000000 0.000000 1.000000
0.000000 0.000000 1.000000
0.000000 0.000000 0.957520
0.000000 0.000000 0.771418
0.000000 0.000000 0.554947
0.000000 0.000000 0.307942
0.000000 0.000000 0.030370
0.000000 0.000000 0.000000
0.000000 0.000000 0.000000
0.000000 0.000000 0.000000
0.000000 0.000000 0.000000
