public/luts/fortia_50_cc.cube
# Generated from ColorChecker fit
LUT_3D_SIZE 9
DOMAIN_MIN 0.0 0.0 0.0
DOMAIN_MAX 1.0 1.0 1.0
0.000000 0.000000 0.000000
0.000000 0.000000 0.058982
0.000000 0.000000 0.217298
0.003335 0.070425 0.373287
0.134680 0.182547 0.515414
0.260800 0.258539 0.618306
0.312256 0.226283 0.642753
0.199020 0.000000 0.535710
0.000000 0.000000 0.230292
0.185208 0.150644 0.000000
0.106984 0.149319 0.012997
0.097461 0.186390 0.191013
0.149716 0.263763 0.367785
0.236240 0.359345 0.527128
0.308942 0.427042 0.639018
0.299142 0.396765 0.659595
0.117582 0.174424 0.531161
0.000000 0.000000 0.182184
0.252514 0.330390 0.000000
0.163221 0.303302 0.000000
0.128627 0.313836 0.149158
0.142575 0.365928 0.348855
0.178321 0.439512 0.523853
0.188537 0.490523 0.639477
0.105311 0.450901 0.647217
0.000000 0.228583 0.484726
0.000000 0.000000 0.075818
0.229137 0.465711 0.000000
0.142290 0.421352 0.000000
0.093034 0.410910 0.117659
0.075977 0.440347 0.342779
0.065140 0.491625 0.532227
0.013960 0.522710 0.646679
0.000000 0.467567 0.632973
0.000000 0.236164 0.424111
0.000000 0.000000 0.000000
0.177522 0.596190 0.000000
0.116790 0.548203 0.000000
0.073435 0.527493 0.122582
0.042829 0.542050 0.375980
0.000000 0.575865 0.579030
0.000000 0.588932 0.687759
0.000000 0.517244 0.644354
0.000000 0.272798 0.377167
0.000000 0.000000 0.000000
0.158955 0.753013 0.000000
0.158162 0.720190 0.000000
0.151427 0.705070 0.190138
0.134884 0.717673 0.475024
0.084086 0.744017 0.691186
0.000000 0.746124 0.789998
0.000000 0.662016 0.708998
0.000000 0.405718 0.371886
0.000000 0.000000 0.000000
0.233567 0.958970 0.000000
0.336694 0.965253 0.000000
0.407449 0.976733 0.346679
0.442735 1.000000 0.666621
0.418868 1.000000 0.895759
0.291581 1.000000 0.980817
0.000000 0.955571 0.854682
0.000000 0.693763 0.436404
0.000000 0.149451 0.000000
0.460334 1.000000 0.000000
0.721512 1.000000 0.187281
0.920785 1.000000 0.618699
1.000000 1.000000 0.977622
1.000000 1.000000 1.000000
1.000000 1.000000 1.000000
0.743391 1.000000 1.000000
0.186448 1.000000 0.598999
0.000000 0.645773 0.000000
0.897072 1.000000 0.000000
1.000000 1.000000 0.533324
1.000000 1.000000 1.000000
1.000000 1.000000 1.000000
1.000000 1.000000 1.000000
1.000000 1.000000 1.000000
1.000000 1.000000 1.000000
1.000000 1.000000 0.888091
0.589198 1.000000 0.000000
0.090673 0.000000 0.096030
0.012206 0.000000 0.152473
0.020088 0.022684 0.220210
0.111199 0.093823 0.306479
0.261835 0.177448 0.404678
0.427707 0.227472 0.494370
0.543943 0.173808 0.541280
0.525085 0.000000 0.497297
0.265091 0.000000 0.300472
0.293542 0.216603 0.082531
0.207913 0.195968 0.153957
0.198501 0.211394 0.242584
0.262951 0.266817 0.350997
0.378325 0.342178 0.467947
0.501097 0.393416 0.568343
0.567161 0.352474 0.613261
0.491825 0.127294 0.549939
0.169810 0.000000 0.311777
0.349304 0.362741 0.035053
0.260454 0.322290 0.128913
0.234583 0.318361 0.242178
0.270100 0.356918 0.372784
0.344832 0.419930 0.504827
0.416019 0.465365 0.608569
0.420320 0.427193 0.640434
0.273806 0.215387 0.543009
0.000000 0.000000 0.245046
0.318569 0.466617 0.000000
0.240593 0.416216 0.099311
0.209250 0.399864 0.241321
0.223716 0.425554 0.394520
0.262582 0.477282 0.538358
0.283854 0.515046 0.638444
0.224953 0.474844 0.646552
0.002719 0.268676 0.500618
0.000000 0.000000 0.124742
0.260786 0.565813 0.000000
0.217934 0.520478 0.087264
0.202263 0.503785 0.262479
0.213715 0.525757 0.439033
0.231645 0.572417 0.591723
0.214825 0.605792 0.681507
0.101441 0.563907 0.655510
0.000000 0.360792 0.447016
0.000000 0.000000 0.000000
0.234251 0.689518 0.000000
0.260927 0.669414 0.115026
0.292226 0.669612 0.328266
0.328856 0.702164 0.529291
0.350935 0.755121 0.688246
0.318001 0.792537 0.761440
0.169005 0.754468 0.691346
0.000000 0.556971 0.406599
0.000000 0.092101 0.000000
0.296101 0.858522 0.000000
0.436864 0.888964 0.204996
0.556586 0.928435 0.461436
0.656738 0.991015 0.688404
0.718206 1.000000 0.851394
0.701291 1.000000 0.902066
0.545711 1.000000 0.778241
0.170597 0.914051 0.403903
0.000000 0.463410 0.000000
0.502318 1.000000 0.049428
0.811882 1.000000 0.379713
1.000000 1.000000 0.684885
1.000000 1.000000 0.939626
1.000000 1.000000 1.000000
1.000000 1.000000 1.000000
1.000000 1.000000 0.940518
0.981003 1.000000 0.463609
0.268374 1.000000 0.000000
0.907728 1.000000 0.256945
1.000000 1.000000 0.661862
1.000000 1.000000 1.000000
1.000000 1.000000 1.000000
1.000000 1.000000 1.000000
1.000000 1.000000 1.000000
1.000000 1.000000 1.000000
1.000000 1.000000 0.610539
1.000000 1.000000 0.000000
0.176978 0.049319 0.230722
0.082642 0.038712 0.197995
0.076233 0.053697 0.193797
0.159202 0.098216 0.230296
0.312412 0.152212 0.305828
0.496144 0.171630 0.404890
0.650094 0.088416 0.498141
0.693375 0.000000 0.542405
0.524512 0.000000 0.480668
0.359428 0.252319 0.246657
0.261371 0.218607 0.227254
0.241872 0.215115 0.242457
0.303146 0.247812 0.299787
0.426822 0.298672 0.392926
0.573947 0.325667 0.501721
0.684980 0.262771 0.592182
0.679800 0.019959 0.616481
0.457697 0.000000 0.512954
0.400424 0.369826 0.227594
0.303165 0.319098 0.226872
0.271990 0.300285 0.263131
0.309877 0.321384 0.339242
0.399221 0.366396 0.444237
0.501833 0.395323 0.553312
0.558938 0.344166 0.627827
0.491179 0.124931 0.615302
0.198612 0.000000 0.449424
0.357579 0.445820 0.191550
0.275795 0.389316 0.215220
0.244513 0.363487 0.274546
0.267475 0.378360 0.367747
0.327842 0.419963 0.479203
0.388190 0.450327 0.579462
0.390510 0.407482 0.625231
0.256208 0.205460 0.559380
0.000000 0.000000 0.310946
0.287352 0.515887 0.156681
0.245873 0.469994 0.210814
0.236206 0.450605 0.295574
0.262861 0.469773 0.404528
0.309762 0.515556 0.517409
0.340250 0.552012 0.600111
0.297081 0.519199 0.604691
0.102427 0.333179 0.469370
0.000000 0.000000 0.118532
0.245046 0.607214 0.141288
0.278855 0.593472 0.232310
0.322682 0.599127 0.345228
0.381800 0.638262 0.468957
0.440900 0.700963 0.578581
0.464087 0.753315 0.635341
0.394882 0.737406 0.586647
0.156222 0.571325 0.366066
0.000000 0.149163 0.000000
0.284804 0.738594 0.163814
0.439042 0.783691 0.298509
0.578394 0.838145 0.442664
0.708902 0.918068 0.580547
0.816020 1.000000 0.682588
0.864618 1.000000 0.705380
0.798984 1.000000 0.591681
0.542817 0.974738 0.270409
0.000000 0.583733 0.000000
0.459617 0.920424 0.242846
0.789575 1.000000 0.428351
1.000000 1.000000 0.607181
1.000000 1.000000 0.758951
1.000000 1.000000 0.849442
1.000000 1.000000 0.830596
1.000000 1.000000 0.640519
1.000000 1.000000 0.203480
0.838435 1.000000 0.000000
0.821314 1.000000 0.397110
1.000000 1.000000 0.640923
1.000000 1.000000 0.858220
1.000000 1.000000 1.000000
1.000000 1.000000 1.000000
1.000000 1.000000 1.000000
1.000000 1.000000 0.754029
1.000000 1.000000 0.186503
1.000000 1.000000 0.000000
0.281585 0.111210 0.303601
0.177860 0.099121 0.209487
0.158468 0.102046 0.162441
0.229426 0.125958 0.179570
0.376168 0.152835 0.264142
0.563544 0.140652 0.405589
0.735819 0.023389 0.579506
0.816673 0.000000 0.747651
0.709203 0.000000 0.857945
0.446944 0.292376 0.335272
0.339111 0.255462 0.250145
0.307003 0.239423 0.218337
0.357405 0.252262 0.252303
0.476515 0.277983 0.350662
0.629948 0.276591 0.498195
0.762733 0.184094 0.665846
0.799317 0.000000 0.810723
0.643560 0.000000 0.876096
0.474973 0.389386 0.332929
0.368131 0.335109 0.260050
0.325303 0.304636 0.243039
0.354036 0.307996 0.289700
0.441295 0.331223 0.394000
0.553460 0.336351 0.536070
0.636324 0.261415 0.682204
0.615099 0.020452 0.784860
0.394411 0.000000 0.782655
0.420293 0.444221 0.310989
0.329698 0.385194 0.253977
0.288298 0.349964 0.251678
0.304406 0.350592 0.307246
0.365750 0.375137 0.409998
0.439475 0.387663 0.535414
0.472141 0.328233 0.645138
0.389723 0.112911 0.686974
0.097615 0.000000 0.594893
0.336370 0.490468 0.284013
0.287432 0.444451 0.246842
0.269764 0.419294 0.259528
0.292442 0.429083 0.320573
0.343961 0.463908 0.414644
0.392231 0.489860 0.512570
0.384576 0.449030 0.571345
0.247738 0.259512 0.534122
0.000000 0.000000 0.330222
0.275512 0.553315 0.266702
0.303797 0.543221 0.253704
0.342318 0.548114 0.282003
0.400918 0.584110 0.345451
0.468858 0.643326 0.424065
0.514811 0.693881 0.484023
0.486867 0.679896 0.477667
0.312533 0.521491 0.343502
0.000000 0.114791 0.006197
0.288873 0.649557 0.273902
0.440098 0.703447 0.289764
0.577421 0.763518 0.334661
0.711450 0.847914 0.397796
0.832210 0.950782 0.454533
0.909139 1.000000 0.466401
0.891093 1.000000 0.381090
0.706343 0.951691 0.132455
0.262576 0.589929 0.000000
0.426448 0.787592 0.320600
0.756487 0.938676 0.370366
1.000000 1.000000 0.433204
1.000000 1.000000 0.493664
1.000000 1.000000 0.522462
1.000000 1.000000 0.476473
1.000000 1.000000 0.298740
1.000000 1.000000 0.000000
1.000000 1.000000 0.000000
0.737075 0.967421 0.421926
1.000000 1.000000 0.510998
1.000000 1.000000 0.593475
1.000000 1.000000 0.649257
1.000000 1.000000 0.644407
1.000000 1.000000 0.531154
1.000000 1.000000 0.247886
1.000000 1.000000 0.000000
1.000000 1.000000 0.000000
0.422726 0.174733 0.321578
0.323769 0.177828 0.204303
0.300375 0.181852 0.153947
0.363131 0.194814 0.192550
0.502039 0.200722 0.328315
0.686519 0.159586 0.555610
0.865405 0.007417 0.854964
0.966945 0.000000 1.000000
0.898806 0.000000 1.000000
0.579345 0.346769 0.358605
0.472064 0.320170 0.243303
0.432502 0.301597 0.201343
0.472012 0.301085 0.250115
0.581362 0.304671 0.393171
0.730735 0.274393 0.620227
0.869731 0.148291 0.907163
0.927363 0.000000 1.000000
0.812063 0.000000 1.000000
0.601230 0.434573 0.364604
0.491306 0.387117 0.252442
0.438152 0.351848 0.216343
0.453884 0.340831 0.269044
0.530037 0.342130 0.409449
0.637558 0.319812 0.622623
0.726812 0.213944 0.879795
0.727578 0.000000 1.000000
0.549053 0.000000 1.000000
0.540013 0.478128 0.350394
0.443281 0.423800 0.242895
0.389262 0.382887 0.210477
0.390839 0.369483 0.261226
0.440311 0.373680 0.389397
0.509389 0.361573 0.575402
0.549205 0.275259 0.785820
0.490301 0.032834 0.973393
0.242640 0.000000 1.000000
0.446164 0.509021 0.326936
0.388614 0.466956 0.225980
0.356615 0.436601 0.195420
0.363814 0.434077 0.238693
0.403275 0.451507 0.345400
0.447475 0.457012 0.491306
0.448309 0.394719 0.638338
0.337087 0.184751 0.734587
0.024535 0.000000 0.714305
0.369001 0.550444 0.305336
0.386777 0.544925 0.213159
0.409836 0.546479 0.182990
0.452588 0.573254 0.213618
0.508863 0.619401 0.289991
0.551903 0.655069 0.383224
0.534369 0.626413 0.450594
0.388334 0.455587 0.435540
0.025289 0.040745 0.267665
0.356682 0.617190 0.296839
0.496084 0.677653 0.216034
0.617393 0.737617 0.185147
0.735785 0.817258 0.198317
0.845853 0.912755 0.235842
0.921607 0.996287 0.264185
0.916470 1.000000 0.235973
0.763282 0.896184 0.089994
0.374299 0.536915 0.000000
0.456210 0.715660 0.312835
0.773692 0.876689 0.246351
1.000000 1.000000 0.213994
1.000000 1.000000 0.205250
1.000000 1.000000 0.195768
1.000000 1.000000 0.147361
1.000000 1.000000 0.008004
1.000000 1.000000 0.000000
1.000000 1.000000 0.000000
0.713432 0.843856 0.364856
1.000000 1.000000 0.316000
1.000000 1.000000 0.281775
1.000000 1.000000 0.247019
1.000000 1.000000 0.182729
1.000000 1.000000 0.046067
1.000000 1.000000 0.000000
1.000000 1.000000 0.000000
1.000000 1.000000 0.000000
0.577811 0.222132 0.294980
0.505454 0.260717 0.203218
0.494716 0.282644 0.199534
0.560754 0.297954 0.310902
0.698139 0.292688 0.550461
0.880859 0.228887 0.917514
1.000000 0.044597 1.000000
1.000000 0.000000 1.000000
1.000000 0.000000 1.000000
0.739063 0.400897 0.330303
0.650339 0.401774 0.230824
0.616154 0.394322 0.226018
0.652429 0.390610 0.338209
0.754501 0.378708 0.575885
0.897124 0.322686 0.933696
1.000000 0.162616 1.000000
1.000000 0.000000 1.000000
1.000000 0.000000 1.000000
0.766654 0.493944 0.339586
0.667824 0.467320 0.231462
0.613346 0.437765 0.220902
0.619906 0.419373 0.325582
0.683607 0.402243 0.549339
0.779966 0.352474 0.882172
0.863916 0.212165 1.000000
0.869807 0.000000 1.000000
0.711402 0.000000 1.000000
0.709220 0.539255 0.330049
0.616699 0.500490 0.212707
0.555237 0.461256 0.192120
0.542285 0.437676 0.281313
0.574711 0.421876 0.479470
0.628796 0.381984 0.771943
0.660240 0.262128 1.000000
0.604155 0.000000 1.000000
0.375072 0.000000 1.000000
0.614240 0.566419 0.309056
0.554599 0.536022 0.182281
0.509617 0.504683 0.147750
0.497510 0.490555 0.213834
0.515911 0.487793 0.375070
0.541867 0.466553 0.612157
0.531841 0.372990 0.891957
0.421713 0.129265 1.000000
0.126776 0.000000 1.000000
0.528039 0.596629 0.284113
0.538002 0.600256 0.148047
0.543117 0.599537 0.096009
0.562367 0.614652 0.131721
0.594148 0.641786 0.245070
0.616273 0.653120 0.412102
0.585970 0.596842 0.595031
0.439884 0.397137 0.742229
0.094073 0.000000 0.788236
0.495782 0.642680 0.262868
0.622228 0.711139 0.118008
0.721214 0.768913 0.045259
0.812486 0.838213 0.043693
0.895207 0.917248 0.098544
0.947955 0.980232 0.181211
0.928722 0.977378 0.249253
0.774918 0.834900 0.246395
0.403367 0.455016 0.102524
0.561480 0.708972 0.253114
0.861442 0.878221 0.100315
1.000000 1.000000 0.004007
1.000000 1.000000 0.000000
1.000000 1.000000 0.000000
1.000000 1.000000 0.000000
1.000000 1.000000 0.000000
1.000000 1.000000 0.000000
1.000000 1.000000 0.000000
0.767985 0.791512 0.262783
1.000000 1.000000 0.103256
1.000000 1.000000 0.000000
1.000000 1.000000 0.000000
1.000000 1.000000 0.000000
1.000000 1.000000 0.000000
1.000000 1.000000 0.000000
1.000000 1.000000 0.000000
1.000000 1.000000 0.000000
0.683427 0.211059 0.237553
0.667178 0.309083 0.230425
0.693431 0.369358 0.333842
0.781912 0.403956 0.579714
0.931760 0.400952 0.986114
1.000000 0.324419 1.000000
1.000000 0.114435 1.000000
1.000000 0.000000 1.000000
1.000000 0.000000 1.000000
0.867711 0.415571 0.267433
0.823224 0.464724 0.240220
0.814922 0.485691 0.330319
0.863295 0.492573 0.564991
0.968248 0.475471 0.957657
1.000000 0.400489 1.000000
1.000000 0.209731 1.000000
1.000000 0.000000 1.000000
1.000000 0.000000 1.000000
0.917878 0.531465 0.278261
0.851995 0.543329 0.227940
0.812872 0.533636 0.297996
0.821766 0.518516 0.511038
0.879346 0.490099 0.875839
0.965699 0.416515 1.000000
1.000000 0.241898 1.000000
1.000000 0.000000 1.000000
0.889502 0.000000 1.000000
0.879573 0.594725 0.273660
0.809288 0.586032 0.197564
0.753234 0.559478 0.241208
0.733430 0.533220 0.422549
0.751313 0.501418 0.745711
0.787735 0.434230 1.000000
0.802961 0.277818 1.000000
0.736676 0.000000 1.000000
0.507978 0.000000 1.000000
0.797281 0.632942 0.257396
0.749746 0.625572 0.153215
0.700803 0.601104 0.164433
0.673240 0.579724 0.304359
0.669256 0.557617 0.572463
0.670469 0.506972 0.954379
0.637911 0.375979 1.000000
0.512030 0.088829 1.000000
0.212688 0.000000 1.000000
0.714334 0.665308 0.233377
0.726852 0.686293 0.099157
0.719220 0.688008 0.072294
0.714988 0.692668 0.161445
0.717123 0.698488 0.361431
0.708007 0.679683 0.653234
0.649436 0.586473 1.000000
0.482624 0.345075 1.000000
0.128198 0.000000 1.000000
0.672905 0.702620 0.205654
0.792935 0.784140 0.039797
0.870966 0.841286 0.000000
0.931313 0.898300 0.000000
0.977706 0.955426 0.118090
0.993294 0.988909 0.303373
0.940637 0.950994 0.517273
0.761714 0.769929 0.708447
0.377918 0.349964 0.811719
0.714010 0.747281 0.178419
0.999167 0.926666 0.000000
1.000000 1.000000 0.000000
1.000000 1.000000 0.000000
1.000000 1.000000 0.000000
1.000000 1.000000 0.000000
1.000000 1.000000 0.000000
1.000000 1.000000 0.000000
1.000000 1.000000 0.000000
0.877511 0.793296 0.156008
1.000000 1.000000 0.000000
1.000000 1.000000 0.000000
1.000000 1.000000 0.000000
1.000000 1.000000 0.000000
1.000000 1.000000 0.000000
1.000000 1.000000 0.000000
1.000000 1.000000 0.000000
1.000000 1.000000 0.000000
0.635340 0.074573 0.166462
0.712384 0.259627 0.313535
0.807638 0.382337 0.594929
0.945397 0.456807 1.000000
1.000000 0.473143 1.000000
1.000000 0.397453 1.000000
1.000000 0.171844 1.000000
1.000000 0.000000 1.000000
1.000000 0.000000 1.000000
0.866077 0.327006 0.190477
0.899185 0.448880 0.302420
0.944949 0.519206 0.555624
1.000000 0.554117 0.982284
1.000000 0.545747 1.000000
1.000000 0.462232 1.000000
1.000000 0.247709 1.000000
1.000000 0.000000 1.000000
1.000000 0.000000 1.000000
0.960717 0.486510 0.204431
0.957310 0.558159 0.276126
0.957897 0.586122 0.492320
0.988304 0.588561 0.880556
1.000000 0.559639 1.000000
1.000000 0.469520 1.000000
1.000000 0.264370 1.000000
1.000000 0.000000 1.000000
1.000000 0.000000 1.000000
0.961909 0.587070 0.208349
0.939562 0.626598 0.235035
0.909443 0.627369 0.405754
0.898140 0.609575 0.743399
0.911659 0.569406 1.000000
0.935422 0.479054 1.000000
0.934263 0.286714 1.000000
0.852434 0.000000 1.000000
0.613605 0.000000 1.000000
0.911148 0.654277 0.202399
0.897591 0.684938 0.179670
0.861388 0.678838 0.296807
0.829894 0.658198 0.572051
0.809877 0.621235 1.000000
0.787524 0.542171 1.000000
0.728437 0.371227 1.000000
0.577631 0.034628 1.000000
0.259541 0.000000 1.000000
0.848770 0.705326 0.186891
0.881889 0.755523 0.110698
0.874381 0.768024 0.166501
0.854366 0.767073 0.367891
0.829379 0.752921 0.714622
0.786370 0.701814 1.000000
0.691706 0.566004 1.000000
0.491169 0.273743 1.000000
0.109957 0.000000 1.000000
0.813958 0.749014 0.162276
0.941791 0.852302 0.028928
1.000000 0.914022 0.016003
1.000000 0.960450 0.132441
1.000000 0.993860 0.373346
1.000000 0.992531 0.719987
0.924179 0.910741 1.000000
0.703311 0.678770 1.000000
0.285270 0.202901 1.000000
0.844734 0.785745 0.129150
1.000000 0.980827 0.000000
1.000000 1.000000 0.000000
1.000000 1.000000 0.000000
1.000000 1.000000 0.000000
1.000000 1.000000 0.185147
1.000000 1.000000 0.421580
1.000000 1.000000 0.646243
0.904742 0.897050 0.794244
0.977966 0.807526 0.088251
1.000000 1.000000 0.000000
1.000000 1.000000 0.000000
1.000000 1.000000 0.000000
1.000000 1.000000 0.000000
1.000000 1.000000 0.000000
1.000000 1.000000 0.000000
1.000000 1.000000 0.000000
1.000000 1.000000 0.000000
0.288493 0.000000 0.102291
0.503691 0.024461 0.483578
0.707634 0.237335 1.000000
0.929184 0.375902 1.000000
1.000000 0.432299 1.000000
1.000000 0.374666 1.000000
1.000000 0.147146 1.000000
1.000000 0.000000 1.000000
1.000000 0.000000 1.000000
0.594130 0.046828 0.123339
0.745866 0.269510 0.451775
0.881554 0.413777 0.946730
1.000000 0.497794 1.000000
1.000000 0.515728 1.000000
1.000000 0.437749 1.000000
1.000000 0.210025 1.000000
1.000000 0.000000 1.000000
1.000000 0.000000 1.000000
0.760161 0.273862 0.145319
0.856435 0.430233 0.413691
0.928764 0.517287 0.851991
1.000000 0.555216 1.000000
1.000000 0.540216 1.000000
1.000000 0.444484 1.000000
1.000000 0.216217 1.000000
1.000000 0.000000 1.000000
1.000000 0.000000 1.000000
0.826244 0.434229 0.164658
0.885211 0.543768 0.366109
0.909230 0.590153 0.737195
0.929458 0.595605 1.000000
0.956469 0.558347 1.000000
0.980253 0.452606 1.000000
0.970216 0.228607 1.000000
0.875177 0.000000 1.000000
0.623375 0.000000 1.000000
0.830879 0.551522 0.177925
0.880851 0.638856 0.305955
0.881763 0.666266 0.599624
0.865538 0.658001 1.000000
0.843516 0.614313 1.000000
0.806451 0.511456 1.000000
0.724514 0.301685 1.000000
0.547290 0.000000 1.000000
0.203781 0.000000 1.000000
0.811411 0.640936 0.181833
0.890852 0.735843 0.230297
0.904016 0.771121 0.436704
0.883591 0.773049 0.819578
0.841681 0.743907 1.000000
0.769806 0.661978 1.000000
0.638901 0.481544 1.000000
0.399317 0.132889 1.000000
0.000000 0.000000 1.000000
0.804028 0.709272 0.173234
0.961558 0.846677 0.136347
1.000000 0.921817 0.246001
1.000000 0.962998 0.516072
1.000000 0.974529 0.946599
0.957277 0.936720 1.000000
0.810491 0.805883 1.000000
0.538528 0.514329 1.000000
0.071919 0.000000 1.000000
0.843761 0.754932 0.149127
1.000000 0.974913 0.021457
1.000000 1.000000 0.025226
1.000000 1.000000 0.169658
1.000000 1.000000 0.450142
1.000000 1.000000 0.848229
1.000000 1.000000 1.000000
1.000000 1.000000 1.000000
0.593343 0.634247 1.000000
0.964485 0.767926 0.106650
1.000000 1.000000 0.000000
1.000000 1.000000 0.000000
1.000000 1.000000 0.000000
1.000000 1.000000 0.000000
1.000000 1.000000 0.091910
1.000000 1.000000 0.338925
1.000000 1.000000 0.583078
1.000000 1.000000 0.759758
