public/luts/fortia_50_cc.cube
# Generated from ColorChecker fit
LUT_3D_SIZE 5
DOMAIN_MIN 0.0 0.0 0.0
DOMAIN_MAX 1.0 1.0 1.0
0.000000 0.000000 0.000000
0.000000 0.000000 0.217298
0.134680 0.182547 0.515414
0.312256 0.226283 0.642753
0.000000 0.000000 0.230292
0.252514 0.330390 0.000000
0.128627 0.313836 0.149158
0.178321 0.439512 0.523853
0.105311 0.450901 0.647217
0.000000 0.000000 0.075818
0.177522 0.596190 0.000000
0.073435 0.527493 0.122582
0.000000 0.575865 0.579030
0.000000 0.517244 0.644354
0.000000 0.000000 0.000000
0.233567 0.958970 0.000000
0.407449 0.976733 0.346679
0.418868 1.000000 0.895759
0.000000 0.955571 0.854682
0.000000 0.149451 0.000000
0.897072 1.000000 0.000000
1.000000 1.000000 1.000000
1.000000 1.000000 1.000000
1.000000 1.000000 1.000000
0.589198 1.000000 0.000000
0.176978 0.049319 0.230722
0.076233 0.053697 0.193797
0.312412 0.152212 0.305828
0.650094 0.088416 0.498141
0.524512 0.000000 0.480668
0.400424 0.369826 0.227594
0.271990 0.300285 0.263131
0.399221 0.366396 0.444237
0.558938 0.344166 0.627827
0.198612 0.000000 0.449424
0.287352 0.515887 0.156681
0.236206 0.450605 0.295574
0.309762 0.515556 0.517409
0.297081 0.519199 0.604691
0.000000 0.000000 0.118532
0.284804 0.738594 0.163814
0.578394 0.838145 0.442664
0.816020 1.000000 0.682588
0.798984 1.000000 0.591681
0.000000 0.583733 0.000000
0.821314 1.000000 0.397110
1.000000 1.000000 0.858220
1.000000 1.000000 1.000000
1.000000 1.000000 0.754029
1.000000 1.000000 0.000000
0.422726 0.174733 0.321578
0.300375 0.181852 0.153947
0.502039 0.200722 0.328315
0.865405 0.007417 0.854964
0.898806 0.000000 1.000000
0.601230 0.434573 0.364604
0.438152 0.351848 0.216343
0.530037 0.342130 0.409449
0.726812 0.213944 0.879795
0.549053 0.000000 1.000000
0.446164 0.509021 0.326936
0.356615 0.436601 0.195420
0.403275 0.451507 0.345400
0.448309 0.394719 0.638338
0.024535 0.000000 0.714305
0.356682 0.617190 0.296839
0.617393 0.737617 0.185147
0.845853 0.912755 0.235842
0.916470 1.000000 0.235973
0.374299 0.536915 0.000000
0.713432 0.843856 0.364856
1.000000 1.000000 0.281775
1.000000 1.000000 0.182729
1.000000 1.000000 0.000000
1.000000 1.000000 0.000000
0.683427 0.211059 0.237553
0.693431 0.369358 0.333842
0.931760 0.400952 0.986114
1.000000 0.114435 1.000000
1.000000 0.000000 1.000000
0.917878 0.531465 0.278261
0.812872 0.533636 0.297996
0.879346 0.490099 0.875839
1.000000 0.241898 1.000000
0.889502 0.000000 1.000000
0.797281 0.632942 0.257396
0.700803 0.601104 0.164433
0.669256 0.557617 0.572463
0.637911 0.375979 1.000000
0.212688 0.000000 1.000000
0.672905 0.702620 0.205654
0.870966 0.841286 0.000000
0.977706 0.955426 0.118090
0.940637 0.950994 0.517273
0.377918 0.349964 0.811719
0.877511 0.793296 0.156008
1.000000 1.000000 0.000000
1.000000 1.000000 0.000000
1.000000 1.000000 0.000000
1.000000 1.000000 0.000000
0.288493 0.000000 0.102291
0.707634 0.237335 1.000000
1.000000 0.432299 1.000000
1.000000 0.147146 1.000000
1.000000 0.000000 1.000000
0.760161 0.273862 0.145319
0.928764 0.517287 0.851991
1.000000 0.540216 1.000000
1.000000 0.216217 1.000000
1.000000 0.000000 1.000000
0.830879 0.551522 0.177925
0.881763 0.666266 0.599624
0.843516 0.614313 1.000000
0.724514 0.301685 1.000000
0.203781 0.000000 1.000000
0.804028 0.709272 0.173234
1.000000 0.921817 0.246001
1.000000 0.974529 0.946599
0.810491 0.805883 1.000000
0.071919 0.000000 1.000000
0.964485 0.767926 0.106650
1.000000 1.000000 0.000000
1.000000 1.000000 0.000000
1.000000 1.000000 0.338925
1.000000 1.000000 0.759758
