public/luts/fortia_50_cc.cube
# Generated from ColorChecker fit
LUT_3D_SIZE 33
DOMAIN_MIN 0.0 0.0 0.0
DOMAIN_MAX 1.0 1.0 1.0
0.000000 0.000000 0.000000
0.000000 0.000000 0.000000
0.000000 0.000000 0.000000
0.000000 0.000000 0.019073
0.000000 0.000000 0.058982
0.000000 0.000000 0.098668
0.000000 0.000000 0.138250
0.000000 0.000000 0.177790
0.000000 0.000000 0.217298
0.000000 0.000000 0.256728
0.000000 0.016791 0.295980
0.000000 0.042916 0.334902
0.003335 0.070425 0.373287
0.033637 0.098801 0.410873
0.066124 0.127432 0.447345
0.100073 0.155614 0.482333
0.134680 0.182547 0.515414
0.169060 0.207339 0.546110
0.202251 0.229004 0.573891
0.233206 0.246462 0.598169
0.260800 0.258539 0.618306
0.283829 0.263968 0.633607
0.301005 0.261387 0.643326
0.310963 0.249342 0.646660
0.312256 0.226283 0.642753
0.303356 0.190569 0.630696
0.282655 0.140463 0.609524
0.248466 0.074135 0.578219
0.199020 0.000000 0.535710
0.132467 0.000000 0.480870
0.046880 0.000000 0.412518
0.000000 0.000000 0.329422
0.000000 0.000000 0.230292
0.037001 0.000000 0.000000
0.013340 0.000000 0.000000
0.000000 0.000000 0.000000
0.000000 0.000000 0.010111
0.000000 0.000000 0.050886
0.000000 0.000000 0.091550
0.000000 0.002152 0.132203
0.000000 0.017847 0.172889
0.000000 0.036132 0.213599
0.000000 0.056875 0.254269
0.012241 0.079846 0.294784
0.034246 0.104723 0.334970
0.059511 0.131092 0.374603
0.087475 0.158441 0.413402
0.117499 0.186167 0.451036
0.148862 0.213574 0.487115
0.180764 0.239871 0.521199
0.212324 0.264173 0.552792
0.242581 0.285502 0.581343
0.270492 0.302786 0.606250
0.294935 0.314858 0.626853
0.314708 0.320460 0.642443
0.328528 0.318238 0.652251
0.335031 0.306745 0.655459
0.332773 0.284440 0.651193
0.320231 0.249689 0.638524
0.295798 0.200764 0.616470
0.257791 0.135842 0.583995
0.204444 0.053007 0.540009
0.133910 0.000000 0.483368
0.044264 0.000000 0.412872
0.000000 0.000000 0.327271
0.000000 0.000000 0.225256
0.097718 0.029447 0.000000
0.073406 0.030148 0.000000
0.053351 0.032296 0.000000
0.037801 0.036325 0.000000
0.026924 0.042579 0.040258
0.020805 0.051305 0.082009
0.019452 0.062658 0.123827
0.022791 0.076699 0.165738
0.030667 0.093394 0.207716
0.042845 0.112618 0.249679
0.059010 0.134149 0.291491
0.078767 0.157673 0.332963
0.101640 0.182783 0.373852
0.127072 0.208977 0.413859
0.154427 0.235659 0.452633
0.182987 0.262141 0.489768
0.211954 0.287639 0.524804
0.240451 0.311276 0.557228
0.267519 0.332083 0.586471
0.292119 0.348995 0.611912
0.313133 0.360854 0.632875
0.329359 0.366409 0.648629
0.339519 0.364314 0.658391
0.342252 0.353130 0.661322
0.336117 0.331325 0.656530
0.319592 0.297271 0.643069
0.291077 0.249249 0.619938
0.248888 0.185444 0.586084
0.191263 0.103948 0.540398
0.116360 0.002760 0.481716
0.022254 0.000000 0.408824
0.000000 0.000000 0.320450
0.000000 0.000000 0.215269
0.146784 0.093329 0.000000
0.121812 0.092192 0.000000
0.100911 0.092507 0.000000
0.084334 0.094715 0.000000
0.072249 0.099168 0.027496
0.064747 0.106121 0.070443
0.061838 0.115737 0.113522
0.063449 0.128084 0.156740
0.069431 0.143138 0.200053
0.079550 0.160780 0.243360
0.093496 0.180797 0.286509
0.110874 0.202883 0.329290
0.131213 0.226638 0.371443
0.153959 0.251569 0.412652
0.178478 0.277087 0.452546
0.204056 0.302511 0.490702
0.229898 0.327068 0.526642
0.255129 0.349886 0.559834
0.278794 0.370006 0.589692
0.299856 0.386369 0.615575
0.317201 0.397826 0.636790
0.329630 0.403134 0.652588
0.335866 0.400955 0.662167
0.334553 0.389858 0.664671
0.324253 0.368317 0.659189
0.303446 0.334715 0.644757
0.270535 0.287339 0.620356
0.223841 0.224381 0.584914
0.161602 0.143944 0.537305
0.081981 0.044033 0.476347
0.000000 0.000000 0.400806
0.000000 0.000000 0.309393
0.000000 0.000000 0.200766
0.185208 0.150644 0.000000
0.159606 0.147720 0.000000
0.137879 0.146239 0.000000
0.120281 0.146653 0.000000
0.106984 0.149319 0.012997
0.098081 0.154503 0.057252
0.093585 0.162374 0.101689
0.093428 0.173009 0.146297
0.097461 0.186390 0.191013
0.105456 0.202408 0.235718
0.117103 0.220858 0.280242
0.132013 0.241440 0.324357
0.149716 0.263763 0.367785
0.169661 0.287342 0.410191
0.191218 0.311596 0.451188
0.213675 0.335853 0.490332
0.236240 0.359345 0.527128
0.258043 0.381211 0.561026
0.278129 0.400497 0.591421
0.295466 0.416155 0.617656
0.308942 0.427042 0.639018
0.317361 0.431923 0.654740
0.319451 0.429468 0.664002
0.313856 0.418255 0.665930
0.299142 0.396765 0.659595
0.273794 0.363388 0.644014
0.236215 0.316420 0.618151
0.184730 0.254063 0.580915
0.117582 0.174424 0.531161
0.032934 0.075517 0.467691
0.000000 0.000000 0.389252
0.000000 0.000000 0.294537
0.000000 0.000000 0.182184
0.213994 0.202226 0.000000
0.187834 0.197583 0.000000
0.165339 0.194364 0.000000
0.146766 0.193030 0.000000
0.132291 0.193945 0.000000
0.122010 0.197383 0.042835
0.115938 0.203521 0.088728
0.114010 0.212444 0.134810
0.116080 0.224143 0.180998
0.121924 0.238515 0.227157
0.131235 0.255362 0.273097
0.143625 0.274396 0.318573
0.158629 0.295231 0.363287
0.175699 0.317390 0.406888
0.194206 0.340301 0.448969
0.213443 0.363298 0.489070
0.232621 0.385623 0.526676
0.250871 0.406423 0.561220
0.267243 0.424751 0.592078
0.280707 0.439566 0.618575
0.290154 0.449735 0.639979
0.294392 0.454029 0.655507
0.292151 0.451128 0.664319
0.282078 0.439615 0.665524
0.262743 0.417982 0.658174
0.232632 0.384625 0.641268
0.190153 0.337849 0.613752
0.133632 0.275862 0.574517
0.061317 0.196782 0.522400
0.000000 0.098629 0.456183
0.000000 0.000000 0.374597
0.000000 0.000000 0.276316
0.000000 0.000000 0.159961
0.234144 0.248872 0.000000
0.207536 0.242600 0.000000
0.184372 0.237722 0.000000
0.164910 0.234706 0.000000
0.149331 0.233926 0.000000
0.137733 0.235661 0.027592
0.130134 0.240099 0.075042
0.126473 0.247330 0.122683
0.126606 0.257356 0.170415
0.130312 0.270079 0.218083
0.137287 0.285312 0.265481
0.147148 0.302771 0.312345
0.159430 0.322082 0.358360
0.173588 0.342773 0.403154
0.188999 0.364281 0.446304
0.204956 0.385948 0.487331
0.220675 0.407024 0.525703
0.235288 0.426664 0.560833
0.247850 0.443927 0.592080
0.257334 0.457784 0.618750
0.262632 0.467106 0.640095
0.262557 0.470674 0.655312
0.255840 0.467175 0.663543
0.241133 0.455200 0.663878
0.217007 0.433249 0.655352
0.181952 0.399728 0.636947
0.134380 0.352946 0.607588
0.072619 0.291122 0.566150
0.000000 0.212380 0.511451
0.000000 0.114750 0.442256
0.000000 0.000000 0.357276
0.000000 0.000000 0.255167
0.000000 0.000000 0.134533
0.246654 0.291349 0.000000
0.219748 0.283557 0.000000
0.196051 0.277118 0.000000
0.175827 0.272507 0.000000
0.159257 0.270106 0.000000
0.146444 0.270204 0.011924
0.137408 0.272993 0.061031
0.132090 0.278574 0.110318
0.130352 0.286955 0.159666
0.131974 0.298048 0.208903
0.136654 0.311672 0.257802
0.144013 0.327553 0.306083
0.153589 0.345322 0.353412
0.164841 0.364518 0.399400
0.177147 0.384584 0.443604
0.189806 0.404871 0.485529
0.202033 0.424635 0.524623
0.212966 0.443041 0.560281
0.221662 0.459156 0.591846
0.227096 0.471956 0.618603
0.228165 0.480323 0.639787
0.223683 0.483046 0.654577
0.212385 0.478818 0.662096
0.192927 0.466239 0.661418
0.163882 0.443817 0.651558
0.123743 0.409965 0.631479
0.070924 0.363001 0.600090
0.003757 0.301152 0.556247
0.000000 0.222548 0.498749
0.000000 0.125229 0.426344
0.000000 0.007138 0.337724
0.000000 0.000000 0.231527
0.000000 0.000000 0.106339
0.252514 0.330390 0.000000
0.225500 0.321208 0.000000
0.201449 0.313326 0.000000
0.180628 0.307227 0.000000
0.163221 0.303302 0.000000
0.149333 0.301844 0.000000
0.138989 0.303058 0.047099
0.132133 0.307050 0.098120
0.128627 0.313836 0.149158
0.128256 0.323337 0.200022
0.130723 0.335379 0.250468
0.135648 0.349696 0.300196
0.142575 0.365928 0.348855
0.150965 0.383620 0.396038
0.160199 0.402225 0.441284
0.169577 0.421101 0.484079
0.178321 0.439512 0.523853
0.185569 0.456629 0.559984
0.190382 0.471531 0.591794
0.191738 0.483199 0.618554
0.188537 0.490523 0.639477
0.179596 0.492301 0.653725
0.163653 0.487233 0.660405
0.139366 0.473928 0.658570
0.105311 0.450901 0.647217
0.059986 0.416572 0.625293
0.001807 0.369270 0.591688
0.000000 0.307227 0.545238
0.000000 0.228583 0.484726
0.000000 0.131383 0.408881
0.000000 0.013582 0.316376
0.000000 0.000000 0.205833
0.000000 0.000000 0.075818
0.252712 0.366696 0.000000
0.225819 0.356274 0.000000
0.201631 0.347087 0.000000
0.180418 0.339628 0.000000
0.162367 0.334292 0.000000
0.147586 0.331384 0.000000
0.136102 0.331115 0.033649
0.127863 0.333599 0.086494
0.122735 0.338860 0.139297
0.120505 0.346827 0.191849
0.120877 0.357334 0.243887
0.123477 0.370123 0.295095
0.127851 0.384841 0.345102
0.133462 0.401042 0.393482
0.139695 0.418186 0.439759
0.145853 0.435640 0.483397
0.151161 0.452676 0.523811
0.154759 0.468472 0.560359
0.155713 0.482115 0.592346
0.153002 0.492594 0.619024
0.145529 0.498808 0.639588
0.132115 0.499561 0.653182
0.111501 0.493563 0.658895
0.082348 0.479429 0.655760
0.043235 0.455683 0.642760
0.000000 0.420754 0.618820
0.000000 0.372976 0.582812
0.000000 0.310591 0.533556
0.000000 0.231747 0.469816
0.000000 0.134497 0.390302
0.000000 0.016801 0.293671
0.000000 0.000000 0.178524
0.000000 0.000000 0.043410
0.248231 0.400933 0.000000
0.221728 0.389441 0.000000
0.197660 0.379109 0.000000
0.176299 0.370435 0.000000
0.157837 0.363826 0.000000
0.142383 0.359592 0.000000
0.129968 0.357952 0.021084
0.120543 0.359029 0.075844
0.113976 0.362855 0.130488
0.110058 0.369366 0.184790
0.108496 0.378405 0.238469
0.108919 0.389721 0.291189
0.110874 0.402969 0.342562
0.113830 0.417712 0.392145
0.117174 0.433417 0.439441
0.120211 0.449459 0.483899
0.122169 0.465117 0.524913
0.122194 0.479579 0.561825
0.119350 0.491938 0.593921
0.112622 0.501192 0.620434
0.100917 0.506249 0.640543
0.083057 0.505918 0.653371
0.057786 0.498918 0.657991
0.023768 0.483874 0.653417
0.000000 0.459316 0.638614
0.000000 0.423680 0.612488
0.000000 0.375311 0.573895
0.000000 0.312456 0.521635
0.000000 0.233272 0.454454
0.000000 0.135820 0.371044
0.000000 0.018069 0.270044
0.000000 0.000000 0.150037
0.000000 0.000000 0.009553
0.240048 0.433738 0.000000
0.214244 0.421366 0.000000
0.190593 0.410067 0.000000
0.169369 0.400346 0.000000
0.150767 0.392618 0.000000
0.134901 0.387203 0.000000
0.121803 0.384325 0.009808
0.111427 0.384117 0.066576
0.103646 0.386618 0.123140
0.098251 0.391771 0.179255
0.094954 0.399429 0.234623
0.093387 0.409347 0.288891
0.093100 0.421190 0.341650
0.093564 0.434527 0.392441
0.094169 0.448834 0.440748
0.094224 0.463493 0.486002
0.092960 0.477792 0.527579
0.089524 0.490926 0.564803
0.082985 0.501997 0.596941
0.072332 0.510011 0.623208
0.056471 0.513881 0.642765
0.034231 0.512427 0.654718
0.004358 0.504376 0.658120
0.000000 0.488359 0.651968
0.000000 0.462915 0.635208
0.000000 0.426489 0.606729
0.000000 0.377431 0.565368
0.000000 0.313999 0.509907
0.000000 0.234356 0.439074
0.000000 0.136572 0.351542
0.000000 0.018622 0.245933
0.000000 0.000000 0.120811
0.000000 0.000000 0.000000
0.229137 0.465711 0.000000
0.204380 0.452670 0.000000
0.181481 0.440602 0.000000
0.160719 0.430023 0.000000
0.142290 0.421352 0.000000
0.126311 0.414919 0.000000
0.112818 0.410956 0.000227
0.101767 0.409605 0.059096
0.093034 0.410910 0.117659
0.086414 0.414825 0.175653
0.081622 0.421208 0.232761
0.078292 0.429825 0.288611
0.075977 0.440347 0.342779
0.074151 0.452350 0.394785
0.072208 0.465320 0.444095
0.069460 0.478646 0.490123
0.065140 0.491625 0.532227
0.058398 0.503459 0.569711
0.048307 0.513256 0.601826
0.033857 0.520033 0.627767
0.013960 0.522710 0.646679
0.000000 0.520115 0.657648
0.000000 0.510981 0.659709
0.000000 0.493950 0.651842
0.000000 0.467567 0.632973
0.000000 0.430285 0.601975
0.000000 0.380462 0.557664
0.000000 0.316365 0.498807
0.000000 0.236164 0.424111
0.000000 0.137937 0.332234
0.000000 0.019667 0.221777
0.000000 0.000000 0.091287
0.000000 0.000000 0.000000
0.216467 0.497423 0.000000
0.193145 0.483943 0.000000
0.171375 0.471326 0.000000
0.151438 0.460094 0.000000
0.133533 0.450677 0.000000
0.117780 0.443411 0.000000
0.104219 0.438537 0.000000
0.092809 0.436203 0.053811
0.083428 0.436463 0.114454
0.075874 0.439278 0.174392
0.069865 0.444514 0.233292
0.065038 0.451945 0.290763
0.060950 0.461249 0.346362
0.057078 0.472013 0.399591
0.052817 0.483727 0.449899
0.047484 0.495790 0.496681
0.040313 0.507507 0.539276
0.030459 0.518087 0.576971
0.016997 0.526647 0.608999
0.000000 0.532211 0.634537
0.000000 0.533707 0.652710
0.000000 0.529971 0.662587
0.000000 0.519746 0.663185
0.000000 0.501678 0.653467
0.000000 0.474323 0.632339
0.000000 0.436140 0.598656
0.000000 0.385497 0.551217
0.000000 0.320667 0.488769
0.000000 0.239829 0.410003
0.000000 0.141068 0.313556
0.000000 0.022377 0.198014
0.000000 0.000000 0.061904
0.000000 0.000000 0.000000
0.203002 0.529410 0.000000
0.181543 0.515741 0.000000
0.161317 0.502813 0.000000
0.142608 0.491157 0.000000
0.125619 0.481210 0.000000
0.110472 0.473315 0.000000
0.097210 0.467723 0.000000
0.085795 0.464588 0.051129
0.076109 0.463973 0.113933
0.067951 0.465847 0.175884
0.061044 0.470084 0.236628
0.055027 0.476464 0.295758
0.049460 0.484676 0.352813
0.043823 0.494312 0.407275
0.037515 0.504873 0.458576
0.029854 0.515763 0.506092
0.020078 0.526296 0.549146
0.007346 0.535689 0.587004
0.000000 0.543068 0.618882
0.000000 0.547463 0.643940
0.000000 0.547811 0.661282
0.000000 0.542956 0.669963
0.000000 0.531648 0.668978
0.000000 0.512543 0.657273
0.000000 0.484202 0.633736
0.000000 0.445095 0.597205
0.000000 0.393595 0.546459
0.000000 0.327985 0.480228
0.000000 0.246450 0.397184
0.000000 0.147086 0.295948
0.000000 0.027890 0.175084
0.000000 0.000000 0.033104
0.000000 0.000000 0.000000
0.189702 0.562176 0.000000
0.170573 0.548588 0.000000
0.152346 0.535609 0.000000
0.135309 0.523776 0.000000
0.119666 0.513535 0.000000
0.105544 0.505237 0.000000
0.092988 0.499139 0.000000
0.081963 0.495405 0.051456
0.072353 0.494106 0.116506
0.063963 0.495217 0.180539
0.056516 0.498622 0.243182
0.049655 0.504108 0.304012
0.042943 0.511372 0.362547
0.035863 0.520014 0.418254
0.027816 0.529542 0.470545
0.018125 0.539370 0.518778
0.006030 0.548817 0.562257
0.000000 0.557111 0.600232
0.000000 0.563384 0.631899
0.000000 0.566675 0.656400
0.000000 0.565928 0.672823
0.000000 0.559996 0.680202
0.000000 0.547635 0.677516
0.000000 0.527510 0.663690
0.000000 0.498191 0.637598
0.000000 0.458154 0.598055
0.000000 0.405782 0.543826
0.000000 0.339364 0.473620
0.000000 0.257095 0.386093
0.000000 0.157076 0.279846
0.000000 0.037315 0.153426
0.000000 0.000000 0.005327
0.000000 0.000000 0.000000
0.177522 0.596190 0.000000
0.161230 0.582976 0.000000
0.145498 0.570224 0.000000
0.130615 0.558482 0.000000
0.116790 0.548203 0.000000
0.104151 0.539746 0.000000
0.092747 0.533377 0.000000
0.082546 0.529266 0.055202
0.073435 0.527493 0.122582
0.065222 0.528041 0.188767
0.057632 0.530801 0.253366
0.050313 0.535569 0.315937
0.042829 0.542050 0.375980
0.034668 0.549851 0.432944
0.025232 0.558488 0.486222
0.013848 0.567383 0.535156
0.000000 0.575865 0.579030
0.000000 0.583167 0.617077
0.000000 0.588430 0.648474
0.000000 0.590700 0.672345
0.000000 0.588932 0.687759
0.000000 0.581983 0.693733
0.000000 0.568620 0.689227
0.000000 0.547514 0.673150
0.000000 0.517244 0.644354
0.000000 0.476293 0.601640
0.000000 0.423053 0.543752
0.000000 0.355820 0.469382
0.000000 0.272798 0.377167
0.000000 0.172094 0.265691
0.000000 0.051726 0.133481
0.000000 0.000000 0.000000
0.000000 0.000000 0.000000
0.167413 0.631893 0.000000
0.154506 0.619361 0.000000
0.141803 0.607137 0.000000
0.129596 0.595774 0.000000
0.118098 0.585734 0.000000
0.107441 0.577383 0.000000
0.097675 0.570995 0.000000
0.088772 0.566750 0.062776
0.080622 0.564733 0.132573
0.073035 0.564937 0.200981
0.065741 0.567260 0.267593
0.058388 0.571507 0.331947
0.050547 0.577388 0.393527
0.041704 0.584521 0.451762
0.031269 0.592430 0.506028
0.018569 0.600543 0.555647
0.002851 0.608198 0.599887
0.000000 0.614635 0.637962
0.000000 0.619004 0.669030
0.000000 0.620359 0.692198
0.000000 0.617662 0.706516
0.000000 0.609778 0.710984
0.000000 0.595483 0.704543
0.000000 0.573455 0.686083
0.000000 0.542281 0.654439
0.000000 0.500453 0.608394
0.000000 0.446369 0.546673
0.000000 0.378334 0.467950
0.000000 0.294559 0.370845
0.000000 0.193161 0.253921
0.000000 0.072165 0.115691
0.000000 0.000000 0.000000
0.000000 0.000000 0.000000
0.160322 0.669688 0.000000
0.151385 0.658171 0.000000
0.142285 0.646793 0.000000
0.133317 0.636117 0.000000
0.124697 0.626612 0.000000
0.116559 0.618652 0.000000
0.108957 0.612520 0.001062
0.101865 0.608402 0.074586
0.095177 0.606392 0.146887
0.088706 0.606492 0.217593
0.082184 0.608605 0.286277
0.075264 0.612547 0.352459
0.067517 0.618034 0.415605
0.058435 0.624693 0.475127
0.047429 0.632055 0.530381
0.033829 0.639557 0.580673
0.016885 0.646543 0.625251
0.000000 0.652264 0.663310
0.000000 0.655875 0.693993
0.000000 0.656439 0.716386
0.000000 0.652926 0.729523
0.000000 0.644210 0.732383
0.000000 0.629072 0.723892
0.000000 0.606201 0.702921
0.000000 0.574191 0.668286
0.000000 0.531540 0.618750
0.000000 0.476657 0.553024
0.000000 0.407853 0.469762
0.000000 0.323348 0.367564
0.000000 0.221266 0.244978
0.000000 0.099639 0.100496
0.000000 0.000000 0.000000
0.000000 0.000000 0.000000
0.157190 0.709948 0.000000
0.152850 0.699796 0.000000
0.147967 0.689605 0.000000
0.142840 0.679944 0.000000
0.137686 0.671290 0.000000
0.132645 0.664027 0.000000
0.127772 0.658444 0.014722
0.123045 0.654736 0.091044
0.118361 0.653005 0.165939
0.113534 0.653258 0.239016
0.108302 0.655411 0.309832
0.102318 0.659283 0.377888
0.095158 0.664602 0.442632
0.086317 0.671000 0.503456
0.075207 0.678017 0.559702
0.061164 0.685098 0.610653
0.043439 0.691596 0.655542
0.021207 0.696767 0.693546
0.000000 0.699776 0.723787
0.000000 0.699695 0.745336
0.000000 0.695499 0.757207
0.000000 0.686072 0.758362
0.000000 0.670203 0.747707
0.000000 0.646588 0.724096
0.000000 0.613828 0.686327
0.000000 0.570432 0.633146
0.000000 0.514814 0.563243
0.000000 0.445294 0.475255
0.000000 0.360100 0.367765
0.000000 0.257364 0.239301
0.000000 0.135126 0.088339
0.000000 0.000000 0.000000
0.000000 0.000000 0.000000
0.158955 0.753013 0.000000
0.159877 0.744598 0.000000
0.159864 0.735952 0.000000
0.159219 0.727655 0.000000
0.158162 0.720190 0.000000
0.156835 0.713949 0.000000
0.155296 0.709229 0.033336
0.153527 0.706233 0.112559
0.151427 0.705070 0.190138
0.148814 0.705758 0.265663
0.145427 0.708218 0.338673
0.140924 0.712278 0.408650
0.134884 0.717673 0.475024
0.126803 0.724044 0.537170
0.116099 0.730938 0.594410
0.102107 0.737809 0.646011
0.084086 0.744017 0.691186
0.061209 0.748826 0.729094
0.032572 0.751411 0.758840
0.000000 0.750848 0.779476
0.000000 0.746124 0.789998
0.000000 0.736128 0.789349
0.000000 0.719658 0.776419
0.000000 0.695417 0.750041
0.000000 0.662016 0.708998
0.000000 0.617970 0.652015
0.000000 0.561702 0.577765
0.000000 0.491539 0.484868
0.000000 0.405718 0.371886
0.000000 0.302378 0.237332
0.000000 0.179568 0.079662
0.000000 0.035240 0.000000
0.000000 0.000000 0.000000
0.166549 0.799191 0.000000
0.173438 0.792903 0.000000
0.178990 0.786183 0.000000
0.183508 0.779617 0.000000
0.187216 0.773698 0.000000
0.190260 0.768824 0.000000
0.192700 0.765301 0.057312
0.194521 0.763340 0.139544
0.195625 0.763057 0.219898
0.195834 0.764479 0.297949
0.194889 0.767533 0.373215
0.192451 0.772057 0.445161
0.188102 0.777794 0.513200
0.181342 0.784392 0.576687
0.171590 0.791406 0.634927
0.158187 0.798298 0.687167
0.140391 0.804435 0.732604
0.117381 0.809091 0.770379
0.088256 0.811447 0.799577
0.052033 0.810588 0.819233
0.007650 0.805508 0.828324
0.000000 0.795105 0.825776
0.000000 0.778185 0.810459
0.000000 0.753459 0.781191
0.000000 0.719544 0.736733
0.000000 0.674964 0.675795
0.000000 0.618151 0.597030
0.000000 0.547439 0.499040
0.000000 0.461072 0.380370
0.000000 0.357199 0.239514
0.000000 0.233875 0.074909
0.000000 0.089062 0.000000
0.000000 0.000000 0.000000
0.180901 0.848754 0.000000
0.194502 0.845005 0.000000
0.206351 0.840611 0.000000
0.216753 0.836166 0.000000
0.225936 0.832169 0.000000
0.234046 0.829028 0.000000
0.241150 0.827056 0.087061
0.247233 0.826472 0.172409
0.252202 0.827401 0.255633
0.255880 0.829875 0.336287
0.258012 0.833833 0.413874
0.258264 0.839119 0.487840
0.256218 0.845482 0.557578
0.251377 0.852580 0.622428
0.243165 0.859977 0.681673
0.230925 0.867140 0.734546
0.213918 0.873447 0.780223
0.191326 0.878177 0.817826
0.162251 0.880521 0.846426
0.125713 0.879572 0.865035
0.080653 0.874330 0.872615
0.025931 0.863702 0.868073
0.000000 0.846502 0.850262
0.000000 0.821449 0.817978
0.000000 0.787168 0.769968
0.000000 0.742192 0.704922
0.000000 0.684958 0.621475
0.000000 0.613810 0.518211
0.000000 0.527000 0.393657
0.000000 0.422684 0.246287
0.000000 0.298926 0.074523
0.000000 0.153694 0.000000
0.000000 0.000000 0.000000
0.202934 0.901944 0.000000
0.224033 0.901166 0.000000
0.242950 0.899518 0.000000
0.259997 0.897601 0.000000
0.275402 0.895924 0.000000
0.289316 0.894902 0.032443
0.301807 0.894855 0.122994
0.312865 0.896011 0.211567
0.322397 0.898503 0.297755
0.330233 0.902370 0.381094
0.336119 0.907560 0.461067
0.339722 0.913923 0.537104
0.340630 0.921219 0.608579
0.338349 0.929112 0.674812
0.332304 0.937173 0.735072
0.321841 0.944879 0.788570
0.306226 0.951615 0.834466
0.284642 0.956668 0.871863
0.256195 0.959236 0.899813
0.219909 0.958421 0.917312
0.174726 0.953231 0.923303
0.119509 0.942582 0.916674
0.053043 0.925293 0.896259
0.000000 0.900092 0.860838
0.000000 0.865614 0.809139
0.000000 0.820397 0.739833
0.000000 0.762887 0.651539
0.000000 0.691438 0.542820
0.000000 0.604306 0.412187
0.000000 0.499658 0.258096
0.000000 0.375565 0.078949
0.000000 0.230003 0.000000
0.000000 0.060856 0.000000
0.233567 0.958970 0.000000
0.262988 0.961615 0.000000
0.289787 0.963153 0.000000
0.314278 0.964193 0.000000
0.336694 0.965253 0.000000
0.357186 0.966755 0.071378
0.375829 0.969028 0.165522
0.392612 0.972307 0.257431
0.407449 0.976733 0.346679
0.420169 0.982353 0.432784
0.430523 0.989123 0.515211
0.438182 0.996901 0.593371
0.442735 1.000000 0.666621
0.443691 1.000000 0.734263
0.440479 1.000000 0.795546
0.432449 1.000000 0.849664
0.418868 1.000000 0.895759
0.398923 1.000000 0.932916
0.371722 1.000000 0.960168
0.336293 1.000000 0.976494
0.291581 1.000000 0.980817
0.236452 1.000000 0.972009
0.169692 1.000000 0.948884
0.090007 0.990060 0.910206
0.000000 0.955571 0.854682
0.000000 0.910290 0.780968
0.000000 0.852671 0.687661
0.000000 0.781073 0.573310
0.000000 0.693763 0.436404
0.000000 0.588913 0.275384
0.000000 0.464604 0.088631
0.000000 0.318819 0.000000
0.000000 0.149451 0.000000
0.273716 1.000000 0.000000
0.312323 1.000000 0.000000
0.347855 1.000000 0.000000
0.380630 1.000000 0.000000
0.410884 1.000000 0.017214
0.438771 1.000000 0.117194
0.464368 1.000000 0.215057
0.487669 1.000000 0.310414
0.508588 1.000000 0.402819
0.526960 1.000000 0.491773
0.542537 1.000000 0.576723
0.554994 1.000000 0.657060
0.563922 1.000000 0.732125
0.568834 1.000000 0.801200
0.569163 1.000000 0.863517
0.564259 1.000000 0.918252
0.553393 1.000000 0.964528
0.535757 1.000000 1.000000
0.510461 1.000000 1.000000
0.476534 1.000000 1.000000
0.432926 1.000000 1.000000
0.378506 1.000000 1.000000
0.312063 1.000000 1.000000
0.232305 1.000000 0.966517
0.137860 1.000000 0.907035
0.027275 1.000000 0.828763
0.000000 0.955007 0.730282
0.000000 0.883434 0.610120
0.000000 0.796108 0.466751
0.000000 0.691208 0.298594
0.000000 0.566822 0.104016
0.000000 0.420943 0.000000
0.000000 0.251470 0.000000
0.324291 1.000000 0.000000
0.372986 1.000000 0.000000
0.418144 1.000000 0.000000
0.460083 1.000000 0.000000
0.499041 1.000000 0.066206
0.535179 1.000000 0.170301
0.568573 1.000000 0.272013
0.599222 1.000000 0.370931
0.627043 1.000000 0.466592
0.651872 1.000000 0.558480
0.673467 1.000000 0.646021
0.691504 1.000000 0.728592
0.705578 1.000000 0.805512
0.715205 1.000000 0.876047
0.719819 1.000000 0.939410
0.718775 1.000000 0.994760
0.711347 1.000000 1.000000
0.696730 1.000000 1.000000
0.674035 1.000000 1.000000
0.642296 1.000000 1.000000
0.600466 1.000000 1.000000
0.547416 1.000000 1.000000
0.481938 1.000000 1.000000
0.402743 1.000000 1.000000
0.308463 1.000000 0.966635
0.197647 1.000000 0.883658
0.068766 1.000000 0.779841
