public/luts/fuji_eterna.cube
# Generated from ColorChecker fit
LUT_3D_SIZE 9
DOMAIN_MIN 0.0 0.0 0.0
DOMAIN_MAX 1.0 1.0 1.0
0.706677 0.326790 0.570775
0.249203 0.000000 0.505816
0.008909 0.000000 0.705858
0.000000 0.000000 1.000000
0.007781 0.000000 1.000000
0.000000 0.000000 1.000000
0.000000 0.000000 1.000000
0.000000 0.000000 0.363589
0.000000 0.000000 0.000000
0.341254 0.000000 0.391628
0.066772 0.000000 0.367055
0.000000 0.000000 0.569888
0.000000 0.000000 0.868961
0.000000 0.013105 1.000000
0.000000 0.000000 1.000000
0.000000 0.000000 0.519369
0.000000 0.000000 0.000000
0.000000 0.000000 0.000000
0.019345 0.000000 0.197228
0.000000 0.000000 0.216467
0.000000 0.000000 0.420690
0.000000 0.069950 0.665319
0.000000 0.035880 0.771606
0.000000 0.000000 0.526627
0.000000 0.000000 0.000000
0.000000 0.000000 0.000000
0.000000 0.000000 0.000000
0.032940 0.000000 0.206914
0.000000 0.000000 0.275187
0.000000 0.020812 0.481194
0.000000 0.181351 0.666946
0.000000 0.034687 0.640283
0.000000 0.000000 0.174870
0.000000 0.000000 0.000000
0.000000 0.000000 0.000000
0.000000 0.000000 0.000000
0.816424 0.000000 0.754082
0.843627 0.000000 0.878409
0.759269 0.321704 1.000000
0.444665 0.503199 1.000000
0.000000 0.211234 1.000000
0.000000 0.000000 0.347407
0.000000 0.000000 0.000000
0.000000 0.000000 0.000000
0.000000 0.000000 0.000000
1.000000 0.000000 1.000000
1.000000 0.427761 1.000000
1.000000 1.000000 1.000000
1.000000 1.000000 1.000000
1.000000 0.835416 1.000000
0.000000 0.000000 1.000000
0.000000 0.000000 0.000000
0.000000 0.000000 0.000000
0.000000 0.000000 0.000000
1.000000 0.464827 1.000000
1.000000 1.000000 1.000000
1.000000 1.000000 1.000000
1.000000 1.000000 1.000000
1.000000 1.000000 1.000000
1.000000 0.497739 1.000000
0.000000 0.000000 1.000000
0.000000 0.000000 0.000000
0.000000 0.000000 0.000000
1.000000 1.000000 1.000000
1.000000 1.000000 1.000000
1.000000 1.000000 1.000000
1.000000 1.000000 1.000000
1.000000 1.000000 1.000000
1.000000 1.000000 1.000000
1.000000 0.000000 1.000000
0.000000 0.000000 1.000000
0.000000 0.000000 0.000000
1.000000 1.000000 1.000000
1.000000 1.000000 1.000000
1.000000 1.000000 1.000000
1.000000 1.000000 1.000000
1.000000 1.000000 1.000000
1.000000 1.000000 1.000000
1.000000 1.000000 1.000000
1.000000 0.000000 1.000000
0.000000 0.000000 1.000000
0.775716 0.604335 0.435638
0.263568 0.112166 0.184283
0.022429 0.000000 0.240744
0.056383 0.000000 0.506961
0.302927 0.000000 0.850703
0.632971 0.097916 1.000000
0.850842 0.315465 1.000000
0.694279 0.322032 0.512139
0.000000 0.000000 0.000000
0.517811 0.403411 0.400782
0.202706 0.179867 0.222458
0.097726 0.075383 0.316380
0.183876 0.094713 0.571075
0.375575 0.187637 0.840900
0.520657 0.248952 0.946037
0.400369 0.118478 0.672496
0.000000 0.000000 0.000000
0.000000 0.000000 0.000000
0.208711 0.109792 0.268866
0.049508 0.153511 0.162516
0.024893 0.226845 0.288011
0.092791 0.310337 0.520468
0.144546 0.329553 0.700833
0.004910 0.155078 0.635877
0.000000 0.000000 0.098198
0.000000 0.000000 0.000000
0.000000 0.000000 0.000000
0.125269 0.000000 0.240770
0.083754 0.143505 0.207132
0.086634 0.385841 0.360110
0.068759 0.510139 0.561411
0.000000 0.417750 0.638568
0.000000 0.000000 0.384944
0.000000 0.000000 0.000000
0.000000 0.000000 0.000000
0.000000 0.000000 0.000000
0.686730 0.000000 0.631433
0.727612 0.328454 0.673041
0.708044 0.738061 0.851209
0.539799 0.886893 1.000000
0.068062 0.652088 0.976231
0.000000 0.000000 0.517159
0.000000 0.000000 0.000000
0.000000 0.000000 0.000000
0.000000 0.000000 0.000000
1.000000 0.046962 1.000000
1.000000 0.955152 1.000000
1.000000 1.000000 1.000000
1.000000 1.000000 1.000000
1.000000 1.000000 1.000000
0.000000 0.132496 1.000000
0.000000 0.000000 0.007176
0.000000 0.000000 0.000000
0.000000 0.000000 0.000000
1.000000 1.000000 1.000000
1.000000 1.000000 1.000000
1.000000 1.000000 1.000000
1.000000 1.000000 1.000000
1.000000 1.000000 1.000000
1.000000 1.000000 1.000000
0.000000 0.000000 1.000000
0.000000 0.000000 0.000000
0.000000 0.000000 0.000000
1.000000 1.000000 1.000000
1.000000 1.000000 1.000000
1.000000 1.000000 1.000000
1.000000 1.000000 1.000000
1.000000 1.000000 1.000000
1.000000 1.000000 1.000000
1.000000 0.000000 1.000000
0.000000 0.000000 1.000000
0.000000 0.000000 0.000000
1.000000 1.000000 1.000000
1.000000 1.000000 1.000000
1.000000 1.000000 1.000000
1.000000 1.000000 1.000000
1.000000 1.000000 1.000000
1.000000 1.000000 1.000000
1.000000 1.000000 1.000000
1.000000 0.000000 1.000000
0.000000 0.000000 1.000000
1.000000 0.850111 0.522905
0.379195 0.138065 0.079278
0.054399 0.000000 0.000000
0.084366 0.000000 0.142479
0.437049 0.000000 0.458403
1.000000 0.080932 0.779653
1.000000 0.593807 0.925343
1.000000 1.000000 0.680415
1.000000 1.000000 0.000000
0.846217 0.762376 0.583598
0.420670 0.319362 0.244419
0.253782 0.058997 0.214630
0.357014 0.005418 0.402456
0.675242 0.127780 0.681946
1.000000 0.340259 0.892978
1.000000 0.502053 0.841256
1.000000 0.417379 0.298312
0.665134 0.000000 0.000000
0.514356 0.541269 0.460696
0.269164 0.367820 0.220422
0.206413 0.286885 0.251160
0.314487 0.298385 0.447723
0.515185 0.347263 0.670750
0.663718 0.323483 0.746708
0.548712 0.062028 0.467891
0.000000 0.000000 0.000000
0.000000 0.000000 0.000000
0.290345 0.288269 0.336621
0.189316 0.392006 0.191505
0.179858 0.483580 0.274195
0.227277 0.538699 0.466093
0.230292 0.478093 0.614426
0.021038 0.167513 0.532250
0.000000 0.000000 0.000000
0.000000 0.000000 0.000000
0.000000 0.000000 0.000000
0.578287 0.173048 0.507854
0.588156 0.568678 0.455947
0.584072 0.832927 0.583810
0.508263 0.917291 0.759435
0.236370 0.718288 0.816638
0.000000 0.077453 0.555066
0.000000 0.000000 0.000000
0.000000 0.000000 0.000000
0.000000 0.000000 0.000000
1.000000 0.433472 1.000000
1.000000 1.000000 1.000000
1.000000 1.000000 1.000000
1.000000 1.000000 1.000000
1.000000 1.000000 1.000000
0.000000 0.326600 1.000000
0.000000 0.000000 0.114428
0.000000 0.000000 0.000000
0.000000 0.000000 0.000000
1.000000 1.000000 1.000000
1.000000 1.000000 1.000000
1.000000 1.000000 1.000000
1.000000 1.000000 1.000000
1.000000 1.000000 1.000000
1.000000 1.000000 1.000000
0.000000 0.000000 1.000000
0.000000 0.000000 0.000000
0.000000 0.000000 0.000000
1.000000 1.000000 1.000000
1.000000 1.000000 1.000000
1.000000 1.000000 1.000000
1.000000 1.000000 1.000000
1.000000 1.000000 1.000000
1.000000 1.000000 1.000000
1.000000 0.064480 1.000000
0.000000 0.000000 1.000000
0.000000 0.000000 0.000000
1.000000 1.000000 1.000000
1.000000 1.000000 1.000000
1.000000 1.000000 1.000000
1.000000 1.000000 1.000000
1.000000 1.000000 1.000000
1.000000 1.000000 1.000000
1.000000 1.000000 1.000000
1.000000 0.000000 1.000000
0.000000 0.000000 1.000000
1.000000 1.000000 0.666453
0.530242 0.157718 0.038805
0.054834 0.000000 0.000000
0.009242 0.000000 0.000000
0.391876 0.000000 0.109230
1.000000 0.048074 0.474349
1.000000 0.879983 0.770117
1.000000 1.000000 0.801172
1.000000 1.000000 0.337977
1.000000 1.000000 0.823486
0.691549 0.426019 0.330472
0.404173 0.000000 0.176301
0.461292 0.000000 0.288891
0.838238 0.015594 0.561987
1.000000 0.393631 0.855162
1.000000 0.872531 0.993815
1.000000 1.000000 0.769171
1.000000 1.000000 0.000000
0.928036 0.934392 0.705662
0.551268 0.517520 0.337254
0.400178 0.266505 0.271332
0.493609 0.200648 0.422404
0.783815 0.284269 0.670805
1.000000 0.426709 0.862695
1.000000 0.482331 0.810063
1.000000 0.250518 0.290723
0.626974 0.000000 0.000000
0.556651 0.673296 0.476944
0.358898 0.538943 0.224910
0.295275 0.465077 0.234179
0.361544 0.446785 0.405845
0.486882 0.424176 0.606834
0.533880 0.282377 0.669895
0.298542 0.000000 0.393604
0.000000 0.000000 0.000000
0.000000 0.000000 0.000000
0.556309 0.500433 0.415356
0.506331 0.665202 0.273262
0.484280 0.770548 0.346457
0.462839 0.787345 0.522627
0.348107 0.631489 0.655283
0.000000 0.163893 0.563766
0.000000 0.000000 0.033241
0.000000 0.000000 0.000000
0.000000 0.000000 0.000000
1.000000 0.651824 0.912978
1.000000 1.000000 0.876185
1.000000 1.000000 1.000000
1.000000 1.000000 1.000000
0.910546 1.000000 1.000000
0.039601 0.342710 0.945373
0.000000 0.000000 0.131834
0.000000 0.000000 0.000000
0.000000 0.000000 0.000000
1.000000 1.000000 1.000000
1.000000 1.000000 1.000000
1.000000 1.000000 1.000000
1.000000 1.000000 1.000000
1.000000 1.000000 1.000000
1.000000 1.000000 1.000000
0.000000 0.000000 1.000000
0.000000 0.000000 0.000000
0.000000 0.000000 0.000000
1.000000 1.000000 1.000000
1.000000 1.000000 1.000000
1.000000 1.000000 1.000000
1.000000 1.000000 1.000000
1.000000 1.000000 1.000000
1.000000 1.000000 1.000000
1.000000 0.152221 1.000000
0.000000 0.000000 1.000000
0.000000 0.000000 0.000000
1.000000 1.000000 1.000000
1.000000 1.000000 1.000000
1.000000 1.000000 1.000000
1.000000 1.000000 1.000000
1.000000 1.000000 1.000000
1.000000 1.000000 1.000000
1.000000 1.000000 1.000000
1.000000 0.000000 1.000000
0.000000 0.000000 1.000000
1.000000 1.000000 0.680599
0.611963 0.202974 0.000000
0.000000 0.000000 0.000000
0.000000 0.000000 0.000000
0.110235 0.000000 0.000000
0.953892 0.146009 0.074595
1.000000 1.000000 0.504352
1.000000 1.000000 0.787608
1.000000 1.000000 0.714519
1.000000 1.000000 0.984298
0.947326 0.544885 0.358594
0.496741 0.000000 0.093493
0.460408 0.000000 0.136607
0.844117 0.000000 0.401377
1.000000 0.568931 0.767068
1.000000 1.000000 1.000000
1.000000 1.000000 1.000000
1.000000 1.000000 0.749748
1.000000 1.000000 0.917149
0.864531 0.660854 0.440521
0.590757 0.252655 0.290162
0.630582 0.132780 0.400273
0.966717 0.284929 0.670883
1.000000 0.637820 0.967848
1.000000 1.000000 1.000000
1.000000 1.000000 0.933402
1.000000 1.000000 0.162836
0.913769 1.000000 0.624658
0.597940 0.655758 0.284391
0.454182 0.430480 0.231229
0.508715 0.363250 0.385964
0.721173 0.413555 0.635214
0.984604 0.485900 0.831423
1.000000 0.429813 0.792863
0.903643 0.039841 0.303634
0.012417 0.000000 0.000000
0.647105 0.764046 0.366389
0.524303 0.702668 0.151563
0.466691 0.664271 0.179851
0.477408 0.639106 0.358634
0.493012 0.562446 0.561119
0.383471 0.314585 0.626340
0.000000 0.000000 0.359157
0.000000 0.000000 0.000000
0.000000 0.000000 0.000000
1.000000 0.771154 0.515967
1.000000 1.000000 0.417458
1.000000 1.000000 0.513245
1.000000 1.000000 0.697296
0.810151 0.994126 0.829408
0.242733 0.393484 0.735204
0.000000 0.000000 0.206133
0.000000 0.000000 0.000000
0.000000 0.000000 0.000000
1.000000 1.000000 1.000000
1.000000 1.000000 1.000000
1.000000 1.000000 1.000000
1.000000 1.000000 1.000000
1.000000 1.000000 1.000000
1.000000 1.000000 1.000000
0.000000 0.000000 0.832253
0.000000 0.000000 0.000000
0.000000 0.000000 0.000000
1.000000 1.000000 1.000000
1.000000 1.000000 1.000000
1.000000 1.000000 1.000000
1.000000 1.000000 1.000000
1.000000 1.000000 1.000000
1.000000 1.000000 1.000000
1.000000 0.260246 1.000000
0.000000 0.000000 0.780757
0.000000 0.000000 0.000000
1.000000 1.000000 1.000000
1.000000 1.000000 1.000000
1.000000 1.000000 1.000000
1.000000 1.000000 1.000000
1.000000 1.000000 1.000000
1.000000 1.000000 1.000000
1.000000 1.000000 1.000000
1.000000 0.000000 1.000000
0.000000 0.000000 0.513667
1.000000 1.000000 0.360100
0.480712 0.254781 0.000000
0.000000 0.000000 0.000000
0.000000 0.000000 0.000000
0.000000 0.000000 0.000000
0.391587 0.470500 0.000000
1.000000 1.000000 0.007559
1.000000 1.000000 0.533358
1.000000 1.000000 0.833025
1.000000 1.000000 0.910323
1.000000 0.670107 0.187202
0.440422 0.000000 0.000000
0.279156 0.000000 0.000000
0.633531 0.107974 0.100908
1.000000 0.975122 0.543616
1.000000 1.000000 1.000000
1.000000 1.000000 1.000000
1.000000 1.000000 1.000000
1.000000 1.000000 0.988980
1.000000 0.805167 0.438175
0.723816 0.281382 0.229726
0.686930 0.159533 0.317531
1.000000 0.442699 0.621312
1.000000 1.000000 1.000000
1.000000 1.000000 1.000000
1.000000 1.000000 1.000000
1.000000 1.000000 1.000000
1.000000 1.000000 0.723118
0.872977 0.762995 0.327429
0.638971 0.429036 0.236955
0.667040 0.366044 0.392183
0.947272 0.552884 0.699424
1.000000 0.913441 1.000000
1.000000 1.000000 1.000000
1.000000 1.000000 1.000000
1.000000 1.000000 0.378732
0.838083 0.968923 0.353846
0.645337 0.714818 0.097867
0.550426 0.576541 0.105136
0.586949 0.563723 0.302726
0.721919 0.631014 0.583539
0.855761 0.678087 0.806305
0.822317 0.549632 0.795579
0.388840 0.035364 0.341743
0.000000 0.000000 0.000000
0.930202 0.809697 0.236327
0.959845 0.900054 0.106452
0.965108 0.970403 0.193026
0.956512 1.000000 0.409714
0.877990 0.937768 0.636007
0.606892 0.640679 0.717222
0.000000 0.000000 0.464503
0.000000 0.000000 0.000000
0.000000 0.000000 0.000000
1.000000 1.000000 0.839784
1.000000 1.000000 0.824202
1.000000 1.000000 0.973443
1.000000 1.000000 1.000000
1.000000 1.000000 1.000000
1.000000 1.000000 1.000000
0.000000 0.000000 0.711113
0.000000 0.000000 0.000000
0.000000 0.000000 0.000000
1.000000 1.000000 1.000000
1.000000 1.000000 1.000000
1.000000 1.000000 1.000000
1.000000 1.000000 1.000000
1.000000 1.000000 1.000000
1.000000 1.000000 1.000000
1.000000 0.605411 1.000000
0.000000 0.000000 0.487553
0.000000 0.000000 0.000000
1.000000 1.000000 1.000000
1.000000 1.000000 1.000000
1.000000 1.000000 1.000000
1.000000 1.000000 1.000000
1.000000 1.000000 1.000000
1.000000 1.000000 1.000000
1.000000 1.000000 1.000000
1.000000 0.000000 1.000000
0.000000 0.000000 0.000000
1.000000 1.000000 0.000000
0.000000 0.243182 0.000000
0.000000 0.000000 0.000000
0.000000 0.000000 0.000000
0.000000 0.000000 0.000000
0.000000 1.000000 0.000000
0.939574 1.000000 0.000000
1.000000 1.000000 0.000000
1.000000 1.000000 0.581698
1.000000 1.000000 0.426293
0.946994 0.744927 0.000000
0.105252 0.000000 0.000000
0.000000 0.000000 0.000000
0.108227 0.422155 0.000000
1.000000 1.000000 0.080162
1.000000 1.000000 0.742522
1.000000 1.000000 1.000000
1.000000 1.000000 1.000000
1.000000 1.000000 0.795419
1.000000 0.906901 0.218604
0.706116 0.337833 0.000000
0.585270 0.294760 0.090818
0.945956 0.800136 0.452857
1.000000 1.000000 0.983904
1.000000 1.000000 1.000000
1.000000 1.000000 1.000000
1.000000 1.000000 1.000000
1.000000 1.000000 0.696124
1.000000 0.830295 0.291948
0.793135 0.459090 0.203405
0.795866 0.482217 0.390676
1.000000 0.897919 0.779767
1.000000 1.000000 1.000000
1.000000 1.000000 1.000000
1.000000 1.000000 1.000000
1.000000 1.000000 1.000000
1.000000 1.000000 0.351056
0.833794 0.684490 0.099631
0.715706 0.518902 0.123892
0.787539 0.601444 0.370609
1.000000 0.906145 0.752377
1.000000 1.000000 1.000000
1.000000 1.000000 1.000000
1.000000 1.000000 1.000000
1.000000 1.000000 0.685845
0.877717 0.734786 0.096921
0.920182 0.707062 0.000000
0.965618 0.761931 0.094300
1.000000 0.904188 0.372714
1.000000 1.000000 0.714583
1.000000 1.000000 0.984919
0.997825 1.000000 1.000000
0.341055 0.518721 0.600179
0.000000 0.000000 0.000000
1.000000 0.838049 0.384486
1.000000 1.000000 0.386082
1.000000 1.000000 0.568986
1.000000 1.000000 0.853145
1.000000 1.000000 1.000000
1.000000 1.000000 1.000000
0.890425 0.792227 1.000000
0.000000 0.000000 0.205226
0.000000 0.000000 0.000000
1.000000 1.000000 1.000000
1.000000 1.000000 1.000000
1.000000 1.000000 1.000000
1.000000 1.000000 1.000000
1.000000 1.000000 1.000000
1.000000 1.000000 1.000000
1.000000 1.000000 1.000000
0.000000 0.000000 0.713907
0.000000 0.000000 0.000000
1.000000 1.000000 1.000000
1.000000 1.000000 1.000000
1.000000 1.000000 1.000000
1.000000 1.000000 1.000000
1.000000 1.000000 1.000000
1.000000 1.000000 1.000000
1.000000 1.000000 1.000000
1.000000 0.000000 1.000000
0.000000 0.000000 0.047189
0.737499 1.000000 0.000000
0.000000 0.047323 0.000000
0.000000 0.000000 0.000000
0.000000 0.000000 0.000000
0.000000 0.000000 0.000000
0.000000 1.000000 0.000000
0.000000 1.000000 0.000000
1.000000 1.000000 0.000000
1.000000 1.000000 0.000000
1.000000 1.000000 0.000000
0.360338 0.661688 0.000000
0.000000 0.000000 0.000000
0.000000 0.000378 0.000000
0.000000 0.903238 0.000000
0.105454 1.000000 0.000000
1.000000 1.000000 0.120716
1.000000 1.000000 1.000000
1.000000 1.000000 1.000000
1.000000 1.000000 0.191172
1.000000 0.871597 0.000000
0.405518 0.356254 0.000000
0.209322 0.501408 0.000000
0.580344 1.000000 0.076726
1.000000 1.000000 0.765030
1.000000 1.000000 1.000000
1.000000 1.000000 1.000000
1.000000 1.000000 1.000000
1.000000 1.000000 0.447913
1.000000 0.776396 0.096312
0.821260 0.468085 0.063069
0.815639 0.687917 0.328057
1.000000 1.000000 0.836980
1.000000 1.000000 1.000000
1.000000 1.000000 1.000000
1.000000 1.000000 1.000000
1.000000 1.000000 1.000000
1.000000 0.968110 0.311791
1.000000 0.543622 0.124751
0.903845 0.451996 0.218143
1.000000 0.741616 0.558431
1.000000 1.000000 1.000000
1.000000 1.000000 1.000000
1.000000 1.000000 1.000000
1.000000 1.000000 1.000000
1.000000 1.000000 1.000000
0.907705 0.462852 0.101055
1.000000 0.409008 0.055999
1.000000 0.550802 0.248621
1.000000 0.912408 0.631975
1.000000 1.000000 1.000000
1.000000 1.000000 1.000000
1.000000 1.000000 1.000000
1.000000 1.000000 1.000000
1.000000 1.000000 1.000000
1.000000 0.321314 0.248013
1.000000 0.676477 0.324159
1.000000 1.000000 0.590403
1.000000 1.000000 0.986387
1.000000 1.000000 1.000000
1.000000 1.000000 1.000000
1.000000 1.000000 1.000000
1.000000 1.000000 1.000000
0.000000 0.540356 0.407768
1.000000 0.908526 1.000000
1.000000 1.000000 1.000000
1.000000 1.000000 1.000000
1.000000 1.000000 1.000000
1.000000 1.000000 1.000000
1.000000 1.000000 1.000000
1.000000 1.000000 1.000000
1.000000 1.000000 1.000000
0.000000 0.000000 0.058049
1.000000 1.000000 1.000000
1.000000 1.000000 1.000000
1.000000 1.000000 1.000000
1.000000 1.000000 1.000000
1.000000 1.000000 1.000000
1.000000 1.000000 1.000000
1.000000 1.000000 1.000000
1.000000 1.000000 1.000000
0.000000 0.000000 1.000000
0.000000 1.000000 0.000000
0.000000 0.000000 0.000000
0.000000 0.000000 0.000000
0.000000 0.000000 0.000000
0.000000 0.402014 0.000000
0.000000 1.000000 0.000000
0.000000 1.000000 0.000000
0.000000 1.000000 0.000000
1.000000 1.000000 0.000000
0.763907 1.000000 0.000000
0.000000 0.261832 0.000000
0.000000 0.000000 0.000000
0.000000 0.092226 0.000000
0.000000 1.000000 0.000000
0.000000 1.000000 0.000000
0.444406 1.000000 0.000000
1.000000 1.000000 0.304307
1.000000 1.000000 1.000000
1.000000 1.000000 0.000000
0.441810 0.553895 0.000000
0.000000 0.219988 0.000000
0.000000 0.691527 0.000000
0.000000 1.000000 0.000000
0.892552 1.000000 0.275771
1.000000 1.000000 1.000000
1.000000 1.000000 1.000000
1.000000 1.000000 1.000000
1.000000 1.000000 0.000000
0.995888 0.469137 0.000000
0.589032 0.352565 0.000000
0.607901 0.908391 0.131382
1.000000 1.000000 0.812245
1.000000 1.000000 1.000000
1.000000 1.000000 1.000000
1.000000 1.000000 1.000000
1.000000 1.000000 1.000000
1.000000 0.517985 0.170262
1.000000 0.173252 0.121564
1.000000 0.285563 0.350351
1.000000 0.922683 0.842781
1.000000 1.000000 1.000000
1.000000 1.000000 1.000000
1.000000 1.000000 1.000000
1.000000 1.000000 1.000000
1.000000 1.000000 1.000000
0.927594 0.000000 0.232473
1.000000 0.000000 0.331853
1.000000 0.259955 0.667986
1.000000 0.982464 1.000000
1.000000 1.000000 1.000000
1.000000 1.000000 1.000000
1.000000 1.000000 1.000000
1.000000 1.000000 1.000000
1.000000 1.000000 1.000000
1.000000 0.000000 0.463645
1.000000 0.000000 0.685837
1.000000 0.584908 1.000000
1.000000 1.000000 1.000000
1.000000 1.000000 1.000000
1.000000 1.000000 1.000000
1.000000 1.000000 1.000000
1.000000 1.000000 1.000000
1.000000 1.000000 1.000000
1.000000 0.000000 1.000000
1.000000 0.698671 1.000000
1.000000 1.000000 1.000000
1.000000 1.000000 1.000000
1.000000 1.000000 1.000000
1.000000 1.000000 1.000000
1.000000 1.000000 1.000000
1.000000 1.000000 1.000000
1.000000 1.000000 1.000000
1.000000 1.000000 1.000000
1.000000 1.000000 1.000000
1.000000 1.000000 1.000000
1.000000 1.000000 1.000000
1.000000 1.000000 1.000000
1.000000 1.000000 1.000000
1.000000 1.000000 1.000000
1.000000 1.000000 1.000000
1.000000 1.000000 1.000000
