public/luts/fuji_400h.cube
# Generated from ColorChecker fit
LUT_3D_SIZE 33
DOMAIN_MIN 0.0 0.0 0.0
DOMAIN_MAX 1.0 1.0 1.0
0.188097 0.000000 0.195288
0.091041 0.000000 0.165953
0.000000 0.000000 0.138832
0.000000 0.000000 0.113979
0.000000 0.000000 0.091427
0.000000 0.000000 0.071187
0.000000 0.000000 0.053246
0.000000 0.000000 0.037568
0.000000 0.000000 0.024095
0.000000 0.000000 0.012748
0.000000 0.000000 0.003422
0.000000 0.000000 0.000000
0.000000 0.000000 0.000000
0.000000 0.000000 0.000000
0.000000 0.000000 0.000000
0.000000 0.000000 0.000000
0.000000 0.000000 0.000000
0.000000 0.000000 0.000000
0.000000 0.000000 0.000000
0.000000 0.000000 0.000000
0.000000 0.000000 0.000000
0.000000 0.000000 0.000000
0.000000 0.000000 0.000000
0.000000 0.000000 0.000000
0.000000 0.000000 0.000000
0.000000 0.000000 0.000000
0.000000 0.000000 0.000000
0.000000 0.000000 0.000000
0.000000 0.000000 0.000000
0.000000 0.000000 0.000000
0.000000 0.000000 0.000000
0.000000 0.000000 0.000000
0.000000 0.000000 0.000000
0.176456 0.000000 0.250204
0.089954 0.000000 0.226453
0.005594 0.000000 0.205058
0.000000 0.000000 0.186050
0.000000 0.000000 0.169439
0.000000 0.000000 0.155212
0.000000 0.000000 0.143333
0.000000 0.000000 0.133742
0.000000 0.000000 0.126359
0.000000 0.000000 0.121080
0.000000 0.000000 0.117778
0.000000 0.000000 0.116303
0.000000 0.000000 0.116484
0.000000 0.000000 0.118126
0.000000 0.000000 0.121011
0.000000 0.000000 0.124900
0.000000 0.000000 0.129530
0.000000 0.000000 0.134616
0.000000 0.000000 0.139849
0.000000 0.000000 0.144900
0.000000 0.000000 0.149414
0.000000 0.000000 0.153016
0.000000 0.000000 0.155307
0.000000 0.000000 0.155866
0.000000 0.000000 0.154248
0.000000 0.000000 0.149989
0.000000 0.000000 0.142597
0.000000 0.000000 0.131561
0.000000 0.000000 0.116346
0.000000 0.000000 0.096396
0.000000 0.000000 0.071129
0.000000 0.000000 0.039945
0.000000 0.000000 0.002216
0.158259 0.000000 0.292462
0.081846 0.000000 0.274166
0.008092 0.000000 0.258350
0.000000 0.000000 0.245021
0.000000 0.000000 0.234167
0.000000 0.000000 0.225750
0.000000 0.000000 0.219712
0.000000 0.000000 0.215969
0.000000 0.000000 0.214418
0.000000 0.000000 0.214930
0.000000 0.000000 0.217356
0.000000 0.000000 0.221523
0.000000 0.000000 0.227235
0.000000 0.000000 0.234276
0.000000 0.000000 0.242403
0.000000 0.000000 0.251353
0.000000 0.000000 0.260841
0.000000 0.000000 0.270557
0.000000 0.000000 0.280171
0.000000 0.000000 0.289327
0.000000 0.000000 0.297651
0.000000 0.000000 0.304741
0.000000 0.000000 0.310177
0.000000 0.000000 0.313513
0.000000 0.000000 0.314282
0.000000 0.000000 0.311994
0.000000 0.000000 0.306137
0.000000 0.000000 0.296174
0.000000 0.000000 0.281548
0.000000 0.000000 0.261679
0.000000 0.000000 0.235962
0.000000 0.000000 0.203773
0.000000 0.000000 0.164462
0.134214 0.000000 0.322021
0.067417 0.000000 0.309064
0.003752 0.000000 0.298692
0.000000 0.000000 0.290890
0.000000 0.000000 0.285621
0.000000 0.000000 0.282825
0.000000 0.000000 0.282420
0.000000 0.000000 0.284298
0.000000 0.000000 0.288333
0.000000 0.000000 0.294373
0.000000 0.000000 0.302246
0.000000 0.000000 0.311754
0.000000 0.000000 0.322680
0.000000 0.000000 0.334781
0.000000 0.000000 0.347794
0.000000 0.000000 0.361431
0.000000 0.000000 0.375384
0.000000 0.000000 0.389320
0.000000 0.000000 0.402885
0.000000 0.000000 0.415700
0.000000 0.000000 0.427366
0.000000 0.000000 0.437461
0.000000 0.000000 0.445537
0.000000 0.000000 0.451129
0.000000 0.000000 0.453744
0.000000 0.000000 0.452869
0.000000 0.000000 0.447969
0.000000 0.000000 0.438484
0.000000 0.000000 0.423834
0.000000 0.000000 0.403413
0.000000 0.000000 0.376595
0.000000 0.000000 0.342732
0.000000 0.000000 0.301150
0.105240 0.000000 0.339056
0.047578 0.000000 0.331335
0.000000 0.000000 0.326286
0.000000 0.000000 0.323872
0.000000 0.000000 0.324030
0.000000 0.000000 0.326678
0.000000 0.000000 0.331710
0.000000 0.000000 0.338997
0.000000 0.000000 0.348386
0.000000 0.000000 0.359704
0.000000 0.000000 0.372754
0.000000 0.000000 0.387317
0.000000 0.000000 0.403150
0.000000 0.000000 0.419988
0.000000 0.000000 0.437544
0.000000 0.000000 0.455508
0.000000 0.000000 0.473546
0.000000 0.000000 0.491304
0.000000 0.000000 0.508403
0.000000 0.000000 0.524442
0.000000 0.000000 0.538998
0.000000 0.000000 0.551624
0.000000 0.000000 0.561852
0.000000 0.000000 0.569190
0.000000 0.000000 0.573124
0.000000 0.000000 0.573118
0.000000 0.000000 0.568611
0.000000 0.000000 0.559022
0.000000 0.000000 0.543745
0.000000 0.000000 0.522154
0.000000 0.000000 0.493597
0.000000 0.037550 0.457403
0.000000 0.176640 0.412876
0.072463 0.000000 0.343960
0.023450 0.000000 0.341386
0.000000 0.000000 0.341552
0.000000 0.000000 0.344398
0.000000 0.000000 0.349839
0.000000 0.000000 0.357768
0.000000 0.000000 0.368055
0.000000 0.000000 0.380549
0.000000 0.000000 0.395074
0.000000 0.000000 0.411433
0.000000 0.000000 0.429406
0.000000 0.000000 0.448748
0.000000 0.000000 0.469196
0.000000 0.000000 0.490460
0.000000 0.000000 0.512230
0.000000 0.000000 0.534172
0.000000 0.000000 0.555930
0.000000 0.000000 0.577124
0.000000 0.000000 0.597354
0.000000 0.000000 0.616195
0.000000 0.000000 0.633201
0.000000 0.000000 0.647900
0.000000 0.000000 0.659802
0.000000 0.000000 0.668392
0.000000 0.000000 0.673131
0.000000 0.000000 0.673460
0.000000 0.000000 0.668796
0.000000 0.000000 0.658533
0.000000 0.000000 0.642043
0.000000 0.000000 0.618674
0.000000 0.091517 0.587755
0.000000 0.211205 0.548587
0.000000 0.348884 0.500453
0.037223 0.000000 0.337344
0.000000 0.000000 0.339839
0.000000 0.000000 0.345126
0.000000 0.000000 0.353119
0.000000 0.000000 0.363710
0.000000 0.000000 0.376770
0.000000 0.000000 0.392144
0.000000 0.000000 0.409659
0.000000 0.000000 0.429114
0.000000 0.000000 0.450289
0.000000 0.000000 0.472941
0.000000 0.000000 0.496803
0.000000 0.000000 0.521586
0.000000 0.000000 0.546978
0.000000 0.000000 0.572645
0.000000 0.000000 0.598231
0.000000 0.000000 0.623355
0.000000 0.000000 0.647615
0.000000 0.000000 0.670586
0.000000 0.000000 0.691820
0.000000 0.000000 0.710848
0.000000 0.000000 0.727175
0.000000 0.000000 0.740288
0.000000 0.000000 0.749646
0.000000 0.000000 0.754690
0.000000 0.000000 0.754835
0.000000 0.000000 0.749475
0.000000 0.000000 0.737982
0.000000 0.056187 0.719704
0.000000 0.144128 0.693966
0.000000 0.246221 0.660071
0.000000 0.363881 0.617301
0.000000 0.498587 0.564912
0.001066 0.000000 0.320035
0.000000 0.000000 0.327537
0.000000 0.000000 0.337862
0.000000 0.000000 0.350902
0.000000 0.000000 0.366525
0.000000 0.000000 0.384578
0.000000 0.000000 0.404884
0.000000 0.000000 0.427244
0.000000 0.000000 0.451437
0.000000 0.000000 0.477218
0.000000 0.000000 0.504320
0.000000 0.000000 0.532453
0.000000 0.000000 0.561305
0.000000 0.000000 0.590541
0.000000 0.000000 0.619802
0.000000 0.000000 0.648710
0.000000 0.000000 0.676859
0.000000 0.000000 0.703826
0.000000 0.000000 0.729161
0.000000 0.000000 0.752393
0.000000 0.000000 0.773029
0.000000 0.000000 0.790553
0.000000 0.000000 0.804424
0.000000 0.000000 0.814082
0.000000 0.000000 0.818943
0.000000 0.003950 0.818398
0.000000 0.058015 0.811819
0.000000 0.121612 0.798553
0.000000 0.195911 0.777925
0.000000 0.282152 0.749237
0.025521 0.381640 0.711769
0.072494 0.495749 0.664778
0.126569 0.625919 0.607498
0.000000 0.000000 0.293080
0.000000 0.000000 0.305538
0.000000 0.000000 0.320833
0.000000 0.000000 0.338832
0.000000 0.000000 0.359381
0.000000 0.000000 0.382304
0.000000 0.000000 0.407399
0.000000 0.000000 0.434444
0.000000 0.000000 0.463195
0.000000 0.000000 0.493384
0.000000 0.000000 0.524719
0.000000 0.000000 0.556889
0.000000 0.000000 0.589557
0.000000 0.000000 0.622364
0.000000 0.000000 0.654930
0.000000 0.000000 0.686850
0.000000 0.000000 0.717699
0.000000 0.000000 0.747027
0.000000 0.000000 0.774362
0.000000 0.000000 0.799210
0.000000 0.000000 0.821054
0.000000 0.000000 0.839354
0.000000 0.012968 0.853547
0.000000 0.046486 0.863048
0.000000 0.085722 0.867251
0.003364 0.131605 0.865523
0.026039 0.185130 0.857213
0.052060 0.247360 0.841644
0.081913 0.319426 0.818117
0.116121 0.402526 0.785913
0.155251 0.497926 0.744286
0.199912 0.606958 0.692472
0.250754 0.731023 0.629679
0.000000 0.000000 0.257741
0.000000 0.000000 0.275119
0.000000 0.000000 0.295327
0.000000 0.000000 0.318212
0.000000 0.000000 0.343595
0.000000 0.000000 0.371275
0.000000 0.000000 0.401030
0.000000 0.000000 0.432613
0.000000 0.000000 0.465756
0.000000 0.000000 0.500167
0.000000 0.000000 0.535534
0.000000 0.000000 0.571518
0.000000 0.000000 0.607761
0.000000 0.000000 0.643882
0.000000 0.000000 0.679475
0.000000 0.000000 0.714113
0.000000 0.000000 0.747347
0.000000 0.007462 0.778704
0.000000 0.027592 0.807688
0.006802 0.049264 0.833782
0.021083 0.073031 0.856446
0.036154 0.099509 0.875116
0.052208 0.129385 0.889207
0.069480 0.163411 0.898109
0.088248 0.202408 0.901191
0.108832 0.247264 0.897801
0.131590 0.298933 0.887261
0.156926 0.358438 0.868872
0.185284 0.426869 0.841913
0.217149 0.505385 0.805638
0.253050 0.595209 0.759281
0.293555 0.697633 0.702051
0.339276 0.814019 0.633137
0.000000 0.000000 0.215499
0.000000 0.000000 0.237772
0.000000 0.000000 0.262853
0.000000 0.000000 0.290562
0.000000 0.000000 0.320699
0.000000 0.000000 0.353040
0.000000 0.000000 0.387338
0.000000 0.000000 0.423323
0.000000 0.000000 0.460705
0.000000 0.000000 0.499168
0.000000 0.000000 0.538374
0.000000 0.000000 0.577965
0.000000 0.000000 0.617557
0.000000 0.019237 0.656745
0.001927 0.041958 0.695101
0.018534 0.064269 0.732175
0.035204 0.086409 0.767493
0.051882 0.108687 0.800560
0.068558 0.131478 0.830856
0.085260 0.155225 0.857841
0.102059 0.180437 0.880950
0.119068 0.207692 0.899597
0.136442 0.237635 0.913173
0.154377 0.270979 0.921046
0.173110 0.308503 0.922561
0.192923 0.351054 0.917041
0.214136 0.399548 0.903786
0.237112 0.454965 0.882073
0.262257 0.518356 0.851158
0.290017 0.590837 0.810272
0.320881 0.673593 0.758626
0.355379 0.767876 0.695404
0.394083 0.875005 0.619773
0.000000 0.000000 0.168053
0.000000 0.000000 0.195210
0.000000 0.000000 0.225133
0.000000 0.000000 0.257619
0.000000 0.000000 0.292444
0.000000 0.000000 0.329361
0.000000 0.000000 0.368099
0.000000 0.000000 0.408365
0.000000 0.000000 0.449846
0.000000 0.000000 0.492201
0.000000 0.019703 0.535071
0.000000 0.049383 0.578073
0.015303 0.077991 0.620800
0.035872 0.105522 0.662823
0.056388 0.132041 0.703692
0.076674 0.157682 0.742932
0.096595 0.182644 0.780047
0.116058 0.207193 0.814517
0.135011 0.231666 0.845800
0.153444 0.256463 0.873332
0.171389 0.282055 0.896525
0.188921 0.308978 0.914770
0.206155 0.337837 0.927433
0.223247 0.369302 0.933859
0.240398 0.404115 0.933371
0.257847 0.443081 0.925268
0.275877 0.487074 0.908826
0.294812 0.537036 0.883300
0.315018 0.593976 0.847920
0.336903 0.658970 0.801896
0.360916 0.733162 0.744413
0.387549 0.817764 0.674635
0.417333 0.914053 0.591703
0.000000 0.000000 0.117319
0.000000 0.000000 0.149362
0.000000 0.000000 0.184111
0.000000 0.000000 0.221339
0.000000 0.000000 0.260799
0.000000 0.000000 0.302219
0.000000 0.000000 0.345307
0.000000 0.000000 0.389747
0.000000 0.023472 0.435198
0.000000 0.059959 0.481301
0.013764 0.095270 0.527671
0.037765 0.129229 0.573901
0.061875 0.161724 0.619562
0.085795 0.192712 0.664202
0.109267 0.222218 0.707345
0.132075 0.250334 0.748496
0.154045 0.277218 0.787132
0.175045 0.303098 0.822713
0.194985 0.328268 0.854672
0.213815 0.353088 0.882421
0.231528 0.377989 0.905350
0.248160 0.403466 0.922825
0.263786 0.430083 0.934190
0.278525 0.458471 0.938767
0.292536 0.489330 0.935854
0.306022 0.523424 0.924727
0.319225 0.561589 0.904639
0.332430 0.604724 0.874821
0.345965 0.653798 0.834481
0.360197 0.709847 0.782804
0.375538 0.773974 0.718952
0.392439 0.847350 0.642067
0.411395 0.931212 0.551265
0.000000 0.000000 0.065429
0.000000 0.000000 0.102374
0.000000 0.000000 0.141945
0.000000 0.000000 0.183894
0.000000 0.000000 0.227949
0.000000 0.000000 0.273815
0.000000 0.008922 0.321176
0.000000 0.051871 0.369692
0.004686 0.093933 0.419002
0.031043 0.134753 0.468720
0.057950 0.174047 0.518438
0.084985 0.211595 0.567728
0.111769 0.247247 0.616135
0.137963 0.280919 0.663185
0.163270 0.312595 0.708379
0.187435 0.342325 0.751196
0.210246 0.370230 0.791094
0.231531 0.396494 0.827505
0.251160 0.421371 0.859841
0.269045 0.445183 0.887491
0.285140 0.468317 0.909821
0.299442 0.491230 0.926173
0.311986 0.514444 0.935868
0.322852 0.538551 0.938204
0.332161 0.564208 0.932457
0.340076 0.592141 0.917878
0.346800 0.623144 0.893698
0.352580 0.658075 0.859124
0.357703 0.697864 0.813341
0.362499 0.743505 0.755510
0.367339 0.796062 0.684770
0.372637 0.856663 0.600239
0.378845 0.926508 0.501010
0.000000 0.000000 0.014735
0.000000 0.000000 0.056610
0.000000 0.000000 0.101014
0.000000 0.000000 0.147675
0.000000 0.000000 0.196297
0.000000 0.027385 0.246563
0.000000 0.075470 0.298134
0.023659 0.122815 0.350645
0.052022 0.168959 0.403711
0.081110 0.213507 0.456925
0.110423 0.256134 0.509855
0.139497 0.296579 0.562048
0.167916 0.334653 0.613027
0.195300 0.370230 0.662294
0.221315 0.403254 0.709327
0.245666 0.433735 0.753582
0.268101 0.461751 0.794492
0.288410 0.487449 0.831467
0.306424 0.511041 0.863895
0.322015 0.532807 0.891142
0.335100 0.553095 0.912550
0.345633 0.572321 0.927438
0.353614 0.590967 0.935104
0.359082 0.609583 0.934823
0.362119 0.628788 0.925845
0.362848 0.649265 0.907401
0.361435 0.671767 0.878696
0.358086 0.697114 0.838915
0.353051 0.726194 0.787219
0.346619 0.759961 0.722746
0.339122 0.799437 0.644611
0.330935 0.845712 0.551909
0.322473 0.899942 0.443710
0.000000 0.000000 0.000000
0.000000 0.000000 0.014651
0.000000 0.000000 0.063911
0.000000 0.000000 0.115289
0.000000 0.042731 0.168465
0.024692 0.095490 0.223099
0.052624 0.147762 0.278828
0.082159 0.198978 0.335265
0.112671 0.248635 0.392001
0.143578 0.296301 0.448604
0.174338 0.341606 0.504621
0.204450 0.384253 0.559574
0.233457 0.424008 0.612964
0.260942 0.460707 0.664268
0.286529 0.494253 0.712942
0.309887 0.524616 0.758417
0.330723 0.551833 0.800104
0.348789 0.576009 0.837390
0.363876 0.597317 0.869638
0.375818 0.615996 0.896192
0.384490 0.632355 0.916369
0.389811 0.646767 0.929466
0.391740 0.659674 0.934757
0.390276 0.671587 0.931493
0.385464 0.683082 0.918903
0.377386 0.694804 0.896191
0.366170 0.707464 0.862542
0.351983 0.721842 0.817116
0.335034 0.738784 0.759050
0.315575 0.759205 0.687460
0.293899 0.784086 0.601437
0.270341 0.814477 0.500053
0.245277 0.851493 0.382353
0.000000 0.000000 0.000000
0.005681 0.000000 0.000000
0.022823 0.000000 0.033450
0.044344 0.056209 0.089561
0.069414 0.113116 0.147291
0.097243 0.169894 0.206274
0.127084 0.225867 0.266123
0.158229 0.280425 0.326430
0.190016 0.333025 0.386761
0.221820 0.383192 0.446662
0.253063 0.430518 0.505654
0.283203 0.474664 0.563237
0.311745 0.515357 0.618889
0.338232 0.552391 0.672064
0.362251 0.585628 0.722193
0.383429 0.614999 0.768686
0.401436 0.640500 0.810928
0.415984 0.662195 0.848283
0.426824 0.680217 0.880092
0.433753 0.694764 0.905675
0.436607 0.706104 0.924325
0.435264 0.714571 0.935317
0.429644 0.720565 0.937900
0.419709 0.724557 0.931303
0.405462 0.727082 0.914730
0.386949 0.728744 0.887364
0.364257 0.730215 0.848364
0.337513 0.732234 0.796867
0.306890 0.735606 0.731988
0.272599 0.741206 0.652819
0.234893 0.749973 0.558427
0.194069 0.762917 0.447861
0.150464 0.781114 0.320143
0.079814 0.000000 0.000000
0.093940 0.009761 0.000000
0.113173 0.069036 0.012659
0.136600 0.129500 0.073535
0.163351 0.190300 0.135830
0.192597 0.250651 0.199156
0.223551 0.309834 0.263102
0.255468 0.367200 0.327236
0.287645 0.422165 0.391100
0.319420 0.474214 0.454218
0.350173 0.522898 0.516087
0.379325 0.567838 0.576185
0.406342 0.608719 0.633964
0.430726 0.645296 0.688855
0.452027 0.677390 0.740268
0.469832 0.704891 0.787587
0.483772 0.727755 0.830175
0.493520 0.746005 0.867372
0.498789 0.759734 0.898497
0.499334 0.769099 0.922844
0.494955 0.774327 0.939685
0.485488 0.775712 0.948270
0.470817 0.773614 0.947826
0.450863 0.768463 0.937557
0.425590 0.760753 0.916645
0.395005 0.751048 0.884249
0.359156 0.739979 0.839504
0.318132 0.728244 0.781526
0.272065 0.716609 0.709403
0.221128 0.705906 0.622206
0.165536 0.697036 0.518979
0.105545 0.690968 0.398745
0.041454 0.688736 0.260506
0.195807 0.020894 0.000000
0.211591 0.082394 0.000000
0.232290 0.145760 0.004785
0.256953 0.210032 0.070471
0.284671 0.274316 0.137358
0.314576 0.337786 0.205033
0.345841 0.399685 0.273065
0.377684 0.459320 0.340995
0.409360 0.516069 0.408345
0.440170 0.569376 0.474613
0.469454 0.618751 0.539274
0.496595 0.663774 0.601781
0.521018 0.704091 0.661566
0.542189 0.739414 0.718034
0.559615 0.769526 0.770570
0.572847 0.794275 0.818538
0.581476 0.813576 0.861277
0.585134 0.827413 0.898102
0.583497 0.835837 0.928310
0.576282 0.838966 0.951170
0.563247 0.836985 0.965932
0.544191 0.830147 0.971823
0.518958 0.818774 0.968045
0.487430 0.803252 0.953779
0.449532 0.784037 0.928185
0.405233 0.761652 0.890396
0.354540 0.736688 0.839527
0.297504 0.709800 0.774667
0.234217 0.681716 0.694884
0.164814 0.653226 0.599223
0.089471 0.625192 0.486706
0.008404 0.598540 0.356333
0.000000 0.574265 0.207080
0.345840 0.097430 0.000000
0.362693 0.162979 0.000000
0.384226 0.230108 0.013295
0.409449 0.297817 0.083847
0.437414 0.365171 0.155364
0.467212 0.431305 0.227409
0.497980 0.495419 0.299527
0.528894 0.556782 0.371238
0.559172 0.614729 0.442038
0.588075 0.668665 0.511402
0.614904 0.718059 0.578784
0.639003 0.762451 0.643611
0.659757 0.801445 0.705291
0.676595 0.834714 0.763208
0.688983 0.862000 0.816723
0.696434 0.883110 0.865176
0.698498 0.897918 0.907882
0.694772 0.906369 0.944134
0.684889 0.908473 0.973204
0.668528 0.904306 0.994340
0.645408 0.894013 1.000000
0.615290 0.877809 1.000000
0.577977 0.855971 1.000000
0.533313 0.828848 0.983709
0.481185 0.796855 0.953101
0.421520 0.760472 0.909572
0.354289 0.720252 0.852211
0.279502 0.676809 0.780084
0.197213 0.630829 0.692237
0.107517 0.583063 0.587690
0.010550 0.534332 0.465442
0.000000 0.485521 0.324469
0.000000 0.437585 0.163725
0.534192 0.182205 0.000000
0.551519 0.251513 0.000000
0.573247 0.322073 0.041870
0.598346 0.392844 0.117359
0.625828 0.462851 0.193557
0.654748 0.531187 0.270006
0.684202 0.597012 0.346225
0.713326 0.659555 0.421712
0.741301 0.718111 0.495941
0.767347 0.772043 0.568361
0.790727 0.820780 0.638404
0.810747 0.863821 0.705473
0.826751 0.900730 0.768953
0.838128 0.931140 0.828205
0.844308 0.954751 0.882567
0.844763 0.971330 0.931353
0.839005 0.980712 0.973856
0.826589 0.982800 1.000000
0.807113 0.977562 1.000000
0.780214 0.965036 1.000000
0.745573 0.945326 1.000000
0.702913 0.918604 1.000000
0.651995 0.885110 1.000000
0.592627 0.845151 1.000000
0.524654 0.799099 0.995366
0.447967 0.747399 0.945760
0.362495 0.690557 0.881553
0.268211 0.629151 0.801787
0.165129 0.563825 0.705484
0.053305 0.495289 0.591641
0.000000 0.424324 0.459235
0.000000 0.351774 0.307216
0.000000 0.278555 0.134517
0.765350 0.275196 0.000000
0.782549 0.347971 0.014797
0.803825 0.421626 0.094411
0.828109 0.495079 0.174919
0.854374 0.567316 0.255863
0.881636 0.637388 0.336762
0.908951 0.704417 0.417111
0.935419 0.767588 0.496384
0.960178 0.826158 0.574032
0.982411 0.879448 0.649481
1.000000 0.926847 0.722139
1.000000 0.967814 0.791386
1.000000 1.000000 0.856584
1.000000 1.000000 0.917070
1.000000 1.000000 0.972157
1.000000 1.000000 1.000000
1.000000 1.000000 1.000000
0.984952 1.000000 1.000000
0.954527 1.000000 1.000000
0.915692 1.000000 1.000000
0.868087 0.990811 1.000000
0.811395 0.952419 1.000000
0.745342 0.906071 1.000000
0.669692 0.852035 1.000000
0.584255 0.790643 1.000000
0.488880 0.722297 1.000000
0.383459 0.647466 0.931769
0.267924 0.566685 0.844004
0.142252 0.480557 0.738867
0.006458 0.389753 0.615333
0.000000 0.295013 0.472352
0.000000 0.197140 0.308855
0.000000 0.097009 0.123748
1.000000 0.376360 0.006123
1.000000 0.452303 0.090035
1.000000 0.528712 0.175034
1.000000 0.604464 0.260658
1.000000 0.678503 0.346427
1.000000 0.749843 0.431835
1.000000 0.817561 0.516355
1.000000 0.880805 0.599437
1.000000 0.938789 0.680508
1.000000 0.990795 0.758972
1.000000 1.000000 0.834212
1.000000 1.000000 0.905586
1.000000 1.000000 0.972432
1.000000 1.000000 1.000000
1.000000 1.000000 1.000000
1.000000 1.000000 1.000000
1.000000 1.000000 1.000000
1.000000 1.000000 1.000000
1.000000 1.000000 1.000000
1.000000 1.000000 1.000000
1.000000 1.000000 1.000000
0.945286 0.979114 1.000000
0.862557 0.918711 1.000000
0.769043 0.849353 1.000000
0.664514 0.771334 1.000000
0.548780 0.685012 1.000000
0.421693 0.590817 1.000000
0.283147 0.489244 0.911180
0.133080 0.380855 0.796845
0.000000 0.266281 0.663235
0.000000 0.146219 0.509279
0.000000 0.021435 0.333883
0.000000 0.000000 0.135930
1.000000 0.485628 0.107875
1.000000 0.564436 0.197563
1.000000 0.643253 0.288074
1.000000 0.720916 0.378925
1.000000 0.796327 0.469609
1.000000 0.868458 0.559599
1.000000 0.936349 0.648344
1.000000 0.999105 0.735270
1.000000 1.000000 0.819782
1.000000 1.000000 0.901259
1.000000 1.000000 0.979062
1.000000 1.000000 1.000000
1.000000 1.000000 1.000000
1.000000 1.000000 1.000000
1.000000 1.000000 1.000000
1.000000 1.000000 1.000000
1.000000 1.000000 1.000000
1.000000 1.000000 1.000000
1.000000 1.000000 1.000000
1.000000 1.000000 1.000000
1.000000 1.000000 1.000000
1.000000 0.998526 1.000000
1.000000 0.922862 1.000000
0.895423 0.836934 1.000000
0.770166 0.740994 1.000000
0.632393 0.635362 1.000000
0.481917 0.520425 1.000000
0.318594 0.396638 1.000000
0.142319 0.264524 0.884093
0.000000 0.124672 0.740038
0.000000 0.000000 0.574718
0.000000 0.000000 0.387016
0.000000 0.000000 0.175791
1.000000 0.602907 0.246297
1.000000 0.684274 0.341921
1.000000 0.765150 0.438085
1.000000 0.844329 0.534284
1.000000 0.920676 0.629988
1.000000 0.993120 0.724646
1.000000 1.000000 0.817683
1.000000 1.000000 0.908503
1.000000 1.000000 0.996485
1.000000 1.000000 1.000000
1.000000 1.000000 1.000000
1.000000 1.000000 1.000000
1.000000 1.000000 1.000000
1.000000 1.000000 1.000000
1.000000 1.000000 1.000000
1.000000 1.000000 1.000000
1.000000 1.000000 1.000000
1.000000 1.000000 1.000000
1.000000 1.000000 1.000000
1.000000 1.000000 1.000000
1.000000 1.000000 1.000000
1.000000 1.000000 1.000000
1.000000 0.918334 1.000000
1.000000 0.814582 1.000000
0.906158 0.699425 1.000000
0.744660 0.573142 1.000000
0.569065 0.436081 1.000000
0.379188 0.288656 1.000000
0.174887 0.131348 1.000000
0.000000 0.000000 0.850647
0.000000 0.000000 0.673588
0.000000 0.000000 0.473186
0.000000 0.000000 0.248278
1.000000 0.728080 0.426132
1.000000 0.811696 0.527864
1.000000 0.894275 0.629837
1.000000 0.974575 0.731520
1.000000 1.000000 0.832361
1.000000 1.000000 0.931785
1.000000 1.000000 1.000000
1.000000 1.000000 1.000000
1.000000 1.000000 1.000000
1.000000 1.000000 1.000000
1.000000 1.000000 1.000000
1.000000 1.000000 1.000000
1.000000 1.000000 1.000000
1.000000 1.000000 1.000000
1.000000 1.000000 1.000000
1.000000 1.000000 1.000000
1.000000 1.000000 1.000000
1.000000 1.000000 1.000000
1.000000 1.000000 1.000000
1.000000 1.000000 1.000000
1.000000 1.000000 1.000000
1.000000 1.000000 1.000000
1.000000 0.904911 1.000000
1.000000 0.782077 1.000000
1.000000 0.646402 1.000000
0.890728 0.498125 1.000000
0.688276 0.337553 1.000000
0.470064 0.165058 1.000000
0.235910 0.000000 1.000000
0.000000 0.000000 1.000000
0.000000 0.000000 0.811027
0.000000 0.000000 0.597544
0.000000 0.000000 0.358553
1.000000 0.861009 0.652342
1.000000 0.946557 0.760368
1.000000 1.000000 0.868316
1.000000 1.000000 0.975632
1.000000 1.000000 1.000000
1.000000 1.000000 1.000000
1.000000 1.000000 1.000000
1.000000 1.000000 1.000000
1.000000 1.000000 1.000000
1.000000 1.000000 1.000000
1.000000 1.000000 1.000000
1.000000 1.000000 1.000000
1.000000 1.000000 1.000000
1.000000 1.000000 1.000000
1.000000 1.000000 1.000000
1.000000 1.000000 1.000000
1.000000 1.000000 1.000000
1.000000 1.000000 1.000000
1.000000 1.000000 1.000000
1.000000 1.000000 1.000000
1.000000 1.000000 1.000000
1.000000 1.000000 1.000000
1.000000 0.882355 1.000000
1.000000 0.739176 1.000000
1.000000 0.581678 1.000000
1.000000 0.410059 1.000000
0.844903 0.224584 1.000000
