public/luts/fuji_fortia_50.cube
# Generated from ColorChecker fit
LUT_3D_SIZE 33
DOMAIN_MIN 0.0 0.0 0.0
DOMAIN_MAX 1.0 1.0 1.0
0.000000 0.000000 0.000000
0.000000 0.000000 0.000000
0.000000 0.000000 0.000000
0.000000 0.000000 0.019098
0.000000 0.000000 0.059026
0.000000 0.000000 0.098728
0.000000 0.000000 0.138322
0.000000 0.000000 0.177871
0.000000 0.000000 0.217383
0.000000 0.000000 0.256814
0.000000 0.016535 0.296065
0.000000 0.042685 0.334983
0.003125 0.070224 0.373361
0.033456 0.098631 0.410938
0.065974 0.127296 0.447400
0.099955 0.155511 0.482376
0.134595 0.182476 0.515445
0.169009 0.207299 0.546128
0.202233 0.228992 0.573896
0.233221 0.246472 0.598164
0.260849 0.258566 0.618291
0.283909 0.264004 0.633585
0.301116 0.261423 0.643300
0.311103 0.249367 0.646633
0.312422 0.226286 0.642731
0.303547 0.190535 0.630683
0.282869 0.140377 0.609528
0.248700 0.073980 0.578247
0.199271 0.000000 0.535770
0.132733 0.000000 0.480971
0.047156 0.000000 0.412671
0.000000 0.000000 0.329638
0.000000 0.000000 0.230584
0.036848 0.000000 0.000000
0.013158 0.000000 0.000000
0.000000 0.000000 0.000000
0.000000 0.000000 0.010167
0.000000 0.000000 0.050959
0.000000 0.000000 0.091636
0.000000 0.001976 0.132297
0.000000 0.017665 0.172989
0.000000 0.035953 0.213701
0.000000 0.056703 0.254370
0.012045 0.079688 0.294880
0.034068 0.104583 0.335060
0.059353 0.130972 0.374683
0.087339 0.158345 0.413472
0.117387 0.186097 0.451093
0.148775 0.213531 0.487159
0.180704 0.239853 0.521229
0.212291 0.264179 0.552808
0.242574 0.285528 0.581346
0.270512 0.302828 0.606240
0.294983 0.314912 0.626834
0.314782 0.320518 0.642416
0.328628 0.318292 0.652220
0.335156 0.306785 0.655429
0.332921 0.284455 0.651167
0.320401 0.249666 0.638509
0.295989 0.200688 0.616473
0.258000 0.135697 0.584024
0.204670 0.052776 0.540072
0.134151 0.000000 0.483474
0.044517 0.000000 0.413033
0.000000 0.000000 0.327498
0.000000 0.000000 0.225563
0.097677 0.029628 0.000000
0.073332 0.030266 0.000000
0.053252 0.032360 0.000000
0.037681 0.036345 0.000000
0.026789 0.042563 0.040359
0.020660 0.051262 0.082120
0.019301 0.062596 0.123944
0.022638 0.076624 0.165858
0.030516 0.093314 0.207835
0.042700 0.112538 0.249794
0.058874 0.134075 0.291600
0.078642 0.157610 0.333063
0.101529 0.182734 0.373940
0.126976 0.208944 0.413934
0.154348 0.235644 0.452694
0.182926 0.262145 0.489814
0.211913 0.287661 0.524835
0.240431 0.311316 0.557244
0.267520 0.332138 0.586473
0.292143 0.349061 0.611901
0.313178 0.360926 0.632854
0.329427 0.366481 0.648600
0.339608 0.364379 0.658358
0.342363 0.353179 0.661290
0.336248 0.331346 0.656504
0.319744 0.297253 0.643055
0.291248 0.249179 0.619944
0.249077 0.185306 0.586117
0.191470 0.103726 0.540467
0.116583 0.002435 0.481832
0.022493 0.000000 0.408998
0.000000 0.000000 0.320694
0.000000 0.000000 0.215597
0.146843 0.093640 0.000000
0.121836 0.092437 0.000000
0.100906 0.092693 0.000000
0.084304 0.094853 0.000000
0.072200 0.099264 0.027624
0.064683 0.106184 0.070579
0.061762 0.115775 0.113661
0.063367 0.128104 0.156879
0.069345 0.143145 0.200189
0.079464 0.160781 0.243490
0.093411 0.180797 0.286630
0.110795 0.202886 0.329400
0.131141 0.226647 0.371540
0.153897 0.251587 0.412733
0.178427 0.277116 0.452612
0.204017 0.302553 0.490752
0.229873 0.327122 0.526675
0.255120 0.349952 0.559851
0.278801 0.370081 0.589694
0.299881 0.386451 0.615564
0.317243 0.397910 0.636769
0.329690 0.403214 0.652559
0.335945 0.401025 0.662135
0.334652 0.389909 0.664640
0.324370 0.368340 0.659166
0.303583 0.334698 0.644747
0.270691 0.287270 0.620368
0.224016 0.224248 0.584955
0.161797 0.143729 0.537385
0.082194 0.043719 0.476477
0.000000 0.000000 0.400997
0.000000 0.000000 0.309659
0.000000 0.000000 0.201120
0.185357 0.151073 0.000000
0.159718 0.148078 0.000000
0.137958 0.146535 0.000000
0.120332 0.146895 0.000000
0.107011 0.149515 0.013151
0.098088 0.154660 0.057411
0.093577 0.162500 0.101849
0.093407 0.173110 0.146454
0.097431 0.186473 0.191165
0.105420 0.202477 0.235862
0.117064 0.220918 0.280374
0.131973 0.241497 0.324477
0.149678 0.263820 0.367890
0.169627 0.287402 0.410280
0.191189 0.311661 0.451259
0.213654 0.335924 0.490386
0.236228 0.359422 0.527165
0.258041 0.381294 0.561046
0.278139 0.400585 0.591426
0.295490 0.416245 0.617648
0.308980 0.427130 0.638999
0.317415 0.432005 0.654714
0.319522 0.429537 0.663974
0.313944 0.418303 0.665904
0.299249 0.396785 0.659577
0.273920 0.363370 0.644012
0.236361 0.316352 0.618172
0.184897 0.253931 0.580969
0.117771 0.174215 0.531257
0.033146 0.075216 0.467841
0.000000 0.000000 0.389467
0.000000 0.000000 0.294830
0.000000 0.000000 0.182570
0.214224 0.202759 0.000000
0.188024 0.198042 0.000000
0.165493 0.194758 0.000000
0.146888 0.193365 0.000000
0.132386 0.194229 0.000000
0.122080 0.197623 0.043016
0.115988 0.203723 0.088908
0.114043 0.212615 0.134985
0.116100 0.224289 0.181165
0.121932 0.238641 0.227314
0.131234 0.255474 0.273241
0.143619 0.274498 0.318702
0.158620 0.295326 0.363400
0.175688 0.317482 0.406983
0.194196 0.340392 0.449046
0.213436 0.363390 0.489128
0.232619 0.385716 0.526717
0.250875 0.406517 0.561243
0.267256 0.424845 0.592086
0.280731 0.439658 0.618570
0.290189 0.449822 0.639964
0.294441 0.454108 0.655486
0.292215 0.451192 0.664297
0.282160 0.439658 0.665505
0.262843 0.417997 0.658165
0.232752 0.384603 0.641277
0.190295 0.337779 0.613787
0.133799 0.275733 0.574587
0.061509 0.196580 0.522515
0.000000 0.098340 0.456356
0.000000 0.000000 0.374839
0.000000 0.000000 0.276641
0.000000 0.000000 0.160383
0.234444 0.249498 0.000000
0.207794 0.243148 0.000000
0.184591 0.238200 0.000000
0.165094 0.235122 0.000000
0.149484 0.234285 0.000000
0.137858 0.235972 0.027792
0.130235 0.240366 0.075239
0.126552 0.247561 0.122873
0.126667 0.257556 0.170595
0.130358 0.270253 0.218252
0.137320 0.285465 0.265635
0.147170 0.302909 0.312483
0.159444 0.322207 0.358479
0.173597 0.342889 0.403255
0.189004 0.364390 0.446386
0.204960 0.386054 0.487394
0.220680 0.407126 0.525747
0.235297 0.426762 0.560860
0.247865 0.444023 0.592092
0.257357 0.457874 0.618750
0.262665 0.467189 0.640086
0.262602 0.470746 0.655297
0.255900 0.467232 0.663528
0.241210 0.455237 0.663869
0.217104 0.433258 0.655355
0.182072 0.399701 0.636970
0.134525 0.352875 0.607640
0.072792 0.290996 0.566240
0.000000 0.212187 0.511590
0.000000 0.114477 0.442456
0.000000 0.000000 0.357549
0.000000 0.000000 0.255529
0.000000 0.000000 0.134998
0.247014 0.292055 0.000000
0.220064 0.284183 0.000000
0.196327 0.277670 0.000000
0.176065 0.272993 0.000000
0.159461 0.270531 0.000000
0.146616 0.270574 0.012141
0.137552 0.273316 0.061243
0.132209 0.278855 0.110522
0.130449 0.287200 0.159858
0.132050 0.298261 0.209081
0.136713 0.311859 0.257965
0.144058 0.327718 0.306228
0.153622 0.345470 0.353538
0.164865 0.364651 0.399507
0.177164 0.384706 0.443691
0.189818 0.404983 0.485596
0.202044 0.424741 0.524672
0.212978 0.443139 0.560313
0.221678 0.459248 0.591863
0.227119 0.472040 0.618608
0.228197 0.480399 0.639784
0.223727 0.483110 0.654570
0.212445 0.478866 0.662091
0.193006 0.466268 0.661420
0.163982 0.443820 0.651574
0.123869 0.409935 0.631518
0.071078 0.362931 0.600162
0.003945 0.301031 0.556360
0.000000 0.222367 0.498915
0.000000 0.124976 0.426575
0.000000 0.006799 0.338034
0.000000 0.000000 0.231930
0.000000 0.000000 0.106852
0.252926 0.331165 0.000000
0.225866 0.321901 0.000000
0.201772 0.313942 0.000000
0.180911 0.307772 0.000000
0.163467 0.303782 0.000000
0.149545 0.302266 0.000000
0.139169 0.303426 0.047324
0.132284 0.307372 0.098335
0.128753 0.314116 0.149360
0.128358 0.323581 0.200209
0.130804 0.335591 0.250638
0.135712 0.349882 0.300348
0.142623 0.366091 0.348987
0.151001 0.383764 0.396150
0.160225 0.402353 0.441376
0.169597 0.421216 0.484151
0.178337 0.439616 0.523907
0.185584 0.456724 0.560021
0.190400 0.471616 0.591817
0.191762 0.483275 0.618566
0.188570 0.490589 0.639482
0.179642 0.492355 0.653728
0.163716 0.487272 0.660411
0.139450 0.473949 0.658585
0.105420 0.450898 0.647251
0.060125 0.416541 0.625352
0.001979 0.369203 0.591782
0.000000 0.307116 0.545378
0.000000 0.228418 0.484923
0.000000 0.131155 0.409148
0.000000 0.013278 0.316727
0.000000 0.000000 0.206283
0.000000 0.000000 0.076383
0.253168 0.367529 0.000000
0.226227 0.357022 0.000000
0.201994 0.347756 0.000000
0.180738 0.340222 0.000000
0.162648 0.334818 0.000000
0.147830 0.331847 0.000000
0.136312 0.331520 0.033885
0.128041 0.333953 0.086718
0.122884 0.339168 0.139507
0.120627 0.347093 0.192042
0.120975 0.357564 0.244063
0.123555 0.370322 0.295251
0.127910 0.385013 0.345238
0.133507 0.401191 0.393598
0.139728 0.418316 0.439854
0.145878 0.435753 0.483473
0.151180 0.452775 0.523869
0.154778 0.468559 0.560401
0.155733 0.482191 0.592375
0.153028 0.492660 0.619043
0.145566 0.498864 0.639602
0.132167 0.499605 0.653195
0.111572 0.493593 0.658914
0.082443 0.479444 0.655792
0.043359 0.455678 0.642812
0.000000 0.420724 0.618901
0.000000 0.372916 0.582932
0.000000 0.310494 0.533726
0.000000 0.231605 0.470048
0.000000 0.134301 0.390609
0.000000 0.016541 0.294067
0.000000 0.000000 0.179025
0.000000 0.000000 0.044033
0.248720 0.401815 0.000000
0.222169 0.390236 0.000000
0.198054 0.379821 0.000000
0.176649 0.371070 0.000000
0.158145 0.364388 0.000000
0.142652 0.360088 0.000000
0.130201 0.358386 0.021328
0.120741 0.359408 0.076075
0.114143 0.363183 0.130704
0.110195 0.369649 0.184989
0.108607 0.378648 0.238648
0.109006 0.389928 0.291349
0.110942 0.403146 0.342702
0.113881 0.417862 0.392264
0.117212 0.433544 0.439540
0.120240 0.449566 0.483979
0.122192 0.465208 0.524976
0.122215 0.479657 0.561873
0.119373 0.492003 0.593957
0.112653 0.501247 0.620461
0.100960 0.506293 0.640566
0.083117 0.505952 0.653397
0.057869 0.498942 0.658024
0.023879 0.483885 0.653467
0.000000 0.459311 0.638687
0.000000 0.423656 0.612594
0.000000 0.375263 0.574044
0.000000 0.312379 0.521839
0.000000 0.233159 0.454724
0.000000 0.135664 0.371395
0.000000 0.017860 0.270490
0.000000 0.000000 0.150594
0.000000 0.000000 0.010240
0.240563 0.434659 0.000000
0.214709 0.422198 0.000000
0.191010 0.410813 0.000000
0.169741 0.401012 0.000000
0.151096 0.393209 0.000000
0.135188 0.387723 0.000000
0.122051 0.384781 0.010057
0.111639 0.384513 0.066811
0.103824 0.386960 0.123359
0.098398 0.392064 0.179456
0.095073 0.399678 0.234805
0.093481 0.409557 0.289053
0.093173 0.421366 0.341792
0.093619 0.434673 0.392563
0.094210 0.448955 0.440850
0.094256 0.463592 0.486085
0.092985 0.477874 0.527646
0.089549 0.490993 0.564856
0.083014 0.502052 0.596983
0.072370 0.510055 0.623244
0.056524 0.513916 0.642800
0.034304 0.512455 0.654757
0.004457 0.504395 0.658170
0.000000 0.488370 0.652038
0.000000 0.462915 0.635305
0.000000 0.426476 0.606863
0.000000 0.377402 0.565550
0.000000 0.313949 0.510148
0.000000 0.234281 0.439387
0.000000 0.136465 0.351942
0.000000 0.018476 0.246434
0.000000 0.000000 0.121431
0.000000 0.000000 0.000000
0.229669 0.466662 0.000000
0.204862 0.453530 0.000000
0.181915 0.441375 0.000000
0.161106 0.430712 0.000000
0.142632 0.421964 0.000000
0.126610 0.415458 0.000000
0.113076 0.411427 0.000478
0.101988 0.410012 0.059332
0.093220 0.411260 0.117879
0.086567 0.415123 0.175855
0.081746 0.421459 0.232943
0.078389 0.430034 0.288774
0.076052 0.440519 0.342921
0.074209 0.452490 0.394907
0.072252 0.465433 0.444199
0.069494 0.478736 0.490209
0.065168 0.491696 0.532298
0.058427 0.503515 0.569770
0.048342 0.513300 0.601876
0.033905 0.520068 0.627814
0.014025 0.522738 0.646726
0.000000 0.520138 0.657703
0.000000 0.511000 0.659778
0.000000 0.493965 0.651934
0.000000 0.467577 0.633096
0.000000 0.430289 0.602140
0.000000 0.380459 0.557882
0.000000 0.316351 0.499089
0.000000 0.236136 0.424472
0.000000 0.137889 0.332687
0.000000 0.019595 0.222338
0.000000 0.000000 0.091974
0.000000 0.000000 0.000000
0.217008 0.498395 0.000000
0.193635 0.484822 0.000000
0.171816 0.472116 0.000000
0.151832 0.460800 0.000000
0.133881 0.451302 0.000000
0.118085 0.443961 0.000000
0.104482 0.439016 0.000000
0.093033 0.436616 0.054046
0.083615 0.436816 0.114672
0.076028 0.439576 0.174593
0.069989 0.444762 0.233473
0.065136 0.452149 0.290924
0.061026 0.461415 0.346503
0.057135 0.472145 0.399714
0.052861 0.483830 0.450004
0.047519 0.495870 0.496770
0.040345 0.507567 0.539351
0.030494 0.518133 0.577036
0.017041 0.526682 0.609058
0.000000 0.532239 0.634594
0.000000 0.533731 0.652771
0.000000 0.529994 0.662660
0.000000 0.519769 0.663276
0.000000 0.501703 0.653584
0.000000 0.474350 0.632492
0.000000 0.436170 0.598855
0.000000 0.385529 0.551474
0.000000 0.320699 0.489097
0.000000 0.239858 0.410415
0.000000 0.141092 0.314068
0.000000 0.022390 0.198641
0.000000 0.000000 0.062665
0.000000 0.000000 0.000000
0.203543 0.530395 0.000000
0.182034 0.516632 0.000000
0.161759 0.503614 0.000000
0.143002 0.491872 0.000000
0.125967 0.481842 0.000000
0.110776 0.473870 0.000000
0.097472 0.468204 0.000000
0.086017 0.465002 0.051360
0.076294 0.464325 0.114148
0.068103 0.466141 0.176081
0.061165 0.470326 0.236807
0.055122 0.476661 0.295918
0.049533 0.484833 0.352953
0.043879 0.494434 0.407398
0.037559 0.504966 0.458682
0.029891 0.515832 0.506184
0.020115 0.526347 0.549226
0.007389 0.535727 0.587077
0.000000 0.543096 0.618951
0.000000 0.547487 0.644010
0.000000 0.547835 0.661360
0.000000 0.542983 0.670055
0.000000 0.531681 0.669092
0.000000 0.512584 0.657418
0.000000 0.484254 0.633922
0.000000 0.445158 0.597442
0.000000 0.393671 0.546761
0.000000 0.328072 0.480606
0.000000 0.246549 0.397653
0.000000 0.147193 0.296523
0.000000 0.028004 0.175782
0.000000 0.000000 0.033944
0.000000 0.000000 0.000000
0.190236 0.563165 0.000000
0.171057 0.549484 0.000000
0.152782 0.536414 0.000000
0.135696 0.524493 0.000000
0.120007 0.514168 0.000000
0.105841 0.505791 0.000000
0.093243 0.499618 0.000000
0.082178 0.495815 0.051682
0.072531 0.494452 0.116715
0.064107 0.495505 0.180730
0.056630 0.498856 0.243356
0.049744 0.504296 0.304168
0.043012 0.511519 0.362685
0.035916 0.520126 0.418375
0.027859 0.529625 0.470652
0.018164 0.539430 0.518872
0.006072 0.548860 0.562342
0.000000 0.557143 0.600312
0.000000 0.563410 0.631979
0.000000 0.566699 0.656485
0.000000 0.565957 0.672919
0.000000 0.560033 0.680316
0.000000 0.547685 0.677656
0.000000 0.527576 0.663867
0.000000 0.498276 0.637820
0.000000 0.458261 0.598335
0.000000 0.405913 0.544176
0.000000 0.339519 0.474053
0.000000 0.257275 0.386624
0.000000 0.157281 0.280491
0.000000 0.037544 0.154202
0.000000 0.000000 0.006253
0.000000 0.000000 0.000000
0.178040 0.597178 0.000000
0.161700 0.583869 0.000000
0.145919 0.571026 0.000000
0.130988 0.559196 0.000000
0.117117 0.548832 0.000000
0.104434 0.540295 0.000000
0.092988 0.533850 0.000000
0.082748 0.529669 0.055420
0.073601 0.527830 0.122784
0.065355 0.528319 0.188952
0.057737 0.531025 0.253535
0.050394 0.535746 0.316088
0.042892 0.542186 0.376115
0.034717 0.549952 0.433064
0.025274 0.558561 0.486331
0.013889 0.567435 0.535254
0.000000 0.575902 0.579122
0.000000 0.583195 0.617166
0.000000 0.588456 0.648566
0.000000 0.590730 0.672445
0.000000 0.588971 0.687875
0.000000 0.582037 0.693871
0.000000 0.568694 0.689397
0.000000 0.547613 0.673361
0.000000 0.517372 0.644617
0.000000 0.476454 0.601966
0.000000 0.423250 0.544155
0.000000 0.356056 0.469875
0.000000 0.273074 0.377766
0.000000 0.172412 0.266411
0.000000 0.052086 0.134342
0.000000 0.000000 0.000000
0.000000 0.000000 0.000000
0.167908 0.632871 0.000000
0.154952 0.620246 0.000000
0.142202 0.607930 0.000000
0.129948 0.596479 0.000000
0.118405 0.586353 0.000000
0.107705 0.577922 0.000000
0.097898 0.571458 0.000000
0.088957 0.567141 0.062983
0.080772 0.565059 0.132765
0.073153 0.565203 0.201158
0.065832 0.567473 0.267755
0.058458 0.571672 0.332094
0.050601 0.577514 0.393659
0.041748 0.584613 0.451882
0.031309 0.592496 0.506138
0.018613 0.600590 0.555750
0.002906 0.608232 0.599986
0.000000 0.614665 0.638062
0.000000 0.619036 0.669136
0.000000 0.620400 0.692317
0.000000 0.617718 0.706655
0.000000 0.609857 0.711150
0.000000 0.595590 0.704745
0.000000 0.573597 0.686332
0.000000 0.542463 0.654747
0.000000 0.500679 0.608771
0.000000 0.446645 0.547133
0.000000 0.378663 0.468508
0.000000 0.294946 0.371516
0.000000 0.193608 0.254723
0.000000 0.072673 0.116642
0.000000 0.000000 0.000000
0.000000 0.000000 0.000000
0.160784 0.670650 0.000000
0.151801 0.659040 0.000000
0.142655 0.647572 0.000000
0.133642 0.636808 0.000000
0.124977 0.627218 0.000000
0.116797 0.619177 0.000000
0.109156 0.612969 0.001270
0.102027 0.608780 0.074782
0.095306 0.606705 0.147070
0.088806 0.606745 0.217761
0.082260 0.608806 0.286431
0.075321 0.612701 0.352600
0.067561 0.618150 0.415735
0.058472 0.624778 0.475246
0.047467 0.632115 0.530493
0.033875 0.639601 0.580781
0.016949 0.646579 0.625358
0.000000 0.652299 0.663423
0.000000 0.655918 0.694116
0.000000 0.656498 0.716526
0.000000 0.653007 0.729688
0.000000 0.644322 0.732581
0.000000 0.629223 0.724132
0.000000 0.606397 0.703213
0.000000 0.574438 0.668642
0.000000 0.531846 0.619184
0.000000 0.477026 0.553549
0.000000 0.408292 0.470392
0.000000 0.323861 0.368316
0.000000 0.221859 0.245869
0.000000 0.100315 0.101546
0.000000 0.000000 0.000000
0.000000 0.000000 0.000000
0.157612 0.710888 0.000000
0.153227 0.700645 0.000000
0.148299 0.690364 0.000000
0.143129 0.680616 0.000000
0.137933 0.671878 0.000000
0.132851 0.664535 0.000000
0.127941 0.658876 0.014916
0.123180 0.655098 0.091227
0.118464 0.653302 0.166109
0.113611 0.653498 0.239175
0.108358 0.655599 0.309979
0.102359 0.659427 0.378024
0.095190 0.664709 0.442758
0.086346 0.671079 0.503576
0.075243 0.678075 0.559817
0.061214 0.685144 0.610768
0.043513 0.691638 0.655661
0.021315 0.696814 0.693673
0.000000 0.699838 0.723930
0.000000 0.699779 0.745501
0.000000 0.695614 0.757402
0.000000 0.686227 0.758595
0.000000 0.670407 0.747988
0.000000 0.646848 0.724436
0.000000 0.614153 0.686739
0.000000 0.570829 0.633642
0.000000 0.515291 0.563837
0.000000 0.445858 0.475963
0.000000 0.360757 0.368604
0.000000 0.258121 0.240289
0.000000 0.135988 0.089495
0.000000 0.000000 0.000000
0.000000 0.000000 0.000000
0.159328 0.753926 0.000000
0.160207 0.745421 0.000000
0.160152 0.736687 0.000000
0.159466 0.728304 0.000000
0.158369 0.720756 0.000000
0.157003 0.714437 0.000000
0.155430 0.709642 0.033514
0.153629 0.706577 0.112728
0.151500 0.705352 0.190297
0.148864 0.705983 0.265812
0.145460 0.708394 0.338812
0.140946 0.712412 0.408781
0.134901 0.717774 0.475149
0.126824 0.724120 0.537291
0.116131 0.730997 0.594530
0.102161 0.737861 0.646134
0.084171 0.744071 0.691317
0.061336 0.748892 0.729239
0.032753 0.751497 0.759005
0.000000 0.750966 0.779668
0.000000 0.746281 0.790226
0.000000 0.736336 0.789622
0.000000 0.719926 0.776746
0.000000 0.695755 0.750435
0.000000 0.662432 0.709470
0.000000 0.618474 0.652580
0.000000 0.562303 0.578437
0.000000 0.492246 0.485662
0.000000 0.406538 0.372821
0.000000 0.303319 0.238426
0.000000 0.180637 0.080934
0.000000 0.036445 0.000000
0.000000 0.000000 0.000000
0.166864 0.800070 0.000000
0.173714 0.793695 0.000000
0.179225 0.786889 0.000000
0.183704 0.780240 0.000000
0.187376 0.774240 0.000000
0.190384 0.769289 0.000000
0.192792 0.765693 0.057473
0.194584 0.763665 0.139698
0.195664 0.763323 0.220045
0.195853 0.764690 0.298088
0.194895 0.767698 0.373347
0.192451 0.772184 0.445289
0.188104 0.777891 0.513324
0.181353 0.784468 0.576811
0.171620 0.791471 0.635054
0.158245 0.798361 0.687303
0.140488 0.804507 0.732752
0.117530 0.809182 0.770545
0.088468 0.811567 0.799769
0.052323 0.810748 0.819457
0.008032 0.805719 0.828590
0.000000 0.795378 0.826094
0.000000 0.778530 0.810839
0.000000 0.753887 0.781644
0.000000 0.720066 0.737273
0.000000 0.675591 0.676435
0.000000 0.618892 0.597786
0.000000 0.548305 0.499928
0.000000 0.462073 0.381409
0.000000 0.358345 0.240721
0.000000 0.235174 0.076305
0.000000 0.090522 0.000000
0.000000 0.000000 0.000000
0.181150 0.849594 0.000000
0.194714 0.845762 0.000000
0.206526 0.841284 0.000000
0.216892 0.836758 0.000000
0.226040 0.832683 0.000000
0.234119 0.829468 0.000128
0.241194 0.827426 0.087205
0.247253 0.826778 0.172548
0.252201 0.827650 0.255767
0.255865 0.830074 0.336417
0.257989 0.833989 0.414001
0.258240 0.839240 0.487965
0.256201 0.845579 0.557704
0.251377 0.852662 0.622557
0.243191 0.860053 0.681811
0.230988 0.867221 0.734696
0.214030 0.873543 0.780390
0.191499 0.878301 0.818018
0.162498 0.880683 0.846648
0.126050 0.879784 0.865297
0.081095 0.874604 0.872926
0.026494 0.864051 0.868442
0.000000 0.846937 0.850699
0.000000 0.821982 0.818498
0.000000 0.787812 0.770583
0.000000 0.742957 0.705645
0.000000 0.685857 0.622324
0.000000 0.614856 0.519202
0.000000 0.528203 0.394808
0.000000 0.424056 0.247618
0.000000 0.300476 0.076055
0.000000 0.155434 0.000000
0.000000 0.000000 0.000000
0.203107 0.902741 0.000000
0.224173 0.901883 0.000000
0.243057 0.900155 0.000000
0.260071 0.898160 0.000000
0.275445 0.896408 0.000000
0.289331 0.895315 0.032572
0.301797 0.895202 0.123121
0.312835 0.896297 0.211692
0.322352 0.898736 0.297878
0.330179 0.902557 0.381216
0.336062 0.907709 0.461189
0.339671 0.914043 0.537228
0.340593 0.921319 0.608708
0.338336 0.929203 0.674951
0.332326 0.937265 0.735223
0.321909 0.944984 0.788739
0.306352 0.951744 0.834657
0.284841 0.956834 0.872085
0.256481 0.959451 0.900072
0.220296 0.958697 0.917617
0.175232 0.953582 0.923663
0.120152 0.943020 0.917099
0.053841 0.925832 0.896762
0.000000 0.900746 0.861431
0.000000 0.866395 0.809836
0.000000 0.821319 0.740649
0.000000 0.763964 0.652490
0.000000 0.692682 0.543923
0.000000 0.605732 0.413461
0.000000 0.501278 0.259562
0.000000 0.377391 0.080627
0.000000 0.232048 0.000000
0.000000 0.063131 0.000000
0.233656 0.959719 0.000000
0.263047 0.962288 0.000000
0.289816 0.963749 0.000000
0.314279 0.964716 0.000000
0.336668 0.965705 0.000000
0.357137 0.967140 0.071488
0.375759 0.969351 0.165633
0.392528 0.972574 0.257543
0.407354 0.976951 0.346792
0.420071 0.982530 0.432900
0.430430 0.989267 0.515331
0.438101 0.997023 0.593498
0.442676 1.000000 0.666757
0.443664 1.000000 0.734413
0.440496 1.000000 0.795714
0.432522 1.000000 0.849855
0.419010 1.000000 0.895979
0.399150 1.000000 0.933173
0.372049 1.000000 0.960469
0.336735 1.000000 0.976848
0.292157 1.000000 0.981234
0.237181 1.000000 0.972499
0.170594 1.000000 0.949460
0.091102 0.990849 0.910881
0.000000 0.956507 0.855470
0.000000 0.911387 0.781884
0.000000 0.853944 0.688723
0.000000 0.782537 0.574535
0.000000 0.695433 0.437812
0.000000 0.590804 0.276995
0.000000 0.466730 0.090468
0.000000 0.321195 0.000000
0.000000 0.152090 0.000000
0.273710 1.000000 0.000000
0.312291 1.000000 0.000000
0.347798 1.000000 0.000000
0.380549 1.000000 0.000000
0.410781 1.000000 0.017301
0.438650 1.000000 0.117285
0.464232 1.000000 0.215153
0.487523 1.000000 0.310515
0.508439 1.000000 0.402926
0.526813 1.000000 0.491886
0.542402 1.000000 0.576845
0.554879 1.000000 0.657194
0.563838 1.000000 0.732273
0.568792 1.000000 0.801367
0.569174 1.000000 0.863707
0.564337 1.000000 0.918472
0.553553 1.000000 0.964783
0.536014 1.000000 1.000000
0.510831 1.000000 1.000000
0.477035 1.000000 1.000000
0.433577 1.000000 1.000000
0.379327 1.000000 1.000000
0.313075 1.000000 1.000000
0.233530 1.000000 0.967283
0.139322 1.000000 0.907924
0.028999 1.000000 0.829790
0.000000 0.956497 0.731466
0.000000 0.885140 0.611478
0.000000 0.798046 0.468304
0.000000 0.693395 0.300363
0.000000 0.569274 0.106024
0.000000 0.423677 0.000000
0.000000 0.254501 0.000000
0.324179 1.000000 0.000000
0.372854 1.000000 0.000000
0.417991 1.000000 0.000000
0.459911 1.000000 0.000000
0.498853 1.000000 0.066272
0.534977 1.000000 0.170376
0.568363 1.000000 0.272096
0.599008 1.000000 0.371023
0.626832 1.000000 0.466694
0.651673 1.000000 0.558593
0.673287 1.000000 0.646148
0.691353 1.000000 0.728735
0.705467 1.000000 0.805675
0.715145 1.000000 0.876235
0.719824 1.000000 0.939628
0.718859 1.000000 0.995013
0.711525 1.000000 1.000000
0.697018 1.000000 1.000000
0.674451 1.000000 1.000000
0.642859 1.000000 1.000000
0.601196 1.000000 1.000000
0.548334 1.000000 1.000000
0.483067 1.000000 1.000000
0.404107 1.000000 1.000000
0.310086 1.000000 0.967635
0.199556 1.000000 0.884808
0.070988 1.000000 0.781158
