public/luts/fuji_provia_cc.cube
# Generated from ColorChecker fit
LUT_3D_SIZE 9
DOMAIN_MIN 0.0 0.0 0.0
DOMAIN_MAX 1.0 1.0 1.0
0.075192 0.004099 0.120367
0.000000 0.000000 0.179079
0.000000 0.000000 0.322668
0.000000 0.000000 0.501645
0.000000 0.046798 0.653246
0.000000 0.182266 0.701435
0.043446 0.289544 0.556898
0.000000 0.277261 0.117047
0.000000 0.024150 0.000000
0.000000 0.000000 0.114348
0.000000 0.000000 0.264296
0.000000 0.036052 0.467682
0.029890 0.117219 0.665246
0.081355 0.203838 0.784454
0.081018 0.252435 0.739497
0.000000 0.189643 0.431291
0.000000 0.000000 0.000000
0.000000 0.000000 0.000000
0.000000 0.000000 0.000000
0.000000 0.000000 0.188494
0.000000 0.129425 0.448855
0.028139 0.241950 0.657559
0.023364 0.295021 0.732301
0.000000 0.233275 0.577501
0.000000 0.000000 0.084304
0.000000 0.000000 0.000000
0.000000 0.000000 0.000000
0.000000 0.000000 0.000000
0.000000 0.000000 0.083028
0.000000 0.211736 0.396954
0.000000 0.346073 0.608764
0.000000 0.350561 0.626381
0.000000 0.157945 0.344453
0.000000 0.000000 0.000000
0.000000 0.000000 0.000000
0.000000 0.000000 0.000000
0.000000 0.000000 0.000000
0.000000 0.005901 0.154871
0.130265 0.311927 0.518365
0.112375 0.461475 0.724658
0.000000 0.405292 0.671902
0.000000 0.064227 0.244976
0.000000 0.000000 0.000000
0.000000 0.000000 0.000000
0.000000 0.000000 0.000000
0.393995 0.000000 0.159568
0.713244 0.076491 0.686613
0.838365 0.463559 1.000000
0.716287 0.624666 1.000000
0.267180 0.498667 1.000000
0.000000 0.000000 0.559310
0.000000 0.000000 0.000000
0.000000 0.000000 0.000000
0.000000 0.000000 0.000000
1.000000 0.000000 1.000000
1.000000 0.231921 1.000000
1.000000 0.704813 1.000000
1.000000 0.876774 1.000000
1.000000 0.674764 1.000000
0.229814 0.000000 1.000000
0.000000 0.000000 0.185185
0.000000 0.000000 0.000000
0.000000 0.000000 0.000000
1.000000 0.000000 1.000000
1.000000 0.512046 1.000000
1.000000 1.000000 1.000000
1.000000 1.000000 1.000000
1.000000 0.982277 1.000000
1.000000 0.119856 1.000000
0.000000 0.000000 1.000000
0.000000 0.000000 0.000000
0.000000 0.000000 0.000000
1.000000 0.000000 1.000000
1.000000 0.961343 1.000000
1.000000 1.000000 1.000000
1.000000 1.000000 1.000000
1.000000 1.000000 1.000000
1.000000 0.422804 1.000000
1.000000 0.000000 1.000000
0.000000 0.000000 1.000000
0.000000 0.000000 0.000000
0.375727 0.306833 0.157383
0.140667 0.122785 0.056441
0.000000 0.000000 0.073318
0.000000 0.000000 0.183404
0.071037 0.025705 0.348811
0.262111 0.150011 0.518377
0.494643 0.280400 0.627665
0.689081 0.328678 0.598963
0.739113 0.176757 0.341286
0.272295 0.268759 0.211239
0.197797 0.212552 0.221425
0.175829 0.182954 0.317221
0.220381 0.199463 0.464245
0.318686 0.251680 0.614837
0.431214 0.299310 0.708065
0.491674 0.272163 0.669722
0.407015 0.070154 0.412324
0.057427 0.000000 0.000000
0.066259 0.210042 0.098363
0.122975 0.280441 0.216254
0.186886 0.338669 0.382919
0.258485 0.392331 0.554207
0.311505 0.419137 0.672686
0.292915 0.366898 0.667654
0.122927 0.153532 0.455131
0.000000 0.000000 0.000000
0.000000 0.000000 0.000000
0.000000 0.149714 0.000000
0.066627 0.348433 0.166154
0.180458 0.490710 0.395053
0.237339 0.572260 0.577343
0.197502 0.558896 0.645824
0.000000 0.386542 0.520020
0.000000 0.000000 0.106182
0.000000 0.000000 0.000000
0.000000 0.000000 0.000000
0.021473 0.111430 0.000000
0.249347 0.443129 0.271971
0.376332 0.668626 0.553880
0.375924 0.771741 0.733324
0.194854 0.706400 0.733332
0.000000 0.396630 0.463658
0.000000 0.000000 0.000000
0.000000 0.000000 0.000000
0.000000 0.000000 0.000000
0.695684 0.123466 0.395580
0.961891 0.595751 0.810166
1.000000 0.906583 1.000000
0.963386 1.000000 1.000000
0.591900 0.901709 1.000000
0.000000 0.440170 0.772682
0.000000 0.000000 0.000000
0.000000 0.000000 0.000000
0.000000 0.000000 0.000000
1.000000 0.218717 1.000000
1.000000 0.842141 1.000000
1.000000 1.000000 1.000000
1.000000 1.000000 1.000000
1.000000 1.000000 1.000000
0.662268 0.564792 1.000000
0.000000 0.000000 0.610346
0.000000 0.000000 0.000000
0.000000 0.000000 0.000000
1.000000 0.434701 1.000000
1.000000 1.000000 1.000000
1.000000 1.000000 1.000000
1.000000 1.000000 1.000000
1.000000 1.000000 1.000000
1.000000 0.822745 1.000000
0.372260 0.000000 1.000000
0.000000 0.000000 0.154442
0.000000 0.000000 0.000000
1.000000 0.813554 1.000000
1.000000 1.000000 1.000000
1.000000 1.000000 1.000000
1.000000 1.000000 1.000000
1.000000 1.000000 1.000000
1.000000 1.000000 1.000000
1.000000 0.000000 1.000000
0.000000 0.000000 1.000000
0.000000 0.000000 0.000000
0.619593 0.471794 0.260525
0.290778 0.174481 0.020101
0.081261 0.000000 0.000000
0.031597 0.000000 0.000000
0.155582 0.000000 0.141694
0.440249 0.054635 0.419810
0.845872 0.240641 0.761846
1.000000 0.387846 1.000000
1.000000 0.381337 1.000000
0.517103 0.466207 0.337296
0.357047 0.291008 0.224126
0.277676 0.172180 0.220488
0.306047 0.132396 0.316878
0.442453 0.164437 0.490511
0.660431 0.231184 0.705331
0.906755 0.265625 0.912007
1.000000 0.170851 1.000000
1.000000 0.000000 1.000000
0.302536 0.441622 0.240588
0.279719 0.387583 0.246020
0.293168 0.353474 0.323381
0.356440 0.350077 0.453391
0.456332 0.358277 0.603497
0.552877 0.329065 0.727872
0.579352 0.183537 0.767412
0.442271 0.000000 0.649740
0.021387 0.000000 0.289205
0.122228 0.417681 0.090086
0.204323 0.486795 0.204884
0.272460 0.533907 0.349380
0.326696 0.557907 0.494523
0.340328 0.527790 0.597990
0.259892 0.382652 0.604182
0.005164 0.031698 0.444224
0.000000 0.000000 0.035970
0.000000 0.000000 0.000000
0.192677 0.418644 0.081097
0.346552 0.615850 0.295435
0.430439 0.743633 0.492615
0.430895 0.788991 0.633816
0.307719 0.709025 0.666944
0.000000 0.430941 0.526628
0.000000 0.000000 0.134224
0.000000 0.000000 0.000000
0.000000 0.000000 0.000000
0.800550 0.473394 0.484540
0.992267 0.806578 0.788006
1.000000 1.000000 1.000000
0.953288 1.000000 1.000000
0.641949 0.942650 1.000000
0.037681 0.517546 0.763195
0.000000 0.000000 0.104807
0.000000 0.000000 0.000000
0.000000 0.000000 0.000000
1.000000 0.615435 1.000000
1.000000 1.000000 1.000000
1.000000 1.000000 1.000000
1.000000 1.000000 1.000000
1.000000 1.000000 1.000000
0.743893 0.690703 1.000000
0.000000 0.000000 0.698989
0.000000 0.000000 0.000000
0.000000 0.000000 0.000000
1.000000 0.882889 1.000000
1.000000 1.000000 1.000000
1.000000 1.000000 1.000000
1.000000 1.000000 1.000000
1.000000 1.000000 1.000000
1.000000 1.000000 1.000000
0.526353 0.000000 1.000000
0.000000 0.000000 0.383196
0.000000 0.000000 0.000000
1.000000 1.000000 1.000000
1.000000 1.000000 1.000000
1.000000 1.000000 1.000000
1.000000 1.000000 1.000000
1.000000 1.000000 1.000000
1.000000 1.000000 1.000000
1.000000 0.000000 1.000000
0.000000 0.000000 1.000000
0.000000 0.000000 0.000000
0.834194 0.552258 0.380740
0.415066 0.165809 0.035109
0.143800 0.000000 0.000000
0.074017 0.000000 0.000000
0.232576 0.000000 0.039250
0.619575 0.053996 0.427191
1.000000 0.349042 0.995001
1.000000 0.654454 1.000000
1.000000 0.858497 1.000000
0.736538 0.571945 0.464880
0.492183 0.295321 0.258861
0.357992 0.110687 0.178049
0.374086 0.043894 0.237812
0.553825 0.090900 0.440244
0.883809 0.217763 0.774164
1.000000 0.360650 1.000000
1.000000 0.425829 1.000000
1.000000 0.289674 1.000000
0.510316 0.569707 0.365955
0.407041 0.402232 0.285671
0.370425 0.292645 0.292217
0.427092 0.254906 0.391191
0.576902 0.273079 0.574915
0.792954 0.301330 0.822438
1.000000 0.263934 1.000000
1.000000 0.055266 1.000000
1.000000 0.000000 1.000000
0.296964 0.565789 0.197524
0.300269 0.509736 0.228510
0.320925 0.471979 0.303326
0.372054 0.454585 0.417796
0.440018 0.429726 0.554474
0.484416 0.339678 0.682635
0.438090 0.096820 0.758284
0.207118 0.000000 0.724146
0.000000 0.000000 0.509675
0.308083 0.585061 0.148762
0.382664 0.645648 0.275968
0.419481 0.679449 0.399376
0.418156 0.676639 0.505042
0.351552 0.597498 0.565747
0.165770 0.372408 0.540996
0.000000 0.000000 0.377022
0.000000 0.000000 0.006780
0.000000 0.000000 0.000000
0.825441 0.657012 0.484464
0.935186 0.842404 0.692250
0.946247 0.950439 0.843987
0.844747 0.959398 0.915960
0.590049 0.817670 0.871177
0.114753 0.443744 0.659376
0.000000 0.000000 0.217016
0.000000 0.000000 0.000000
0.000000 0.000000 0.000000
1.000000 0.815752 1.000000
1.000000 1.000000 1.000000
1.000000 1.000000 1.000000
1.000000 1.000000 1.000000
1.000000 1.000000 1.000000
0.679270 0.602529 1.000000
0.000000 0.000000 0.615153
0.000000 0.000000 0.000000
0.000000 0.000000 0.000000
1.000000 1.000000 1.000000
1.000000 1.000000 1.000000
1.000000 1.000000 1.000000
1.000000 1.000000 1.000000
1.000000 1.000000 1.000000
1.000000 0.902226 1.000000
0.479837 0.000000 1.000000
0.000000 0.000000 0.342703
0.000000 0.000000 0.000000
1.000000 1.000000 1.000000
1.000000 1.000000 1.000000
1.000000 1.000000 1.000000
1.000000 1.000000 1.000000
1.000000 1.000000 1.000000
1.000000 1.000000 1.000000
1.000000 0.000000 1.000000
0.000000 0.000000 1.000000
0.000000 0.000000 0.000000
1.000000 0.569150 0.455306
0.515617 0.138611 0.052846
0.201338 0.000000 0.000000
0.131496 0.000000 0.000000
0.346014 0.000000 0.035165
0.858055 0.273601 0.548307
1.000000 0.752026 1.000000
1.000000 1.000000 1.000000
1.000000 1.000000 1.000000
0.936609 0.618748 0.552683
0.623181 0.279180 0.298426
0.450721 0.073080 0.176798
0.472415 0.029477 0.228044
0.714687 0.147505 0.479134
1.000000 0.396402 0.943764
1.000000 0.715510 1.000000
1.000000 1.000000 1.000000
1.000000 1.000000 1.000000
0.713496 0.638915 0.454570
0.542804 0.389922 0.329413
0.470492 0.242635 0.297738
0.536245 0.214189 0.390018
0.752989 0.291828 0.623453
1.000000 0.432895 1.000000
1.000000 0.564841 1.000000
1.000000 0.585220 1.000000
1.000000 0.361690 1.000000
0.474847 0.650506 0.268400
0.410220 0.494639 0.252652
0.395578 0.403226 0.286614
0.457107 0.381509 0.390988
0.594233 0.404839 0.573202
0.779622 0.418667 0.827409
0.959178 0.338553 1.000000
1.000000 0.050157 1.000000
0.950605 0.000000 1.000000
0.427364 0.678996 0.177221
0.431324 0.621753 0.250604
0.431069 0.586221 0.325300
0.439286 0.565752 0.412239
0.441901 0.523801 0.509080
0.398081 0.393929 0.600203
0.240230 0.079803 0.656718
0.000000 0.000000 0.636455
0.000000 0.000000 0.483974
0.847916 0.754481 0.439699
0.882180 0.804308 0.581347
0.852224 0.827612 0.671286
0.757234 0.805853 0.710676
0.569639 0.690597 0.687403
0.235103 0.403510 0.576078
0.000000 0.000000 0.338038
0.000000 0.000000 0.000000
0.000000 0.000000 0.000000
1.000000 0.911679 1.000000
1.000000 1.000000 1.000000
1.000000 1.000000 1.000000
1.000000 1.000000 1.000000
1.000000 0.951730 1.000000
0.633694 0.496859 1.000000
0.000000 0.000000 0.509207
0.000000 0.000000 0.000000
0.000000 0.000000 0.000000
1.000000 1.000000 1.000000
1.000000 1.000000 1.000000
1.000000 1.000000 1.000000
1.000000 1.000000 1.000000
1.000000 1.000000 1.000000
1.000000 0.728049 1.000000
0.429865 0.000000 1.000000
0.000000 0.000000 0.218849
0.000000 0.000000 0.000000
1.000000 1.000000 1.000000
1.000000 1.000000 1.000000
1.000000 1.000000 1.000000
1.000000 1.000000 1.000000
1.000000 1.000000 1.000000
1.000000 1.000000 1.000000
1.000000 0.000000 1.000000
0.000000 0.000000 1.000000
0.000000 0.000000 0.000000
1.000000 0.511042 0.407832
0.555237 0.102376 0.011020
0.230650 0.000000 0.000000
0.194777 0.000000 0.000000
0.500608 0.251306 0.109451
1.000000 0.806603 0.777274
1.000000 1.000000 1.000000
1.000000 1.000000 1.000000
1.000000 1.000000 1.000000
1.000000 0.607034 0.545725
0.730733 0.263921 0.301941
0.550525 0.101612 0.189959
0.609664 0.152314 0.274900
0.947638 0.418339 0.608610
1.000000 0.872101 1.000000
1.000000 1.000000 1.000000
1.000000 1.000000 1.000000
1.000000 1.000000 1.000000
0.896687 0.661515 0.472869
0.685591 0.383838 0.357783
0.605918 0.257543 0.334581
0.710418 0.302942 0.458612
1.000000 0.510456 0.771952
1.000000 0.840608 1.000000
1.000000 1.000000 1.000000
1.000000 1.000000 1.000000
1.000000 1.000000 1.000000
0.658375 0.695946 0.290566
0.550644 0.486537 0.279261
0.526856 0.393595 0.315296
0.626262 0.425543 0.444251
0.861352 0.560907 0.698429
1.000000 0.748318 1.000000
1.000000 0.906510 1.000000
1.000000 0.924323 1.000000
1.000000 0.660701 1.000000
0.570907 0.736411 0.175737
0.526890 0.601046 0.242708
0.513532 0.541745 0.307851
0.556582 0.555039 0.406975
0.655034 0.607560 0.562612
0.781116 0.636048 0.784021
0.880298 0.547344 1.000000
0.871290 0.218396 1.000000
0.646040 0.000000 1.000000
0.906252 0.813612 0.380920
0.885495 0.761016 0.500075
0.836304 0.738590 0.563610
0.770933 0.730973 0.597561
0.674873 0.692905 0.614691
0.506855 0.549234 0.614486
0.198848 0.194909 0.583159
0.000000 0.000000 0.493649
0.000000 0.000000 0.305616
1.000000 0.962875 1.000000
1.000000 1.000000 1.000000
1.000000 1.000000 1.000000
1.000000 0.997510 1.000000
1.000000 0.864054 1.000000
0.733180 0.537935 0.913473
0.000000 0.000000 0.517852
0.000000 0.000000 0.000000
0.000000 0.000000 0.000000
1.000000 1.000000 1.000000
1.000000 1.000000 1.000000
1.000000 1.000000 1.000000
1.000000 1.000000 1.000000
1.000000 1.000000 1.000000
1.000000 0.656828 1.000000
0.534308 0.000000 1.000000
0.000000 0.000000 0.183850
0.000000 0.000000 0.000000
1.000000 1.000000 1.000000
1.000000 1.000000 1.000000
1.000000 1.000000 1.000000
1.000000 1.000000 1.000000
1.000000 1.000000 1.000000
1.000000 0.965213 1.000000
1.000000 0.000000 1.000000
0.000000 0.000000 1.000000
0.000000 0.000000 0.000000
0.987167 0.334156 0.148254
0.457443 0.034240 0.000000
0.169222 0.000000 0.000000
0.215319 0.248467 0.000000
0.661786 0.827268 0.228456
1.000000 1.000000 1.000000
1.000000 1.000000 1.000000
1.000000 1.000000 1.000000
1.000000 1.000000 1.000000
1.000000 0.504872 0.375359
0.756247 0.238528 0.214862
0.612781 0.206183 0.177089
0.755179 0.443222 0.352038
1.000000 0.955134 0.816431
1.000000 1.000000 1.000000
1.000000 1.000000 1.000000
1.000000 1.000000 1.000000
1.000000 1.000000 1.000000
1.000000 0.617422 0.373616
0.794696 0.384812 0.337647
0.749968 0.359117 0.383715
0.936846 0.563830 0.592043
1.000000 0.992546 1.000000
1.000000 1.000000 1.000000
1.000000 1.000000 1.000000
1.000000 1.000000 1.000000
1.000000 1.000000 1.000000
0.810765 0.693874 0.238199
0.698726 0.498108 0.296616
0.705913 0.476683 0.391754
0.884642 0.641199 0.594070
1.000000 0.973360 0.960741
1.000000 1.000000 1.000000
1.000000 1.000000 1.000000
1.000000 1.000000 1.000000
1.000000 1.000000 1.000000
0.719816 0.760918 0.139901
0.664436 0.608052 0.261973
0.675910 0.591464 0.370827
0.793057 0.710860 0.527148
1.000000 0.936052 0.778344
1.000000 1.000000 1.000000
1.000000 1.000000 1.000000
1.000000 1.000000 1.000000
1.000000 1.000000 1.000000
0.999443 0.849864 0.325133
0.958092 0.748903 0.479541
0.925420 0.740664 0.566167
0.926745 0.812964 0.635926
0.960622 0.923720 0.726454
0.998847 1.000000 0.862115
0.986454 0.942802 1.000000
0.841718 0.617487 1.000000
0.456153 0.000000 1.000000
1.000000 0.996644 1.000000
1.000000 0.959536 1.000000
1.000000 0.966108 1.000000
1.000000 0.992281 1.000000
1.000000 0.984082 1.000000
1.000000 0.857642 0.965458
0.567757 0.499197 0.764118
0.000000 0.000000 0.508769
0.000000 0.000000 0.174179
1.000000 1.000000 1.000000
1.000000 1.000000 1.000000
1.000000 1.000000 1.000000
1.000000 1.000000 1.000000
1.000000 1.000000 1.000000
1.000000 0.832296 1.000000
0.911752 0.161008 1.000000
0.000000 0.000000 0.396250
0.000000 0.000000 0.000000
1.000000 1.000000 1.000000
1.000000 1.000000 1.000000
1.000000 1.000000 1.000000
1.000000 1.000000 1.000000
1.000000 1.000000 1.000000
1.000000 0.984825 1.000000
1.000000 0.000000 1.000000
0.261062 0.000000 1.000000
0.000000 0.000000 0.000000
0.573047 0.000000 0.000000
0.106470 0.000000 0.000000
0.000000 0.107926 0.000000
0.105294 0.699628 0.000000
0.755690 1.000000 0.344853
1.000000 1.000000 1.000000
1.000000 1.000000 1.000000
1.000000 1.000000 1.000000
1.000000 1.000000 1.000000
0.891438 0.247977 0.000000
0.601846 0.159633 0.000000
0.553582 0.364341 0.084072
0.839023 0.900666 0.419445
1.000000 1.000000 1.000000
1.000000 1.000000 1.000000
1.000000 1.000000 1.000000
1.000000 1.000000 1.000000
1.000000 1.000000 1.000000
0.945124 0.454199 0.095906
0.790133 0.361322 0.222204
0.836625 0.536754 0.412438
1.000000 1.000000 0.771713
1.000000 1.000000 1.000000
1.000000 1.000000 1.000000
1.000000 1.000000 1.000000
1.000000 1.000000 1.000000
1.000000 1.000000 1.000000
0.855946 0.603699 0.071808
0.792366 0.509679 0.279329
0.884620 0.653733 0.504702
1.000000 1.000000 0.843259
1.000000 1.000000 1.000000
1.000000 1.000000 1.000000
1.000000 1.000000 1.000000
1.000000 1.000000 1.000000
1.000000 1.000000 1.000000
0.815912 0.723774 0.051637
0.799749 0.634947 0.304423
0.887964 0.748469 0.524353
1.000000 1.000000 0.796985
1.000000 1.000000 1.000000
1.000000 1.000000 1.000000
1.000000 1.000000 1.000000
1.000000 1.000000 1.000000
1.000000 1.000000 1.000000
1.000000 0.846341 0.275675
1.000000 0.771990 0.537183
1.000000 0.858772 0.710499
1.000000 1.000000 0.871411
1.000000 1.000000 1.000000
1.000000 1.000000 1.000000
1.000000 1.000000 1.000000
1.000000 1.000000 1.000000
1.000000 1.000000 1.000000
1.000000 1.000000 1.000000
1.000000 0.960293 1.000000
1.000000 1.000000 1.000000
1.000000 1.000000 1.000000
1.000000 1.000000 1.000000
1.000000 1.000000 1.000000
1.000000 1.000000 1.000000
1.000000 1.000000 1.000000
0.623369 0.567672 1.000000
1.000000 1.000000 1.000000
1.000000 1.000000 1.000000
1.000000 1.000000 1.000000
1.000000 1.000000 1.000000
1.000000 1.000000 1.000000
1.000000 1.000000 1.000000
1.000000 1.000000 1.000000
0.622148 0.322198 1.000000
0.000000 0.000000 0.395306
1.000000 1.000000 1.000000
1.000000 1.000000 1.000000
1.000000 1.000000 1.000000
1.000000 1.000000 1.000000
1.000000 1.000000 1.000000
1.000000 1.000000 1.000000
1.000000 0.669020 1.000000
1.000000 0.000000 1.000000
0.000000 0.000000 0.229300
0.000000 0.000000 0.000000
0.000000 0.000000 0.000000
0.000000 0.185820 0.000000
0.000000 1.000000 0.000000
0.669179 1.000000 0.397647
1.000000 1.000000 1.000000
1.000000 1.000000 1.000000
1.000000 1.000000 1.000000
1.000000 1.000000 1.000000
0.288432 0.000000 0.000000
0.130369 0.000000 0.000000
0.249735 0.521284 0.000000
0.751974 1.000000 0.423436
1.000000 1.000000 1.000000
1.000000 1.000000 1.000000
1.000000 1.000000 1.000000
1.000000 1.000000 1.000000
1.000000 1.000000 1.000000
0.583169 0.087057 0.000000
0.552627 0.249497 0.000000
0.760584 0.747497 0.374381
1.000000 1.000000 0.965351
1.000000 1.000000 1.000000
1.000000 1.000000 1.000000
1.000000 1.000000 1.000000
1.000000 1.000000 1.000000
1.000000 1.000000 1.000000
0.678565 0.352480 0.000000
0.730181 0.469225 0.188340
0.975562 0.893636 0.629181
1.000000 1.000000 1.000000
1.000000 1.000000 1.000000
1.000000 1.000000 1.000000
1.000000 1.000000 1.000000
1.000000 1.000000 1.000000
1.000000 1.000000 1.000000
0.761728 0.563885 0.000000
0.849335 0.641552 0.352415
1.000000 0.993498 0.764885
1.000000 1.000000 1.000000
1.000000 1.000000 1.000000
1.000000 1.000000 1.000000
1.000000 1.000000 1.000000
1.000000 1.000000 1.000000
1.000000 1.000000 1.000000
1.000000 0.753798 0.222213
1.000000 0.801948 0.676769
1.000000 1.000000 1.000000
1.000000 1.000000 1.000000
1.000000 1.000000 1.000000
1.000000 1.000000 1.000000
1.000000 1.000000 1.000000
1.000000 1.000000 1.000000
1.000000 1.000000 1.000000
1.000000 0.959364 1.000000
1.000000 0.990506 1.000000
1.000000 1.000000 1.000000
1.000000 1.000000 1.000000
1.000000 1.000000 1.000000
1.000000 1.000000 1.000000
1.000000 1.000000 1.000000
1.000000 1.000000 1.000000
1.000000 1.000000 1.000000
1.000000 1.000000 1.000000
1.000000 1.000000 1.000000
1.000000 1.000000 1.000000
1.000000 1.000000 1.000000
1.000000 1.000000 1.000000
1.000000 1.000000 1.000000
1.000000 1.000000 1.000000
1.000000 1.000000 1.000000
1.000000 1.000000 1.000000
1.000000 1.000000 1.000000
1.000000 1.000000 1.000000
1.000000 1.000000 1.000000
1.000000 1.000000 1.000000
1.000000 1.000000 1.000000
1.000000 1.000000 1.000000
1.000000 1.000000 1.000000
1.000000 1.000000 1.000000
0.664268 0.000000 1.000000
