public/luts/fuji_velvia_50.cube
# Generated from ColorChecker fit
LUT_3D_SIZE 5
DOMAIN_MIN 0.0 0.0 0.0
DOMAIN_MAX 1.0 1.0 1.0
0.105248 0.043730 0.131465
0.047803 0.019675 0.352192
0.098735 0.071510 0.613012
0.147157 0.079817 0.581081
0.000000 0.000000 0.000000
0.026161 0.354227 0.075210
0.105200 0.395601 0.369839
0.164732 0.438051 0.632742
0.003077 0.262928 0.545408
0.000000 0.000000 0.000000
0.007024 0.563079 0.000000
0.174343 0.689819 0.395257
0.125210 0.661303 0.659612
0.000000 0.159653 0.473973
0.000000 0.000000 0.000000
0.550419 0.727234 0.477343
0.765548 0.972817 1.000000
0.498222 0.825298 1.000000
0.000000 0.000000 0.990007
0.000000 0.000000 0.000000
1.000000 0.847092 1.000000
1.000000 1.000000 1.000000
1.000000 0.957517 1.000000
0.191775 0.000000 1.000000
0.000000 0.000000 1.000000
0.379640 0.148188 0.221747
0.207201 0.000000 0.131987
0.272616 0.000000 0.273371
0.523311 0.000000 0.493973
0.601456 0.000000 0.567180
0.333308 0.450397 0.257280
0.300196 0.356880 0.321645
0.387499 0.359925 0.511482
0.451849 0.265586 0.689197
0.044623 0.000000 0.642511
0.284832 0.609706 0.201778
0.365121 0.661765 0.428597
0.379323 0.688045 0.632941
0.093279 0.395369 0.691552
0.000000 0.000000 0.406486
0.765760 0.760292 0.672787
0.941255 1.000000 1.000000
0.795102 1.000000 1.000000
0.002350 0.537527 1.000000
0.000000 0.000000 0.485954
1.000000 0.979784 1.000000
1.000000 1.000000 1.000000
1.000000 1.000000 1.000000
1.000000 0.810310 1.000000
0.000000 0.000000 1.000000
0.603897 0.215146 0.271651
0.328866 0.000000 0.044953
0.363458 0.000000 0.091282
0.713410 0.000000 0.439628
1.000000 0.000000 1.000000
0.615361 0.560779 0.311646
0.460376 0.333590 0.301692
0.508016 0.214373 0.425235
0.673226 0.033885 0.725603
0.565697 0.000000 1.000000
0.527642 0.684610 0.210523
0.489049 0.612237 0.392324
0.477024 0.559482 0.525824
0.315720 0.257874 0.668683
0.000000 0.000000 0.803874
0.901247 0.798049 0.587112
0.983128 1.000000 0.938008
0.846461 1.000000 1.000000
0.224604 0.657777 0.894678
0.000000 0.000000 0.569755
1.000000 1.000000 1.000000
1.000000 1.000000 1.000000
1.000000 1.000000 1.000000
1.000000 1.000000 1.000000
0.000000 0.000000 1.000000
0.677974 0.121074 0.181794
0.516488 0.043968 0.125619
0.678682 0.000000 0.235182
1.000000 0.000000 0.720393
1.000000 0.000000 1.000000
0.855903 0.630444 0.246133
0.773051 0.481268 0.451711
0.917326 0.367394 0.649646
1.000000 0.144285 1.000000
1.000000 0.000000 1.000000
0.802656 0.801467 0.126347
0.817061 0.765370 0.535376
0.892980 0.710213 0.721110
0.912876 0.392228 0.922124
0.453957 0.000000 1.000000
1.000000 0.922780 0.442556
1.000000 1.000000 0.999061
1.000000 1.000000 1.000000
0.793957 0.941981 0.921322
0.000000 0.000000 0.718215
1.000000 1.000000 1.000000
1.000000 1.000000 1.000000
1.000000 1.000000 1.000000
1.000000 1.000000 1.000000
0.000000 0.000000 1.000000
0.145313 0.000000 0.000000
0.517238 0.000000 0.476811
1.000000 0.284386 0.941810
1.000000 0.469439 1.000000
1.000000 0.000000 1.000000
0.681994 0.187333 0.136862
1.000000 0.538314 0.981736
1.000000 0.767853 1.000000
1.000000 0.756114 1.000000
1.000000 0.000000 1.000000
0.820559 0.556816 0.132578
1.000000 0.928168 1.000000
1.000000 1.000000 1.000000
1.000000 1.000000 1.000000
1.000000 0.000000 1.000000
1.000000 0.799627 0.529649
1.000000 1.000000 1.000000
1.000000 1.000000 1.000000
1.000000 1.000000 1.000000
1.000000 0.074258 1.000000
1.000000 1.000000 1.000000
1.000000 1.000000 1.000000
1.000000 1.000000 1.000000
1.000000 1.000000 1.000000
1.000000 1.000000 1.000000
