public/luts/fuji_nostalgic_neg.cube
# Generated from ColorChecker fit
LUT_3D_SIZE 5
DOMAIN_MIN 0.0 0.0 0.0
DOMAIN_MAX 1.0 1.0 1.0
0.293918 0.000000 0.407884
0.000000 0.000000 0.497873
0.000000 0.005194 0.841406
0.000000 0.007611 0.289893
0.000000 0.000000 0.000000
0.000000 0.000000 0.010690
0.000000 0.000000 0.414314
0.000000 0.119473 0.650990
0.000000 0.000000 0.000000
0.000000 0.000000 0.000000
0.023540 0.000000 0.054836
0.246769 0.143761 0.645394
0.000000 0.097275 0.575740
0.000000 0.000000 0.000000
0.000000 0.000000 0.000000
1.000000 0.000000 1.000000
1.000000 1.000000 1.000000
1.000000 0.585975 1.000000
0.000000 0.000000 0.000000
0.000000 0.000000 0.000000
1.000000 1.000000 1.000000
1.000000 1.000000 1.000000
1.000000 1.000000 1.000000
1.000000 0.000000 1.000000
0.000000 0.000000 0.000000
0.694726 0.708225 0.453170
0.000000 0.000000 0.015773
0.032328 0.000000 0.307716
0.678472 0.378529 0.672333
1.000000 0.661011 0.000000
0.302650 0.370343 0.253593
0.246146 0.317973 0.287855
0.468321 0.372822 0.649817
0.469320 0.081013 0.527678
0.000000 0.000000 0.000000
0.364756 0.321721 0.262196
0.481231 0.805530 0.559488
0.197159 0.652162 0.710069
0.000000 0.000000 0.000000
0.000000 0.000000 0.000000
1.000000 1.000000 1.000000
1.000000 1.000000 1.000000
1.000000 1.000000 1.000000
0.000000 0.000000 0.393267
0.000000 0.000000 0.000000
1.000000 1.000000 1.000000
1.000000 1.000000 1.000000
1.000000 1.000000 1.000000
1.000000 0.000000 1.000000
0.000000 0.000000 0.000000
1.000000 0.880611 0.614952
0.070855 0.000000 0.000000
0.223191 0.000000 0.140029
1.000000 1.000000 1.000000
1.000000 1.000000 1.000000
0.750397 0.688617 0.463788
0.463257 0.196599 0.279294
0.868234 0.358721 0.717896
1.000000 0.882389 1.000000
1.000000 1.000000 1.000000
0.534278 0.699781 0.234431
0.467206 0.632969 0.315290
0.430304 0.505509 0.563688
0.034957 0.000000 0.504613
0.000000 0.000000 0.000000
1.000000 1.000000 1.000000
1.000000 1.000000 1.000000
1.000000 1.000000 1.000000
0.000000 0.000000 0.321160
0.000000 0.000000 0.000000
1.000000 1.000000 1.000000
1.000000 1.000000 1.000000
1.000000 1.000000 1.000000
1.000000 0.000000 1.000000
0.000000 0.000000 0.000000
1.000000 0.560399 0.030821
0.000000 0.000000 0.000000
0.320491 1.000000 0.093693
1.000000 1.000000 1.000000
1.000000 1.000000 1.000000
1.000000 0.645917 0.289330
0.750496 0.347729 0.345566
1.000000 1.000000 1.000000
1.000000 1.000000 1.000000
1.000000 1.000000 1.000000
0.803632 0.756792 0.130061
0.759404 0.665188 0.380201
1.000000 1.000000 0.912877
1.000000 1.000000 1.000000
1.000000 1.000000 1.000000
1.000000 1.000000 1.000000
1.000000 1.000000 1.000000
1.000000 1.000000 1.000000
0.483656 0.100902 0.765349
0.000000 0.000000 0.000000
1.000000 1.000000 1.000000
1.000000 1.000000 1.000000
1.000000 1.000000 1.000000
1.000000 0.000000 1.000000
0.000000 0.000000 0.000000
0.000000 0.000000 0.000000
0.000000 0.510996 0.000000
0.000000 1.000000 0.000000
1.000000 1.000000 1.000000
1.000000 1.000000 1.000000
0.557170 0.290350 0.000000
0.763491 1.000000 0.368593
1.000000 1.000000 1.000000
1.000000 1.000000 1.000000
1.000000 1.000000 1.000000
0.960394 0.799582 0.032594
1.000000 1.000000 1.000000
1.000000 1.000000 1.000000
1.000000 1.000000 1.000000
1.000000 1.000000 1.000000
1.000000 1.000000 1.000000
1.000000 1.000000 1.000000
1.000000 1.000000 1.000000
1.000000 1.000000 1.000000
1.000000 1.000000 1.000000
1.000000 1.000000 1.000000
1.000000 1.000000 1.000000
1.000000 1.000000 1.000000
1.000000 1.000000 1.000000
1.000000 0.000000 1.000000
