public/luts/fuji_nostalgic_neg.cube
# Generated from ColorChecker fit
LUT_3D_SIZE 9
DOMAIN_MIN 0.0 0.0 0.0
DOMAIN_MAX 1.0 1.0 1.0
0.293918 0.000000 0.407884
0.000000 0.000000 0.368866
0.000000 0.000000 0.497873
0.000000 0.000000 0.698053
0.000000 0.005194 0.841406
0.000000 0.061006 0.768784
0.000000 0.007611 0.289893
0.000000 0.000000 0.000000
0.000000 0.000000 0.000000
0.112970 0.000000 0.232251
0.009633 0.000000 0.299790
0.000000 0.000000 0.494762
0.011881 0.034127 0.710620
0.000000 0.105449 0.809668
0.000000 0.051750 0.623062
0.000000 0.000000 0.000000
0.000000 0.000000 0.000000
0.000000 0.000000 0.000000
0.000000 0.000000 0.010690
0.000000 0.000000 0.171356
0.000000 0.000000 0.414314
0.000000 0.098743 0.623323
0.000000 0.119473 0.650990
0.000000 0.000000 0.318776
0.000000 0.000000 0.000000
0.000000 0.000000 0.000000
0.000000 0.000000 0.000000
0.000000 0.000000 0.000000
0.000000 0.000000 0.116134
0.000000 0.000000 0.388967
0.000000 0.165887 0.568467
0.000000 0.093616 0.497545
0.000000 0.000000 0.000000
0.000000 0.000000 0.000000
0.000000 0.000000 0.000000
0.000000 0.000000 0.000000
0.023540 0.000000 0.054836
0.192322 0.000000 0.360930
0.246769 0.143761 0.645394
0.084278 0.305848 0.772591
0.000000 0.097275 0.575740
0.000000 0.000000 0.000000
0.000000 0.000000 0.000000
0.000000 0.000000 0.000000
0.000000 0.000000 0.000000
1.000000 0.000000 0.868656
1.000000 0.003536 1.000000
1.000000 0.502170 1.000000
0.962503 0.611964 1.000000
0.131324 0.222897 1.000000
0.000000 0.000000 0.246112
0.000000 0.000000 0.000000
0.000000 0.000000 0.000000
0.000000 0.000000 0.000000
1.000000 0.000000 1.000000
1.000000 0.641745 1.000000
1.000000 1.000000 1.000000
1.000000 1.000000 1.000000
1.000000 0.585975 1.000000
0.000000 0.000000 1.000000
0.000000 0.000000 0.000000
0.000000 0.000000 0.000000
0.000000 0.000000 0.000000
1.000000 0.681406 1.000000
1.000000 1.000000 1.000000
1.000000 1.000000 1.000000
1.000000 1.000000 1.000000
1.000000 1.000000 1.000000
1.000000 0.000000 1.000000
0.000000 0.000000 1.000000
0.000000 0.000000 0.000000
0.000000 0.000000 0.000000
1.000000 1.000000 1.000000
1.000000 1.000000 1.000000
1.000000 1.000000 1.000000
1.000000 1.000000 1.000000
1.000000 1.000000 1.000000
1.000000 0.267537 1.000000
1.000000 0.000000 1.000000
0.000000 0.000000 1.000000
0.000000 0.000000 0.000000
0.473049 0.433442 0.364994
0.095672 0.163279 0.172280
0.000000 0.010475 0.182548
0.000000 0.000000 0.329689
0.000000 0.039855 0.516450
0.034955 0.149613 0.614428
0.110692 0.231881 0.464073
0.033796 0.186566 0.000000
0.000000 0.000000 0.000000
0.329672 0.203484 0.273936
0.164226 0.136876 0.211809
0.125207 0.134946 0.313249
0.177678 0.184506 0.502455
0.263701 0.246820 0.672474
0.302345 0.257598 0.685210
0.189681 0.126998 0.371416
0.000000 0.000000 0.000000
0.000000 0.000000 0.000000
0.084913 0.000000 0.117164
0.077905 0.118413 0.167072
0.139176 0.246930 0.336586
0.218609 0.348188 0.540207
0.243091 0.368148 0.661290
0.116512 0.227219 0.552040
0.000000 0.000000 0.033515
0.000000 0.000000 0.000000
0.000000 0.000000 0.000000
0.000000 0.000000 0.019685
0.043964 0.158119 0.162944
0.140057 0.395766 0.377300
0.172547 0.516637 0.567557
0.053144 0.451392 0.607375
0.000000 0.105137 0.339262
0.000000 0.000000 0.000000
0.000000 0.000000 0.000000
0.000000 0.000000 0.000000
0.251484 0.000000 0.200744
0.386725 0.329268 0.418538
0.448635 0.653836 0.654370
0.356740 0.761344 0.803350
0.007572 0.567150 0.729441
0.000000 0.000000 0.265456
0.000000 0.000000 0.000000
0.000000 0.000000 0.000000
0.000000 0.000000 0.000000
1.000000 0.086081 0.973821
1.000000 0.728187 1.000000
1.000000 1.000000 1.000000
1.000000 1.000000 1.000000
0.537156 0.809074 1.000000
0.000000 0.000000 0.643436
0.000000 0.000000 0.000000
0.000000 0.000000 0.000000
0.000000 0.000000 0.000000
1.000000 0.685798 1.000000
1.000000 1.000000 1.000000
1.000000 1.000000 1.000000
1.000000 1.000000 1.000000
1.000000 1.000000 1.000000
0.459091 0.001001 1.000000
0.000000 0.000000 0.127228
0.000000 0.000000 0.000000
0.000000 0.000000 0.000000
1.000000 1.000000 1.000000
1.000000 1.000000 1.000000
1.000000 1.000000 1.000000
1.000000 1.000000 1.000000
1.000000 1.000000 1.000000
1.000000 0.439675 1.000000
0.000000 0.000000 1.000000
0.000000 0.000000 0.000000
0.000000 0.000000 0.000000
1.000000 1.000000 1.000000
1.000000 1.000000 1.000000
1.000000 1.000000 1.000000
1.000000 1.000000 1.000000
1.000000 1.000000 1.000000
1.000000 1.000000 1.000000
1.000000 0.000000 1.000000
0.000000 0.000000 1.000000
0.000000 0.000000 0.000000
0.694726 0.708225 0.453170
0.218849 0.266430 0.121729
0.000000 0.000000 0.015773
0.000000 0.000000 0.099938
0.032328 0.000000 0.307716
0.315099 0.133740 0.541449
0.678472 0.378529 0.672333
1.000000 0.592807 0.540413
1.000000 0.661011 0.000000
0.559873 0.532169 0.397795
0.310152 0.290330 0.216359
0.220905 0.161688 0.222173
0.279324 0.143139 0.370177
0.449602 0.206025 0.584168
0.672938 0.296135 0.756791
0.867534 0.333710 0.749545
0.928592 0.213437 0.392782
0.728322 0.000000 0.000000
0.302650 0.370343 0.253593
0.222696 0.318358 0.198491
0.246146 0.317973 0.287855
0.345016 0.350780 0.466930
0.468321 0.372822 0.649817
0.542081 0.314587 0.719465
0.469320 0.081013 0.527678
0.130065 0.000000 0.000000
0.000000 0.000000 0.000000
0.129705 0.275070 0.137878
0.159590 0.401946 0.185304
0.227374 0.508058 0.329865
0.289892 0.559696 0.507111
0.280983 0.497600 0.621445
0.111490 0.236959 0.546121
0.000000 0.000000 0.123248
0.000000 0.000000 0.000000
0.000000 0.000000 0.000000
0.364756 0.321721 0.262196
0.441016 0.615574 0.388215
0.481231 0.805530 0.559488
0.427059 0.842580 0.701870
0.197159 0.652162 0.710069
0.000000 0.134162 0.447644
0.000000 0.000000 0.000000
0.000000 0.000000 0.000000
0.000000 0.000000 0.000000
1.000000 0.608714 0.932333
1.000000 1.000000 1.000000
1.000000 1.000000 1.000000
1.000000 1.000000 1.000000
0.643486 0.931359 1.000000
0.000000 0.100156 0.729152
0.000000 0.000000 0.000000
0.000000 0.000000 0.000000
0.000000 0.000000 0.000000
1.000000 1.000000 1.000000
1.000000 1.000000 1.000000
1.000000 1.000000 1.000000
1.000000 1.000000 1.000000
1.000000 1.000000 1.000000
0.666978 0.251949 1.000000
0.000000 0.000000 0.393267
0.000000 0.000000 0.000000
0.000000 0.000000 0.000000
1.000000 1.000000 1.000000
1.000000 1.000000 1.000000
1.000000 1.000000 1.000000
1.000000 1.000000 1.000000
1.000000 1.000000 1.000000
1.000000 0.729596 1.000000
0.256444 0.000000 1.000000
0.000000 0.000000 0.000000
0.000000 0.000000 0.000000
1.000000 1.000000 1.000000
1.000000 1.000000 1.000000
1.000000 1.000000 1.000000
1.000000 1.000000 1.000000
1.000000 1.000000 1.000000
1.000000 1.000000 1.000000
1.000000 0.000000 1.000000
0.000000 0.000000 1.000000
0.000000 0.000000 0.000000
0.934476 0.852784 0.571641
0.356723 0.269680 0.135748
0.017324 0.000000 0.000000
0.000000 0.000000 0.000000
0.128589 0.000000 0.191655
0.559261 0.192009 0.545604
1.000000 0.656019 0.929734
1.000000 1.000000 1.000000
1.000000 1.000000 1.000000
0.805047 0.717608 0.534962
0.466585 0.324132 0.263882
0.318925 0.097649 0.191278
0.371389 0.045135 0.302839
0.610303 0.148013 0.553103
0.998993 0.362153 0.865463
1.000000 0.617874 1.000000
1.000000 0.819945 1.000000
1.000000 0.847580 0.941819
0.525421 0.587563 0.383018
0.366962 0.373171 0.247958
0.343316 0.266025 0.269770
0.448629 0.257799 0.424446
0.654045 0.314615 0.656828
0.907717 0.377042 0.880614
1.000000 0.360098 0.978352
1.000000 0.153249 0.801441
1.000000 0.000000 0.170134
0.298102 0.516173 0.225426
0.256823 0.469430 0.197462
0.285931 0.459420 0.280217
0.364392 0.462514 0.439986
0.448175 0.429532 0.611918
0.470252 0.285744 0.700012
0.340600 0.000000 0.577121
0.000000 0.000000 0.084949
0.000000 0.000000 0.000000
0.442666 0.580013 0.266039
0.452205 0.688593 0.316113
0.459268 0.752624 0.426205
0.427641 0.733176 0.552913
0.298116 0.565770 0.621692
0.000000 0.160371 0.526844
0.000000 0.000000 0.131526
0.000000 0.000000 0.000000
0.000000 0.000000 0.000000
1.000000 0.878705 0.802946
1.000000 1.000000 0.901867
1.000000 1.000000 1.000000
1.000000 1.000000 1.000000
0.626365 0.819383 0.983708
0.000000 0.096087 0.658534
0.000000 0.000000 0.000000
0.000000 0.000000 0.000000
0.000000 0.000000 0.000000
1.000000 1.000000 1.000000
1.000000 1.000000 1.000000
1.000000 1.000000 1.000000
1.000000 1.000000 1.000000
1.000000 1.000000 1.000000
0.684962 0.211102 1.000000
0.000000 0.000000 0.390645
0.000000 0.000000 0.000000
0.000000 0.000000 0.000000
1.000000 1.000000 1.000000
1.000000 1.000000 1.000000
1.000000 1.000000 1.000000
1.000000 1.000000 1.000000
1.000000 1.000000 1.000000
1.000000 0.646674 1.000000
0.374877 0.000000 1.000000
0.000000 0.000000 0.000000
0.000000 0.000000 0.000000
1.000000 1.000000 1.000000
1.000000 1.000000 1.000000
1.000000 1.000000 1.000000
1.000000 1.000000 1.000000
1.000000 1.000000 1.000000
1.000000 1.000000 1.000000
1.000000 0.000000 1.000000
0.000000 0.000000 1.000000
0.000000 0.000000 0.000000
1.000000 0.880611 0.614952
0.472275 0.216360 0.128186
0.070855 0.000000 0.000000
0.000000 0.000000 0.000000
0.223191 0.000000 0.140029
0.801216 0.487112 0.617960
1.000000 1.000000 1.000000
1.000000 1.000000 1.000000
1.000000 1.000000 1.000000
1.000000 0.789464 0.611885
0.622449 0.297785 0.300128
0.425890 0.032171 0.185622
0.478197 0.009677 0.284800
0.787825 0.221808 0.582947
1.000000 0.634513 1.000000
1.000000 1.000000 1.000000
1.000000 1.000000 1.000000
1.000000 1.000000 1.000000
0.750397 0.688617 0.463788
0.525575 0.358524 0.293129
0.463257 0.196599 0.279294
0.579717 0.204598 0.429020
0.868234 0.358721 0.717896
1.000000 0.609619 1.000000
1.000000 0.882389 1.000000
1.000000 1.000000 1.000000
1.000000 1.000000 1.000000
0.477873 0.632797 0.272585
0.376479 0.452413 0.208977
0.374243 0.371535 0.257219
0.472261 0.376614 0.414352
0.648633 0.428552 0.646268
0.858460 0.462696 0.887714
1.000000 0.388845 1.000000
1.000000 0.091242 0.982433
0.894753 0.000000 0.549459
0.534278 0.699781 0.234431
0.487055 0.656337 0.243697
0.467206 0.632969 0.315290
0.460649 0.600826 0.436554
0.430304 0.505509 0.563688
0.316098 0.267064 0.621740
0.034957 0.000000 0.504613
0.000000 0.000000 0.075059
0.000000 0.000000 0.000000
1.000000 0.990394 0.639721
1.000000 1.000000 0.687550
1.000000 1.000000 0.743634
0.966769 0.975383 0.785623
0.631601 0.686849 0.760018
0.086814 0.119086 0.582173
0.000000 0.000000 0.136294
0.000000 0.000000 0.000000
0.000000 0.000000 0.000000
1.000000 1.000000 1.000000
1.000000 1.000000 1.000000
1.000000 1.000000 1.000000
1.000000 1.000000 1.000000
1.000000 1.000000 1.000000
0.702494 0.138175 1.000000
0.000000 0.000000 0.321160
0.000000 0.000000 0.000000
0.000000 0.000000 0.000000
1.000000 1.000000 1.000000
1.000000 1.000000 1.000000
1.000000 1.000000 1.000000
1.000000 1.000000 1.000000
1.000000 1.000000 1.000000
1.000000 0.466794 1.000000
0.457310 0.000000 1.000000
0.000000 0.000000 0.000000
0.000000 0.000000 0.000000
1.000000 1.000000 1.000000
1.000000 1.000000 1.000000
1.000000 1.000000 1.000000
1.000000 1.000000 1.000000
1.000000 1.000000 1.000000
1.000000 1.000000 1.000000
1.000000 0.000000 1.000000
0.000000 0.000000 1.000000
0.000000 0.000000 0.000000
1.000000 0.789270 0.472957
0.498237 0.133875 0.008200
0.063100 0.000000 0.000000
0.000000 0.000000 0.000000
0.301964 0.326032 0.119913
1.000000 1.000000 0.744897
1.000000 1.000000 1.000000
1.000000 1.000000 1.000000
1.000000 1.000000 1.000000
1.000000 0.761471 0.550322
0.736423 0.254864 0.266161
0.518179 0.038669 0.165574
0.593825 0.140022 0.295736
0.993945 0.560506 0.672678
1.000000 1.000000 1.000000
1.000000 1.000000 1.000000
1.000000 1.000000 1.000000
1.000000 1.000000 1.000000
0.944505 0.703409 0.449568
0.683159 0.334162 0.306971
0.608291 0.199282 0.308698
0.758305 0.310602 0.492230
1.000000 0.654406 0.863903
1.000000 1.000000 1.000000
1.000000 1.000000 1.000000
1.000000 1.000000 1.000000
1.000000 1.000000 1.000000
0.661888 0.671015 0.264921
0.529129 0.426809 0.224722
0.520580 0.350157 0.285049
0.659469 0.437592 0.473690
0.946025 0.660094 0.787283
1.000000 0.963093 1.000000
1.000000 1.000000 1.000000
1.000000 1.000000 1.000000
1.000000 1.000000 1.000000
0.658410 0.743268 0.184845
0.582083 0.610892 0.207743
0.559262 0.568491 0.282825
0.597996 0.597295 0.428179
0.683337 0.652984 0.630749
0.777339 0.665686 0.846329
0.819060 0.539976 0.999565
0.724562 0.154879 0.983958
0.386910 0.000000 0.661856
1.000000 1.000000 0.492035
1.000000 0.987547 0.538600
1.000000 0.954525 0.584456
0.991631 0.889061 0.637996
0.774752 0.731533 0.676466
0.441858 0.396768 0.645967
0.000000 0.000000 0.461448
0.000000 0.000000 0.006712
0.000000 0.000000 0.000000
1.000000 1.000000 1.000000
1.000000 1.000000 1.000000
1.000000 1.000000 1.000000
1.000000 1.000000 1.000000
1.000000 1.000000 1.000000
0.878779 0.276955 0.966501
0.000000 0.000000 0.381921
0.000000 0.000000 0.000000
0.000000 0.000000 0.000000
1.000000 1.000000 1.000000
1.000000 1.000000 1.000000
1.000000 1.000000 1.000000
1.000000 1.000000 1.000000
1.000000 1.000000 1.000000
1.000000 0.449911 1.000000
0.706594 0.000000 1.000000
0.000000 0.000000 0.000000
0.000000 0.000000 0.000000
1.000000 1.000000 1.000000
1.000000 1.000000 1.000000
1.000000 1.000000 1.000000
1.000000 1.000000 1.000000
1.000000 1.000000 1.000000
1.000000 1.000000 1.000000
1.000000 0.000000 1.000000
0.023301 0.000000 1.000000
0.000000 0.000000 0.000000
1.000000 0.560399 0.030821
0.337095 0.033703 0.000000
0.000000 0.000000 0.000000
0.000000 0.243216 0.000000
0.320491 1.000000 0.093693
1.000000 1.000000 0.908105
1.000000 1.000000 1.000000
1.000000 1.000000 1.000000
1.000000 1.000000 1.000000
1.000000 0.631436 0.267343
0.736939 0.223016 0.098357
0.541923 0.174631 0.086812
0.682102 0.523496 0.310630
1.000000 1.000000 0.816586
1.000000 1.000000 1.000000
1.000000 1.000000 1.000000
1.000000 1.000000 1.000000
1.000000 1.000000 1.000000
1.000000 0.645917 0.289330
0.794093 0.343903 0.257763
0.750496 0.347729 0.345566
0.974166 0.679310 0.620966
1.000000 1.000000 1.000000
1.000000 1.000000 1.000000
1.000000 1.000000 1.000000
1.000000 1.000000 1.000000
1.000000 1.000000 1.000000
0.812773 0.660975 0.183314
0.695096 0.452606 0.244879
0.722966 0.485116 0.383195
0.941738 0.765116 0.656795
1.000000 1.000000 1.000000
1.000000 1.000000 1.000000
1.000000 1.000000 1.000000
1.000000 1.000000 1.000000
1.000000 1.000000 1.000000
0.803632 0.756792 0.130061
0.743557 0.628415 0.240338
0.759404 0.665188 0.380201
0.881351 0.858420 0.598485
1.000000 1.000000 0.912877
1.000000 1.000000 1.000000
1.000000 1.000000 1.000000
1.000000 1.000000 1.000000
1.000000 1.000000 1.000000
1.000000 1.000000 0.404573
1.000000 0.973669 0.519011
1.000000 0.989391 0.611319
1.000000 1.000000 0.720639
1.000000 1.000000 0.854960
1.000000 1.000000 0.991128
0.877798 0.975742 1.000000
0.548968 0.513849 1.000000
0.000000 0.000000 0.711928
1.000000 1.000000 1.000000
1.000000 1.000000 1.000000
1.000000 1.000000 1.000000
1.000000 1.000000 1.000000
1.000000 1.000000 1.000000
1.000000 0.855300 1.000000
0.483656 0.100902 0.765349
0.000000 0.000000 0.187610
0.000000 0.000000 0.000000
1.000000 1.000000 1.000000
1.000000 1.000000 1.000000
1.000000 1.000000 1.000000
1.000000 1.000000 1.000000
1.000000 1.000000 1.000000
1.000000 0.840056 1.000000
1.000000 0.000000 1.000000
0.000000 0.000000 0.105823
0.000000 0.000000 0.000000
1.000000 1.000000 1.000000
1.000000 1.000000 1.000000
1.000000 1.000000 1.000000
1.000000 1.000000 1.000000
1.000000 1.000000 1.000000
1.000000 1.000000 1.000000
1.000000 0.000000 1.000000
0.776444 0.000000 1.000000
0.000000 0.000000 0.000000
0.526119 0.159708 0.000000
0.000000 0.000000 0.000000
0.000000 0.139590 0.000000
0.000000 0.906894 0.000000
0.204109 1.000000 0.019066
1.000000 1.000000 1.000000
1.000000 1.000000 1.000000
1.000000 1.000000 1.000000
1.000000 1.000000 1.000000
0.906299 0.381239 0.000000
0.522182 0.213962 0.000000
0.413006 0.481617 0.000000
0.676612 1.000000 0.299781
1.000000 1.000000 1.000000
1.000000 1.000000 1.000000
1.000000 1.000000 1.000000
1.000000 1.000000 1.000000
1.000000 1.000000 1.000000
0.956583 0.514189 0.000000
0.782507 0.415637 0.109097
0.831702 0.699673 0.372795
1.000000 1.000000 0.817429
1.000000 1.000000 1.000000
1.000000 1.000000 1.000000
1.000000 1.000000 1.000000
1.000000 1.000000 1.000000
1.000000 1.000000 1.000000
0.862905 0.616896 0.003954
0.824458 0.573865 0.264944
0.949175 0.850311 0.566458
1.000000 1.000000 0.997771
1.000000 1.000000 1.000000
1.000000 1.000000 1.000000
1.000000 1.000000 1.000000
1.000000 1.000000 1.000000
1.000000 1.000000 1.000000
0.928267 0.770743 0.078176
0.947501 0.769137 0.368882
1.000000 1.000000 0.654124
1.000000 1.000000 1.000000
1.000000 1.000000 1.000000
1.000000 1.000000 1.000000
1.000000 1.000000 1.000000
1.000000 1.000000 1.000000
1.000000 1.000000 1.000000
1.000000 1.000000 0.417335
1.000000 1.000000 0.688084
1.000000 1.000000 0.902833
1.000000 1.000000 1.000000
1.000000 1.000000 1.000000
1.000000 1.000000 1.000000
1.000000 1.000000 1.000000
1.000000 1.000000 1.000000
1.000000 1.000000 1.000000
1.000000 1.000000 1.000000
1.000000 1.000000 1.000000
1.000000 1.000000 1.000000
1.000000 1.000000 1.000000
1.000000 1.000000 1.000000
1.000000 1.000000 1.000000
1.000000 1.000000 1.000000
1.000000 1.000000 1.000000
0.147937 0.366511 1.000000
1.000000 1.000000 1.000000
1.000000 1.000000 1.000000
1.000000 1.000000 1.000000
1.000000 1.000000 1.000000
1.000000 1.000000 1.000000
1.000000 1.000000 1.000000
1.000000 0.990684 1.000000
0.726933 0.000000 1.000000
0.000000 0.000000 0.000000
1.000000 1.000000 1.000000
1.000000 1.000000 1.000000
1.000000 1.000000 1.000000
1.000000 1.000000 1.000000
1.000000 1.000000 1.000000
1.000000 1.000000 1.000000
1.000000 0.420426 1.000000
1.000000 0.000000 1.000000
0.000000 0.000000 0.000000
0.000000 0.000000 0.000000
0.000000 0.000000 0.000000
0.000000 0.510996 0.000000
0.000000 1.000000 0.000000
0.000000 1.000000 0.000000
1.000000 1.000000 1.000000
1.000000 1.000000 1.000000
1.000000 1.000000 1.000000
1.000000 1.000000 1.000000
0.189797 0.000000 0.000000
0.000000 0.223494 0.000000
0.017065 0.985262 0.000000
0.480691 1.000000 0.228796
1.000000 1.000000 1.000000
1.000000 1.000000 1.000000
1.000000 1.000000 1.000000
1.000000 1.000000 1.000000
1.000000 1.000000 1.000000
0.557170 0.290350 0.000000
0.542285 0.561327 0.000000
0.763491 1.000000 0.368593
1.000000 1.000000 1.000000
1.000000 1.000000 1.000000
1.000000 1.000000 1.000000
1.000000 1.000000 1.000000
1.000000 1.000000 1.000000
1.000000 1.000000 1.000000
0.714416 0.537071 0.000000
0.837045 0.818717 0.275725
1.000000 1.000000 0.844949
1.000000 1.000000 1.000000
1.000000 1.000000 1.000000
1.000000 1.000000 1.000000
1.000000 1.000000 1.000000
1.000000 1.000000 1.000000
1.000000 1.000000 1.000000
0.960394 0.799582 0.032594
1.000000 1.000000 0.616086
1.000000 1.000000 1.000000
1.000000 1.000000 1.000000
1.000000 1.000000 1.000000
1.000000 1.000000 1.000000
1.000000 1.000000 1.000000
1.000000 1.000000 1.000000
1.000000 1.000000 1.000000
1.000000 1.000000 0.565630
1.000000 1.000000 1.000000
1.000000 1.000000 1.000000
1.000000 1.000000 1.000000
1.000000 1.000000 1.000000
1.000000 1.000000 1.000000
1.000000 1.000000 1.000000
1.000000 1.000000 1.000000
1.000000 1.000000 1.000000
1.000000 1.000000 1.000000
1.000000 1.000000 1.000000
1.000000 1.000000 1.000000
1.000000 1.000000 1.000000
1.000000 1.000000 1.000000
1.000000 1.000000 1.000000
1.000000 1.000000 1.000000
1.000000 1.000000 1.000000
1.000000 1.000000 1.000000
1.000000 1.000000 1.000000
1.000000 1.000000 1.000000
1.000000 1.000000 1.000000
1.000000 1.000000 1.000000
1.000000 1.000000 1.000000
1.000000 1.000000 1.000000
1.000000 1.000000 1.000000
1.000000 1.000000 1.000000
1.000000 1.000000 1.000000
1.000000 1.000000 1.000000
1.000000 1.000000 1.000000
1.000000 1.000000 1.000000
1.000000 1.000000 1.000000
1.000000 1.000000 1.000000
1.000000 1.000000 1.000000
1.000000 1.000000 1.000000
1.000000 1.000000 1.000000
1.000000 0.000000 1.000000
