public/luts/fuji_astia_100f.cube
# Generated from ColorChecker fit
LUT_3D_SIZE 5
DOMAIN_MIN 0.0 0.0 0.0
DOMAIN_MAX 1.0 1.0 1.0
0.146888 0.000000 0.226280
0.000000 0.013894 0.454640
0.047168 0.124248 0.805364
0.000000 0.000000 0.530795
0.000000 0.000000 0.000000
0.000000 0.000000 0.000000
0.000000 0.000000 0.076599
0.000000 0.171101 0.546938
0.000000 0.000000 0.129764
0.000000 0.000000 0.000000
0.000000 0.000000 0.000000
0.000000 0.000000 0.000000
0.000000 0.189229 0.436082
0.000000 0.000000 0.000000
0.000000 0.000000 0.000000
0.000000 0.000000 0.000000
0.492328 0.000000 0.427730
0.144819 0.000000 1.000000
0.000000 0.000000 0.298822
0.000000 0.000000 0.000000
1.000000 0.000000 1.000000
1.000000 0.000000 1.000000
1.000000 0.000000 1.000000
0.116819 0.000000 1.000000
0.000000 0.000000 0.000000
0.653131 0.570515 0.522031
0.116390 0.193873 0.229292
0.076105 0.035203 0.275272
0.307085 0.000000 0.149373
0.420596 0.000000 0.000000
0.281829 0.367918 0.230411
0.264311 0.335115 0.290569
0.408172 0.341134 0.562597
0.293351 0.000000 0.406871
0.000000 0.000000 0.000000
0.000000 0.226472 0.017351
0.253335 0.604741 0.336886
0.299138 0.742050 0.739304
0.000000 0.056154 0.455959
0.000000 0.000000 0.000000
0.981106 0.000000 0.445010
1.000000 0.503822 0.885145
1.000000 0.762169 1.000000
0.000000 0.000000 0.723023
0.000000 0.000000 0.000000
1.000000 0.000000 1.000000
1.000000 0.000000 1.000000
1.000000 0.000000 1.000000
1.000000 0.000000 1.000000
0.000000 0.000000 0.000000
1.000000 0.673606 0.656366
0.134025 0.000000 0.011787
0.014387 0.000000 0.000000
0.613307 0.000000 0.000000
1.000000 0.000000 0.000000
0.745507 0.634540 0.448124
0.411443 0.197158 0.228378
0.522186 0.066837 0.374117
0.823635 0.000000 0.482780
0.898141 0.000000 0.167921
0.451304 0.705191 0.258103
0.444533 0.599391 0.280542
0.464981 0.543784 0.545822
0.063676 0.000000 0.522360
0.000000 0.000000 0.000000
1.000000 0.381480 0.520447
1.000000 0.714154 0.557164
1.000000 0.739520 0.711943
0.000000 0.000000 0.324176
0.000000 0.000000 0.000000
1.000000 0.000000 1.000000
1.000000 0.000000 1.000000
1.000000 0.000000 1.000000
1.000000 0.000000 0.788855
0.000000 0.000000 0.000000
1.000000 0.451425 0.431993
0.280166 0.096844 0.000000
0.423331 0.480520 0.017919
1.000000 1.000000 0.620675
1.000000 1.000000 1.000000
1.000000 0.571549 0.324341
0.703739 0.287925 0.303831
1.000000 0.609233 0.733339
1.000000 0.971031 1.000000
1.000000 0.551130 1.000000
0.773883 0.807833 0.194162
0.757833 0.695418 0.370490
1.000000 0.953979 0.880537
1.000000 0.911232 1.000000
1.000000 0.000000 1.000000
1.000000 0.674197 0.347583
1.000000 0.856394 0.403714
1.000000 1.000000 0.675129
0.637683 0.549825 0.738278
0.000000 0.000000 0.185731
1.000000 0.000000 1.000000
1.000000 0.000000 1.000000
1.000000 0.188898 0.934985
1.000000 0.000000 0.145476
0.000000 0.000000 0.000000
0.493111 0.000000 0.000000
0.248376 0.717422 0.000000
1.000000 1.000000 1.000000
1.000000 1.000000 1.000000
1.000000 1.000000 1.000000
0.703274 0.012562 0.000000
1.000000 0.904114 0.727167
1.000000 1.000000 1.000000
1.000000 1.000000 1.000000
1.000000 1.000000 1.000000
0.692099 0.466543 0.000000
1.000000 1.000000 1.000000
1.000000 1.000000 1.000000
1.000000 1.000000 1.000000
1.000000 1.000000 1.000000
1.000000 0.532923 0.344745
1.000000 1.000000 1.000000
1.000000 1.000000 1.000000
1.000000 1.000000 1.000000
1.000000 1.000000 1.000000
1.000000 0.000000 1.000000
1.000000 0.524367 1.000000
1.000000 1.000000 1.000000
1.000000 1.000000 1.000000
1.000000 0.000000 1.000000
