public/luts/fuji_eterna.cube
# Generated from ColorChecker fit
LUT_3D_SIZE 33
DOMAIN_MIN 0.0 0.0 0.0
DOMAIN_MAX 1.0 1.0 1.0
0.706677 0.326790 0.570775
0.573009 0.233866 0.524537
0.451745 0.147263 0.499146
0.343644 0.068099 0.493363
0.249203 0.000000 0.505816
0.168661 0.000000 0.534999
0.101996 0.000000 0.579271
0.048926 0.000000 0.636859
0.008909 0.000000 0.705858
0.000000 0.000000 0.784226
0.000000 0.000000 0.869790
0.000000 0.000000 0.960243
0.000000 0.000000 1.000000
0.000000 0.000000 1.000000
0.000000 0.000000 1.000000
0.000000 0.000000 1.000000
0.007781 0.000000 1.000000
0.017926 0.000000 1.000000
0.021396 0.000000 1.000000
0.014790 0.000000 1.000000
0.000000 0.000000 1.000000
0.000000 0.000000 1.000000
0.000000 0.000000 1.000000
0.000000 0.000000 1.000000
0.000000 0.000000 1.000000
0.000000 0.000000 1.000000
0.000000 0.000000 0.926386
0.000000 0.000000 0.672365
0.000000 0.000000 0.363589
0.000000 0.000000 0.000000
0.000000 0.000000 0.000000
0.000000 0.000000 0.000000
0.000000 0.000000 0.000000
0.621857 0.246580 0.535125
0.501644 0.171944 0.492010
0.393251 0.102840 0.469341
0.297346 0.040288 0.465826
0.214337 0.000000 0.480040
0.144372 0.000000 0.510424
0.087339 0.000000 0.555286
0.042866 0.000000 0.612800
0.010320 0.000000 0.681009
0.000000 0.000000 0.757818
0.000000 0.000000 0.841002
0.000000 0.000000 0.928202
0.000000 0.000000 1.000000
0.000000 0.000000 1.000000
0.000000 0.000000 1.000000
0.008736 0.000000 1.000000
0.017636 0.000000 1.000000
0.021068 0.000000 1.000000
0.015799 0.000000 1.000000
0.000000 0.000000 1.000000
0.000000 0.000000 1.000000
0.000000 0.000000 1.000000
0.000000 0.000000 1.000000
0.000000 0.000000 1.000000
0.000000 0.000000 1.000000
0.000000 0.000000 0.931593
0.000000 0.000000 0.705111
0.000000 0.000000 0.426738
0.000000 0.000000 0.091844
0.000000 0.000000 0.000000
0.000000 0.000000 0.000000
0.000000 0.000000 0.000000
0.000000 0.000000 0.000000
0.531214 0.160330 0.492361
0.423834 0.103934 0.452431
0.327632 0.052221 0.432526
0.243186 0.006119 0.431301
0.170814 0.000000 0.447279
0.110574 0.000000 0.478850
0.062264 0.000000 0.524269
0.025421 0.000000 0.581657
0.000000 0.000000 0.649004
0.000000 0.000000 0.724165
0.000000 0.000000 0.804860
0.000000 0.000000 0.888679
0.000000 0.000000 0.973075
0.000000 0.000000 1.000000
0.000000 0.000000 1.000000
0.002191 0.000000 1.000000
0.004833 0.000000 1.000000
0.000013 0.000000 1.000000
0.000000 0.000000 1.000000
0.000000 0.000000 1.000000
0.000000 0.000000 1.000000
0.000000 0.000000 1.000000
0.000000 0.000000 1.000000
0.000000 0.000000 1.000000
0.000000 0.000000 0.922167
0.000000 0.000000 0.721707
0.000000 0.000000 0.472173
0.000000 0.000000 0.169017
0.000000 0.000000 0.000000
0.000000 0.000000 0.000000
0.000000 0.000000 0.000000
0.000000 0.000000 0.000000
0.000000 0.000000 0.000000
0.436808 0.068484 0.443906
0.341649 0.030306 0.407228
0.256969 0.000000 0.390136
0.183256 0.000000 0.391231
0.120738 0.000000 0.408986
0.069383 0.000000 0.441736
0.028898 0.000000 0.487684
0.000000 0.000000 0.544901
0.000000 0.000000 0.611323
0.000000 0.000000 0.684751
0.000000 0.000000 0.762856
0.000000 0.000000 0.843173
0.000000 0.000000 0.923104
0.000000 0.000000 0.999918
0.000000 0.000000 1.000000
0.000000 0.000000 1.000000
0.000000 0.000000 1.000000
0.000000 0.000000 1.000000
0.000000 0.000000 1.000000
0.000000 0.000000 1.000000
0.000000 0.000000 1.000000
0.000000 0.000000 1.000000
0.000000 0.000000 1.000000
0.000000 0.000000 0.900299
0.000000 0.000000 0.724385
0.000000 0.000000 0.502166
0.000000 0.000000 0.229176
0.000000 0.000000 0.000000
0.000000 0.000000 0.000000
0.000000 0.000000 0.000000
0.000000 0.000000 0.000000
0.000000 0.000000 0.000000
0.000000 0.000000 0.000000
0.341254 0.000000 0.391628
0.257716 0.000000 0.358277
0.183901 0.000000 0.344053
0.120207 0.000000 0.347506
0.066772 0.000000 0.367055
0.023472 0.000000 0.400983
0.000000 0.000000 0.447443
0.000000 0.000000 0.504449
0.000000 0.000000 0.569888
0.000000 0.000000 0.641508
0.000000 0.000000 0.716927
0.000000 0.000000 0.793628
0.000000 0.000000 0.868961
0.000000 0.000000 0.940142
0.000000 0.002526 1.000000
0.000000 0.011012 1.000000
0.000000 0.013105 1.000000
0.000000 0.006535 1.000000
0.000000 0.000000 1.000000
0.000000 0.000000 1.000000
0.000000 0.000000 1.000000
0.000000 0.000000 0.982037
0.000000 0.000000 0.868562
0.000000 0.000000 0.715756
0.000000 0.000000 0.519369
0.000000 0.000000 0.275013
0.000000 0.000000 0.000000
0.000000 0.000000 0.000000
0.000000 0.000000 0.000000
0.000000 0.000000 0.000000
0.000000 0.000000 0.000000
0.000000 0.000000 0.000000
0.000000 0.000000 0.000000
0.247725 0.000000 0.337839
0.175220 0.000000 0.307897
0.111624 0.000000 0.296604
0.057245 0.000000 0.302459
0.012131 0.000000 0.323828
0.000000 0.000000 0.358941
0.000000 0.000000 0.405898
0.000000 0.000000 0.462664
0.000000 0.000000 0.527069
0.000000 0.000000 0.596813
0.000000 0.000000 0.669458
0.000000 0.000000 0.742437
0.000000 0.004864 0.813046
0.000000 0.019993 0.878450
0.000000 0.030469 0.935678
0.000000 0.034358 0.981629
0.000000 0.029512 1.000000
0.000000 0.013567 1.000000
0.000000 0.000000 1.000000
0.000000 0.000000 0.985920
0.000000 0.000000 0.924263
0.000000 0.000000 0.829907
0.000000 0.000000 0.698814
0.000000 0.000000 0.526814
0.000000 0.000000 0.309601
0.000000 0.000000 0.042738
0.000000 0.000000 0.000000
0.000000 0.000000 0.000000
0.000000 0.000000 0.000000
0.000000 0.000000 0.000000
0.000000 0.000000 0.000000
0.000000 0.000000 0.000000
0.000000 0.000000 0.000000
0.159948 0.000000 0.285299
0.097898 0.000000 0.258855
0.043887 0.000000 0.250563
0.000000 0.000000 0.258871
0.000000 0.000000 0.282092
0.000000 0.000000 0.318403
0.000000 0.000000 0.365853
0.000000 0.000000 0.422353
0.000000 0.000000 0.485682
0.000000 0.000000 0.553486
0.000000 0.000000 0.623277
0.000000 0.010322 0.692434
0.000000 0.029684 0.758200
0.000000 0.043997 0.817689
0.000000 0.051447 0.867878
0.000000 0.050006 0.905612
0.000000 0.037431 0.927601
0.000000 0.011264 0.930424
0.000000 0.000000 0.910525
0.000000 0.000000 0.864213
0.000000 0.000000 0.787667
0.000000 0.000000 0.676931
0.000000 0.000000 0.527913
0.000000 0.000000 0.336391
0.000000 0.000000 0.098008
0.000000 0.000000 0.000000
0.000000 0.000000 0.000000
0.000000 0.000000 0.000000
0.000000 0.000000 0.000000
0.000000 0.000000 0.000000
0.000000 0.000000 0.000000
0.000000 0.000000 0.000000
0.000000 0.000000 0.000000
0.082208 0.000000 0.237212
0.030047 0.000000 0.214362
0.000000 0.000000 0.209149
0.000000 0.000000 0.219967
0.000000 0.000000 0.245079
0.000000 0.000000 0.282609
0.000000 0.000000 0.330553
0.000000 0.000000 0.386770
0.000000 0.000000 0.448987
0.000000 0.000000 0.514797
0.000000 0.004898 0.581659
0.000000 0.030551 0.646901
0.000000 0.050676 0.707713
0.000000 0.063581 0.761157
0.000000 0.067356 0.804157
0.000000 0.059880 0.833505
0.000000 0.038813 0.845861
0.000000 0.001605 0.837749
0.000000 0.000000 0.805561
0.000000 0.000000 0.745556
0.000000 0.000000 0.653859
0.000000 0.000000 0.526460
0.000000 0.000000 0.359217
0.000000 0.000000 0.147855
0.000000 0.000000 0.000000
0.000000 0.000000 0.000000
0.000000 0.000000 0.000000
0.000000 0.000000 0.000000
0.000000 0.000000 0.000000
0.000000 0.000000 0.000000
0.000000 0.000000 0.000000
0.000000 0.000000 0.000000
0.000000 0.000000 0.000000
0.019345 0.000000 0.197228
0.000000 0.000000 0.178074
0.000000 0.000000 0.176023
0.000000 0.000000 0.189418
0.000000 0.000000 0.216467
0.000000 0.000000 0.255244
0.000000 0.000000 0.303690
0.000000 0.000000 0.359614
0.000000 0.000000 0.420690
0.000000 0.000000 0.484457
0.000000 0.021525 0.548324
0.000000 0.049568 0.609565
0.000000 0.069950 0.665319
0.000000 0.080882 0.712594
0.000000 0.080361 0.748262
0.000000 0.066171 0.769064
0.000000 0.035880 0.771606
0.000000 0.000000 0.752361
0.000000 0.000000 0.707667
0.000000 0.000000 0.633732
0.000000 0.000000 0.526627
0.000000 0.000000 0.382291
0.000000 0.000000 0.196530
0.000000 0.000000 0.000000
0.000000 0.000000 0.000000
0.000000 0.000000 0.000000
0.000000 0.000000 0.000000
0.000000 0.000000 0.000000
0.000000 0.000000 0.000000
0.000000 0.000000 0.000000
0.000000 0.000000 0.000000
0.000000 0.000000 0.000000
0.000000 0.000000 0.000000
0.000000 0.000000 0.169443
0.000000 0.000000 0.154095
0.000000 0.000000 0.155298
0.000000 0.000000 0.171341
0.000000 0.000000 0.200380
0.000000 0.000000 0.240438
0.000000 0.000000 0.289403
0.000000 0.000000 0.345030
0.000000 0.000000 0.404942
0.000000 0.001517 0.466626
0.000000 0.039712 0.527438
0.000000 0.069722 0.584599
0.000000 0.089879 0.635197
0.000000 0.098302 0.676187
0.000000 0.092893 0.704388
0.000000 0.071339 0.716490
0.000000 0.031115 0.709045
0.000000 0.000000 0.678474
0.000000 0.000000 0.621064
0.000000 0.000000 0.532969
0.000000 0.000000 0.410208
0.000000 0.000000 0.248669
0.000000 0.000000 0.044103
0.000000 0.000000 0.000000
0.000000 0.000000 0.000000
0.000000 0.000000 0.000000
0.000000 0.000000 0.000000
0.000000 0.000000 0.000000
0.000000 0.000000 0.000000
0.000000 0.000000 0.000000
0.000000 0.000000 0.000000
0.000000 0.000000 0.000000
0.000000 0.000000 0.000000
0.000000 0.000000 0.158396
0.000000 0.000000 0.146972
0.000000 0.000000 0.151526
0.000000 0.000000 0.170297
0.000000 0.000000 0.201387
0.000000 0.000000 0.242767
0.000000 0.000000 0.292273
0.000000 0.000000 0.347607
0.000000 0.000000 0.406340
0.000000 0.020124 0.465908
0.000000 0.062043 0.523612
0.000000 0.093625 0.576622
0.000000 0.113107 0.621973
0.000000 0.118511 0.656568
0.000000 0.107647 0.677175
0.000000 0.078108 0.680428
0.000000 0.027271 0.662830
0.000000 0.000000 0.620749
0.000000 0.000000 0.550419
0.000000 0.000000 0.447941
0.000000 0.000000 0.309283
0.000000 0.000000 0.130280
0.000000 0.000000 0.000000
0.000000 0.000000 0.000000
0.000000 0.000000 0.000000
0.000000 0.000000 0.000000
0.000000 0.000000 0.000000
0.000000 0.000000 0.000000
0.000000 0.000000 0.000000
0.000000 0.000000 0.000000
0.000000 0.000000 0.000000
0.000000 0.000000 0.000000
0.000000 0.000000 0.000000
0.000000 0.000000 0.169076
0.000000 0.000000 0.161699
0.000000 0.000000 0.169710
0.000000 0.000000 0.191294
0.000000 0.000000 0.224503
0.000000 0.000000 0.267253
0.000000 0.000000 0.317330
0.000000 0.000000 0.372382
0.000000 0.000000 0.429928
0.000000 0.046039 0.487352
0.000000 0.091372 0.541902
0.000000 0.124158 0.590696
0.000000 0.142539 0.630717
0.000000 0.144445 0.658815
0.000000 0.127588 0.671705
0.000000 0.089467 0.665971
0.000000 0.027367 0.638061
0.000000 0.000000 0.584292
0.000000 0.000000 0.500845
0.000000 0.000000 0.383769
0.000000 0.000000 0.228980
0.000000 0.000000 0.032259
0.000000 0.000000 0.000000
0.000000 0.000000 0.000000
0.000000 0.000000 0.000000
0.000000 0.000000 0.000000
0.000000 0.000000 0.000000
0.000000 0.000000 0.000000
0.000000 0.000000 0.000000
0.000000 0.000000 0.000000
0.000000 0.000000 0.000000
0.000000 0.000000 0.000000
0.000000 0.000000 0.000000
0.032940 0.000000 0.206914
0.022141 0.000000 0.203715
0.012955 0.000000 0.215295
0.005060 0.000000 0.239786
0.000000 0.000000 0.275187
0.000000 0.000000 0.319364
0.000000 0.000000 0.370047
0.000000 0.000000 0.424836
0.000000 0.020812 0.481194
0.000000 0.082353 0.536453
0.000000 0.130817 0.587811
0.000000 0.164467 0.632332
0.000000 0.181351 0.666946
0.000000 0.179304 0.688451
0.000000 0.155944 0.693511
0.000000 0.108675 0.678656
0.000000 0.034687 0.640283
0.000000 0.000000 0.574654
0.000000 0.000000 0.477901
0.000000 0.000000 0.346018
0.000000 0.000000 0.174870
0.000000 0.000000 0.000000
0.000000 0.000000 0.000000
0.000000 0.000000 0.000000
0.000000 0.000000 0.000000
0.000000 0.000000 0.000000
0.000000 0.000000 0.000000
0.000000 0.000000 0.000000
0.000000 0.000000 0.000000
0.000000 0.000000 0.000000
0.000000 0.000000 0.000000
0.000000 0.000000 0.000000
0.000000 0.000000 0.000000
0.136538 0.000000 0.277787
0.132473 0.000000 0.278904
0.128752 0.000000 0.294172
0.124958 0.000000 0.321671
0.120420 0.000000 0.359346
0.114203 0.000000 0.405011
0.105113 0.000000 0.456346
0.091697 0.000000 0.510895
0.072239 0.065778 0.566071
0.044767 0.132423 0.619153
0.007046 0.183763 0.667286
0.000000 0.217965 0.707483
0.000000 0.232983 0.736621
0.000000 0.226557 0.751446
0.000000 0.196211 0.748568
0.000000 0.139255 0.724466
0.000000 0.052784 0.675484
0.000000 0.000000 0.597832
0.000000 0.000000 0.487589
0.000000 0.000000 0.340699
0.000000 0.000000 0.152971
0.000000 0.000000 0.000000
0.000000 0.000000 0.000000
0.000000 0.000000 0.000000
0.000000 0.000000 0.000000
0.000000 0.000000 0.000000
0.000000 0.000000 0.000000
0.000000 0.000000 0.000000
0.000000 0.000000 0.000000
0.000000 0.000000 0.000000
0.000000 0.000000 0.000000
0.000000 0.000000 0.000000
0.000000 0.000000 0.000000
0.295735 0.000000 0.388020
0.297921 0.000000 0.393598
0.299120 0.000000 0.412680
0.298828 0.000000 0.443293
0.296283 0.000000 0.483331
0.290461 0.000000 0.530554
0.280076 0.000000 0.582590
0.263586 0.040838 0.636931
0.239185 0.128296 0.690938
0.204810 0.199875 0.741838
0.158136 0.253861 0.786722
0.096579 0.288331 0.822551
0.017293 0.301142 0.846150
0.000000 0.289939 0.854213
0.000000 0.252153 0.843297
0.000000 0.184997 0.809829
0.000000 0.085473 0.750100
0.000000 0.000000 0.660269
0.000000 0.000000 0.536361
0.000000 0.000000 0.374268
0.000000 0.000000 0.169748
0.000000 0.000000 0.000000
0.000000 0.000000 0.000000
0.000000 0.000000 0.000000
0.000000 0.000000 0.000000
0.000000 0.000000 0.000000
0.000000 0.000000 0.000000
0.000000 0.000000 0.000000
0.000000 0.000000 0.000000
0.000000 0.000000 0.000000
0.000000 0.000000 0.000000
0.000000 0.000000 0.000000
0.000000 0.000000 0.000000
0.519267 0.000000 0.544380
0.527228 0.000000 0.554571
0.532816 0.000000 0.577600
0.535438 0.000000 0.611441
0.534241 0.000000 0.653937
0.528109 0.000000 0.702796
0.515669 0.006699 0.755590
0.495287 0.117732 0.809763
0.465068 0.212228 0.862621
0.422858 0.288597 0.911339
0.366241 0.345031 0.952956
0.292545 0.379510 0.984381
0.198833 0.389800 1.000000
0.081911 0.373450 1.000000
0.000000 0.327796 0.984565
0.000000 0.249957 0.941619
0.000000 0.136840 0.871012
0.000000 0.000000 0.768852
0.000000 0.000000 0.631111
0.000000 0.000000 0.453628
0.000000 0.000000 0.232108
0.000000 0.000000 0.000000
0.000000 0.000000 0.000000
0.000000 0.000000 0.000000
0.000000 0.000000 0.000000
0.000000 0.000000 0.000000
0.000000 0.000000 0.000000
0.000000 0.000000 0.000000
0.000000 0.000000 0.000000
0.000000 0.000000 0.000000
0.000000 0.000000 0.000000
0.000000 0.000000 0.000000
0.000000 0.000000 0.000000
0.816424 0.000000 0.754082
0.829697 0.000000 0.769045
0.839154 0.000000 0.796161
0.844112 0.000000 0.833353
0.843627 0.000000 0.878409
0.836495 0.000000 0.928985
0.821251 0.100006 0.982604
0.796170 0.220228 1.000000
0.759269 0.321704 1.000000
0.708303 0.402746 1.000000
0.640767 0.461455 1.000000
0.553896 0.495716 1.000000
0.444665 0.503199 1.000000
0.309789 0.481359 1.000000
0.145724 0.427436 1.000000
0.000000 0.338458 1.000000
0.000000 0.211234 1.000000
0.000000 0.042361 0.930916
0.000000 0.000000 0.779179
0.000000 0.000000 0.586125
0.000000 0.000000 0.347407
0.000000 0.000000 0.058545
0.000000 0.000000 0.000000
0.000000 0.000000 0.000000
0.000000 0.000000 0.000000
0.000000 0.000000 0.000000
0.000000 0.000000 0.000000
0.000000 0.000000 0.000000
0.000000 0.000000 0.000000
0.000000 0.000000 0.000000
0.000000 0.000000 0.000000
0.000000 0.000000 0.000000
0.000000 0.000000 0.000000
1.000000 0.000000 1.000000
1.000000 0.000000 1.000000
1.000000 0.000000 1.000000
1.000000 0.000000 1.000000
1.000000 0.000000 1.000000
1.000000 0.074371 1.000000
1.000000 0.223257 1.000000
1.000000 0.352694 1.000000
1.000000 0.461117 1.000000
1.000000 0.546745 1.000000
0.991673 0.607585 1.000000
0.890603 0.641425 1.000000
0.764772 0.645843 1.000000
0.610805 0.618197 1.000000
0.425065 0.555635 1.000000
0.203658 0.455088 1.000000
0.000000 0.313272 1.000000
0.000000 0.126689 1.000000
0.000000 0.000000 0.988352
0.000000 0.000000 0.779554
0.000000 0.000000 0.523445
0.000000 0.000000 0.215493
0.000000 0.000000 0.000000
0.000000 0.000000 0.000000
0.000000 0.000000 0.000000
0.000000 0.000000 0.000000
0.000000 0.000000 0.000000
0.000000 0.000000 0.000000
0.000000 0.000000 0.000000
0.000000 0.000000 0.000000
0.000000 0.000000 0.000000
0.000000 0.000000 0.000000
0.000000 0.000000 0.000000
1.000000 0.000000 1.000000
1.000000 0.000000 1.000000
1.000000 0.000000 1.000000
1.000000 0.000000 1.000000
1.000000 0.040061 1.000000
1.000000 0.220676 1.000000
1.000000 0.381058 1.000000
1.000000 0.519763 1.000000
1.000000 0.635130 1.000000
1.000000 0.725285 1.000000
1.000000 0.788137 1.000000
1.000000 0.821384 1.000000
1.000000 0.822505 1.000000
0.995509 0.788766 1.000000
0.786911 0.717221 1.000000
0.539917 0.604704 1.000000
0.250280 0.447838 1.000000
0.000000 0.243030 1.000000
0.000000 0.000000 1.000000
0.000000 0.000000 1.000000
0.000000 0.000000 0.768468
0.000000 0.000000 0.441222
0.000000 0.000000 0.055696
0.000000 0.000000 0.000000
0.000000 0.000000 0.000000
0.000000 0.000000 0.000000
0.000000 0.000000 0.000000
0.000000 0.000000 0.000000
0.000000 0.000000 0.000000
0.000000 0.000000 0.000000
0.000000 0.000000 0.000000
0.000000 0.000000 0.000000
0.000000 0.000000 0.000000
1.000000 0.000000 1.000000
1.000000 0.000000 1.000000
1.000000 0.000000 1.000000
1.000000 0.000000 1.000000
1.000000 0.211824 1.000000
1.000000 0.406265 1.000000
1.000000 0.578282 1.000000
1.000000 0.726336 1.000000
1.000000 0.848671 1.000000
1.000000 0.943319 1.000000
1.000000 1.000000 1.000000
1.000000 1.000000 1.000000
1.000000 1.000000 1.000000
1.000000 0.998133 1.000000
1.000000 0.917286 1.000000
0.968568 0.792427 1.000000
0.649237 0.620081 1.000000
0.279791 0.396561 1.000000
0.000000 0.117965 1.000000
0.000000 0.000000 1.000000
0.000000 0.000000 1.000000
0.000000 0.000000 0.744429
0.000000 0.000000 0.337623
0.000000 0.000000 0.000000
0.000000 0.000000 0.000000
0.000000 0.000000 0.000000
0.000000 0.000000 0.000000
0.000000 0.000000 0.000000
0.000000 0.000000 0.000000
0.000000 0.000000 0.000000
0.000000 0.000000 0.000000
0.000000 0.000000 0.000000
0.000000 0.000000 0.000000
1.000000 0.000000 1.000000
1.000000 0.000000 1.000000
1.000000 0.000000 1.000000
1.000000 0.196019 1.000000
1.000000 0.427761 1.000000
1.000000 0.636250 1.000000
1.000000 0.820068 1.000000
1.000000 0.977579 1.000000
1.000000 1.000000 1.000000
1.000000 1.000000 1.000000
1.000000 1.000000 1.000000
1.000000 1.000000 1.000000
1.000000 1.000000 1.000000
1.000000 1.000000 1.000000
1.000000 1.000000 1.000000
1.000000 1.000000 1.000000
1.000000 0.835416 1.000000
0.747557 0.592725 1.000000
0.286031 0.291576 1.000000
0.000000 0.000000 1.000000
0.000000 0.000000 1.000000
0.000000 0.000000 1.000000
0.000000 0.000000 0.705963
0.000000 0.000000 0.210834
0.000000 0.000000 0.000000
0.000000 0.000000 0.000000
0.000000 0.000000 0.000000
0.000000 0.000000 0.000000
0.000000 0.000000 0.000000
0.000000 0.000000 0.000000
0.000000 0.000000 0.000000
0.000000 0.000000 0.000000
0.000000 0.000000 0.000000
1.000000 0.000000 1.000000
1.000000 0.000000 1.000000
1.000000 0.172559 1.000000
1.000000 0.444972 1.000000
1.000000 0.693222 1.000000
1.000000 0.916009 1.000000
1.000000 1.000000 1.000000
1.000000 1.000000 1.000000
1.000000 1.000000 1.000000
1.000000 1.000000 1.000000
1.000000 1.000000 1.000000
1.000000 1.000000 1.000000
1.000000 1.000000 1.000000
1.000000 1.000000 1.000000
1.000000 1.000000 1.000000
1.000000 1.000000 1.000000
1.000000 1.000000 1.000000
1.000000 0.837233 1.000000
0.829046 0.513041 1.000000
0.262480 0.122644 1.000000
0.000000 0.000000 1.000000
0.000000 0.000000 1.000000
0.000000 0.000000 1.000000
0.000000 0.000000 0.651614
0.000000 0.000000 0.059058
0.000000 0.000000 0.000000
0.000000 0.000000 0.000000
0.000000 0.000000 0.000000
0.000000 0.000000 0.000000
0.000000 0.000000 0.000000
0.000000 0.000000 0.000000
0.000000 0.000000 0.000000
0.000000 0.000000 0.000000
1.000000 0.000000 1.000000
1.000000 0.140717 1.000000
1.000000 0.457302 1.000000
1.000000 0.748730 1.000000
1.000000 1.000000 1.000000
1.000000 1.000000 1.000000
1.000000 1.000000 1.000000
1.000000 1.000000 1.000000
1.000000 1.000000 1.000000
1.000000 1.000000 1.000000
1.000000 1.000000 1.000000
1.000000 1.000000 1.000000
1.000000 1.000000 1.000000
1.000000 1.000000 1.000000
1.000000 1.000000 1.000000
1.000000 1.000000 1.000000
1.000000 1.000000 1.000000
1.000000 1.000000 1.000000
1.000000 0.788365 1.000000
0.887511 0.370873 1.000000
0.202252 0.000000 1.000000
0.000000 0.000000 1.000000
0.000000 0.000000 1.000000
0.000000 0.000000 1.000000
0.000000 0.000000 0.579941
0.000000 0.000000 0.000000
0.000000 0.000000 0.000000
0.000000 0.000000 0.000000
0.000000 0.000000 0.000000
0.000000 0.000000 0.000000
0.000000 0.000000 0.000000
0.000000 0.000000 0.000000
0.000000 0.000000 0.000000
1.000000 0.099747 1.000000
1.000000 0.464133 1.000000
1.000000 0.802287 1.000000
1.000000 1.000000 1.000000
1.000000 1.000000 1.000000
1.000000 1.000000 1.000000
1.000000 1.000000 1.000000
1.000000 1.000000 1.000000
1.000000 1.000000 1.000000
1.000000 1.000000 1.000000
1.000000 1.000000 1.000000
1.000000 1.000000 1.000000
1.000000 1.000000 1.000000
1.000000 1.000000 1.000000
1.000000 1.000000 1.000000
1.000000 1.000000 1.000000
1.000000 1.000000 1.000000
1.000000 1.000000 1.000000
1.000000 1.000000 1.000000
1.000000 0.678742 1.000000
0.916397 0.155512 1.000000
0.098103 0.000000 1.000000
0.000000 0.000000 1.000000
0.000000 0.000000 1.000000
0.000000 0.000000 1.000000
0.000000 0.000000 0.489523
0.000000 0.000000 0.000000
0.000000 0.000000 0.000000
0.000000 0.000000 0.000000
0.000000 0.000000 0.000000
0.000000 0.000000 0.000000
0.000000 0.000000 0.000000
0.000000 0.000000 0.000000
1.000000 0.464827 1.000000
1.000000 0.853382 1.000000
1.000000 1.000000 1.000000
1.000000 1.000000 1.000000
1.000000 1.000000 1.000000
1.000000 1.000000 1.000000
1.000000 1.000000 1.000000
1.000000 1.000000 1.000000
1.000000 1.000000 1.000000
1.000000 1.000000 1.000000
1.000000 1.000000 1.000000
1.000000 1.000000 1.000000
1.000000 1.000000 1.000000
1.000000 1.000000 1.000000
1.000000 1.000000 1.000000
1.000000 1.000000 1.000000
1.000000 1.000000 1.000000
1.000000 1.000000 1.000000
1.000000 1.000000 1.000000
1.000000 1.000000 1.000000
1.000000 0.497739 1.000000
0.908786 0.000000 1.000000
0.000000 0.000000 1.000000
0.000000 0.000000 1.000000
0.000000 0.000000 1.000000
0.000000 0.000000 1.000000
0.000000 0.000000 0.378955
0.000000 0.000000 0.000000
0.000000 0.000000 0.000000
0.000000 0.000000 0.000000
0.000000 0.000000 0.000000
0.000000 0.000000 0.000000
0.000000 0.000000 0.000000
1.000000 0.901484 1.000000
1.000000 1.000000 1.000000
1.000000 1.000000 1.000000
1.000000 1.000000 1.000000
1.000000 1.000000 1.000000
1.000000 1.000000 1.000000
1.000000 1.000000 1.000000
1.000000 1.000000 1.000000
1.000000 1.000000 1.000000
1.000000 1.000000 1.000000
1.000000 1.000000 1.000000
1.000000 1.000000 1.000000
1.000000 1.000000 1.000000
1.000000 1.000000 1.000000
1.000000 1.000000 1.000000
1.000000 1.000000 1.000000
1.000000 1.000000 1.000000
1.000000 1.000000 1.000000
1.000000 1.000000 1.000000
1.000000 1.000000 1.000000
1.000000 0.912509 1.000000
1.000000 0.234172 1.000000
0.857397 0.000000 1.000000
0.000000 0.000000 1.000000
0.000000 0.000000 1.000000
0.000000 0.000000 1.000000
0.000000 0.000000 1.000000
0.000000 0.000000 0.246850
0.000000 0.000000 0.000000
0.000000 0.000000 0.000000
0.000000 0.000000 0.000000
0.000000 0.000000 0.000000
0.000000 0.000000 0.000000
1.000000 1.000000 1.000000
1.000000 1.000000 1.000000
1.000000 1.000000 1.000000
1.000000 1.000000 1.000000
1.000000 1.000000 1.000000
1.000000 1.000000 1.000000
1.000000 1.000000 1.000000
1.000000 1.000000 1.000000
1.000000 1.000000 1.000000
1.000000 1.000000 1.000000
1.000000 1.000000 1.000000
1.000000 1.000000 1.000000
1.000000 1.000000 1.000000
1.000000 1.000000 1.000000
1.000000 1.000000 1.000000
1.000000 1.000000 1.000000
1.000000 1.000000 1.000000
1.000000 1.000000 1.000000
1.000000 1.000000 1.000000
1.000000 1.000000 1.000000
1.000000 1.000000 1.000000
1.000000 0.691802 1.000000
1.000000 0.000000 1.000000
0.754590 0.000000 1.000000
0.000000 0.000000 1.000000
0.000000 0.000000 1.000000
0.000000 0.000000 1.000000
