public/luts/fuji_provia_cc.cube
# Generated from ColorChecker fit
LUT_3D_SIZE 33
DOMAIN_MIN 0.0 0.0 0.0
DOMAIN_MAX 1.0 1.0 1.0
0.075192 0.004099 0.120367
0.032828 0.000000 0.124881
0.000000 0.000000 0.136539
0.000000 0.000000 0.154803
0.000000 0.000000 0.179079
0.000000 0.000000 0.208726
0.000000 0.000000 0.243046
0.000000 0.000000 0.281293
0.000000 0.000000 0.322668
0.000000 0.000000 0.366319
0.000000 0.000000 0.411344
0.000000 0.000000 0.456788
0.000000 0.000000 0.501645
0.000000 0.000000 0.544855
0.000000 0.000000 0.585309
0.000000 0.016387 0.621844
0.000000 0.046798 0.653246
0.000000 0.079435 0.678251
0.000000 0.113512 0.695538
0.000000 0.148129 0.703740
0.000000 0.182266 0.701435
0.008397 0.214786 0.687149
0.025429 0.244438 0.659358
0.037612 0.269853 0.616484
0.043446 0.289544 0.556898
0.041327 0.301908 0.478920
0.029547 0.305226 0.380817
0.006294 0.297661 0.260805
0.000000 0.277261 0.117047
0.000000 0.241955 0.000000
0.000000 0.189556 0.000000
0.000000 0.117761 0.000000
0.000000 0.024150 0.000000
0.060889 0.000000 0.138500
0.029250 0.000000 0.149228
0.000000 0.000000 0.166751
0.000000 0.000000 0.190492
0.000000 0.000000 0.219820
0.000000 0.000000 0.254053
0.000000 0.000000 0.292458
0.000000 0.000000 0.334250
0.000000 0.000000 0.378590
0.000000 0.000000 0.424590
0.000000 0.000000 0.471309
0.000000 0.000000 0.517754
0.000000 0.000000 0.562880
0.000000 0.014708 0.605590
0.000000 0.038784 0.644736
0.000000 0.065317 0.679117
0.000000 0.093710 0.707483
0.000000 0.123247 0.728527
0.010064 0.153097 0.740895
0.028435 0.182310 0.743178
0.044438 0.209822 0.733918
0.056836 0.234450 0.711602
0.064284 0.254896 0.674668
0.065337 0.269743 0.621499
0.058441 0.277459 0.550430
0.041940 0.276395 0.459741
0.014072 0.264785 0.347662
0.000000 0.240745 0.212369
0.000000 0.202277 0.051989
0.000000 0.147263 0.000000
0.000000 0.073472 0.000000
0.000000 0.000000 0.000000
0.000000 0.000000 0.000000
0.035544 0.000000 0.143003
0.014248 0.000000 0.160008
0.000000 0.000000 0.183440
0.000000 0.000000 0.212684
0.000000 0.000000 0.247071
0.000000 0.000000 0.285881
0.000000 0.000000 0.328343
0.000000 0.000000 0.373633
0.000000 0.000000 0.420874
0.000000 0.000000 0.469141
0.000000 0.002273 0.517453
0.000000 0.019009 0.564780
0.000000 0.038425 0.610039
0.000000 0.060228 0.652094
0.000000 0.084005 0.689760
0.008827 0.109230 0.721797
0.025784 0.135258 0.746916
0.042209 0.161326 0.763774
0.057124 0.186556 0.770977
0.069447 0.209954 0.767079
0.077991 0.230408 0.750582
0.081465 0.246689 0.719937
0.078473 0.257452 0.673543
0.067515 0.261234 0.609745
0.046986 0.256456 0.526839
0.015177 0.241423 0.423068
0.000000 0.214322 0.296622
0.000000 0.173224 0.145641
0.000000 0.116083 0.000000
0.000000 0.040736 0.000000
0.000000 0.000000 0.000000
0.000000 0.000000 0.000000
0.000000 0.000000 0.000000
0.000362 0.000000 0.134610
0.000000 0.000000 0.157951
0.000000 0.000000 0.187334
0.000000 0.000000 0.222105
0.000000 0.000000 0.261557
0.000000 0.000000 0.304932
0.000000 0.000000 0.351420
0.000000 0.000000 0.400159
0.000000 0.008029 0.450235
0.000000 0.022859 0.500684
0.000000 0.039809 0.550487
0.000000 0.058770 0.598575
0.003683 0.079520 0.643828
0.018073 0.101717 0.685072
0.033120 0.124903 0.721082
0.048105 0.148505 0.750582
0.062208 0.171830 0.772243
0.074503 0.194072 0.784685
0.083959 0.214305 0.786476
0.089442 0.231487 0.776131
0.089712 0.244461 0.752115
0.083424 0.251951 0.712839
0.069132 0.252566 0.656665
0.045280 0.244796 0.581900
0.010213 0.227017 0.486802
0.000000 0.197486 0.369574
0.000000 0.154344 0.228371
0.000000 0.095616 0.061292
0.000000 0.019208 0.000000
0.000000 0.000000 0.000000
0.000000 0.000000 0.000000
0.000000 0.000000 0.000000
0.000000 0.000000 0.000000
0.000000 0.000000 0.114348
0.000000 0.000000 0.144083
0.000000 0.000000 0.179457
0.000000 0.000000 0.219776
0.000000 0.000000 0.264296
0.000000 0.000000 0.312221
0.000000 0.002923 0.362702
0.000000 0.018860 0.414840
0.000000 0.036052 0.467682
0.000000 0.054579 0.520225
0.002214 0.074405 0.571414
0.015682 0.095375 0.620141
0.029890 0.117219 0.665246
0.044280 0.139550 0.705519
0.058184 0.161864 0.739697
0.070834 0.183539 0.766464
0.081355 0.203838 0.784454
0.088770 0.221906 0.792249
0.091994 0.236774 0.788378
0.089841 0.247351 0.771319
0.081018 0.252435 0.739497
0.064128 0.250702 0.691287
0.037671 0.240716 0.625011
0.000040 0.220920 0.538940
0.000000 0.189643 0.431291
0.000000 0.145096 0.300231
0.000000 0.085374 0.143876
0.000000 0.008455 0.000000
0.000000 0.000000 0.000000
0.000000 0.000000 0.000000
0.000000 0.000000 0.000000
0.000000 0.000000 0.000000
0.000000 0.000000 0.000000
0.000000 0.000000 0.083540
0.000000 0.000000 0.119725
0.000000 0.000000 0.161126
0.000000 0.000000 0.207013
0.000000 0.000000 0.256602
0.000000 0.000000 0.309060
0.000000 0.019301 0.363499
0.000000 0.040318 0.418983
0.000000 0.061841 0.474520
0.000000 0.083903 0.529069
0.013686 0.106420 0.581536
0.028658 0.129193 0.630775
0.043312 0.151904 0.675590
0.057037 0.174120 0.714730
0.069114 0.195290 0.746896
0.078720 0.214747 0.770732
0.084929 0.231706 0.784836
0.086710 0.245268 0.787750
0.082927 0.254414 0.777965
0.072339 0.258009 0.753921
0.053602 0.254803 0.714006
0.025266 0.243428 0.656556
0.000000 0.222398 0.579855
0.000000 0.190113 0.482134
0.000000 0.144853 0.361574
0.000000 0.084784 0.216304
0.000000 0.007955 0.044401
0.000000 0.000000 0.000000
0.000000 0.000000 0.000000
0.000000 0.000000 0.000000
0.000000 0.000000 0.000000
0.000000 0.000000 0.000000
0.000000 0.000000 0.000000
0.000000 0.000000 0.043806
0.000000 0.000000 0.086493
0.000000 0.000000 0.133957
0.000000 0.000000 0.185428
0.000000 0.000000 0.240085
0.000000 0.007680 0.297056
0.000000 0.034038 0.355416
0.000000 0.060026 0.414190
0.000000 0.085749 0.472348
0.000000 0.111194 0.528811
0.015626 0.136230 0.582447
0.031481 0.160611 0.632071
0.045939 0.183973 0.676450
0.058333 0.205837 0.714294
0.067894 0.225605 0.744265
0.073745 0.242563 0.764972
0.074908 0.255881 0.774971
0.070299 0.264613 0.772767
0.058729 0.267692 0.756815
0.038904 0.263939 0.725514
0.009428 0.252057 0.677216
0.000000 0.230629 0.610217
0.000000 0.198127 0.522763
0.000000 0.152900 0.413049
0.000000 0.093185 0.279216
0.000000 0.017100 0.119355
0.000000 0.000000 0.000000
0.000000 0.000000 0.000000
0.000000 0.000000 0.000000
0.000000 0.000000 0.000000
0.000000 0.000000 0.000000
0.000000 0.000000 0.000000
0.000000 0.000000 0.000000
0.000000 0.000000 0.000000
0.000000 0.000000 0.046299
0.000000 0.000000 0.099857
0.000000 0.000000 0.156927
0.000000 0.000000 0.216649
0.000000 0.015502 0.278112
0.000000 0.047480 0.340354
0.000000 0.078343 0.402359
0.000000 0.108148 0.463063
0.000000 0.136835 0.521346
0.010306 0.164228 0.576038
0.026421 0.190034 0.625918
0.040035 0.213843 0.669712
0.050430 0.235129 0.706094
0.056782 0.253247 0.733687
0.058164 0.267439 0.751061
0.053544 0.276826 0.756735
0.041785 0.280415 0.749176
0.021645 0.277096 0.726799
0.000000 0.265640 0.687968
0.000000 0.244705 0.630993
0.000000 0.212828 0.554135
0.000000 0.168433 0.455600
0.000000 0.109825 0.333546
0.000000 0.035193 0.186075
0.000000 0.000000 0.011240
0.000000 0.000000 0.000000
0.000000 0.000000 0.000000
0.000000 0.000000 0.000000
0.000000 0.000000 0.000000
0.000000 0.000000 0.000000
0.000000 0.000000 0.000000
0.000000 0.000000 0.000000
0.000000 0.000000 0.000000
0.000000 0.000000 0.001349
0.000000 0.000000 0.061033
0.000000 0.000000 0.123713
0.000000 0.000000 0.188494
0.000000 0.022460 0.254425
0.000000 0.059994 0.320506
0.000000 0.095646 0.385684
0.000000 0.129425 0.448855
0.000000 0.161226 0.508862
0.000271 0.190827 0.564497
0.016018 0.217887 0.614500
0.028139 0.241950 0.657559
0.035862 0.262443 0.692310
0.038312 0.278677 0.717338
0.034507 0.289844 0.731175
0.023364 0.295021 0.732301
0.003692 0.293168 0.719146
0.000000 0.283128 0.690086
0.000000 0.263627 0.643447
0.000000 0.233275 0.577501
0.000000 0.190563 0.490471
0.000000 0.133869 0.380524
0.000000 0.061450 0.245780
0.000000 0.000000 0.084304
0.000000 0.000000 0.000000
0.000000 0.000000 0.000000
0.000000 0.000000 0.000000
0.000000 0.000000 0.000000
0.000000 0.000000 0.000000
0.000000 0.000000 0.000000
0.000000 0.000000 0.000000
0.000000 0.000000 0.000000
0.000000 0.000000 0.000000
0.000000 0.000000 0.000000
0.000000 0.000000 0.019983
0.000000 0.000000 0.088285
0.000000 0.000000 0.158116
0.000000 0.028926 0.228489
0.000000 0.071964 0.298365
0.000000 0.112330 0.366653
0.000000 0.149988 0.432211
0.000000 0.184787 0.493843
0.000000 0.216456 0.550305
0.003089 0.244610 0.600296
0.013064 0.268746 0.642468
0.017441 0.288244 0.675417
0.015290 0.302369 0.697691
0.005578 0.310266 0.707784
0.000000 0.310966 0.704138
0.000000 0.303383 0.685144
0.000000 0.286312 0.649140
0.000000 0.258434 0.594414
0.000000 0.218311 0.519200
0.000000 0.164391 0.421681
0.000000 0.095001 0.299990
0.000000 0.008355 0.152205
0.000000 0.000000 0.000000
0.000000 0.000000 0.000000
0.000000 0.000000 0.000000
0.000000 0.000000 0.000000
0.000000 0.000000 0.000000
0.000000 0.000000 0.000000
0.000000 0.000000 0.000000
0.000000 0.000000 0.000000
0.000000 0.000000 0.000000
0.000000 0.000000 0.000000
0.000000 0.000000 0.000000
0.000000 0.000000 0.000000
0.000000 0.000000 0.053434
0.000000 0.000000 0.128305
0.000000 0.035291 0.203092
0.000000 0.083791 0.276716
0.000000 0.128809 0.348050
0.000000 0.170263 0.415912
0.000000 0.207953 0.479069
0.000000 0.241564 0.536238
0.000000 0.270664 0.586081
0.000000 0.294703 0.627210
0.000000 0.313015 0.658185
0.000000 0.324817 0.677515
0.000000 0.329210 0.683654
0.000000 0.325178 0.675009
0.000000 0.311587 0.649930
0.000000 0.287187 0.606719
0.000000 0.250612 0.543624
0.000000 0.200378 0.458842
0.000000 0.134885 0.350519
0.000000 0.052416 0.216747
0.000000 0.000000 0.055568
0.000000 0.000000 0.000000
0.000000 0.000000 0.000000
0.000000 0.000000 0.000000
0.000000 0.000000 0.000000
0.000000 0.000000 0.000000
0.000000 0.000000 0.000000
0.000000 0.000000 0.000000
0.000000 0.000000 0.000000
0.000000 0.000000 0.000000
0.000000 0.000000 0.000000
0.000000 0.000000 0.000000
0.000000 0.000000 0.000000
0.000000 0.000000 0.022250
0.000000 0.000000 0.102149
0.000000 0.041964 0.181318
0.000000 0.095897 0.258642
0.000000 0.145516 0.332955
0.000000 0.190692 0.403036
0.000000 0.231180 0.467615
0.000000 0.266617 0.525370
0.000000 0.296526 0.574925
0.000000 0.320309 0.614854
0.000000 0.337255 0.643680
0.000000 0.346534 0.659871
0.000000 0.347201 0.661846
0.000000 0.338192 0.647971
0.000000 0.318328 0.616561
0.000000 0.286312 0.565876
0.000000 0.240731 0.494130
0.000000 0.180056 0.399478
0.000000 0.102640 0.280030
0.000000 0.006719 0.133840
0.000000 0.000000 0.000000
0.000000 0.000000 0.000000
0.000000 0.000000 0.000000
0.000000 0.000000 0.000000
0.000000 0.000000 0.000000
0.000000 0.000000 0.000000
0.000000 0.000000 0.000000
0.000000 0.000000 0.000000
0.000000 0.000000 0.000000
0.000000 0.000000 0.000000
0.000000 0.000000 0.000000
0.000000 0.000000 0.000000
0.000000 0.000000 0.000000
0.000000 0.000000 0.000000
0.000000 0.000000 0.083028
0.000000 0.049371 0.166547
0.000000 0.108719 0.247520
0.000000 0.162899 0.324741
0.000000 0.211736 0.396954
0.000000 0.254940 0.462850
0.000000 0.292100 0.521067
0.000000 0.322692 0.570194
0.000000 0.346073 0.608764
0.000000 0.361484 0.635262
0.000000 0.368051 0.648120
0.000000 0.364779 0.645717
0.000000 0.350561 0.626381
0.000000 0.324170 0.588388
0.000000 0.284263 0.529963
0.000000 0.229380 0.449278
0.000000 0.157945 0.344453
0.000000 0.068265 0.213558
0.000000 0.000000 0.054609
0.000000 0.000000 0.000000
0.000000 0.000000 0.000000
0.000000 0.000000 0.000000
0.000000 0.000000 0.000000
0.000000 0.000000 0.000000
0.000000 0.000000 0.000000
0.000000 0.000000 0.000000
0.000000 0.000000 0.000000
0.000000 0.000000 0.000000
0.000000 0.000000 0.000000
0.000000 0.000000 0.000000
0.000000 0.000000 0.000000
0.000000 0.000000 0.000000
0.000000 0.000000 0.000000
0.000000 0.000000 0.074620
0.000000 0.057957 0.162453
0.000000 0.122713 0.247021
0.000000 0.181426 0.327080
0.000000 0.233876 0.401336
0.000000 0.279724 0.468440
0.000000 0.318514 0.526995
0.000000 0.349675 0.575548
0.000000 0.372519 0.612597
0.000000 0.386239 0.636588
0.000000 0.389915 0.645914
0.000000 0.382506 0.638917
0.000000 0.362857 0.613886
0.000000 0.329696 0.569059
0.000000 0.281634 0.502623
0.000000 0.217163 0.412712
0.000000 0.134662 0.297407
0.000000 0.032391 0.154740
0.000000 0.000000 0.000000
0.000000 0.000000 0.000000
0.000000 0.000000 0.000000
0.000000 0.000000 0.000000
0.000000 0.000000 0.000000
0.000000 0.000000 0.000000
0.000000 0.000000 0.000000
0.000000 0.000000 0.000000
0.000000 0.000000 0.000000
0.000000 0.000000 0.000000
0.000000 0.000000 0.000000
0.000000 0.000000 0.000000
0.000000 0.000000 0.000000
0.000000 0.000000 0.000000
0.000000 0.000000 0.000000
0.000000 0.000000 0.080896
0.000000 0.068185 0.173006
0.000000 0.138354 0.261113
0.000000 0.201584 0.343937
0.000000 0.257608 0.420143
0.008017 0.306040 0.488346
0.018095 0.346380 0.547110
0.018299 0.378008 0.594944
0.007646 0.400191 0.630309
0.000000 0.412075 0.651610
0.000000 0.412693 0.657204
0.000000 0.400959 0.645394
0.000000 0.375670 0.614432
0.000000 0.335508 0.562517
0.000000 0.279038 0.487797
0.000000 0.204706 0.388368
0.000000 0.110843 0.262276
0.000000 0.000000 0.107511
0.000000 0.000000 0.000000
0.000000 0.000000 0.000000
0.000000 0.000000 0.000000
0.000000 0.000000 0.000000
0.000000 0.000000 0.000000
0.000000 0.000000 0.000000
0.000000 0.000000 0.000000
0.000000 0.000000 0.000000
0.000000 0.000000 0.000000
0.000000 0.000000 0.000000
0.000000 0.000000 0.000000
0.000000 0.000000 0.000000
0.000000 0.000000 0.000000
0.000000 0.000000 0.000000
0.000000 0.000000 0.006290
0.000000 0.000000 0.106126
0.000000 0.080535 0.202472
0.000000 0.156134 0.294061
0.020242 0.223876 0.379572
0.046230 0.283447 0.457635
0.062871 0.334416 0.526825
0.069338 0.376236 0.585667
0.064699 0.408241 0.632635
0.047918 0.429650 0.666147
0.017854 0.439564 0.684575
0.000000 0.436969 0.686235
0.000000 0.420733 0.669391
0.000000 0.389606 0.632259
0.000000 0.342224 0.572999
0.000000 0.277105 0.489720
0.000000 0.192649 0.380482
0.000000 0.087141 0.243290
0.000000 0.000000 0.076098
0.000000 0.000000 0.000000
0.000000 0.000000 0.000000
0.000000 0.000000 0.000000
0.000000 0.000000 0.000000
0.000000 0.000000 0.000000
0.000000 0.000000 0.000000
0.000000 0.000000 0.000000
0.000000 0.000000 0.000000
0.000000 0.000000 0.000000
0.000000 0.000000 0.000000
0.000000 0.000000 0.000000
0.000000 0.000000 0.000000
0.000000 0.000000 0.000000
0.000000 0.000000 0.000000
0.000000 0.000000 0.050106
0.000000 0.005901 0.154871
0.029476 0.095508 0.255412
0.072347 0.176563 0.350421
0.106167 0.248823 0.438543
0.130265 0.311927 0.518365
0.143867 0.365397 0.588428
0.146093 0.408639 0.647216
0.135959 0.440941 0.693166
0.112375 0.461475 0.724658
0.074150 0.469298 0.740025
0.019984 0.463346 0.737545
0.000000 0.442443 0.715446
0.000000 0.405292 0.671902
0.000000 0.350482 0.605038
0.000000 0.276484 0.512924
0.000000 0.181653 0.393581
0.000000 0.064227 0.244976
0.000000 0.000000 0.065025
0.000000 0.000000 0.000000
0.000000 0.000000 0.000000
0.000000 0.000000 0.000000
0.000000 0.000000 0.000000
0.000000 0.000000 0.000000
0.000000 0.000000 0.000000
0.000000 0.000000 0.000000
0.000000 0.000000 0.000000
0.000000 0.000000 0.000000
0.000000 0.000000 0.000000
0.000000 0.000000 0.000000
0.000000 0.000000 0.000000
0.000000 0.000000 0.000000
0.000000 0.000000 0.008970
0.036267 0.000000 0.122323
0.097328 0.017600 0.231991
0.149405 0.113618 0.336681
0.191984 0.200171 0.435050
0.224446 0.276967 0.525700
0.246067 0.343600 0.607184
0.256020 0.399546 0.678002
0.253373 0.444163 0.736601
0.237088 0.476694 0.781380
0.206024 0.496265 0.810681
0.158936 0.501885 0.822799
0.094472 0.492445 0.815972
0.011178 0.466720 0.788392
0.000000 0.423370 0.738194
0.000000 0.360935 0.663464
0.000000 0.277841 0.562235
0.000000 0.172396 0.432489
0.000000 0.042791 0.272156
0.000000 0.000000 0.079114
0.000000 0.000000 0.000000
0.000000 0.000000 0.000000
0.000000 0.000000 0.000000
0.000000 0.000000 0.000000
0.000000 0.000000 0.000000
0.000000 0.000000 0.000000
0.000000 0.000000 0.000000
0.000000 0.000000 0.000000
0.000000 0.000000 0.000000
0.000000 0.000000 0.000000
0.000000 0.000000 0.000000
0.000000 0.000000 0.000000
0.040931 0.000000 0.000000
0.121827 0.000000 0.109136
0.193576 0.000000 0.228097
0.255820 0.032901 0.342639
0.308096 0.135403 0.451433
0.349838 0.227503 0.553094
0.380374 0.308865 0.646191
0.398928 0.379035 0.729235
0.404619 0.437443 0.800689
0.396463 0.483401 0.858963
0.373369 0.516105 0.902415
0.334145 0.534635 0.929352
0.277490 0.537952 0.938029
0.202002 0.524903 0.926646
0.106172 0.494216 0.893357
0.000000 0.444502 0.836259
0.000000 0.374258 0.753400
0.000000 0.281862 0.642775
0.000000 0.165575 0.502327
0.000000 0.023542 0.329948
0.000000 0.000000 0.123477
0.000000 0.000000 0.000000
0.000000 0.000000 0.000000
0.000000 0.000000 0.000000
0.000000 0.000000 0.000000
0.000000 0.000000 0.000000
0.000000 0.000000 0.000000
0.000000 0.000000 0.000000
0.000000 0.000000 0.000000
0.000000 0.000000 0.000000
0.000000 0.000000 0.000000
0.000000 0.000000 0.000000
0.146267 0.000000 0.000000
0.239438 0.000000 0.119917
0.322868 0.000000 0.248325
0.396250 0.000000 0.372880
0.459174 0.052345 0.492265
0.511124 0.161413 0.605112
0.551481 0.259124 0.710001
0.579521 0.345092 0.805458
0.594414 0.418819 0.889959
0.595227 0.479688 0.961928
0.580923 0.526963 1.000000
0.550360 0.559796 1.000000
0.502290 0.577218 1.000000
0.435361 0.578146 1.000000
0.348119 0.561378 1.000000
0.239003 0.525597 1.000000
0.106346 0.469369 0.971520
0.000000 0.391142 0.880266
0.000000 0.289248 0.759960
0.000000 0.161902 0.608508
0.000000 0.007204 0.423763
0.000000 0.000000 0.203526
0.000000 0.000000 0.000000
0.000000 0.000000 0.000000
0.000000 0.000000 0.000000
0.000000 0.000000 0.000000
0.000000 0.000000 0.000000
0.000000 0.000000 0.000000
0.000000 0.000000 0.000000
0.000000 0.000000 0.000000
0.000000 0.000000 0.000000
0.000000 0.000000 0.000000
0.000000 0.000000 0.000000
0.393995 0.000000 0.159568
0.490110 0.000000 0.297566
0.575614 0.000000 0.432284
0.650146 0.000000 0.562418
0.713244 0.076491 0.686613
0.764340 0.192222 0.803463
0.802761 0.295616 0.911508
0.827730 0.386244 1.000000
0.838365 0.463559 1.000000
0.833682 0.526897 1.000000
0.812588 0.575478 1.000000
0.773890 0.608406 1.000000
0.716287 0.624666 1.000000
0.638376 0.623128 1.000000
0.538647 0.602544 1.000000
0.415488 0.561551 1.000000
0.267180 0.498667 1.000000
0.091901 0.412295 1.000000
0.000000 0.300720 0.919504
0.000000 0.162112 0.756743
0.000000 0.000000 0.559310
0.000000 0.000000 0.324966
0.000000 0.000000 0.051425
0.000000 0.000000 0.000000
0.000000 0.000000 0.000000
0.000000 0.000000 0.000000
0.000000 0.000000 0.000000
0.000000 0.000000 0.000000
0.000000 0.000000 0.000000
0.000000 0.000000 0.000000
0.000000 0.000000 0.000000
0.000000 0.000000 0.000000
0.000000 0.000000 0.000000
0.700466 0.000000 0.381011
0.799085 0.000000 0.526031
0.886198 0.000000 0.667059
0.961394 0.000000 0.802755
1.000000 0.105917 0.931724
1.000000 0.228417 1.000000
1.000000 0.337581 1.000000
1.000000 0.432932 1.000000
1.000000 0.513877 1.000000
1.000000 0.579707 1.000000
1.000000 0.629593 1.000000
1.000000 0.662594 1.000000
0.982240 0.677649 1.000000
0.892632 0.673580 1.000000
0.779681 0.649095 1.000000
0.641720 0.602781 1.000000
0.476979 0.533113 1.000000
0.283584 0.438446 1.000000
0.059554 0.317018 1.000000
0.000000 0.166953 0.953039
0.000000 0.000000 0.742592
0.000000 0.000000 0.493799
0.000000 0.000000 0.204334
0.000000 0.000000 0.000000
0.000000 0.000000 0.000000
0.000000 0.000000 0.000000
0.000000 0.000000 0.000000
0.000000 0.000000 0.000000
0.000000 0.000000 0.000000
0.000000 0.000000 0.000000
0.000000 0.000000 0.000000
0.000000 0.000000 0.000000
0.000000 0.000000 0.000000
1.000000 0.000000 0.659596
1.000000 0.000000 0.811653
1.000000 0.000000 0.958990
1.000000 0.000000 1.000000
1.000000 0.141218 1.000000
1.000000 0.270606 1.000000
1.000000 0.385637 1.000000
1.000000 0.485787 1.000000
1.000000 0.570416 1.000000
1.000000 0.638769 1.000000
1.000000 0.689973 1.000000
1.000000 0.723037 1.000000
1.000000 0.736854 1.000000
1.000000 0.730202 1.000000
1.000000 0.701740 1.000000
0.924066 0.650010 1.000000
0.742108 0.573440 1.000000
0.529789 0.470338 1.000000
0.285076 0.338898 1.000000
0.005831 0.177194 1.000000
0.000000 0.000000 0.979907
0.000000 0.000000 0.716320
0.000000 0.000000 0.410568
0.000000 0.000000 0.060235
0.000000 0.000000 0.000000
0.000000 0.000000 0.000000
0.000000 0.000000 0.000000
0.000000 0.000000 0.000000
0.000000 0.000000 0.000000
0.000000 0.000000 0.000000
0.000000 0.000000 0.000000
0.000000 0.000000 0.000000
0.000000 0.000000 0.000000
1.000000 0.000000 1.000000
1.000000 0.000000 1.000000
1.000000 0.000000 1.000000
1.000000 0.031655 1.000000
1.000000 0.183009 1.000000
1.000000 0.319415 1.000000
1.000000 0.440420 1.000000
1.000000 0.545456 1.000000
1.000000 0.633836 1.000000
1.000000 0.704757 1.000000
1.000000 0.757299 1.000000
1.000000 0.790428 1.000000
1.000000 0.802988 1.000000
1.000000 0.793710 1.000000
1.000000 0.761208 1.000000
1.000000 0.703978 1.000000
1.000000 0.620400 1.000000
0.837151 0.508737 1.000000
0.570921 0.367134 1.000000
0.268326 0.193622 1.000000
0.000000 0.000000 1.000000
0.000000 0.000000 0.999122
0.000000 0.000000 0.676718
0.000000 0.000000 0.308184
0.000000 0.000000 0.000000
0.000000 0.000000 0.000000
0.000000 0.000000 0.000000
0.000000 0.000000 0.000000
0.000000 0.000000 0.000000
0.000000 0.000000 0.000000
0.000000 0.000000 0.000000
0.000000 0.000000 0.000000
0.000000 0.000000 0.000000
1.000000 0.000000 1.000000
1.000000 0.000000 1.000000
1.000000 0.000000 1.000000
1.000000 0.072390 1.000000
1.000000 0.231921 1.000000
1.000000 0.375486 1.000000
1.000000 0.502586 1.000000
1.000000 0.612606 1.000000
1.000000 0.704813 1.000000
1.000000 0.778358 1.000000
1.000000 0.832274 1.000000
1.000000 0.865479 1.000000
1.000000 0.876774 1.000000
1.000000 0.864841 1.000000
1.000000 0.828248 1.000000
1.000000 0.765444 1.000000
1.000000 0.674764 1.000000
1.000000 0.554423 1.000000
0.923996 0.402521 1.000000
0.597191 0.217041 1.000000
0.229814 0.000000 1.000000
0.000000 0.000000 1.000000
0.000000 0.000000 1.000000
0.000000 0.000000 0.622547
0.000000 0.000000 0.185185
0.000000 0.000000 0.000000
0.000000 0.000000 0.000000
0.000000 0.000000 0.000000
0.000000 0.000000 0.000000
0.000000 0.000000 0.000000
0.000000 0.000000 0.000000
0.000000 0.000000 0.000000
0.000000 0.000000 0.000000
1.000000 0.000000 1.000000
1.000000 0.000000 1.000000
1.000000 0.000000 1.000000
1.000000 0.120721 1.000000
1.000000 0.288603 1.000000
1.000000 0.439481 1.000000
1.000000 0.572808 1.000000
1.000000 0.687922 1.000000
1.000000 0.784045 1.000000
1.000000 0.860280 1.000000
1.000000 0.915616 1.000000
1.000000 0.948922 1.000000
1.000000 0.958953 1.000000
1.000000 0.944347 1.000000
1.000000 0.903622 1.000000
1.000000 0.835184 1.000000
1.000000 0.737318 1.000000
1.000000 0.608195 1.000000
1.000000 0.445868 1.000000
0.999603 0.248274 1.000000
0.605221 0.013231 1.000000
0.165832 0.000000 1.000000
0.000000 0.000000 1.000000
0.000000 0.000000 1.000000
0.000000 0.000000 0.552542
0.000000 0.000000 0.040083
0.000000 0.000000 0.000000
0.000000 0.000000 0.000000
0.000000 0.000000 0.000000
0.000000 0.000000 0.000000
0.000000 0.000000 0.000000
0.000000 0.000000 0.000000
0.000000 0.000000 0.000000
1.000000 0.000000 1.000000
1.000000 0.000000 1.000000
1.000000 0.000000 1.000000
1.000000 0.177305 1.000000
1.000000 0.353725 1.000000
1.000000 0.512079 1.000000
1.000000 0.651776 1.000000
1.000000 0.772106 1.000000
1.000000 0.872244 1.000000
1.000000 0.951249 1.000000
1.000000 1.000000 1.000000
1.000000 1.000000 1.000000
1.000000 1.000000 1.000000
1.000000 1.000000 1.000000
1.000000 0.988115 1.000000
1.000000 0.913992 1.000000
1.000000 0.808869 1.000000
1.000000 0.670871 1.000000
1.000000 0.498005 1.000000
1.000000 0.288160 1.000000
1.000000 0.039110 1.000000
0.591448 0.000000 1.000000
0.072480 0.000000 1.000000
0.000000 0.000000 1.000000
0.000000 0.000000 1.000000
0.000000 0.000000 0.465413
0.000000 0.000000 0.000000
