public/luts/fuji_astia_100f.cube
# Generated from ColorChecker fit
LUT_3D_SIZE 9
DOMAIN_MIN 0.0 0.0 0.0
DOMAIN_MAX 1.0 1.0 1.0
0.146888 0.000000 0.226280
0.025809 0.000000 0.277806
0.000000 0.013894 0.454640
0.014621 0.082842 0.661813
0.047168 0.124248 0.805364
0.036544 0.089867 0.792341
0.000000 0.000000 0.530795
0.000000 0.000000 0.000000
0.000000 0.000000 0.000000
0.000000 0.000000 0.000000
0.000000 0.000000 0.028502
0.000000 0.000000 0.263139
0.061597 0.063778 0.511532
0.111674 0.133824 0.671658
0.054719 0.092489 0.642497
0.000000 0.000000 0.324041
0.000000 0.000000 0.000000
0.000000 0.000000 0.000000
0.000000 0.000000 0.000000
0.000000 0.000000 0.000000
0.000000 0.000000 0.076599
0.000000 0.083247 0.368292
0.000000 0.171101 0.546938
0.000000 0.105691 0.503453
0.000000 0.000000 0.129764
0.000000 0.000000 0.000000
0.000000 0.000000 0.000000
0.000000 0.000000 0.000000
0.000000 0.000000 0.000000
0.000000 0.000000 0.000000
0.000000 0.110285 0.253418
0.000000 0.206565 0.449700
0.000000 0.101408 0.390875
0.000000 0.000000 0.000000
0.000000 0.000000 0.000000
0.000000 0.000000 0.000000
0.000000 0.000000 0.000000
0.000000 0.000000 0.000000
0.000000 0.000000 0.000000
0.000000 0.092460 0.225874
0.000000 0.189229 0.436082
0.000000 0.030098 0.358071
0.000000 0.000000 0.000000
0.000000 0.000000 0.000000
0.000000 0.000000 0.000000
0.000000 0.000000 0.000000
0.000000 0.000000 0.000000
0.000000 0.000000 0.000000
0.000000 0.000000 0.382267
0.000000 0.046634 0.599860
0.000000 0.000000 0.495991
0.000000 0.000000 0.000000
0.000000 0.000000 0.000000
0.000000 0.000000 0.000000
0.000000 0.000000 0.000000
0.215076 0.000000 0.000000
0.492328 0.000000 0.427730
0.507862 0.000000 0.856844
0.144819 0.000000 1.000000
0.000000 0.000000 0.933224
0.000000 0.000000 0.298822
0.000000 0.000000 0.000000
0.000000 0.000000 0.000000
1.000000 0.000000 0.386138
1.000000 0.000000 0.852188
1.000000 0.000000 1.000000
1.000000 0.000000 1.000000
1.000000 0.000000 1.000000
0.308769 0.000000 1.000000
0.000000 0.000000 1.000000
0.000000 0.000000 0.000000
0.000000 0.000000 0.000000
1.000000 0.000000 1.000000
1.000000 0.000000 1.000000
1.000000 0.000000 1.000000
1.000000 0.000000 1.000000
1.000000 0.000000 1.000000
1.000000 0.000000 1.000000
0.116819 0.000000 1.000000
0.000000 0.000000 1.000000
0.000000 0.000000 0.000000
0.431337 0.342718 0.389954
0.210471 0.254301 0.303996
0.103651 0.215360 0.357734
0.087690 0.207051 0.471014
0.129175 0.194424 0.564691
0.184476 0.126417 0.560629
0.199738 0.000000 0.381697
0.110888 0.000000 0.000000
0.000000 0.000000 0.000000
0.242060 0.161921 0.184960
0.167592 0.167890 0.181302
0.179978 0.209392 0.309217
0.243850 0.260846 0.480489
0.313619 0.280560 0.607908
0.333472 0.210733 0.605273
0.237377 0.000000 0.387391
0.000000 0.000000 0.000000
0.000000 0.000000 0.000000
0.000000 0.025938 0.000000
0.021763 0.135361 0.053184
0.129237 0.260088 0.251919
0.243538 0.367796 0.477690
0.306896 0.410053 0.635226
0.251320 0.322317 0.630261
0.000000 0.023940 0.369537
0.000000 0.000000 0.000000
0.000000 0.000000 0.000000
0.000000 0.000000 0.000000
0.000000 0.123986 0.000000
0.031348 0.336165 0.201990
0.165850 0.498064 0.475942
0.187282 0.554512 0.657141
0.015475 0.434228 0.643258
0.000000 0.049821 0.332971
0.000000 0.000000 0.000000
0.000000 0.000000 0.000000
0.000000 0.000000 0.000000
0.000000 0.079562 0.000000
0.023748 0.384866 0.213224
0.147402 0.600342 0.526208
0.090572 0.664077 0.721789
0.000000 0.498049 0.689573
0.000000 0.008129 0.320175
0.000000 0.000000 0.000000
0.000000 0.000000 0.000000
0.000000 0.000000 0.000000
0.061579 0.000000 0.014294
0.301393 0.331966 0.377056
0.382329 0.601849 0.717095
0.210078 0.667413 0.914947
0.000000 0.443895 0.852154
0.000000 0.000000 0.411266
0.000000 0.000000 0.000000
0.000000 0.000000 0.000000
0.527906 0.000000 0.127789
0.886545 0.000000 0.430694
1.000000 0.081765 0.822559
1.000000 0.408334 1.000000
0.796630 0.471715 1.000000
0.023091 0.180406 1.000000
0.000000 0.000000 0.724005
0.000000 0.000000 0.000000
0.000000 0.000000 0.000000
1.000000 0.000000 0.989551
1.000000 0.000000 1.000000
1.000000 0.000000 1.000000
1.000000 0.000000 1.000000
1.000000 0.000000 1.000000
1.000000 0.000000 1.000000
0.000000 0.000000 1.000000
0.000000 0.000000 0.188590
0.000000 0.000000 0.000000
1.000000 0.000000 1.000000
1.000000 0.000000 1.000000
1.000000 0.000000 1.000000
1.000000 0.000000 1.000000
1.000000 0.000000 1.000000
1.000000 0.000000 1.000000
1.000000 0.000000 1.000000
0.000000 0.000000 1.000000
0.000000 0.000000 0.000000
0.653131 0.570515 0.522031
0.315018 0.342106 0.300780
0.116390 0.193873 0.229292
0.044432 0.104160 0.242232
0.076105 0.035203 0.275272
0.178149 0.000000 0.265090
0.307085 0.000000 0.149373
0.409208 0.000000 0.000000
0.420596 0.000000 0.000000
0.509554 0.442363 0.378010
0.326716 0.302689 0.253276
0.256303 0.230683 0.270581
0.273318 0.197948 0.356524
0.342544 0.159979 0.438714
0.418543 0.056162 0.445764
0.445653 0.000000 0.307297
0.357994 0.000000 0.000000
0.079460 0.000000 0.000000
0.281829 0.367918 0.230411
0.233032 0.327082 0.193400
0.264311 0.335115 0.290569
0.338490 0.356881 0.440453
0.408172 0.341134 0.562597
0.415739 0.220520 0.577550
0.293351 0.000000 0.406871
0.000000 0.000000 0.000000
0.000000 0.000000 0.000000
0.049399 0.314129 0.093041
0.112588 0.383680 0.132130
0.218216 0.477011 0.297406
0.316927 0.552248 0.499342
0.349145 0.551403 0.649415
0.245073 0.400383 0.660114
0.000000 0.008982 0.444933
0.000000 0.000000 0.000000
0.000000 0.000000 0.000000
0.000000 0.226472 0.017351
0.101525 0.419405 0.118088
0.253335 0.604741 0.336886
0.343125 0.733865 0.576153
0.299138 0.742050 0.739304
0.039398 0.548461 0.730763
0.000000 0.056154 0.455959
0.000000 0.000000 0.000000
0.000000 0.000000 0.000000
0.175798 0.028952 0.092430
0.393502 0.359709 0.237535
0.562508 0.645203 0.492441
0.609101 0.830077 0.751492
0.449345 0.842865 0.910040
0.000000 0.595992 0.864444
0.000000 0.000000 0.512070
0.000000 0.000000 0.000000
0.000000 0.000000 0.000000
0.981106 0.000000 0.445010
1.000000 0.108571 0.614373
1.000000 0.503822 0.885145
1.000000 0.747756 1.000000
1.000000 0.762169 1.000000
0.342026 0.452744 1.000000
0.000000 0.000000 0.723023
0.000000 0.000000 0.000000
0.000000 0.000000 0.000000
1.000000 0.000000 1.000000
1.000000 0.000000 1.000000
1.000000 0.064552 1.000000
1.000000 0.372304 1.000000
1.000000 0.386808 1.000000
1.000000 0.007009 1.000000
0.000000 0.000000 1.000000
0.000000 0.000000 0.157582
0.000000 0.000000 0.000000
1.000000 0.000000 1.000000
1.000000 0.000000 1.000000
1.000000 0.000000 1.000000
1.000000 0.000000 1.000000
1.000000 0.000000 1.000000
1.000000 0.000000 1.000000
1.000000 0.000000 1.000000
0.000000 0.000000 0.960699
0.000000 0.000000 0.000000
0.851395 0.665743 0.616935
0.399008 0.318432 0.283706
0.111116 0.083851 0.105991
0.000000 0.000000 0.033273
0.008820 0.000000 0.016038
0.158863 0.000000 0.005782
0.402296 0.000000 0.000000
0.695788 0.000000 0.000000
0.985787 0.000000 0.000000
0.734272 0.578692 0.501293
0.444556 0.309413 0.277040
0.292405 0.141786 0.200974
0.263195 0.044603 0.214510
0.332082 0.000000 0.260073
0.463998 0.000000 0.281094
0.613655 0.000000 0.222010
0.725545 0.000000 0.028269
0.733936 0.000000 0.000000
0.530491 0.551611 0.381919
0.379807 0.371497 0.252277
0.334470 0.275670 0.263360
0.367677 0.226179 0.348518
0.442403 0.168965 0.442113
0.511402 0.033861 0.479511
0.517207 0.000000 0.397087
0.392129 0.000000 0.132223
0.058256 0.000000 0.000000
0.317377 0.552573 0.264620
0.281265 0.474205 0.212396
0.312994 0.456468 0.293300
0.373582 0.454671 0.432620
0.413823 0.408015 0.556652
0.374293 0.239593 0.592700
0.185345 0.000000 0.469073
0.000000 0.000000 0.115090
0.000000 0.000000 0.000000
0.229774 0.528180 0.192845
0.282952 0.565585 0.198016
0.361177 0.633675 0.328585
0.413287 0.681021 0.501778
0.377898 0.640083 0.635824
0.183405 0.427211 0.649965
0.000000 0.000000 0.464445
0.000000 0.000000 0.000520
0.000000 0.000000 0.000000
0.460044 0.403560 0.247682
0.576408 0.572212 0.287398
0.669737 0.735315 0.444649
0.676689 0.834699 0.628595
0.523702 0.796084 0.749404
0.126991 0.529080 0.718252
0.000000 0.000000 0.447321
0.000000 0.000000 0.000000
0.000000 0.000000 0.000000
1.000000 0.082370 0.547863
1.000000 0.399191 0.596444
1.000000 0.667939 0.754562
1.000000 0.823702 0.923316
1.000000 0.785462 1.000000
0.450823 0.456089 0.902150
0.000000 0.000000 0.519460
0.000000 0.000000 0.000000
0.000000 0.000000 0.000000
1.000000 0.000000 1.000000
1.000000 0.000000 1.000000
1.000000 0.316624 1.000000
1.000000 0.534557 1.000000
1.000000 0.496191 1.000000
1.000000 0.097659 1.000000
0.000000 0.000000 0.820261
0.000000 0.000000 0.000000
0.000000 0.000000 0.000000
1.000000 0.000000 1.000000
1.000000 0.000000 1.000000
1.000000 0.000000 1.000000
1.000000 0.000000 1.000000
1.000000 0.000000 1.000000
1.000000 0.000000 1.000000
1.000000 0.000000 1.000000
0.000000 0.000000 0.358262
0.000000 0.000000 0.000000
1.000000 0.673606 0.656366
0.488201 0.257428 0.255602
0.134025 0.000000 0.011787
0.000000 0.000000 0.000000
0.014387 0.000000 0.000000
0.234118 0.000000 0.000000
0.613307 0.000000 0.000000
1.000000 0.000000 0.000000
1.000000 0.000000 0.000000
0.934306 0.622274 0.553576
0.559638 0.268367 0.272488
0.347246 0.051951 0.141416
0.292878 0.000000 0.116593
0.382062 0.000000 0.155261
0.590102 0.000000 0.215665
0.882084 0.000000 0.257061
1.000000 0.000000 0.239710
1.000000 0.000000 0.124883
0.745507 0.634540 0.448124
0.513381 0.355071 0.266776
0.411443 0.197158 0.228378
0.423262 0.120038 0.281100
0.522186 0.066837 0.374117
0.671342 0.000000 0.457614
0.823635 0.000000 0.482780
0.921747 0.000000 0.401814
0.898141 0.000000 0.167921
0.540265 0.679603 0.337817
0.423815 0.488185 0.233445
0.400178 0.396098 0.264823
0.440744 0.355841 0.372058
0.506680 0.303798 0.496260
0.548935 0.160249 0.579550
0.508234 0.000000 0.565054
0.315080 0.000000 0.396907
0.000000 0.000000 0.020249
0.451304 0.705191 0.258103
0.422843 0.616881 0.205114
0.444533 0.599391 0.280542
0.475582 0.598476 0.416429
0.464981 0.543784 0.545822
0.351497 0.348850 0.602779
0.063676 0.000000 0.522360
0.000000 0.000000 0.240637
0.000000 0.000000 0.000000
0.668867 0.637555 0.282070
0.699887 0.668862 0.252042
0.733107 0.736185 0.342964
0.715556 0.778540 0.478815
0.584045 0.718834 0.584579
0.265162 0.463865 0.586246
0.000000 0.000000 0.410815
0.000000 0.000000 0.000000
0.000000 0.000000 0.000000
1.000000 0.381480 0.520447
1.000000 0.550355 0.482130
1.000000 0.714154 0.557164
1.000000 0.805154 0.661462
1.000000 0.739520 0.711943
0.533582 0.417309 0.626537
0.000000 0.000000 0.324176
0.000000 0.000000 0.000000
0.000000 0.000000 0.000000
1.000000 0.000000 1.000000
1.000000 0.146118 1.000000
1.000000 0.419504 1.000000
1.000000 0.565968 1.000000
1.000000 0.494937 1.000000
1.000000 0.099728 0.857879
0.095771 0.000000 0.393843
0.000000 0.000000 0.000000
0.000000 0.000000 0.000000
1.000000 0.000000 1.000000
1.000000 0.000000 1.000000
1.000000 0.000000 1.000000
1.000000 0.000000 1.000000
1.000000 0.000000 1.000000
1.000000 0.000000 1.000000
1.000000 0.000000 0.788855
0.000000 0.000000 0.000000
0.000000 0.000000 0.000000
1.000000 0.607984 0.609301
0.574557 0.201914 0.206572
0.197510 0.000000 0.000000
0.051987 0.000000 0.000000
0.146069 0.000000 0.000000
0.477612 0.030048 0.000000
1.000000 0.078879 0.101279
1.000000 0.000000 0.329785
1.000000 0.000000 0.602144
1.000000 0.593143 0.520901
0.676688 0.228530 0.246789
0.445987 0.039098 0.120205
0.407963 0.000000 0.112199
0.558516 0.022315 0.194829
0.883323 0.072962 0.341157
1.000000 0.054784 0.525254
1.000000 0.000000 0.722200
1.000000 0.000000 0.908079
0.923936 0.642897 0.432136
0.651246 0.332939 0.261132
0.533156 0.183660 0.230988
0.563608 0.151480 0.304689
0.726320 0.176714 0.446227
0.994792 0.183566 0.620602
1.000000 0.080130 0.793822
1.000000 0.000000 0.932899
1.000000 0.000000 1.000000
0.727889 0.727571 0.332809
0.570497 0.486912 0.236580
0.530461 0.386140 0.274407
0.589542 0.374936 0.401212
0.719282 0.386874 0.572924
0.880999 0.339417 0.746477
1.000000 0.133920 0.879815
1.000000 0.000000 0.931889
1.000000 0.000000 0.862656
0.636410 0.796014 0.250369
0.564225 0.640746 0.197750
0.566864 0.598283 0.272252
0.613909 0.611567 0.420730
0.664720 0.607432 0.591051
0.668439 0.496600 0.732084
0.563983 0.173686 0.793710
0.280050 0.000000 0.726815
0.000000 0.000000 0.483293
0.837624 0.775607 0.249902
0.819734 0.723268 0.206902
0.828846 0.750363 0.283952
0.822365 0.793094 0.419845
0.747473 0.771554 0.554381
0.541129 0.589727 0.628369
0.130073 0.135487 0.583623
0.000000 0.000000 0.362966
0.000000 0.000000 0.000000
1.000000 0.572256 0.434136
1.000000 0.641830 0.363935
1.000000 0.751178 0.406579
1.000000 0.829763 0.492799
1.000000 0.790936 0.554330
0.740601 0.531941 0.523917
0.000000 0.000000 0.335311
0.000000 0.000000 0.000000
0.000000 0.000000 0.000000
1.000000 0.070397 0.943442
1.000000 0.282316 0.806389
1.000000 0.488059 0.774845
1.000000 0.610349 0.771475
1.000000 0.555799 0.719952
1.000000 0.214910 0.544954
0.366307 0.000000 0.172171
0.000000 0.000000 0.000000
0.000000 0.000000 0.000000
1.000000 0.000000 1.000000
1.000000 0.000000 1.000000
1.000000 0.000000 1.000000
1.000000 0.002158 1.000000
1.000000 0.000000 1.000000
1.000000 0.000000 0.855349
1.000000 0.000000 0.255242
0.000000 0.000000 0.000000
0.000000 0.000000 0.000000
1.000000 0.451425 0.431993
0.616234 0.163383 0.113998
0.280166 0.096844 0.000000
0.209715 0.218897 0.000000
0.423331 0.480520 0.017919
0.929246 0.816586 0.254985
1.000000 1.000000 0.620675
1.000000 1.000000 1.000000
1.000000 1.000000 1.000000
1.000000 0.480007 0.376591
0.766633 0.207553 0.194391
0.579990 0.149820 0.152916
0.620247 0.267158 0.238030
0.893676 0.503806 0.436607
1.000000 0.787895 0.736526
1.000000 1.000000 1.000000
1.000000 1.000000 1.000000
1.000000 0.964470 1.000000
1.000000 0.571549 0.324341
0.777096 0.328911 0.246861
0.703739 0.287925 0.303831
0.813277 0.402199 0.473054
1.000000 0.609233 0.733339
1.000000 0.830416 1.000000
1.000000 0.971031 1.000000
1.000000 0.920248 1.000000
1.000000 0.551130 1.000000
0.856272 0.697499 0.257050
0.717771 0.500354 0.250382
0.720739 0.485501 0.371759
0.857308 0.599809 0.590919
1.000000 0.774036 0.878605
1.000000 0.922833 1.000000
1.000000 0.944741 1.000000
1.000000 0.722190 1.000000
1.000000 0.121504 1.000000
0.773883 0.807833 0.194162
0.716325 0.673304 0.221573
0.757833 0.695418 0.370490
0.878362 0.814304 0.602584
1.000000 0.953979 0.880537
1.000000 1.000000 1.000000
1.000000 0.911232 1.000000
1.000000 0.496301 1.000000
1.000000 0.000000 1.000000
0.967874 0.831055 0.192764
0.957940 0.777712 0.214692
0.999383 0.849074 0.351451
1.000000 0.978528 0.556651
1.000000 1.000000 0.784907
1.000000 1.000000 0.991844
0.881121 0.807689 1.000000
0.491657 0.181210 1.000000
0.000000 0.000000 1.000000
1.000000 0.674197 0.347583
1.000000 0.722057 0.321637
1.000000 0.856394 0.403714
1.000000 1.000000 0.539361
1.000000 1.000000 0.675129
1.000000 0.964196 0.758579
0.637683 0.549825 0.738278
0.000000 0.000000 0.563802
0.000000 0.000000 0.185731
1.000000 0.222819 0.790989
1.000000 0.393346 0.671949
1.000000 0.605832 0.653991
1.000000 0.780184 0.674597
1.000000 0.820202 0.672256
1.000000 0.613574 0.586465
0.926106 0.031881 0.357726
0.000000 0.000000 0.000000
0.000000 0.000000 0.000000
1.000000 0.000000 1.000000
1.000000 0.000000 1.000000
1.000000 0.000000 1.000000
1.000000 0.175944 1.000000
1.000000 0.188898 0.934985
1.000000 0.000000 0.631369
1.000000 0.000000 0.145476
0.048464 0.000000 0.000000
0.000000 0.000000 0.000000
1.000000 0.155152 0.067975
0.537594 0.122000 0.000000
0.326790 0.350312 0.000000
0.415264 0.804364 0.106443
0.831840 1.000000 0.414284
1.000000 1.000000 0.886729
1.000000 1.000000 1.000000
1.000000 1.000000 1.000000
1.000000 1.000000 1.000000
1.000000 0.240248 0.081241
0.766599 0.191758 0.097021
0.706816 0.399383 0.242402
0.907727 0.820658 0.518065
1.000000 1.000000 0.925702
1.000000 1.000000 1.000000
1.000000 1.000000 1.000000
1.000000 1.000000 1.000000
1.000000 1.000000 1.000000
0.990260 0.384034 0.102404
0.840824 0.335467 0.222753
0.893520 0.531378 0.466826
1.000000 0.922560 0.827241
1.000000 1.000000 1.000000
1.000000 1.000000 1.000000
1.000000 1.000000 1.000000
1.000000 1.000000 1.000000
1.000000 1.000000 1.000000
0.867640 0.559084 0.105268
0.828298 0.527150 0.290709
0.954106 0.721764 0.593865
1.000000 1.000000 0.999289
1.000000 1.000000 1.000000
1.000000 1.000000 1.000000
1.000000 1.000000 1.000000
1.000000 1.000000 1.000000
1.000000 1.000000 1.000000
0.818715 0.716500 0.101278
0.854568 0.719352 0.309507
1.000000 0.924536 0.629306
1.000000 1.000000 1.000000
1.000000 1.000000 1.000000
1.000000 1.000000 1.000000
1.000000 1.000000 1.000000
1.000000 1.000000 1.000000
1.000000 1.000000 1.000000
1.000000 0.785910 0.139519
1.000000 0.843151 0.325402
1.000000 1.000000 0.616580
1.000000 1.000000 0.981477
1.000000 1.000000 1.000000
1.000000 1.000000 1.000000
1.000000 1.000000 1.000000
1.000000 1.000000 1.000000
1.000000 1.000000 1.000000
1.000000 0.675472 0.306717
1.000000 0.808149 0.422294
1.000000 1.000000 0.636754
1.000000 1.000000 0.910459
1.000000 1.000000 1.000000
1.000000 1.000000 1.000000
1.000000 1.000000 1.000000
1.000000 1.000000 1.000000
0.369107 0.124805 1.000000
1.000000 0.271869 0.727242
1.000000 0.502480 0.721721
1.000000 0.825034 0.808539
1.000000 1.000000 0.939994
1.000000 1.000000 1.000000
1.000000 1.000000 1.000000
1.000000 1.000000 1.000000
0.823345 0.351448 0.993395
0.000000 0.000000 0.667757
1.000000 0.000000 1.000000
1.000000 0.000000 1.000000
1.000000 0.187856 1.000000
1.000000 0.535835 1.000000
1.000000 0.730982 1.000000
1.000000 0.651433 0.965902
1.000000 0.159214 0.666382
1.000000 0.000000 0.183765
0.000000 0.000000 0.000000
0.493111 0.000000 0.000000
0.229197 0.026603 0.000000
0.248376 0.717422 0.000000
0.600064 1.000000 0.418360
1.000000 1.000000 1.000000
1.000000 1.000000 1.000000
1.000000 1.000000 1.000000
1.000000 1.000000 1.000000
1.000000 1.000000 1.000000
0.666415 0.000000 0.000000
0.579913 0.136140 0.000000
0.750229 0.771725 0.378790
1.000000 1.000000 0.963561
1.000000 1.000000 1.000000
1.000000 1.000000 1.000000
1.000000 1.000000 1.000000
1.000000 1.000000 1.000000
1.000000 1.000000 1.000000
0.703274 0.012562 0.000000
0.758524 0.313761 0.174876
1.000000 0.904114 0.727167
1.000000 1.000000 1.000000
1.000000 1.000000 1.000000
1.000000 1.000000 1.000000
1.000000 1.000000 1.000000
1.000000 1.000000 1.000000
1.000000 1.000000 1.000000
0.670418 0.250696 0.000000
0.830937 0.534609 0.360695
1.000000 1.000000 0.964985
1.000000 1.000000 1.000000
1.000000 1.000000 1.000000
1.000000 1.000000 1.000000
1.000000 1.000000 1.000000
1.000000 1.000000 1.000000
1.000000 1.000000 1.000000
0.692099 0.466543 0.000000
0.920583 0.752359 0.481751
1.000000 1.000000 1.000000
1.000000 1.000000 1.000000
1.000000 1.000000 1.000000
1.000000 1.000000 1.000000
1.000000 1.000000 1.000000
1.000000 1.000000 1.000000
1.000000 1.000000 1.000000
0.950084 0.590858 0.106307
1.000000 0.899209 0.576300
1.000000 1.000000 1.000000
1.000000 1.000000 1.000000
1.000000 1.000000 1.000000
1.000000 1.000000 1.000000
1.000000 1.000000 1.000000
1.000000 1.000000 1.000000
1.000000 1.000000 1.000000
1.000000 0.532923 0.344745
1.000000 0.885890 0.720239
1.000000 1.000000 1.000000
1.000000 1.000000 1.000000
1.000000 1.000000 1.000000
1.000000 1.000000 1.000000
1.000000 1.000000 1.000000
1.000000 1.000000 1.000000
1.000000 1.000000 1.000000
1.000000 0.180547 0.802472
1.000000 0.601659 1.000000
1.000000 1.000000 1.000000
1.000000 1.000000 1.000000
1.000000 1.000000 1.000000
1.000000 1.000000 1.000000
1.000000 1.000000 1.000000
1.000000 1.000000 1.000000
1.000000 1.000000 1.000000
1.000000 0.000000 1.000000
1.000000 0.000000 1.000000
1.000000 0.524367 1.000000
1.000000 1.000000 1.000000
1.000000 1.000000 1.000000
1.000000 1.000000 1.000000
1.000000 1.000000 1.000000
1.000000 1.000000 1.000000
1.000000 0.000000 1.000000
