public/luts/fuji_fortia_50.cube
# Generated from ColorChecker fit
LUT_3D_SIZE 5
DOMAIN_MIN 0.0 0.0 0.0
DOMAIN_MAX 1.0 1.0 1.0
0.000000 0.000000 0.000000
0.000000 0.000000 0.217383
0.134595 0.182476 0.515445
0.312422 0.226286 0.642731
0.000000 0.000000 0.230584
0.252926 0.331165 0.000000
0.128753 0.314116 0.149360
0.178337 0.439616 0.523907
0.105420 0.450898 0.647251
0.000000 0.000000 0.076383
0.178040 0.597178 0.000000
0.073601 0.527830 0.122784
0.000000 0.575902 0.579122
0.000000 0.517372 0.644617
0.000000 0.000000 0.000000
0.233656 0.959719 0.000000
0.407354 0.976951 0.346792
0.419010 1.000000 0.895979
0.000000 0.956507 0.855470
0.000000 0.152090 0.000000
0.896094 1.000000 0.000000
1.000000 1.000000 1.000000
1.000000 1.000000 1.000000
1.000000 1.000000 1.000000
0.596747 1.000000 0.000000
0.176614 0.048903 0.230433
0.076056 0.053384 0.193715
0.312408 0.152150 0.305854
0.649976 0.088230 0.498334
0.523774 0.000000 0.481411
0.400480 0.369957 0.227552
0.272054 0.300315 0.263147
0.399187 0.366394 0.444206
0.558667 0.343967 0.627862
0.197991 0.000000 0.450020
0.287399 0.516002 0.156668
0.236228 0.450569 0.295585
0.309688 0.515461 0.517360
0.297052 0.519195 0.604775
0.000000 0.000000 0.119385
0.284593 0.738515 0.163650
0.578314 0.838122 0.442650
0.816163 1.000000 0.682688
0.799896 1.000000 0.592196
0.001974 0.586363 0.000000
0.820631 1.000000 0.396865
1.000000 1.000000 0.858457
1.000000 1.000000 1.000000
1.000000 1.000000 0.755743
1.000000 1.000000 0.000000
0.422386 0.174361 0.321392
0.300334 0.181733 0.153950
0.502096 0.200707 0.328436
0.865023 0.006850 0.855246
0.897176 0.000000 1.000000
0.601205 0.434596 0.364621
0.438335 0.352021 0.216453
0.530112 0.342218 0.409502
0.726371 0.213497 0.879813
0.547655 0.000000 1.000000
0.446096 0.508902 0.326942
0.356765 0.436666 0.195544
0.403338 0.451537 0.345441
0.448134 0.394570 0.638327
0.024178 0.000000 0.714672
0.356530 0.616923 0.296705
0.617609 0.737807 0.185328
0.846274 0.913301 0.236109
0.917327 1.000000 0.236392
0.376276 0.539121 0.000000
0.713322 0.843890 0.364760
1.000000 1.000000 0.282403
1.000000 1.000000 0.183855
1.000000 1.000000 0.000000
1.000000 1.000000 0.000000
0.683419 0.211051 0.237550
0.693492 0.369428 0.333892
0.931569 0.400603 0.986098
1.000000 0.112679 1.000000
1.000000 0.000000 1.000000
0.918138 0.531859 0.278426
0.813207 0.534088 0.298208
0.879297 0.490016 0.875827
1.000000 0.240491 1.000000
0.886779 0.000000 1.000000
0.797442 0.633126 0.257510
0.701098 0.601444 0.164719
0.669217 0.557529 0.572526
0.637166 0.374973 1.000000
0.211016 0.000000 1.000000
0.673050 0.702660 0.205637
0.871398 0.841801 0.000000
0.978076 0.955944 0.118530
0.940934 0.951423 0.517454
0.378525 0.350388 0.811815
0.878027 0.793861 0.156136
1.000000 1.000000 0.000000
1.000000 1.000000 0.000000
1.000000 1.000000 0.000000
1.000000 1.000000 0.000000
0.288509 0.000000 0.102162
0.706902 0.236336 1.000000
1.000000 0.429781 1.000000
1.000000 0.141737 1.000000
1.000000 0.000000 1.000000
0.760348 0.274005 0.145348
0.928314 0.516852 0.851899
1.000000 0.538202 1.000000
1.000000 0.211441 1.000000
1.000000 0.000000 1.000000
0.830780 0.551404 0.177882
0.881144 0.665711 0.599723
0.841818 0.612322 1.000000
0.721214 0.297365 1.000000
0.198451 0.000000 1.000000
0.803773 0.708931 0.173081
1.000000 0.921385 0.246440
1.000000 0.973109 0.946800
0.808059 0.802976 1.000000
0.068638 0.000000 1.000000
0.964638 0.768150 0.106758
1.000000 1.000000 0.000000
1.000000 1.000000 0.000000
1.000000 1.000000 0.340204
1.000000 1.000000 0.760357
