public/luts/fuji_velvia_50.cube
# Generated from ColorChecker fit
LUT_3D_SIZE 9
DOMAIN_MIN 0.0 0.0 0.0
DOMAIN_MAX 1.0 1.0 1.0
0.105248 0.043730 0.131465
0.067972 0.037092 0.218931
0.047803 0.019675 0.352192
0.059498 0.030166 0.496642
0.098735 0.071510 0.613012
0.142114 0.110908 0.657361
0.147157 0.079817 0.581081
0.052306 0.000000 0.330899
0.000000 0.000000 0.000000
0.079120 0.217453 0.125189
0.083296 0.226651 0.232877
0.096426 0.224466 0.377807
0.127593 0.243386 0.526271
0.166800 0.280152 0.639893
0.184972 0.295764 0.675629
0.133957 0.215478 0.585769
0.000000 0.000000 0.317932
0.000000 0.000000 0.000000
0.026161 0.354227 0.075210
0.067438 0.383454 0.209501
0.105200 0.395601 0.369839
0.142855 0.416953 0.523413
0.164732 0.438051 0.632742
0.136082 0.413691 0.655679
0.003077 0.262928 0.545408
0.000000 0.000000 0.250446
0.000000 0.000000 0.000000
0.000000 0.466474 0.008404
0.058499 0.520769 0.175824
0.112709 0.547193 0.355455
0.144353 0.565827 0.515380
0.132084 0.561011 0.619017
0.035479 0.481339 0.625113
0.000000 0.239665 0.487748
0.000000 0.000000 0.156335
0.000000 0.000000 0.000000
0.007024 0.563079 0.000000
0.111384 0.648328 0.192304
0.174343 0.689819 0.395257
0.187958 0.701432 0.562922
0.125210 0.661303 0.659612
0.000000 0.511827 0.644970
0.000000 0.159653 0.473973
0.000000 0.000000 0.096928
0.000000 0.000000 0.000000
0.166492 0.649393 0.099001
0.297801 0.772329 0.352838
0.362291 0.830524 0.583287
0.346345 0.831658 0.760225
0.217269 0.747665 0.848859
0.000000 0.514737 0.809728
0.000000 0.033322 0.598705
0.000000 0.000000 0.166994
0.000000 0.000000 0.000000
0.550419 0.727234 0.477343
0.706261 0.895434 0.784759
0.765548 0.972817 1.000000
0.708992 0.960861 1.000000
0.498222 0.825298 1.000000
0.075792 0.496117 1.000000
0.000000 0.000000 0.990007
0.000000 0.000000 0.494741
0.000000 0.000000 0.000000
1.000000 0.794884 1.000000
1.000000 1.000000 1.000000
1.000000 1.000000 1.000000
1.000000 1.000000 1.000000
1.000000 0.895870 1.000000
0.504752 0.458483 1.000000
0.000000 0.000000 1.000000
0.000000 0.000000 1.000000
0.000000 0.000000 0.364677
1.000000 0.847092 1.000000
1.000000 1.000000 1.000000
1.000000 1.000000 1.000000
1.000000 1.000000 1.000000
1.000000 0.957517 1.000000
1.000000 0.400815 1.000000
0.191775 0.000000 1.000000
0.000000 0.000000 1.000000
0.000000 0.000000 1.000000
0.256385 0.109220 0.172774
0.188780 0.066504 0.167339
0.152626 0.021779 0.224933
0.166323 0.015277 0.322260
0.229196 0.051487 0.431357
0.321487 0.099152 0.519590
0.404364 0.091275 0.549661
0.419914 0.000000 0.479600
0.291146 0.000000 0.262773
0.243734 0.284186 0.201976
0.217605 0.256758 0.229440
0.215427 0.228843 0.309265
0.249926 0.234471 0.419051
0.314751 0.271928 0.531730
0.384472 0.303757 0.615565
0.414579 0.256758 0.634152
0.341486 0.021988 0.546419
0.082528 0.000000 0.306626
0.195771 0.413397 0.180029
0.208160 0.408892 0.244690
0.232684 0.400327 0.348403
0.276394 0.415530 0.469662
0.327264 0.446585 0.582295
0.354189 0.449834 0.655462
0.306987 0.345875 0.653655
0.116396 0.019561 0.536696
0.000000 0.000000 0.259743
0.151926 0.514100 0.133888
0.200358 0.540999 0.240191
0.244791 0.555171 0.369593
0.286604 0.578241 0.501485
0.308095 0.596091 0.610591
0.272486 0.558862 0.666967
0.123918 0.380950 0.635998
0.000000 0.000000 0.478407
0.000000 0.000000 0.150244
0.168430 0.600007 0.123946
0.250912 0.667638 0.276480
0.308948 0.708779 0.433519
0.338239 0.738854 0.575350
0.315411 0.737544 0.677593
0.198010 0.648786 0.711197
0.000000 0.380773 0.642448
0.000000 0.000000 0.432961
0.000000 0.000000 0.039683
0.318317 0.681296 0.244036
0.433342 0.799834 0.447536
0.499155 0.873024 0.634305
0.505784 0.910088 0.785525
0.424180 0.884507 0.877712
0.206213 0.734014 0.882713
0.000000 0.360602 0.767708
0.000000 0.000000 0.495208
0.000000 0.000000 0.023057
0.691425 0.764612 0.621426
0.837968 0.945076 0.880772
0.906217 1.000000 1.000000
0.880527 1.000000 1.000000
0.726172 1.000000 1.000000
0.389351 0.825423 1.000000
0.000000 0.332158 1.000000
0.000000 0.000000 0.793435
0.000000 0.000000 0.228796
1.000000 0.853064 1.000000
1.000000 1.000000 1.000000
1.000000 1.000000 1.000000
1.000000 1.000000 1.000000
1.000000 1.000000 1.000000
0.856479 0.930353 1.000000
0.071552 0.303629 1.000000
0.000000 0.000000 1.000000
0.000000 0.000000 0.818772
1.000000 0.946228 1.000000
1.000000 1.000000 1.000000
1.000000 1.000000 1.000000
1.000000 1.000000 1.000000
1.000000 1.000000 1.000000
1.000000 1.000000 1.000000
0.734135 0.279667 1.000000
0.000000 0.000000 1.000000
0.000000 0.000000 1.000000
0.379640 0.148188 0.221747
0.272327 0.065391 0.141396
0.207201 0.000000 0.131987
0.206308 0.000000 0.181531
0.272616 0.000000 0.273371
0.390013 0.000000 0.386183
0.523311 0.000000 0.493973
0.618241 0.000000 0.566082
0.601456 0.000000 0.567180
0.379461 0.327750 0.268591
0.312266 0.256508 0.232715
0.280411 0.190419 0.254998
0.300267 0.165057 0.324345
0.369127 0.180252 0.424997
0.465205 0.200091 0.536523
0.547639 0.152918 0.633828
0.556484 0.000000 0.687146
0.412720 0.000000 0.662045
0.333308 0.450397 0.257280
0.304664 0.401787 0.268097
0.300196 0.356880 0.321645
0.330602 0.345050 0.407729
0.387499 0.359925 0.511482
0.443428 0.359390 0.613372
0.451849 0.265586 0.689197
0.347146 0.000000 0.710089
0.044623 0.000000 0.642511
0.282417 0.538203 0.214851
0.291242 0.524147 0.274722
0.308764 0.507252 0.359257
0.340004 0.510687 0.459154
0.370906 0.521881 0.560445
0.368337 0.492516 0.644492
0.280082 0.338531 0.687990
0.034850 0.000000 0.662966
0.000000 0.000000 0.536779
0.284832 0.609706 0.201778
0.330526 0.642974 0.313211
0.365121 0.661765 0.428597
0.387963 0.683047 0.539532
0.379323 0.688045 0.632941
0.300391 0.622240 0.691085
0.093279 0.395369 0.691552
0.000000 0.000000 0.607268
0.000000 0.000000 0.406486
0.415397 0.679912 0.311974
0.497844 0.774121 0.477620
0.545080 0.837119 0.623868
0.550776 0.879674 0.743209
0.489528 0.876807 0.823464
0.316852 0.767799 0.847788
0.000000 0.456185 0.794669
0.000000 0.000000 0.637925
0.000000 0.000000 0.346707
0.765760 0.760292 0.672787
0.885328 0.929903 0.895445
0.941255 1.000000 1.000000
0.921539 1.000000 1.000000
0.795102 1.000000 1.000000
0.511785 0.944895 1.000000
0.002350 0.537527 1.000000
0.000000 0.000000 0.883304
0.000000 0.000000 0.485954
1.000000 0.858782 1.000000
1.000000 1.000000 1.000000
1.000000 1.000000 1.000000
1.000000 1.000000 1.000000
1.000000 1.000000 1.000000
0.996057 1.000000 1.000000
0.304124 0.652408 1.000000
0.000000 0.000000 1.000000
0.000000 0.000000 0.986178
1.000000 0.979784 1.000000
1.000000 1.000000 1.000000
1.000000 1.000000 1.000000
1.000000 1.000000 1.000000
1.000000 1.000000 1.000000
1.000000 1.000000 1.000000
1.000000 0.810310 1.000000
0.000000 0.000000 1.000000
0.000000 0.000000 1.000000
0.495932 0.184298 0.259559
0.352264 0.070573 0.130647
0.257913 0.000000 0.071266
0.238571 0.000000 0.080736
0.300847 0.000000 0.153706
0.432277 0.000000 0.280159
0.601314 0.000000 0.445409
0.757336 0.000000 0.630104
0.830642 0.000000 0.810222
0.512449 0.376097 0.312906
0.406157 0.267007 0.238947
0.342988 0.163455 0.219618
0.342958 0.102558 0.255136
0.407004 0.085692 0.341046
0.516984 0.078488 0.468226
0.635679 0.010833 0.622888
0.706792 0.000000 0.786573
0.654946 0.000000 0.936157
0.470141 0.497468 0.301538
0.401052 0.407531 0.282664
0.364575 0.323809 0.300881
0.375051 0.277216 0.357297
0.427743 0.262926 0.448355
0.498835 0.240367 0.565829
0.545433 0.133225 0.696826
0.505564 0.000000 0.823785
0.298178 0.000000 0.924475
0.412060 0.575311 0.252569
0.380483 0.519893 0.289062
0.366690 0.466271 0.342461
0.379349 0.439158 0.414771
0.408047 0.427524 0.503331
0.423295 0.384596 0.600811
0.376523 0.227859 0.695214
0.200085 0.000000 0.769873
0.000000 0.000000 0.803456
0.398056 0.632992 0.226556
0.404783 0.628306 0.318840
0.410152 0.615900 0.405204
0.417154 0.614288 0.488550
0.409703 0.606237 0.567111
0.352634 0.538774 0.634454
0.191704 0.323180 0.679477
0.000000 0.000000 0.686411
0.000000 0.000000 0.634817
0.504784 0.690344 0.317489
0.551092 0.753446 0.466135
0.572582 0.794221 0.583393
0.566570 0.824978 0.673061
0.511297 0.822285 0.734268
0.365923 0.726964 0.761476
0.070530 0.444097 0.744481
0.000000 0.000000 0.668407
0.000000 0.000000 0.513714
0.825703 0.763664 0.652800
0.913351 0.912459 0.858524
0.948405 1.000000 1.000000
0.922507 1.000000 1.000000
0.808223 1.000000 1.000000
0.559038 0.969696 1.000000
0.109360 0.611985 1.000000
0.000000 0.000000 0.844311
0.000000 0.000000 0.568740
1.000000 0.865715 1.000000
1.000000 1.000000 1.000000
1.000000 1.000000 1.000000
1.000000 1.000000 1.000000
1.000000 1.000000 1.000000
1.000000 1.000000 1.000000
0.421355 0.844686 1.000000
0.000000 0.000000 1.000000
0.000000 0.000000 0.961926
1.000000 1.000000 1.000000
1.000000 1.000000 1.000000
1.000000 1.000000 1.000000
1.000000 1.000000 1.000000
1.000000 1.000000 1.000000
1.000000 1.000000 1.000000
1.000000 1.000000 1.000000
0.000000 0.144153 1.000000
0.000000 0.000000 1.000000
0.603897 0.215146 0.271651
0.439961 0.092797 0.128903
0.328866 0.000000 0.044953
0.299946 0.000000 0.030427
0.363458 0.000000 0.091282
0.510579 0.000000 0.228808
0.713410 0.000000 0.439628
0.924970 0.000000 0.715695
1.000000 0.000000 1.000000
0.646557 0.431109 0.327067
0.515874 0.303290 0.248647
0.432489 0.176139 0.212009
0.420063 0.088319 0.228675
0.483178 0.042748 0.305498
0.607336 0.006600 0.444664
0.758964 0.000000 0.643692
0.885407 0.000000 0.895430
0.914933 0.000000 1.000000
0.615361 0.560779 0.311646
0.519148 0.445450 0.295607
0.460376 0.333590 0.301692
0.457029 0.257659 0.342318
0.508016 0.214373 0.425235
0.593165 0.164705 0.553526
0.673226 0.033885 0.725603
0.689872 0.000000 0.935213
0.565697 0.000000 1.000000
0.555169 0.635881 0.252587
0.495128 0.551851 0.297125
0.458353 0.468994 0.341488
0.457155 0.413570 0.398988
0.484766 0.376092 0.478272
0.515342 0.311331 0.583316
0.503958 0.138316 0.713431
0.386611 0.000000 0.863258
0.080220 0.000000 1.000000
0.527642 0.684610 0.210523
0.505958 0.651531 0.313982
0.489049 0.612237 0.392324
0.483551 0.586782 0.459757
0.477024 0.559482 0.525824
0.437947 0.478903 0.595397
0.315720 0.257874 0.668683
0.040667 0.000000 0.741219
0.000000 0.000000 0.803874
0.611245 0.731625 0.279528
0.630586 0.769997 0.440396
0.631895 0.789669 0.548563
0.616135 0.804496 0.619134
0.565188 0.792587 0.662546
0.441861 0.696312 0.684569
0.189879 0.422293 0.686304
0.000000 0.000000 0.664185
0.000000 0.000000 0.609978
0.901247 0.798049 0.587112
0.964765 0.929218 0.804023
0.983128 1.000000 0.938008
0.951623 1.000000 1.000000
0.846461 1.000000 1.000000
0.624770 0.988913 0.979070
0.224604 0.657777 0.894678
0.000000 0.000000 0.760686
0.000000 0.000000 0.569755
1.000000 0.901472 1.000000
1.000000 1.000000 1.000000
1.000000 1.000000 1.000000
1.000000 1.000000 1.000000
1.000000 1.000000 1.000000
1.000000 1.000000 1.000000
0.534865 0.986994 1.000000
0.000000 0.186325 1.000000
0.000000 0.000000 0.845318
1.000000 1.000000 1.000000
1.000000 1.000000 1.000000
1.000000 1.000000 1.000000
1.000000 1.000000 1.000000
1.000000 1.000000 1.000000
1.000000 1.000000 1.000000
1.000000 1.000000 1.000000
0.119105 0.506796 1.000000
0.000000 0.000000 1.000000
0.679887 0.212253 0.247736
0.524504 0.116740 0.134246
0.421878 0.001752 0.059498
0.404988 0.000000 0.045423
0.487735 0.000000 0.109288
0.664941 0.000000 0.263689
0.912350 0.000000 0.516557
1.000000 0.000000 0.871152
1.000000 0.000000 1.000000
0.763367 0.468597 0.307484
0.635729 0.354323 0.266598
0.555959 0.230593 0.245321
0.551361 0.137613 0.266482
0.630161 0.079845 0.348243
0.781508 0.026008 0.504096
0.975470 0.000000 0.742868
1.000000 0.000000 1.000000
1.000000 0.000000 1.000000
0.755774 0.620428 0.290718
0.658491 0.508795 0.318405
0.599871 0.392631 0.343928
0.601543 0.305940 0.391012
0.666058 0.246982 0.478713
0.776891 0.178273 0.621420
0.898436 0.026588 0.828855
0.976009 0.000000 1.000000
0.935850 0.000000 1.000000
0.703777 0.704300 0.224716
0.639944 0.617559 0.317092
0.601251 0.526115 0.382889
0.603653 0.457772 0.446726
0.644029 0.404587 0.528556
0.700177 0.322877 0.643665
0.730816 0.133211 0.802670
0.675590 0.000000 1.000000
0.455062 0.000000 1.000000
0.670849 0.753234 0.170193
0.644042 0.714479 0.323519
0.624537 0.665756 0.423208
0.622616 0.628667 0.494775
0.629480 0.589067 0.559070
0.617255 0.497071 0.632274
0.538985 0.267047 0.725899
0.328639 0.000000 0.846791
0.000000 0.000000 0.997127
0.737266 0.796715 0.221303
0.751545 0.829887 0.431985
0.750973 0.842733 0.559330
0.740155 0.850650 0.629750
0.704620 0.833293 0.664990
0.610817 0.734573 0.682127
0.406118 0.462659 0.693569
0.018815 0.000000 0.707058
0.000000 0.000000 0.725666
1.000000 0.860694 0.505637
1.000000 0.990583 0.770227
1.000000 1.000000 0.919138
1.000000 1.000000 0.979678
0.968461 1.000000 0.974489
0.780359 1.000000 0.921542
0.432193 0.751075 0.834143
0.000000 0.089350 0.720929
0.000000 0.000000 0.585868
1.000000 0.967589 1.000000
1.000000 1.000000 1.000000
1.000000 1.000000 1.000000
1.000000 1.000000 1.000000
1.000000 1.000000 1.000000
1.000000 1.000000 1.000000
0.733992 1.000000 1.000000
0.000000 0.404091 1.000000
0.000000 0.000000 0.739923
1.000000 1.000000 1.000000
1.000000 1.000000 1.000000
1.000000 1.000000 1.000000
1.000000 1.000000 1.000000
1.000000 1.000000 1.000000
1.000000 1.000000 1.000000
1.000000 1.000000 1.000000
0.400740 0.859005 1.000000
0.000000 0.000000 1.000000
0.677974 0.121074 0.181794
0.572698 0.101010 0.149026
0.516488 0.043968 0.125619
0.545967 0.000000 0.144814
0.678682 0.000000 0.235182
0.913098 0.000000 0.420630
1.000000 0.000000 0.720393
1.000000 0.000000 1.000000
1.000000 0.000000 1.000000
0.822176 0.438301 0.254838
0.737754 0.382999 0.301848
0.698162 0.302863 0.336973
0.734349 0.239640 0.394347
0.858185 0.199339 0.503439
1.000000 0.152222 0.689050
1.000000 0.032808 0.971312
1.000000 0.000000 1.000000
1.000000 0.000000 1.000000
0.855903 0.630444 0.246133
0.796338 0.564749 0.366810
0.773051 0.481268 0.451711
0.811315 0.415548 0.535868
0.917326 0.367394 0.649646
1.000000 0.300867 0.818740
1.000000 0.144285 1.000000
1.000000 0.000000 1.000000
1.000000 0.000000 1.000000
0.827635 0.738884 0.183038
0.797414 0.688486 0.371414
0.790601 0.622257 0.497483
0.826795 0.569541 0.597173
0.906519 0.523942 0.701744
1.000000 0.443317 0.837787
1.000000 0.249783 1.000000
1.000000 0.000000 1.000000
1.000000 0.000000 1.000000
0.802656 0.801467 0.126347
0.806747 0.792905 0.376602
0.817061 0.765370 0.535376
0.847523 0.742006 0.639494
0.892980 0.710213 0.721110
0.929201 0.621649 0.807713
0.912876 0.392228 0.922124
0.781617 0.000000 1.000000
0.453957 0.000000 1.000000
0.863050 0.852506 0.170296
0.906907 0.913163 0.476754
0.935485 0.946611 0.659915
0.957034 0.969793 0.757499
0.960728 0.963907 0.802559
0.916661 0.874408 0.823479
0.775848 0.611009 0.843974
0.470227 0.047677 0.883093
0.000000 0.000000 0.955217
1.000000 0.922780 0.442556
1.000000 1.000000 0.799685
1.000000 1.000000 0.999061
1.000000 1.000000 1.000000
1.000000 1.000000 1.000000
1.000000 1.000000 1.000000
0.793957 0.941981 0.921322
0.294012 0.303088 0.817807
0.000000 0.000000 0.718215
1.000000 1.000000 1.000000
1.000000 1.000000 1.000000
1.000000 1.000000 1.000000
1.000000 1.000000 1.000000
1.000000 1.000000 1.000000
1.000000 1.000000 1.000000
1.000000 1.000000 1.000000
0.372047 0.701521 1.000000
0.000000 0.000000 0.753578
1.000000 1.000000 1.000000
1.000000 1.000000 1.000000
1.000000 1.000000 1.000000
1.000000 1.000000 1.000000
1.000000 1.000000 1.000000
1.000000 1.000000 1.000000
1.000000 1.000000 1.000000
0.840210 1.000000 1.000000
0.000000 0.000000 1.000000
0.529948 0.000000 0.072073
0.529065 0.000000 0.179860
0.569950 0.035558 0.258305
0.692872 0.082732 0.351955
0.919021 0.133417 0.500691
1.000000 0.165621 0.739726
1.000000 0.121610 1.000000
1.000000 0.000000 1.000000
1.000000 0.000000 1.000000
0.759999 0.263891 0.174078
0.771697 0.326143 0.367718
0.821580 0.342926 0.508652
0.944241 0.357534 0.642325
1.000000 0.377516 0.809512
1.000000 0.374680 1.000000
1.000000 0.285089 1.000000
1.000000 0.009063 1.000000
1.000000 0.000000 1.000000
0.857990 0.518784 0.189542
0.887664 0.554422 0.460840
0.947624 0.553764 0.653428
1.000000 0.553902 0.813645
1.000000 0.556184 0.983162
1.000000 0.526215 1.000000
1.000000 0.393857 1.000000
1.000000 0.053227 1.000000
1.000000 0.000000 1.000000
0.874211 0.671875 0.145902
0.927740 0.710033 0.486811
0.999337 0.715972 0.720361
1.000000 0.720584 0.893789
1.000000 0.719015 1.000000
1.000000 0.670667 1.000000
1.000000 0.499201 1.000000
1.000000 0.092532 1.000000
1.000000 0.000000 1.000000
0.875755 0.765840 0.104036
0.959500 0.836496 0.506651
1.000000 0.873917 0.770619
1.000000 0.902793 0.944070
1.000000 0.912067 1.000000
1.000000 0.854940 1.000000
1.000000 0.648871 1.000000
1.000000 0.175573 1.000000
1.000000 0.000000 1.000000
0.946518 0.839818 0.158258
1.000000 0.973797 0.614822
1.000000 1.000000 0.898807
1.000000 1.000000 1.000000
1.000000 1.000000 1.000000
1.000000 1.000000 1.000000
1.000000 0.887085 1.000000
1.000000 0.347416 1.000000
0.702859 0.000000 1.000000
1.000000 0.929412 0.436320
1.000000 1.000000 0.939220
1.000000 1.000000 1.000000
1.000000 1.000000 1.000000
1.000000 1.000000 1.000000
1.000000 1.000000 1.000000
1.000000 1.000000 1.000000
0.959514 0.649588 1.000000
0.276258 0.000000 1.000000
1.000000 1.000000 1.000000
1.000000 1.000000 1.000000
1.000000 1.000000 1.000000
1.000000 1.000000 1.000000
1.000000 1.000000 1.000000
1.000000 1.000000 1.000000
1.000000 1.000000 1.000000
1.000000 1.000000 1.000000
0.078717 0.000000 0.998389
1.000000 1.000000 1.000000
1.000000 1.000000 1.000000
1.000000 1.000000 1.000000
1.000000 1.000000 1.000000
1.000000 1.000000 1.000000
1.000000 1.000000 1.000000
1.000000 1.000000 1.000000
1.000000 1.000000 1.000000
0.248406 0.439471 1.000000
0.145313 0.000000 0.000000
0.315844 0.000000 0.237635
0.517238 0.000000 0.476811
0.793409 0.100971 0.694473
1.000000 0.284386 0.941810
1.000000 0.425939 1.000000
1.000000 0.469439 1.000000
1.000000 0.322951 1.000000
1.000000 0.000000 1.000000
0.491568 0.000000 0.074423
0.665024 0.094507 0.481794
0.866412 0.274690 0.786317
1.000000 0.428353 1.000000
1.000000 0.564590 1.000000
1.000000 0.656751 1.000000
1.000000 0.642445 1.000000
1.000000 0.423534 1.000000
1.000000 0.000000 1.000000
0.681994 0.187333 0.136862
0.865161 0.392854 0.624784
1.000000 0.538314 0.981736
1.000000 0.662350 1.000000
1.000000 0.767853 1.000000
1.000000 0.821973 1.000000
1.000000 0.756114 1.000000
1.000000 0.465939 1.000000
1.000000 0.000000 1.000000
0.768690 0.409450 0.135928
0.968840 0.601525 0.694270
1.000000 0.739742 1.000000
1.000000 0.856536 1.000000
1.000000 0.948596 1.000000
1.000000 0.976870 1.000000
1.000000 0.866560 1.000000
1.000000 0.507128 1.000000
1.000000 0.000000 1.000000
0.820559 0.556816 0.132578
1.000000 0.768867 0.751354
1.000000 0.928168 1.000000
1.000000 1.000000 1.000000
1.000000 1.000000 1.000000
1.000000 1.000000 1.000000
1.000000 1.000000 1.000000
1.000000 0.600524 1.000000
1.000000 0.000000 1.000000
0.923308 0.673398 0.221208
1.000000 0.939692 0.890578
1.000000 1.000000 1.000000
1.000000 1.000000 1.000000
1.000000 1.000000 1.000000
1.000000 1.000000 1.000000
1.000000 1.000000 1.000000
1.000000 0.796017 1.000000
1.000000 0.000000 1.000000
1.000000 0.799627 0.529649
1.000000 1.000000 1.000000
1.000000 1.000000 1.000000
1.000000 1.000000 1.000000
1.000000 1.000000 1.000000
1.000000 1.000000 1.000000
1.000000 1.000000 1.000000
1.000000 1.000000 1.000000
1.000000 0.074258 1.000000
1.000000 0.972402 1.000000
1.000000 1.000000 1.000000
1.000000 1.000000 1.000000
1.000000 1.000000 1.000000
1.000000 1.000000 1.000000
1.000000 1.000000 1.000000
1.000000 1.000000 1.000000
1.000000 1.000000 1.000000
1.000000 0.505323 1.000000
1.000000 1.000000 1.000000
1.000000 1.000000 1.000000
1.000000 1.000000 1.000000
1.000000 1.000000 1.000000
1.000000 1.000000 1.000000
1.000000 1.000000 1.000000
1.000000 1.000000 1.000000
1.000000 1.000000 1.000000
1.000000 1.000000 1.000000
