public/luts/fuji_400h.cube
# Generated from ColorChecker fit
LUT_3D_SIZE 9
DOMAIN_MIN 0.0 0.0 0.0
DOMAIN_MAX 1.0 1.0 1.0
0.188097 0.000000 0.195288
0.000000 0.000000 0.091427
0.000000 0.000000 0.024095
0.000000 0.000000 0.000000
0.000000 0.000000 0.000000
0.000000 0.000000 0.000000
0.000000 0.000000 0.000000
0.000000 0.000000 0.000000
0.000000 0.000000 0.000000
0.105240 0.000000 0.339056
0.000000 0.000000 0.324030
0.000000 0.000000 0.348386
0.000000 0.000000 0.403150
0.000000 0.000000 0.473546
0.000000 0.000000 0.538998
0.000000 0.000000 0.573124
0.000000 0.000000 0.543745
0.000000 0.176640 0.412876
0.000000 0.000000 0.293080
0.000000 0.000000 0.359381
0.000000 0.000000 0.463195
0.000000 0.000000 0.589557
0.000000 0.000000 0.717699
0.000000 0.000000 0.821054
0.000000 0.085722 0.867251
0.081913 0.319426 0.818117
0.250754 0.731023 0.629679
0.000000 0.000000 0.117319
0.000000 0.000000 0.260799
0.000000 0.023472 0.435198
0.061875 0.161724 0.619562
0.154045 0.277218 0.787132
0.231528 0.377989 0.905350
0.292536 0.489330 0.935854
0.345965 0.653798 0.834481
0.411395 0.931212 0.551265
0.000000 0.000000 0.000000
0.069414 0.113116 0.147291
0.190016 0.333025 0.386761
0.311745 0.515357 0.618889
0.401436 0.640500 0.810928
0.436607 0.706104 0.924325
0.405462 0.727082 0.914730
0.306890 0.735606 0.731988
0.150464 0.781114 0.320143
0.534192 0.182205 0.000000
0.625828 0.462851 0.193557
0.741301 0.718111 0.495941
0.826751 0.900730 0.768953
0.839005 0.980712 0.973856
0.745573 0.945326 1.000000
0.524654 0.799099 0.995366
0.165129 0.563825 0.705484
0.000000 0.278555 0.134517
1.000000 0.602907 0.246297
1.000000 0.920676 0.629988
1.000000 1.000000 0.996485
1.000000 1.000000 1.000000
1.000000 1.000000 1.000000
1.000000 1.000000 1.000000
0.906158 0.699425 1.000000
0.174887 0.131348 1.000000
0.000000 0.000000 0.248278
1.000000 1.000000 1.000000
1.000000 1.000000 1.000000
1.000000 1.000000 1.000000
1.000000 1.000000 1.000000
1.000000 1.000000 1.000000
1.000000 1.000000 1.000000
1.000000 0.416020 1.000000
0.644136 0.000000 1.000000
0.000000 0.000000 0.971010
1.000000 1.000000 1.000000
1.000000 1.000000 1.000000
1.000000 1.000000 1.000000
1.000000 1.000000 1.000000
1.000000 1.000000 1.000000
1.000000 1.000000 1.000000
1.000000 0.000000 1.000000
1.000000 0.000000 1.000000
0.000000 0.000000 1.000000
0.564603 0.519607 0.094191
0.142119 0.223680 0.000000
0.000000 0.000000 0.000000
0.000000 0.000000 0.000000
0.000000 0.000000 0.000000
0.000000 0.000000 0.000000
0.000000 0.000000 0.000000
0.000000 0.000000 0.000000
0.000000 0.000000 0.000000
0.454434 0.290103 0.294969
0.195599 0.126414 0.216565
0.002284 0.004683 0.189271
0.000000 0.000000 0.208705
0.000000 0.000000 0.264684
0.000000 0.000000 0.341224
0.000000 0.000000 0.416537
0.000000 0.000000 0.463034
0.000000 0.262290 0.447326
0.268053 0.150564 0.290707
0.140913 0.104656 0.293530
0.088843 0.108095 0.344373
0.080800 0.130829 0.432865
0.096426 0.160070 0.542832
0.126048 0.200290 0.652298
0.170679 0.273222 0.733485
0.242016 0.417864 0.752813
0.362443 0.690474 0.670901
0.107772 0.119090 0.141436
0.078534 0.175356 0.222029
0.122584 0.277344 0.342832
0.198872 0.384620 0.487481
0.277033 0.474010 0.633812
0.337387 0.539605 0.753857
0.370940 0.592756 0.813849
0.379382 0.662077 0.774216
0.375088 0.793444 0.589586
0.129670 0.207700 0.000000
0.162701 0.349389 0.121143
0.255907 0.522157 0.307084
0.358230 0.675189 0.498347
0.429299 0.774929 0.666775
0.439427 0.805084 0.778411
0.369612 0.766624 0.793496
0.211538 0.677778 0.666467
0.000000 0.574040 0.345962
0.543590 0.422336 0.000000
0.601418 0.631546 0.165641
0.694975 0.846180 0.415257
0.763199 1.000000 0.646947
0.755710 1.000000 0.826564
0.632814 0.996933 0.914159
0.365503 0.793882 0.863982
0.000000 0.462876 0.624481
0.000000 0.029025 0.138301
1.000000 0.762858 0.259236
1.000000 1.000000 0.585984
1.000000 1.000000 0.901169
1.000000 1.000000 1.000000
1.000000 1.000000 1.000000
1.000000 1.000000 1.000000
0.611184 0.667509 1.000000
0.000000 0.009202 0.898863
0.000000 0.000000 0.220566
1.000000 1.000000 1.000000
1.000000 1.000000 1.000000
1.000000 1.000000 1.000000
1.000000 1.000000 1.000000
1.000000 1.000000 1.000000
1.000000 1.000000 1.000000
1.000000 0.374401 1.000000
0.115252 0.000000 1.000000
0.000000 0.000000 0.902412
1.000000 1.000000 1.000000
1.000000 1.000000 1.000000
1.000000 1.000000 1.000000
1.000000 1.000000 1.000000
1.000000 1.000000 1.000000
1.000000 1.000000 1.000000
1.000000 0.000000 1.000000
1.000000 0.000000 1.000000
0.000000 0.000000 1.000000
0.894858 0.978902 0.035749
0.394179 0.574816 0.000000
0.000000 0.236847 0.000000
0.000000 0.000000 0.000000
0.000000 0.000000 0.000000
0.000000 0.000000 0.000000
0.000000 0.000000 0.000000
0.000000 0.000000 0.000000
0.000000 0.000000 0.000000
0.764292 0.692306 0.294524
0.427818 0.415329 0.149055
0.188825 0.221900 0.065523
0.019070 0.078408 0.044140
0.000000 0.000000 0.079315
0.000000 0.000000 0.159655
0.000000 0.000000 0.267967
0.000000 0.000000 0.381253
0.000000 0.141934 0.470717
0.533279 0.493138 0.329970
0.332549 0.332673 0.266144
0.235548 0.262172 0.259947
0.204028 0.237641 0.305600
0.210424 0.232346 0.391522
0.237858 0.236818 0.500329
0.280139 0.258848 0.608835
0.341757 0.323488 0.688055
0.437891 0.473055 0.703198
0.300658 0.398431 0.202190
0.205372 0.342737 0.217245
0.208731 0.372405 0.280899
0.262481 0.433059 0.381381
0.329051 0.487585 0.501119
0.381556 0.516128 0.616740
0.403796 0.516097 0.699067
0.390256 0.502163 0.713121
0.346106 0.506258 0.618124
0.219034 0.419142 0.026974
0.197051 0.455327 0.121506
0.257299 0.561258 0.250884
0.341517 0.672177 0.397346
0.402126 0.740585 0.537329
0.402236 0.736247 0.641468
0.315638 0.646187 0.674597
0.126811 0.474695 0.595746
0.000000 0.243319 0.358145
0.494778 0.560146 0.000000
0.512117 0.674172 0.153768
0.583943 0.831313 0.348100
0.641985 0.956427 0.535050
0.628661 0.991634 0.685063
0.497070 0.896314 0.762784
0.210998 0.647110 0.727055
0.000000 0.237929 0.530915
0.000000 0.000000 0.121605
1.000000 0.820241 0.275859
1.000000 0.996922 0.544562
1.000000 1.000000 0.806437
1.000000 1.000000 1.000000
1.000000 1.000000 1.000000
0.916996 0.989389 1.000000
0.338974 0.510779 1.000000
0.000000 0.000000 0.769305
0.000000 0.000000 0.162536
1.000000 1.000000 1.000000
1.000000 1.000000 1.000000
1.000000 1.000000 1.000000
1.000000 1.000000 1.000000
1.000000 1.000000 1.000000
1.000000 1.000000 1.000000
1.000000 0.223026 1.000000
0.000000 0.000000 1.000000
0.000000 0.000000 0.790664
1.000000 1.000000 1.000000
1.000000 1.000000 1.000000
1.000000 1.000000 1.000000
1.000000 1.000000 1.000000
1.000000 1.000000 1.000000
1.000000 0.916408 1.000000
1.000000 0.000000 1.000000
0.629949 0.000000 1.000000
0.000000 0.000000 1.000000
1.000000 1.000000 0.011736
0.584777 0.800258 0.000000
0.095777 0.377998 0.000000
0.000000 0.034136 0.000000
0.000000 0.000000 0.000000
0.000000 0.000000 0.000000
0.000000 0.000000 0.000000
0.000000 0.000000 0.000000
0.000000 0.000000 0.000000
1.000000 1.000000 0.332742
0.618526 0.592566 0.122643
0.314313 0.311574 0.000000
0.110954 0.115051 0.000000
0.000000 0.000000 0.000000
0.000000 0.000000 0.019924
0.000000 0.000000 0.159168
0.000000 0.000000 0.336278
0.114302 0.000000 0.527047
0.792950 0.756288 0.409139
0.497973 0.461348 0.281616
0.342245 0.303873 0.220432
0.280312 0.225925 0.224398
0.277406 0.186828 0.286526
0.309444 0.163170 0.394025
0.363026 0.148798 0.528303
0.435440 0.154822 0.664966
0.534657 0.209616 0.773816
0.492891 0.606168 0.301097
0.316643 0.421424 0.254084
0.271260 0.368570 0.263158
0.301283 0.379285 0.321143
0.361935 0.402511 0.415059
0.419125 0.404451 0.526124
0.449449 0.368571 0.629755
0.440186 0.295599 0.695566
0.389301 0.203523 0.687370
0.307995 0.565115 0.124480
0.221827 0.481540 0.159265
0.246811 0.513263 0.235166
0.317478 0.581582 0.339015
0.379046 0.625055 0.451840
0.387416 0.599503 0.548870
0.309177 0.478010 0.599529
0.121601 0.250919 0.567443
0.000000 0.000000 0.410432
0.441159 0.636941 0.050840
0.414584 0.644358 0.172071
0.468115 0.739467 0.314724
0.526276 0.833183 0.459638
0.524278 0.853681 0.581852
0.408015 0.746400 0.650603
0.134069 0.474040 0.629325
0.000000 0.016562 0.475652
0.000000 0.000000 0.141414
1.000000 0.819377 0.307422
1.000000 0.906464 0.523104
1.000000 1.000000 0.735790
1.000000 1.000000 0.920329
1.000000 1.000000 1.000000
0.728387 0.837138 1.000000
0.169750 0.347510 0.966531
0.000000 0.000000 0.670940
0.000000 0.000000 0.134421
1.000000 1.000000 1.000000
1.000000 1.000000 1.000000
1.000000 1.000000 1.000000
1.000000 1.000000 1.000000
1.000000 1.000000 1.000000
1.000000 0.857632 1.000000
0.715612 0.083190 1.000000
0.000000 0.000000 1.000000
0.000000 0.000000 0.699247
1.000000 1.000000 1.000000
1.000000 1.000000 1.000000
1.000000 1.000000 1.000000
1.000000 1.000000 1.000000
1.000000 1.000000 1.000000
1.000000 0.787720 1.000000
1.000000 0.000000 1.000000
0.220833 0.000000 1.000000
0.000000 0.000000 1.000000
1.000000 1.000000 0.000000
0.719488 0.928624 0.000000
0.140238 0.415701 0.000000
0.000000 0.023567 0.000000
0.000000 0.000000 0.000000
0.000000 0.000000 0.000000
0.000000 0.000000 0.000000
0.000000 0.000000 0.000000
0.000000 0.000000 0.000000
1.000000 1.000000 0.388898
0.780593 0.689764 0.122727
0.394874 0.317667 0.000000
0.148487 0.071456 0.000000
0.009466 0.000000 0.000000
0.000000 0.000000 0.000000
0.000000 0.000000 0.106147
0.077206 0.000000 0.350236
0.261682 0.000000 0.644568
1.000000 0.962343 0.510733
0.657348 0.525335 0.328589
0.432352 0.280176 0.220591
0.336328 0.154986 0.190144
0.327303 0.095147 0.234853
0.373988 0.063301 0.346519
0.455779 0.039354 0.511142
0.562758 0.020473 0.708921
0.695691 0.021087 0.914251
0.708675 0.767648 0.423926
0.439805 0.449094 0.324436
0.340884 0.315840 0.287623
0.349244 0.285622 0.310903
0.412905 0.293438 0.385887
0.490571 0.291550 0.498388
0.551630 0.249480 0.628414
0.576158 0.154011 0.750173
0.554914 0.009191 0.832069
0.428048 0.673987 0.244410
0.271782 0.468722 0.229558
0.262449 0.431191 0.261192
0.327375 0.468747 0.330736
0.404573 0.506007 0.423812
0.442738 0.484848 0.520241
0.401254 0.364411 0.594040
0.250188 0.121096 0.613427
0.000000 0.000000 0.540814
0.421521 0.684107 0.143808
0.350863 0.585817 0.218936
0.392792 0.626680 0.319635
0.464626 0.703667 0.431340
0.494370 0.731011 0.533681
0.420715 0.640206 0.600489
0.193036 0.380010 0.599789
0.000000 0.000000 0.493808
0.000000 0.000000 0.238969
0.942282 0.794675 0.349436
0.928398 0.795900 0.523242
0.981421 0.896681 0.696983
1.000000 0.983607 0.850102
0.928129 0.960527 0.956239
0.668493 0.748554 0.983233
0.169127 0.286062 0.893119
0.000000 0.000000 0.642133
0.000000 0.000000 0.180708
1.000000 0.996279 1.000000
1.000000 1.000000 1.000000
1.000000 1.000000 1.000000
1.000000 1.000000 1.000000
1.000000 1.000000 1.000000
1.000000 0.794742 1.000000
0.625445 0.066269 1.000000
0.000000 0.000000 1.000000
0.000000 0.000000 0.675897
1.000000 1.000000 1.000000
1.000000 1.000000 1.000000
1.000000 1.000000 1.000000
1.000000 1.000000 1.000000
1.000000 1.000000 1.000000
1.000000 0.757545 1.000000
1.000000 0.000000 1.000000
0.090003 0.000000 1.000000
0.000000 0.000000 1.000000
1.000000 1.000000 0.000000
0.789280 0.978614 0.000000
0.101003 0.380981 0.000000
0.000000 0.000000 0.000000
0.000000 0.000000 0.000000
0.000000 0.000000 0.000000
0.000000 0.000000 0.000000
0.000000 0.000000 0.000000
0.000000 0.000000 0.070624
1.000000 1.000000 0.426518
0.912280 0.728640 0.118953
0.432023 0.274223 0.000000
0.136439 0.000000 0.000000
0.000000 0.000000 0.000000
0.000000 0.000000 0.000000
0.019429 0.000000 0.109162
0.177666 0.000000 0.429509
0.431566 0.000000 0.835780
1.000000 1.000000 0.601527
0.816229 0.549372 0.379958
0.514676 0.228146 0.239443
0.384137 0.074214 0.187980
0.375430 0.019016 0.227765
0.450062 0.011250 0.355194
0.580225 0.016880 0.560858
0.748793 0.019130 0.829549
0.949328 0.018485 1.000000
0.957600 0.898305 0.540698
0.587705 0.453505 0.404445
0.433703 0.254298 0.336559
0.425721 0.204478 0.339047
0.504573 0.225100 0.408114
0.621759 0.254483 0.534164
0.739461 0.248205 0.701798
0.830549 0.179108 0.889817
0.878577 0.037295 1.000000
0.596079 0.764210 0.360033
0.367055 0.447651 0.311775
0.327608 0.358144 0.314473
0.397857 0.389102 0.364144
0.508611 0.451195 0.451003
0.601361 0.472360 0.559461
0.628283 0.397793 0.668131
0.552240 0.189953 0.749820
0.346779 0.000000 0.771536
0.460044 0.723116 0.231227
0.348388 0.532346 0.276999
0.388661 0.539074 0.351595
0.490977 0.626326 0.445039
0.576136 0.694393 0.541556
0.575622 0.660828 0.619568
0.431605 0.460443 0.651694
0.096940 0.045316 0.604753
0.000000 0.000000 0.439760
0.799210 0.770624 0.381665
0.779580 0.702046 0.530860
0.862899 0.790394 0.682023
0.949276 0.908312 0.819188
0.949504 0.945708 0.920588
0.785058 0.809752 0.958655
0.388103 0.424874 0.900018
0.000000 0.000000 0.705503
0.000000 0.000000 0.330135
1.000000 0.896259 1.000000
1.000000 0.945127 1.000000
1.000000 1.000000 1.000000
1.000000 1.000000 1.000000
1.000000 1.000000 1.000000
1.000000 0.902919 1.000000
0.790222 0.273725 1.000000
0.000000 0.000000 1.000000
0.000000 0.000000 0.752597
1.000000 1.000000 1.000000
1.000000 1.000000 1.000000
1.000000 1.000000 1.000000
1.000000 1.000000 1.000000
1.000000 1.000000 1.000000
1.000000 0.918037 1.000000
1.000000 0.000000 1.000000
0.306301 0.000000 1.000000
0.000000 0.000000 1.000000
1.000000 1.000000 0.000000
0.770506 0.959011 0.000000
0.000000 0.294945 0.000000
0.000000 0.000000 0.000000
0.000000 0.000000 0.000000
0.000000 0.000000 0.000000
0.000000 0.000000 0.000000
0.000000 0.000000 0.000000
0.000000 0.000000 0.257664
1.000000 1.000000 0.393383
0.997232 0.720997 0.065225
0.412661 0.205369 0.000000
0.064966 0.000000 0.000000
0.000000 0.000000 0.000000
0.000000 0.000000 0.000000
0.032783 0.000000 0.152726
0.275666 0.000000 0.564729
0.630387 0.008297 1.000000
1.000000 1.000000 0.632549
0.965555 0.548282 0.392873
0.583415 0.174930 0.240259
0.421189 0.023081 0.187298
0.422494 0.010232 0.240778
0.541628 0.071140 0.401687
0.743578 0.157824 0.665210
1.000000 0.239565 1.000000
1.000000 0.302906 1.000000
1.000000 1.000000 0.605687
0.758578 0.452495 0.454508
0.551207 0.214108 0.376484
0.535458 0.178343 0.378216
0.644938 0.252313 0.460500
0.823942 0.360391 0.618335
1.000000 0.444215 0.840913
1.000000 0.462681 1.000000
1.000000 0.391952 1.000000
0.814361 0.844319 0.428871
0.513174 0.439186 0.369561
0.451069 0.327308 0.364776
0.540962 0.388154 0.415127
0.706455 0.518454 0.515420
0.881832 0.632199 0.654661
1.000000 0.660643 0.816054
1.000000 0.552302 0.976999
0.970418 0.272952 1.000000
0.566294 0.765521 0.273864
0.419979 0.507824 0.313152
0.471799 0.512851 0.383614
0.624661 0.649689 0.479869
0.792160 0.804684 0.590732
0.898576 0.881446 0.699218
0.878872 0.800844 0.782541
0.678698 0.501013 0.812109
0.254390 0.000000 0.753533
0.736689 0.761798 0.368123
0.723396 0.651800 0.516097
0.855958 0.762982 0.667169
1.000000 0.954044 0.809969
1.000000 1.000000 0.927321
1.000000 1.000000 0.996249
0.863069 0.852471 0.987974
0.332136 0.295321 0.867917
0.000000 0.000000 0.595696
1.000000 0.821608 0.994794
1.000000 0.858427 1.000000
1.000000 1.000000 1.000000
1.000000 1.000000 1.000000
1.000000 1.000000 1.000000
1.000000 1.000000 1.000000
1.000000 0.797100 1.000000
0.300257 0.000000 1.000000
0.000000 0.000000 0.945589
1.000000 0.927332 1.000000
1.000000 1.000000 1.000000
1.000000 1.000000 1.000000
1.000000 1.000000 1.000000
1.000000 1.000000 1.000000
1.000000 1.000000 1.000000
1.000000 0.610226 1.000000
0.923959 0.000000 1.000000
0.000000 0.000000 1.000000
1.000000 1.000000 0.000000
0.624909 0.868680 0.000000
0.000000 0.168785 0.000000
0.000000 0.000000 0.000000
0.000000 0.000000 0.000000
0.000000 0.000000 0.000000
0.000000 0.000000 0.000000
0.000000 0.000000 0.000000
0.000000 0.000000 0.474797
1.000000 1.000000 0.221524
1.000000 0.668720 0.000000
0.309080 0.125316 0.000000
0.000000 0.000000 0.000000
0.000000 0.000000 0.000000
0.000000 0.000000 0.000000
0.004453 0.091757 0.205601
0.359769 0.317521 0.730784
0.849962 0.577019 1.000000
1.000000 1.000000 0.539077
1.000000 0.526969 0.308736
0.618151 0.137756 0.170563
0.430325 0.031141 0.141744
0.454587 0.110676 0.233659
0.638033 0.297176 0.451888
0.938442 0.528716 0.796209
1.000000 0.760635 1.000000
1.000000 0.965532 1.000000
1.000000 1.000000 0.557421
0.936046 0.453990 0.419273
0.680273 0.215521 0.358169
0.668586 0.239793 0.385302
0.827387 0.419975 0.506062
1.000000 0.666499 0.720038
1.000000 0.907057 1.000000
1.000000 1.000000 1.000000
1.000000 1.000000 1.000000
1.000000 0.912931 0.392697
0.701055 0.454268 0.350810
0.627005 0.361949 0.366118
0.754115 0.501498 0.443824
0.998782 0.755702 0.583327
1.000000 1.000000 0.778226
1.000000 1.000000 1.000000
1.000000 1.000000 1.000000
1.000000 1.000000 1.000000
0.735226 0.812959 0.216742
0.563847 0.526211 0.278539
0.643669 0.574300 0.372960
0.870397 0.812368 0.499217
1.000000 1.000000 0.650719
1.000000 1.000000 0.815072
1.000000 1.000000 0.974083
1.000000 1.000000 1.000000
1.000000 0.990710 1.000000
0.756966 0.772851 0.257081
0.765350 0.662143 0.433343
0.969356 0.843751 0.612935
1.000000 1.000000 0.789079
1.000000 1.000000 0.949192
1.000000 1.000000 1.000000
1.000000 1.000000 1.000000
1.000000 1.000000 1.000000
0.648404 0.586897 0.974633
1.000000 0.780001 0.796931
1.000000 0.848312 1.000000
1.000000 1.000000 1.000000
1.000000 1.000000 1.000000
1.000000 1.000000 1.000000
1.000000 1.000000 1.000000
1.000000 1.000000 1.000000
1.000000 1.000000 1.000000
0.166365 0.000000 1.000000
1.000000 0.815725 1.000000
1.000000 1.000000 1.000000
1.000000 1.000000 1.000000
1.000000 1.000000 1.000000
1.000000 1.000000 1.000000
1.000000 1.000000 1.000000
1.000000 1.000000 1.000000
1.000000 0.662585 1.000000
0.194658 0.000000 1.000000
1.000000 1.000000 0.000000
0.299618 0.696570 0.000000
0.000000 0.003774 0.000000
0.000000 0.000000 0.000000
0.000000 0.000000 0.000000
0.000000 0.000000 0.000000
0.000000 0.014580 0.000000
0.000000 0.394117 0.000000
0.000000 0.857340 0.684037
1.000000 1.000000 0.000000
0.888468 0.563777 0.000000
0.078958 0.038357 0.000000
0.000000 0.000000 0.000000
0.000000 0.000000 0.000000
0.000000 0.241680 0.000000
0.000000 0.626828 0.220806
0.403929 1.000000 0.886813
1.000000 1.000000 1.000000
1.000000 1.000000 0.240645
1.000000 0.480418 0.053200
0.583857 0.123937 0.000000
0.379770 0.118031 0.000000
0.443192 0.352310 0.150428
0.714013 0.733645 0.455939
1.000000 1.000000 0.910120
1.000000 1.000000 1.000000
1.000000 1.000000 1.000000
1.000000 1.000000 0.318678
1.000000 0.455994 0.227642
0.793168 0.268866 0.216638
0.800627 0.411482 0.301452
1.000000 0.763068 0.492067
1.000000 1.000000 0.792664
1.000000 1.000000 1.000000
1.000000 1.000000 1.000000
1.000000 1.000000 1.000000
1.000000 0.958745 0.177539
0.907002 0.493925 0.187673
0.834974 0.475419 0.256771
1.000000 0.754810 0.394629
1.000000 1.000000 0.605239
1.000000 1.000000 0.886791
1.000000 1.000000 1.000000
1.000000 1.000000 1.000000
1.000000 1.000000 1.000000
0.947183 0.857150 0.000000
0.763589 0.591553 0.108554
0.891126 0.739789 0.261150
1.000000 1.000000 0.450724
1.000000 1.000000 0.675279
1.000000 1.000000 0.927013
1.000000 1.000000 1.000000
1.000000 1.000000 1.000000
1.000000 1.000000 1.000000
0.847678 0.798524 0.000000
0.896334 0.740138 0.221241
1.000000 1.000000 0.464086
1.000000 1.000000 0.707406
1.000000 1.000000 0.943212
1.000000 1.000000 1.000000
1.000000 1.000000 1.000000
1.000000 1.000000 1.000000
1.000000 1.000000 1.000000
1.000000 0.769197 0.436601
1.000000 0.924865 0.812378
1.000000 1.000000 1.000000
1.000000 1.000000 1.000000
1.000000 1.000000 1.000000
1.000000 1.000000 1.000000
1.000000 1.000000 1.000000
1.000000 1.000000 1.000000
1.000000 1.000000 1.000000
1.000000 0.749420 1.000000
1.000000 1.000000 1.000000
1.000000 1.000000 1.000000
1.000000 1.000000 1.000000
1.000000 1.000000 1.000000
1.000000 1.000000 1.000000
1.000000 1.000000 1.000000
1.000000 1.000000 1.000000
1.000000 1.000000 1.000000
