public/luts/fuji_provia_cc.cube
# Generated from ColorChecker fit
LUT_3D_SIZE 5
DOMAIN_MIN 0.0 0.0 0.0
DOMAIN_MAX 1.0 1.0 1.0
0.075192 0.004099 0.120367
0.000000 0.000000 0.322668
0.000000 0.046798 0.653246
0.043446 0.289544 0.556898
0.000000 0.024150 0.000000
0.000000 0.000000 0.000000
0.000000 0.129425 0.448855
0.023364 0.295021 0.732301
0.000000 0.000000 0.084304
0.000000 0.000000 0.000000
0.000000 0.000000 0.000000
0.130265 0.311927 0.518365
0.000000 0.405292 0.671902
0.000000 0.000000 0.000000
0.000000 0.000000 0.000000
1.000000 0.000000 1.000000
1.000000 0.704813 1.000000
1.000000 0.674764 1.000000
0.000000 0.000000 0.185185
0.000000 0.000000 0.000000
1.000000 0.000000 1.000000
1.000000 1.000000 1.000000
1.000000 1.000000 1.000000
1.000000 0.000000 1.000000
0.000000 0.000000 0.000000
0.619593 0.471794 0.260525
0.081261 0.000000 0.000000
0.155582 0.000000 0.141694
0.845872 0.240641 0.761846
1.000000 0.381337 1.000000
0.302536 0.441622 0.240588
0.293168 0.353474 0.323381
0.456332 0.358277 0.603497
0.579352 0.183537 0.767412
0.021387 0.000000 0.289205
0.192677 0.418644 0.081097
0.430439 0.743633 0.492615
0.307719 0.709025 0.666944
0.000000 0.000000 0.134224
0.000000 0.000000 0.000000
1.000000 0.615435 1.000000
1.000000 1.000000 1.000000
1.000000 1.000000 1.000000
0.000000 0.000000 0.698989
0.000000 0.000000 0.000000
1.000000 1.000000 1.000000
1.000000 1.000000 1.000000
1.000000 1.000000 1.000000
1.000000 0.000000 1.000000
0.000000 0.000000 0.000000
1.000000 0.569150 0.455306
0.201338 0.000000 0.000000
0.346014 0.000000 0.035165
1.000000 0.752026 1.000000
1.000000 1.000000 1.000000
0.713496 0.638915 0.454570
0.470492 0.242635 0.297738
0.752989 0.291828 0.623453
1.000000 0.564841 1.000000
1.000000 0.361690 1.000000
0.427364 0.678996 0.177221
0.431069 0.586221 0.325300
0.441901 0.523801 0.509080
0.240230 0.079803 0.656718
0.000000 0.000000 0.483974
1.000000 0.911679 1.000000
1.000000 1.000000 1.000000
1.000000 0.951730 1.000000
0.000000 0.000000 0.509207
0.000000 0.000000 0.000000
1.000000 1.000000 1.000000
1.000000 1.000000 1.000000
1.000000 1.000000 1.000000
1.000000 0.000000 1.000000
0.000000 0.000000 0.000000
0.987167 0.334156 0.148254
0.169222 0.000000 0.000000
0.661786 0.827268 0.228456
1.000000 1.000000 1.000000
1.000000 1.000000 1.000000
1.000000 0.617422 0.373616
0.749968 0.359117 0.383715
1.000000 0.992546 1.000000
1.000000 1.000000 1.000000
1.000000 1.000000 1.000000
0.719816 0.760918 0.139901
0.675910 0.591464 0.370827
1.000000 0.936052 0.778344
1.000000 1.000000 1.000000
1.000000 1.000000 1.000000
1.000000 0.996644 1.000000
1.000000 0.966108 1.000000
1.000000 0.984082 1.000000
0.567757 0.499197 0.764118
0.000000 0.000000 0.174179
1.000000 1.000000 1.000000
1.000000 1.000000 1.000000
1.000000 1.000000 1.000000
1.000000 0.000000 1.000000
0.000000 0.000000 0.000000
0.000000 0.000000 0.000000
0.000000 0.185820 0.000000
0.669179 1.000000 0.397647
1.000000 1.000000 1.000000
1.000000 1.000000 1.000000
0.583169 0.087057 0.000000
0.760584 0.747497 0.374381
1.000000 1.000000 1.000000
1.000000 1.000000 1.000000
1.000000 1.000000 1.000000
0.761728 0.563885 0.000000
1.000000 0.993498 0.764885
1.000000 1.000000 1.000000
1.000000 1.000000 1.000000
1.000000 1.000000 1.000000
1.000000 0.959364 1.000000
1.000000 1.000000 1.000000
1.000000 1.000000 1.000000
1.000000 1.000000 1.000000
1.000000 1.000000 1.000000
1.000000 1.000000 1.000000
1.000000 1.000000 1.000000
1.000000 1.000000 1.000000
1.000000 1.000000 1.000000
0.664268 0.000000 1.000000
