public/luts/fuji_velvia_50.cube
# Generated from ColorChecker fit
LUT_3D_SIZE 33
DOMAIN_MIN 0.0 0.0 0.0
DOMAIN_MAX 1.0 1.0 1.0
0.105248 0.043730 0.131465
0.095849 0.046541 0.147322
0.086139 0.045573 0.167494
0.076683 0.042059 0.191522
0.067972 0.037092 0.218931
0.060424 0.031626 0.249225
0.054380 0.026475 0.281890
0.050109 0.022313 0.316396
0.047803 0.019675 0.352192
0.047583 0.018955 0.388709
0.049491 0.020410 0.425363
0.053498 0.024155 0.461548
0.059498 0.030166 0.496642
0.067314 0.038280 0.530004
0.076689 0.048194 0.560974
0.087298 0.059464 0.588875
0.098735 0.071510 0.613012
0.110525 0.083608 0.632670
0.122115 0.094898 0.647117
0.132878 0.104378 0.655604
0.142114 0.110908 0.657361
0.149047 0.113206 0.651601
0.152828 0.109854 0.637520
0.152530 0.099290 0.614294
0.147157 0.079817 0.581081
0.135633 0.049595 0.537023
0.116810 0.006645 0.481240
0.089467 0.000000 0.412837
0.052306 0.000000 0.330899
0.003954 0.000000 0.234493
0.000000 0.000000 0.122669
0.000000 0.000000 0.000000
0.000000 0.000000 0.000000
0.102657 0.091437 0.134206
0.096033 0.095035 0.151368
0.089062 0.094948 0.172717
0.082288 0.092383 0.197798
0.076178 0.088411 0.226137
0.071129 0.083960 0.257243
0.067461 0.079820 0.290606
0.065419 0.076640 0.325698
0.065173 0.074933 0.361972
0.066822 0.075067 0.398865
0.070387 0.077276 0.435792
0.075815 0.081649 0.472154
0.082980 0.088139 0.507331
0.091680 0.096559 0.540686
0.101639 0.106581 0.571562
0.112506 0.117739 0.599287
0.123858 0.129425 0.623167
0.135193 0.140894 0.642492
0.145938 0.151260 0.656534
0.155444 0.159497 0.664546
0.162988 0.164440 0.665763
0.167772 0.164786 0.659401
0.168925 0.159088 0.644659
0.165499 0.145765 0.620717
0.156473 0.123092 0.586737
0.140752 0.089206 0.541862
0.117165 0.042104 0.485219
0.084467 0.000000 0.415914
0.041339 0.000000 0.333036
0.000000 0.000000 0.235657
0.000000 0.000000 0.122828
0.000000 0.000000 0.000000
0.000000 0.000000 0.000000
0.097232 0.136124 0.134163
0.093336 0.140596 0.152745
0.089039 0.141455 0.175374
0.084863 0.139885 0.201600
0.081257 0.136933 0.230952
0.078592 0.133502 0.262942
0.077166 0.130359 0.297065
0.077203 0.128129 0.332794
0.078851 0.127298 0.369589
0.082186 0.128213 0.406887
0.087207 0.131081 0.444109
0.093840 0.135969 0.480658
0.101935 0.142806 0.515918
0.111269 0.151378 0.549255
0.121544 0.161336 0.580017
0.132386 0.172186 0.607534
0.143350 0.183300 0.631116
0.153912 0.193906 0.650057
0.163477 0.203095 0.663632
0.171374 0.209816 0.671097
0.176857 0.212881 0.671691
0.179108 0.210961 0.664634
0.177230 0.202587 0.649128
0.170257 0.186151 0.624356
0.157143 0.159905 0.589484
0.136771 0.121963 0.543659
0.107949 0.070297 0.486011
0.069410 0.002740 0.415649
0.019812 0.000000 0.331667
0.000000 0.000000 0.233139
0.000000 0.000000 0.119120
0.000000 0.000000 0.000000
0.000000 0.000000 0.000000
0.089268 0.178049 0.131170
0.088051 0.183482 0.151285
0.086364 0.185356 0.175298
0.084709 0.184831 0.202762
0.083508 0.182928 0.233210
0.083112 0.180527 0.266158
0.083798 0.178369 0.301102
0.085767 0.177057 0.337522
0.089145 0.177053 0.374878
0.093984 0.178678 0.412613
0.100264 0.182115 0.450151
0.107886 0.187408 0.486897
0.116679 0.194461 0.522241
0.126399 0.203036 0.555551
0.136723 0.212758 0.586179
0.147258 0.223113 0.613457
0.157534 0.233444 0.636701
0.167008 0.242958 0.655206
0.175060 0.250720 0.668253
0.180998 0.255656 0.675099
0.184054 0.256553 0.674989
0.183386 0.252058 0.667144
0.178078 0.240678 0.650771
0.167139 0.220780 0.625056
0.149503 0.190593 0.589169
0.124030 0.148206 0.542261
0.089505 0.091566 0.483463
0.044639 0.018484 0.411891
0.000000 0.000000 0.326639
0.000000 0.000000 0.226787
0.000000 0.000000 0.111393
0.000000 0.000000 0.000000
0.000000 0.000000 0.000000
0.079120 0.217453 0.125189
0.080538 0.223940 0.146951
0.081402 0.226901 0.172453
0.082187 0.227473 0.201249
0.083296 0.226651 0.232877
0.085058 0.225292 0.266855
0.087727 0.224113 0.302684
0.091482 0.223692 0.339846
0.096426 0.224466 0.377807
0.102592 0.226734 0.416011
0.109933 0.230654 0.453886
0.118331 0.236245 0.490842
0.127593 0.243386 0.526271
0.137451 0.251817 0.559544
0.147561 0.261138 0.590018
0.157508 0.270810 0.617028
0.166800 0.280152 0.639893
0.174870 0.288348 0.657912
0.181078 0.294437 0.670369
0.184708 0.297321 0.676526
0.184972 0.295764 0.675629
0.181005 0.288388 0.666905
0.171868 0.273676 0.649563
0.156548 0.249971 0.622793
0.133957 0.215478 0.585769
0.102933 0.168259 0.537643
0.062239 0.106241 0.477553
0.010564 0.027208 0.404616
0.000000 0.000000 0.317932
0.000000 0.000000 0.216581
0.000000 0.000000 0.099627
0.000000 0.000000 0.000000
0.000000 0.000000 0.000000
0.067213 0.254565 0.116313
0.071225 0.262201 0.139838
0.074577 0.266325 0.166933
0.077727 0.268049 0.197156
0.081054 0.268344 0.230048
0.084864 0.268043 0.265130
0.089388 0.267839 0.301907
0.094785 0.268284 0.339866
0.101136 0.269794 0.378473
0.108449 0.272641 0.417179
0.116657 0.276959 0.455414
0.125621 0.282744 0.492592
0.135123 0.289851 0.528106
0.144874 0.297994 0.561335
0.154509 0.306750 0.591635
0.163589 0.315556 0.618348
0.171600 0.323707 0.640794
0.177954 0.330360 0.658278
0.181988 0.334533 0.670085
0.182966 0.335104 0.675482
0.180074 0.330810 0.673718
0.172427 0.320250 0.664023
0.159064 0.301884 0.645610
0.138950 0.274029 0.617674
0.110974 0.234866 0.579389
0.073952 0.182435 0.529915
0.026625 0.114636 0.468389
0.000000 0.029229 0.393935
0.000000 0.000000 0.305653
0.000000 0.000000 0.202631
0.000000 0.000000 0.083933
0.000000 0.000000 0.000000
0.000000 0.000000 0.000000
0.054037 0.289599 0.104766
0.060600 0.298484 0.130171
0.066385 0.303849 0.158964
0.071825 0.306784 0.190709
0.077277 0.308235 0.224949
0.083027 0.309011 0.261210
0.089282 0.309780 0.299000
0.096179 0.311072 0.337809
0.103777 0.313276 0.377107
0.112062 0.316641 0.416347
0.120945 0.321278 0.454965
0.130264 0.327157 0.492376
0.139780 0.334109 0.527979
0.149181 0.341824 0.561154
0.158081 0.349856 0.591264
0.166017 0.357615 0.617650
0.172454 0.364374 0.639639
0.176782 0.369266 0.656538
0.178316 0.371283 0.667635
0.176295 0.369280 0.672202
0.169887 0.361970 0.669490
0.158182 0.347928 0.658734
0.140199 0.325587 0.639150
0.114878 0.293244 0.609935
0.081088 0.249052 0.570269
0.037623 0.191029 0.519313
0.000000 0.117050 0.456210
0.000000 0.024852 0.380085
0.000000 0.000000 0.290044
0.000000 0.000000 0.185176
0.000000 0.000000 0.064551
0.000000 0.000000 0.000000
0.000000 0.000000 0.000000
0.040146 0.322758 0.090903
0.049222 0.332992 0.118303
0.057383 0.339681 0.148901
0.065040 0.343889 0.182263
0.072529 0.346538 0.217937
0.080112 0.348413 0.255452
0.087975 0.350159 0.294320
0.096231 0.352280 0.334033
0.104920 0.355141 0.374065
0.114003 0.358967 0.413874
0.123371 0.363845 0.452898
0.132838 0.369721 0.490556
0.142143 0.376401 0.526251
0.150953 0.383552 0.559365
0.158859 0.390702 0.589265
0.165377 0.397238 0.615297
0.169948 0.402409 0.636790
0.171941 0.405323 0.653055
0.170648 0.404948 0.663384
0.165287 0.400115 0.667051
0.155003 0.389513 0.663312
0.138865 0.371692 0.651404
0.115868 0.345061 0.630548
0.084931 0.307893 0.599944
0.044900 0.258318 0.558776
0.000000 0.194327 0.506207
0.000000 0.113773 0.441385
0.000000 0.014367 0.363438
0.000000 0.000000 0.271475
0.000000 0.000000 0.164589
0.000000 0.000000 0.041853
0.000000 0.000000 0.000000
0.000000 0.000000 0.000000
0.026161 0.354227 0.075210
0.037713 0.365917 0.104722
0.048197 0.374015 0.137231
0.058000 0.379561 0.172307
0.067438 0.383454 0.209501
0.076749 0.386455 0.248345
0.086098 0.389182 0.288355
0.095577 0.392117 0.329027
0.105200 0.395601 0.369839
0.114910 0.399835 0.410251
0.124573 0.404880 0.449705
0.133982 0.410659 0.487623
0.142855 0.416953 0.523413
0.150835 0.423407 0.556460
0.157490 0.429521 0.586133
0.162316 0.434662 0.611783
0.164732 0.438051 0.632742
0.164083 0.438774 0.648325
0.159640 0.435775 0.657826
0.150599 0.427859 0.660525
0.136082 0.413691 0.655679
0.115136 0.391798 0.642531
0.086733 0.360565 0.620303
0.049772 0.318239 0.588200
0.003077 0.262928 0.545408
0.000000 0.192597 0.491096
0.000000 0.105075 0.424414
0.000000 0.000000 0.344493
0.000000 0.000000 0.250446
0.000000 0.000000 0.141370
0.000000 0.000000 0.016341
0.000000 0.000000 0.000000
0.000000 0.000000 0.000000
0.012768 0.384181 0.058301
0.026761 0.397434 0.090043
0.039515 0.407030 0.124570
0.051396 0.413983 0.161457
0.062697 0.419169 0.200257
0.073634 0.423324 0.240507
0.084350 0.427042 0.281726
0.094914 0.430782 0.323412
0.105319 0.434858 0.365049
0.115486 0.439448 0.406098
0.125258 0.444590 0.446007
0.134405 0.450181 0.484200
0.142625 0.455980 0.520088
0.149536 0.461605 0.553061
0.154688 0.466535 0.582491
0.157551 0.470109 0.607732
0.157523 0.471527 0.628120
0.153927 0.469849 0.642973
0.146012 0.463995 0.651589
0.132952 0.452746 0.653251
0.113846 0.434744 0.647220
0.087719 0.408490 0.632742
0.053523 0.372345 0.609043
0.010132 0.324533 0.575331
0.000000 0.263135 0.530797
0.000000 0.186096 0.474611
0.000000 0.091217 0.405927
0.000000 0.000000 0.323882
0.000000 0.000000 0.227590
0.000000 0.000000 0.116152
0.000000 0.000000 0.000000
0.000000 0.000000 0.000000
0.000000 0.000000 0.000000
0.000718 0.412779 0.040924
0.017119 0.427707 0.075013
0.032094 0.438893 0.111667
0.045986 0.447325 0.150461
0.059066 0.453857 0.190955
0.071528 0.459197 0.232687
0.083493 0.463919 0.275181
0.095009 0.468455 0.317938
0.106045 0.473096 0.360445
0.116499 0.477996 0.402168
0.126195 0.483167 0.442556
0.134879 0.488484 0.481039
0.142226 0.493680 0.517030
0.147835 0.498350 0.549923
0.151229 0.501947 0.579094
0.151860 0.503789 0.603899
0.149102 0.503048 0.623679
0.142256 0.498763 0.637755
0.130550 0.489828 0.645429
0.113134 0.475001 0.645986
0.089086 0.452897 0.638692
0.057408 0.421996 0.622796
0.017030 0.380634 0.597527
0.000000 0.327009 0.562097
0.000000 0.259180 0.515700
0.000000 0.175065 0.457511
0.000000 0.072445 0.386687
0.000000 0.000000 0.302366
0.000000 0.000000 0.203669
0.000000 0.000000 0.089699
0.000000 0.000000 0.000000
0.000000 0.000000 0.000000
0.000000 0.000000 0.000000
0.000000 0.440166 0.023956
0.009608 0.456885 0.060511
0.026755 0.469755 0.099399
0.042593 0.479743 0.140199
0.057369 0.487675 0.182474
0.071258 0.494238 0.225766
0.084357 0.499979 0.269601
0.096691 0.505306 0.313486
0.108209 0.510488 0.356909
0.118785 0.515653 0.399342
0.128221 0.520790 0.440235
0.136243 0.525749 0.479023
0.142500 0.530238 0.515123
0.146572 0.533829 0.547931
0.147959 0.535952 0.576826
0.146090 0.535896 0.601170
0.140318 0.532815 0.620306
0.129922 0.525719 0.633558
0.114105 0.513480 0.640232
0.091998 0.494830 0.639617
0.062656 0.468363 0.630983
0.025060 0.432532 0.613581
0.000000 0.385649 0.586644
0.000000 0.325889 0.549388
0.000000 0.251286 0.501010
0.000000 0.159734 0.440689
0.000000 0.048989 0.367584
0.000000 0.000000 0.280839
0.000000 0.000000 0.179576
0.000000 0.000000 0.062903
0.000000 0.000000 0.000000
0.000000 0.000000 0.000000
0.000000 0.000000 0.000000
0.000000 0.466474 0.008404
0.005112 0.485103 0.047544
0.024385 0.499757 0.088775
0.042105 0.511378 0.131680
0.058499 0.520769 0.175824
0.073717 0.528593 0.220754
0.087836 0.535372 0.265998
0.100858 0.541491 0.311068
0.112709 0.547193 0.355455
0.123244 0.552582 0.398633
0.132239 0.557625 0.440058
0.139399 0.562144 0.479167
0.144353 0.565827 0.515380
0.146655 0.568219 0.548098
0.145787 0.568725 0.576704
0.141152 0.566614 0.600561
0.132084 0.561011 0.619017
0.117837 0.550904 0.631399
0.097595 0.535141 0.637018
0.070464 0.512430 0.635165
0.035479 0.481339 0.625113
0.000000 0.440298 0.606117
0.000000 0.387596 0.577415
0.000000 0.321381 0.538225
0.000000 0.239665 0.487748
0.000000 0.140317 0.425165
0.000000 0.021069 0.349641
0.000000 0.000000 0.260322
0.000000 0.000000 0.156335
0.000000 0.000000 0.036789
0.000000 0.000000 0.000000
0.000000 0.000000 0.000000
0.000000 0.000000 0.000000
0.000000 0.491822 0.000000
0.004582 0.512482 0.037252
0.025936 0.529022 0.080935
0.045477 0.542359 0.126043
0.063410 0.553271 0.172145
0.079863 0.562398 0.218791
0.094890 0.570237 0.265513
0.108471 0.577150 0.311825
0.120511 0.583354 0.357223
0.130840 0.588931 0.401184
0.139215 0.593821 0.443168
0.145318 0.597825 0.482615
0.148755 0.600603 0.518948
0.149059 0.601679 0.551572
0.145687 0.600433 0.579873
0.138024 0.596108 0.603219
0.125378 0.587807 0.620960
0.106984 0.574493 0.632427
0.082002 0.554990 0.636934
0.049517 0.527981 0.633777
0.008539 0.492010 0.622231
0.000000 0.445483 0.601555
0.000000 0.386665 0.570991
0.000000 0.313680 0.529759
0.000000 0.224514 0.477065
0.000000 0.117015 0.412094
0.000000 0.000000 0.334012
0.000000 0.000000 0.241970
0.000000 0.000000 0.135099
0.000000 0.000000 0.012511
0.000000 0.000000 0.000000
0.000000 0.000000 0.000000
0.000000 0.000000 0.000000
0.000000 0.516315 0.000000
0.009034 0.539131 0.030903
0.032426 0.557661 0.077149
0.053730 0.572799 0.124560
0.073125 0.585298 0.172709
0.090720 0.595773 0.221150
0.106545 0.604699 0.269418
0.120558 0.612410 0.317031
0.132642 0.619103 0.363488
0.142606 0.624833 0.408270
0.150184 0.629517 0.450840
0.155035 0.632931 0.490641
0.156744 0.634712 0.527101
0.154821 0.634357 0.559628
0.148702 0.631225 0.587610
0.137748 0.624534 0.610421
0.121247 0.613361 0.627412
0.098410 0.596647 0.637920
0.068375 0.573190 0.641261
0.030206 0.541650 0.636733
0.000000 0.500547 0.623617
0.000000 0.448261 0.601176
0.000000 0.383033 0.568652
0.000000 0.302965 0.525273
0.000000 0.206018 0.470244
0.000000 0.090014 0.402756
0.000000 0.000000 0.321980
0.000000 0.000000 0.227068
0.000000 0.000000 0.117154
0.000000 0.000000 0.000000
0.000000 0.000000 0.000000
0.000000 0.000000 0.000000
0.000000 0.000000 0.000000
0.000000 0.540041 0.000000
0.019550 0.565142 0.029898
0.044941 0.585772 0.078817
0.067948 0.602799 0.128632
0.088732 0.616954 0.178918
0.107377 0.628826 0.229234
0.123892 0.638867 0.279117
0.138212 0.647387 0.328090
0.150199 0.654557 0.375655
0.159639 0.660410 0.421296
0.166244 0.664836 0.464479
0.169651 0.667590 0.504653
0.169422 0.668282 0.541247
0.165046 0.666388 0.573673
0.155936 0.661239 0.601324
0.141432 0.652031 0.623575
0.120799 0.637817 0.639783
0.093225 0.617512 0.649287
0.057828 0.589891 0.651406
0.013647 0.553590 0.645444
0.000000 0.507104 0.630683
0.000000 0.448790 0.606390
0.000000 0.376864 0.571812
0.000000 0.289404 0.526178
0.000000 0.184345 0.468699
0.000000 0.059487 0.398568
0.000000 0.000000 0.314959
0.000000 0.000000 0.217029
0.000000 0.000000 0.103915
0.000000 0.000000 0.000000
0.000000 0.000000 0.000000
0.000000 0.000000 0.000000
0.000000 0.000000 0.000000
0.007024 0.563079 0.000000
0.037278 0.590597 0.035768
0.064628 0.613437 0.087471
0.089284 0.632446 0.139790
0.111384 0.648328 0.192304
0.130989 0.661650 0.244574
0.148088 0.672838 0.296143
0.162593 0.682179 0.346535
0.174343 0.689819 0.395257
0.183102 0.695766 0.441796
0.188560 0.699889 0.485621
0.190332 0.701914 0.526186
0.187958 0.701432 0.562922
0.180905 0.697890 0.595245
0.168564 0.690598 0.622552
0.150251 0.678725 0.644220
0.125210 0.661303 0.659612
0.092609 0.637221 0.668068
0.051540 0.605230 0.668912
0.001023 0.563942 0.661450
0.000000 0.511827 0.644970
0.000000 0.447218 0.618740
0.000000 0.368308 0.582012
0.000000 0.273148 0.534018
0.000000 0.159653 0.473973
0.000000 0.025595 0.401072
0.000000 0.000000 0.314494
0.000000 0.000000 0.213399
0.000000 0.000000 0.096928
0.000000 0.000000 0.000000
0.000000 0.000000 0.000000
0.000000 0.000000 0.000000
0.000000 0.000000 0.000000
0.030949 0.585491 0.000000
0.063431 0.615560 0.050174
0.092703 0.640727 0.104773
0.118955 0.661812 0.159697
0.142299 0.679497 0.214530
0.162778 0.694324 0.268836
0.180356 0.706695 0.322160
0.194924 0.716872 0.374032
0.206299 0.724978 0.423960
0.214222 0.730996 0.471436
0.218361 0.734770 0.515933
0.218310 0.736004 0.556907
0.213586 0.734262 0.593794
0.203633 0.728969 0.626012
0.187821 0.719410 0.652962
0.165444 0.704730 0.674026
0.135723 0.683936 0.688568
0.097804 0.655893 0.695933
0.050757 0.619329 0.695448
0.000000 0.572830 0.686424
0.000000 0.514843 0.668150
0.000000 0.443677 0.639899
0.000000 0.357499 0.600926
0.000000 0.254338 0.550467
0.000000 0.132083 0.487740
0.000000 0.000000 0.411944
0.000000 0.000000 0.322261
0.000000 0.000000 0.217855
0.000000 0.000000 0.097870
0.000000 0.000000 0.000000
0.000000 0.000000 0.000000
0.000000 0.000000 0.000000
0.000000 0.000000 0.000000
0.064596 0.607326 0.017722
0.099288 0.640085 0.074908
0.130447 0.667696 0.132515
0.158242 0.690957 0.190146
0.182763 0.710524 0.247390
0.204029 0.726914 0.303812
0.221984 0.740507 0.358963
0.236496 0.751539 0.412375
0.247359 0.760109 0.463560
0.254294 0.766177 0.512013
0.256945 0.769562 0.557212
0.254883 0.769944 0.598614
0.247605 0.766862 0.635661
0.234533 0.759717 0.667773
0.215012 0.747771 0.694355
0.188317 0.730143 0.714792
0.153645 0.705817 0.728452
0.110119 0.673634 0.734683
0.056789 0.632296 0.732817
0.000000 0.580367 0.722167
0.000000 0.516268 0.702025
0.000000 0.438285 0.671670
0.000000 0.344560 0.630358
0.000000 0.233098 0.577329
0.000000 0.101764 0.511805
0.000000 0.000000 0.432989
0.000000 0.000000 0.340066
0.000000 0.000000 0.232203
0.000000 0.000000 0.108548
0.000000 0.000000 0.000000
0.000000 0.000000 0.000000
0.000000 0.000000 0.000000
0.000000 0.000000 0.000000
0.109307 0.628620 0.051271
0.146193 0.664210 0.111892
0.179207 0.694388 0.172620
0.208494 0.719926 0.233062
0.234125 0.741456 0.292807
0.256095 0.759472 0.351428
0.274326 0.774328 0.408478
0.288665 0.786238 0.463490
0.298882 0.795275 0.515983
0.304677 0.801376 0.565455
0.305672 0.804334 0.611385
0.301415 0.803806 0.653236
0.291381 0.799307 0.690451
0.274970 0.790213 0.722457
0.251506 0.775762 0.748659
0.220240 0.755050 0.768448
0.180347 0.727035 0.781195
0.130930 0.690535 0.786251
0.071014 0.644227 0.782951
0.000000 0.586650 0.770612
0.000000 0.516203 0.748530
0.000000 0.431146 0.715986
0.000000 0.329598 0.672242
0.000000 0.209539 0.616540
0.000000 0.068810 0.548105
0.000000 0.000000 0.466144
0.000000 0.000000 0.369846
0.000000 0.000000 0.258381
0.000000 0.000000 0.130900
0.000000 0.000000 0.000000
0.000000 0.000000 0.000000
0.000000 0.000000 0.000000
0.000000 0.000000 0.000000
0.166492 0.649393 0.099001
0.205556 0.687960 0.163181
0.240393 0.720830 0.227142
0.271125 0.748749 0.290497
0.297801 0.772329 0.352838
0.320394 0.792036 0.413740
0.338802 0.808201 0.472759
0.352851 0.821014 0.529435
0.362291 0.830524 0.583287
0.366796 0.836642 0.633818
0.365969 0.839140 0.680510
0.359334 0.837648 0.722830
0.346345 0.831658 0.760225
0.326379 0.820522 0.792124
0.298737 0.803452 0.817937
0.262650 0.779522 0.837057
0.217269 0.747665 0.848859
0.161676 0.706673 0.852698
0.094874 0.655202 0.847912
0.015794 0.591765 0.833822
0.000000 0.514737 0.809728
0.000000 0.422353 0.774914
0.000000 0.312708 0.728643
0.000000 0.183759 0.670165
0.000000 0.033322 0.598705
0.000000 0.000000 0.513476
0.000000 0.000000 0.413668
0.000000 0.000000 0.298456
0.000000 0.000000 0.166994
0.000000 0.000000 0.018422
0.000000 0.000000 0.000000
0.000000 0.000000 0.000000
0.000000 0.000000 0.000000
0.237623 0.669655 0.163093
0.278854 0.711346 0.230956
0.315484 0.747035 0.298266
0.347616 0.777446 0.364637
0.375273 0.803163 0.429667
0.398408 0.824630 0.492933
0.416897 0.842153 0.553995
0.430544 0.855897 0.612397
0.439075 0.865889 0.667660
0.442143 0.872014 0.719291
0.439329 0.874020 0.766777
0.430136 0.871514 0.809588
0.413993 0.863962 0.847172
0.390256 0.850693 0.878964
0.358206 0.830894 0.904378
0.317049 0.803616 0.922809
0.265916 0.767766 0.933636
0.203864 0.722113 0.936217
0.129876 0.665288 0.929895
0.042861 0.595781 0.913992
0.000000 0.511942 0.887814
0.000000 0.411981 0.850646
0.000000 0.293971 0.801758
0.000000 0.155842 0.740400
0.000000 0.000000 0.665803
0.000000 0.000000 0.577181
0.000000 0.000000 0.473730
0.000000 0.000000 0.354627
0.000000 0.000000 0.219031
0.000000 0.000000 0.066082
0.000000 0.000000 0.000000
0.000000 0.000000 0.000000
0.000000 0.000000 0.000000
0.324240 0.689397 0.245863
0.367627 0.734365 0.317534
0.406024 0.773006 0.388307
0.439510 0.806019 0.457799
0.468087 0.833965 0.525611
0.491687 0.857264 0.591324
0.510162 0.876197 0.654503
0.523294 0.890905 0.714692
0.530788 0.901391 0.771420
0.532274 0.907516 0.824194
0.527311 0.909002 0.872506
0.515380 0.905434 0.915827
0.495887 0.896253 0.953614
0.468168 0.880763 0.985300
0.431479 0.858129 1.000000
0.385005 0.827375 1.000000
0.327855 0.787385 1.000000
0.259065 0.736905 1.000000
0.177594 0.674540 1.000000
0.082329 0.598755 1.000000
0.000000 0.507878 0.985113
0.000000 0.400095 0.945511
0.000000 0.273452 0.893913
0.000000 0.125858 0.829572
0.000000 0.000000 0.751725
0.000000 0.000000 0.659588
0.000000 0.000000 0.552361
0.000000 0.000000 0.429223
0.000000 0.000000 0.289339
0.000000 0.000000 0.131851
0.000000 0.000000 0.000000
0.000000 0.000000 0.000000
0.000000 0.000000 0.000000
0.427949 0.708602 0.349755
0.473483 0.757001 0.425359
0.513621 0.798728 0.499709
0.548418 0.834459 0.572427
0.577857 0.864729 0.643116
0.601845 0.889935 0.711361
0.620213 0.910333 0.776729
0.632720 0.926041 0.838771
0.639050 0.937036 0.897015
0.638812 0.943156 0.950975
0.631539 0.944099 1.000000
0.616692 0.939425 1.000000
0.593656 0.928551 1.000000
0.561742 0.910757 1.000000
0.520187 0.885183 1.000000
0.468151 0.850829 1.000000
0.404724 0.806556 1.000000
0.328916 0.751084 1.000000
0.239667 0.682995 1.000000
0.135841 0.600731 1.000000
0.016225 0.502593 1.000000
0.000000 0.386743 1.000000
0.000000 0.251205 1.000000
0.000000 0.093862 0.940140
0.000000 0.000000 0.858930
0.000000 0.000000 0.763156
0.000000 0.000000 0.652020
0.000000 0.000000 0.524705
0.000000 0.000000 0.380378
0.000000 0.000000 0.218187
0.000000 0.000000 0.037261
0.000000 0.000000 0.000000
0.000000 0.000000 0.000000
0.550419 0.727234 0.477343
0.598094 0.779223 0.557007
0.639949 0.824175 0.635050
0.676018 0.862741 0.711099
0.706261 0.895434 0.784759
0.730562 0.922625 0.855621
0.748732 0.944548 0.923254
0.760507 0.961294 0.987211
0.765548 0.972817 1.000000
0.763442 0.978932 1.000000
0.753702 0.979311 1.000000
0.735764 0.973489 1.000000
0.708992 0.960861 1.000000
0.672675 0.940682 1.000000
0.626027 0.912068 1.000000
0.568188 0.873995 1.000000
0.498222 0.825298 1.000000
0.415121 0.764674 1.000000
0.317800 0.690682 1.000000
0.205102 0.601737 1.000000
0.075792 0.496117 1.000000
0.000000 0.371962 1.000000
0.000000 0.227269 1.000000
0.000000 0.059897 1.000000
0.000000 0.000000 0.990007
0.000000 0.000000 0.890474
0.000000 0.000000 0.775296
0.000000 0.000000 0.643662
0.000000 0.000000 0.494741
0.000000 0.000000 0.327683
0.000000 0.000000 0.141623
0.000000 0.000000 0.000000
0.000000 0.000000 0.000000
0.693389 0.745247 0.631334
0.743199 0.800986 0.715183
0.786749 0.849305 0.797037
0.824051 0.890829 0.876522
0.855042 0.926046 0.953250
0.879585 0.955305 1.000000
0.897468 0.978813 1.000000
0.908404 0.996640 1.000000
0.912034 1.000000 1.000000
0.907921 1.000000 1.000000
0.895555 1.000000 1.000000
0.874353 1.000000 1.000000
0.843655 0.993176 1.000000
0.802727 0.970535 1.000000
0.750763 0.938783 1.000000
0.686878 0.896873 1.000000
0.610117 0.843615 1.000000
0.519448 0.777683 1.000000
0.413764 0.697610 1.000000
0.291885 0.601788 1.000000
0.152555 0.488471 1.000000
0.000000 0.355773 1.000000
0.000000 0.201668 1.000000
0.000000 0.023992 1.000000
0.000000 0.000000 1.000000
0.000000 0.000000 1.000000
0.000000 0.000000 0.924911
0.000000 0.000000 0.788816
0.000000 0.000000 0.635148
0.000000 0.000000 0.463062
0.000000 0.000000 0.271695
0.000000 0.000000 0.060165
0.000000 0.000000 0.000000
0.858659 0.762579 0.814563
0.910601 0.822234 0.902726
0.955827 0.874063 0.988506
0.994325 0.918670 1.000000
1.000000 0.956517 1.000000
1.000000 0.987929 1.000000
1.000000 1.000000 1.000000
1.000000 1.000000 1.000000
1.000000 1.000000 1.000000
1.000000 1.000000 1.000000
1.000000 1.000000 1.000000
1.000000 1.000000 1.000000
0.999469 1.000000 1.000000
0.953726 1.000000 1.000000
0.896222 0.965314 1.000000
0.826054 0.919452 1.000000
0.742241 0.861500 1.000000
0.643730 0.790106 1.000000
0.529393 0.703779 1.000000
0.398028 0.600886 1.000000
0.248355 0.479658 1.000000
0.079025 0.338184 1.000000
0.000000 0.174415 1.000000
0.000000 0.000000 1.000000
0.000000 0.000000 1.000000
0.000000 0.000000 1.000000
0.000000 0.000000 1.000000
