public/luts/fuji_nostalgic_neg.cube
# Generated from ColorChecker fit
LUT_3D_SIZE 33
DOMAIN_MIN 0.0 0.0 0.0
DOMAIN_MAX 1.0 1.0 1.0
0.293918 0.000000 0.407884
0.204430 0.000000 0.378252
0.124791 0.000000 0.362535
0.054750 0.000000 0.359769
0.000000 0.000000 0.368866
0.000000 0.000000 0.388616
0.000000 0.000000 0.417690
0.000000 0.000000 0.454633
0.000000 0.000000 0.497873
0.000000 0.000000 0.545713
0.000000 0.000000 0.596336
0.000000 0.000000 0.647803
0.000000 0.000000 0.698053
0.000000 0.000000 0.744903
0.000000 0.000000 0.786049
0.000000 0.000000 0.819066
0.000000 0.005194 0.841406
0.000000 0.024321 0.850399
0.000000 0.040863 0.843255
0.000000 0.053549 0.817062
0.000000 0.061006 0.768784
0.000000 0.061762 0.695267
0.000000 0.054246 0.593233
0.000000 0.036786 0.459282
0.000000 0.007611 0.289893
0.000000 0.000000 0.081425
0.000000 0.000000 0.000000
0.000000 0.000000 0.000000
0.000000 0.000000 0.000000
0.000000 0.000000 0.000000
0.000000 0.000000 0.000000
0.000000 0.000000 0.000000
0.000000 0.000000 0.000000
0.264212 0.000000 0.371996
0.189058 0.000000 0.350115
0.123187 0.000000 0.341656
0.066289 0.000000 0.345616
0.017964 0.000000 0.360869
0.000000 0.000000 0.386168
0.000000 0.000000 0.420144
0.000000 0.000000 0.461307
0.000000 0.000000 0.508045
0.000000 0.000000 0.558625
0.000000 0.000000 0.611190
0.000000 0.000000 0.663765
0.000000 0.000000 0.714249
0.000000 0.000000 0.760424
0.000000 0.000580 0.799946
0.000000 0.021188 0.830352
0.000000 0.040010 0.849057
0.000000 0.055914 0.853354
0.000000 0.067668 0.840413
0.000000 0.073940 0.807285
0.000000 0.073297 0.750897
0.000000 0.064208 0.668056
0.000000 0.045042 0.555446
0.000000 0.014067 0.409630
0.000000 0.000000 0.227050
0.000000 0.000000 0.004024
0.000000 0.000000 0.000000
0.000000 0.000000 0.000000
0.000000 0.000000 0.000000
0.000000 0.000000 0.000000
0.000000 0.000000 0.000000
0.000000 0.000000 0.000000
0.000000 0.000000 0.000000
0.223208 0.000000 0.330421
0.161690 0.000000 0.316111
0.108855 0.000000 0.314710
0.064334 0.000000 0.325179
0.027668 0.000000 0.346353
0.000000 0.000000 0.376947
0.000000 0.000000 0.415556
0.000000 0.000000 0.460651
0.000000 0.000000 0.510581
0.000000 0.000000 0.563576
0.000000 0.000000 0.617743
0.000000 0.000000 0.671065
0.000000 0.000000 0.721408
0.000000 0.010153 0.766511
0.000000 0.032013 0.803997
0.000000 0.051692 0.831362
0.000000 0.068097 0.845984
0.000000 0.080035 0.845118
0.000000 0.086215 0.825897
0.000000 0.085245 0.785332
0.000000 0.075633 0.720315
0.000000 0.055787 0.627613
0.000000 0.024017 0.503873
0.000000 0.000000 0.345620
0.000000 0.000000 0.149257
0.000000 0.000000 0.000000
0.000000 0.000000 0.000000
0.000000 0.000000 0.000000
0.000000 0.000000 0.000000
0.000000 0.000000 0.000000
0.000000 0.000000 0.000000
0.000000 0.000000 0.000000
0.000000 0.000000 0.000000
0.172209 0.000000 0.283578
0.123612 0.000000 0.276655
0.083066 0.000000 0.282113
0.050142 0.000000 0.298872
0.024323 0.000000 0.325732
0.005001 0.000000 0.361369
0.000000 0.000000 0.404339
0.000000 0.000000 0.453077
0.000000 0.000000 0.505893
0.000000 0.000000 0.560980
0.000000 0.000000 0.616405
0.000000 0.000000 0.670116
0.000000 0.012325 0.719938
0.000000 0.036665 0.763576
0.000000 0.058404 0.798611
0.000000 0.076491 0.822505
0.000000 0.089774 0.832595
0.000000 0.096999 0.826100
0.000000 0.096816 0.800114
0.000000 0.087773 0.751612
0.000000 0.068319 0.677445
0.000000 0.036801 0.574344
0.000000 0.000000 0.438919
0.000000 0.000000 0.267656
0.000000 0.000000 0.056920
0.000000 0.000000 0.000000
0.000000 0.000000 0.000000
0.000000 0.000000 0.000000
0.000000 0.000000 0.000000
0.000000 0.000000 0.000000
0.000000 0.000000 0.000000
0.000000 0.000000 0.000000
0.000000 0.000000 0.000000
0.112970 0.000000 0.232251
0.076568 0.000000 0.232533
0.047550 0.000000 0.244649
0.025431 0.000000 0.267481
0.009633 0.000000 0.299790
0.000000 0.000000 0.340216
0.000000 0.000000 0.387276
0.000000 0.000000 0.439367
0.000000 0.000000 0.494762
0.000000 0.000000 0.551615
0.003936 0.000000 0.607957
0.008674 0.006038 0.661696
0.011881 0.034127 0.710620
0.012170 0.059174 0.752396
0.008067 0.080169 0.784568
0.000000 0.095998 0.804558
0.000000 0.105449 0.809668
0.000000 0.107212 0.797076
0.000000 0.099874 0.763841
0.000000 0.081923 0.706898
0.000000 0.051750 0.623062
0.000000 0.007642 0.509025
0.000000 0.000000 0.361358
0.000000 0.000000 0.176511
0.000000 0.000000 0.000000
0.000000 0.000000 0.000000
0.000000 0.000000 0.000000
0.000000 0.000000 0.000000
0.000000 0.000000 0.000000
0.000000 0.000000 0.000000
0.000000 0.000000 0.000000
0.000000 0.000000 0.000000
0.000000 0.000000 0.000000
0.047708 0.000000 0.177593
0.022758 0.000000 0.184897
0.004496 0.000000 0.203470
0.000000 0.000000 0.232156
0.000000 0.000000 0.269678
0.000000 0.000000 0.314639
0.000000 0.000000 0.365517
0.000000 0.000000 0.420671
0.000000 0.000000 0.478338
0.006665 0.000000 0.536632
0.014674 0.000000 0.593546
0.021215 0.023375 0.646953
0.024934 0.053021 0.694601
0.024386 0.078191 0.734118
0.018035 0.097813 0.763012
0.004258 0.110714 0.778667
0.000000 0.115623 0.778346
0.000000 0.111168 0.759191
0.000000 0.095879 0.718221
0.000000 0.068183 0.652335
0.000000 0.026411 0.558308
0.000000 0.000000 0.432796
0.000000 0.000000 0.272332
0.000000 0.000000 0.073327
0.000000 0.000000 0.000000
0.000000 0.000000 0.000000
0.000000 0.000000 0.000000
0.000000 0.000000 0.000000
0.000000 0.000000 0.000000
0.000000 0.000000 0.000000
0.000000 0.000000 0.000000
0.000000 0.000000 0.000000
0.000000 0.000000 0.000000
0.000000 0.000000 0.121126
0.000000 0.000000 0.135269
0.000000 0.000000 0.160097
0.000000 0.000000 0.194417
0.000000 0.000000 0.236916
0.000000 0.000000 0.286156
0.000000 0.000000 0.340580
0.000000 0.000000 0.398507
0.000000 0.000000 0.458137
0.003034 0.000000 0.517546
0.013027 0.003376 0.574690
0.020288 0.038954 0.627402
0.023402 0.069611 0.673394
0.020866 0.094315 0.710257
0.011084 0.111932 0.735458
0.000000 0.121232 0.746346
0.000000 0.120884 0.740144
0.000000 0.109455 0.713957
0.000000 0.085415 0.664767
0.000000 0.047132 0.589434
0.000000 0.000000 0.484695
0.000000 0.000000 0.347169
0.000000 0.000000 0.173351
0.000000 0.000000 0.000000
0.000000 0.000000 0.000000
0.000000 0.000000 0.000000
0.000000 0.000000 0.000000
0.000000 0.000000 0.000000
0.000000 0.000000 0.000000
0.000000 0.000000 0.000000
0.000000 0.000000 0.000000
0.000000 0.000000 0.000000
0.000000 0.000000 0.000000
0.000000 0.000000 0.064739
0.000000 0.000000 0.085536
0.000000 0.000000 0.116417
0.000000 0.000000 0.156152
0.000000 0.000000 0.203390
0.000000 0.000000 0.256654
0.000000 0.000000 0.314350
0.000000 0.000000 0.374760
0.000000 0.000000 0.436045
0.000000 0.000000 0.496243
0.001988 0.015975 0.553272
0.008870 0.053474 0.604928
0.010248 0.084591 0.648885
0.004559 0.108235 0.682695
0.000000 0.123214 0.703788
0.000000 0.128236 0.709475
0.000000 0.121911 0.696942
0.000000 0.102747 0.663255
0.000000 0.069153 0.605358
0.000000 0.019439 0.520074
0.000000 0.000000 0.404102
0.000000 0.000000 0.254023
0.000000 0.000000 0.066292
0.000000 0.000000 0.000000
0.000000 0.000000 0.000000
0.000000 0.000000 0.000000
0.000000 0.000000 0.000000
0.000000 0.000000 0.000000
0.000000 0.000000 0.000000
0.000000 0.000000 0.000000
0.000000 0.000000 0.000000
0.000000 0.000000 0.000000
0.000000 0.000000 0.000000
0.000000 0.000000 0.010690
0.000000 0.000000 0.037956
0.000000 0.000000 0.074688
0.000000 0.000000 0.119618
0.000000 0.000000 0.171356
0.000000 0.000000 0.228389
0.000000 0.000000 0.289084
0.000000 0.000000 0.351685
0.000000 0.000000 0.414314
0.000000 0.000000 0.474975
0.000000 0.028813 0.531544
0.000000 0.067720 0.581782
0.000000 0.098743 0.623323
0.000000 0.120731 0.653682
0.000000 0.132433 0.670253
0.000000 0.132497 0.670306
0.000000 0.119473 0.650990
0.000000 0.091810 0.609334
0.000000 0.047857 0.542243
0.000000 0.000000 0.446503
0.000000 0.000000 0.318776
0.000000 0.000000 0.155603
0.000000 0.000000 0.000000
0.000000 0.000000 0.000000
0.000000 0.000000 0.000000
0.000000 0.000000 0.000000
0.000000 0.000000 0.000000
0.000000 0.000000 0.000000
0.000000 0.000000 0.000000
0.000000 0.000000 0.000000
0.000000 0.000000 0.000000
0.000000 0.000000 0.000000
0.000000 0.000000 0.000000
0.000000 0.000000 0.000000
0.000000 0.000000 0.000000
0.000000 0.000000 0.037534
0.000000 0.000000 0.087438
0.000000 0.000000 0.143437
0.000000 0.000000 0.203983
0.000000 0.000000 0.267402
0.000000 0.000000 0.331902
0.000000 0.000000 0.395568
0.000000 0.000000 0.456363
0.000000 0.042769 0.512128
0.000000 0.082568 0.560584
0.000000 0.112940 0.599329
0.000000 0.132673 0.625839
0.000000 0.140457 0.637470
0.000000 0.134880 0.631455
0.000000 0.114431 0.604904
0.000000 0.077500 0.554810
0.000000 0.022377 0.478039
0.000000 0.000000 0.371338
0.000000 0.000000 0.231332
0.000000 0.000000 0.054524
0.000000 0.000000 0.000000
0.000000 0.000000 0.000000
0.000000 0.000000 0.000000
0.000000 0.000000 0.000000
0.000000 0.000000 0.000000
0.000000 0.000000 0.000000
0.000000 0.000000 0.000000
0.000000 0.000000 0.000000
0.000000 0.000000 0.000000
0.000000 0.000000 0.000000
0.000000 0.000000 0.000000
0.000000 0.000000 0.000000
0.000000 0.000000 0.000000
0.000000 0.000000 0.007947
0.000000 0.000000 0.062604
0.000000 0.000000 0.122626
0.000000 0.000000 0.186427
0.000000 0.000000 0.252296
0.000000 0.000000 0.318403
0.000000 0.000000 0.382795
0.000000 0.008800 0.443396
0.000000 0.058814 0.498011
0.000000 0.098986 0.544322
0.000000 0.128146 0.579890
0.000000 0.145021 0.602152
0.000000 0.148241 0.608426
0.000000 0.136335 0.595908
0.000000 0.107733 0.561671
0.000000 0.060764 0.502668
0.000000 0.000000 0.415728
0.000000 0.000000 0.297561
0.000000 0.000000 0.144753
0.000000 0.000000 0.000000
0.000000 0.000000 0.000000
0.000000 0.000000 0.000000
0.000000 0.000000 0.000000
0.000000 0.000000 0.000000
0.000000 0.000000 0.000000
0.000000 0.000000 0.000000
0.000000 0.000000 0.000000
0.000000 0.000000 0.000000
0.000000 0.000000 0.000000
0.000000 0.000000 0.000000
0.000000 0.000000 0.000000
0.000000 0.000000 0.000000
0.000000 0.000000 0.000000
0.000000 0.000000 0.000000
0.000000 0.000000 0.048477
0.000000 0.000000 0.112282
0.000000 0.000000 0.179081
0.000000 0.000000 0.247125
0.000000 0.000000 0.314546
0.000000 0.000000 0.379352
0.000000 0.026574 0.439432
0.000000 0.078008 0.492551
0.000000 0.118031 0.536353
0.000000 0.145414 0.568361
0.000000 0.158824 0.585976
0.000000 0.156832 0.586476
0.000000 0.137907 0.567021
0.000000 0.100418 0.524644
0.000000 0.042636 0.456261
0.000000 0.000000 0.358665
0.000000 0.000000 0.228525
0.000000 0.000000 0.062391
0.000000 0.000000 0.000000
0.000000 0.000000 0.000000
0.000000 0.000000 0.000000
0.000000 0.000000 0.000000
0.000000 0.000000 0.000000
0.000000 0.000000 0.000000
0.000000 0.000000 0.000000
0.000000 0.000000 0.000000
0.000000 0.000000 0.000000
0.000000 0.000000 0.000000
0.000000 0.000000 0.000000
0.000000 0.000000 0.000000
0.000000 0.000000 0.000000
0.000000 0.000000 0.000000
0.000000 0.000000 0.000000
0.000000 0.000000 0.048785
0.000000 0.000000 0.116134
0.000000 0.000000 0.185672
0.000000 0.000000 0.255616
0.000000 0.000000 0.324057
0.000000 0.000000 0.388967
0.000000 0.049131 0.448196
0.000000 0.101500 0.499471
0.000000 0.140849 0.540400
0.000000 0.165887 0.568467
0.000000 0.175222 0.581034
0.000000 0.167366 0.575343
0.000000 0.140727 0.548514
0.000000 0.093616 0.497545
0.000000 0.024242 0.419311
0.000000 0.000000 0.310569
0.000000 0.000000 0.167950
0.000000 0.000000 0.000000
0.000000 0.000000 0.000000
0.000000 0.000000 0.000000
0.000000 0.000000 0.000000
0.000000 0.000000 0.000000
0.000000 0.000000 0.000000
0.000000 0.000000 0.000000
0.000000 0.000000 0.000000
0.000000 0.000000 0.000000
0.000000 0.000000 0.000000
0.000000 0.000000 0.000000
0.000000 0.000000 0.000000
0.000000 0.000000 0.000000
0.000000 0.000000 0.000000
0.000000 0.000000 0.000000
0.000000 0.000000 0.000044
0.000000 0.000000 0.067624
0.000000 0.000000 0.138276
0.000000 0.000000 0.210296
0.000000 0.000000 0.281863
0.000000 0.000000 0.351030
0.000000 0.011477 0.415732
0.000000 0.077715 0.473781
0.000000 0.130532 0.522866
0.000000 0.168677 0.560556
0.000000 0.190798 0.584298
0.000000 0.195446 0.591417
0.000000 0.181070 0.579117
0.000000 0.146020 0.544478
0.000000 0.088546 0.484462
0.000000 0.006799 0.395907
0.000000 0.000000 0.275530
0.000000 0.000000 0.119924
0.000000 0.000000 0.000000
0.000000 0.000000 0.000000
0.000000 0.000000 0.000000
0.000000 0.000000 0.000000
0.000000 0.000000 0.000000
0.000000 0.000000 0.000000
0.000000 0.000000 0.000000
0.000000 0.000000 0.000000
0.000000 0.000000 0.000000
0.000000 0.000000 0.000000
0.000000 0.000000 0.000000
0.000000 0.000000 0.000000
0.000000 0.000000 0.000000
0.000000 0.000000 0.000000
0.000000 0.000000 0.000000
0.000000 0.000000 0.038018
0.000000 0.000000 0.109460
0.000000 0.000000 0.183173
0.000000 0.000000 0.257416
0.000000 0.000000 0.330329
0.015007 0.000000 0.399928
0.024120 0.045829 0.464110
0.022706 0.113660 0.520649
0.009054 0.166434 0.567196
0.000000 0.202841 0.601282
0.000000 0.221472 0.620316
0.000000 0.220814 0.621586
0.000000 0.199260 0.602257
0.000000 0.155097 0.559373
0.000000 0.086518 0.489856
0.000000 0.000000 0.390506
0.000000 0.000000 0.258003
0.000000 0.000000 0.088904
0.000000 0.000000 0.000000
0.000000 0.000000 0.000000
0.000000 0.000000 0.000000
0.000000 0.000000 0.000000
0.000000 0.000000 0.000000
0.000000 0.000000 0.000000
0.000000 0.000000 0.000000
0.000000 0.000000 0.000000
0.000000 0.000000 0.000000
0.000000 0.000000 0.000000
0.000000 0.000000 0.000000
0.000000 0.000000 0.000000
0.000000 0.000000 0.000000
0.000000 0.000000 0.000000
0.000000 0.000000 0.032071
0.000000 0.000000 0.104045
0.007956 0.000000 0.179126
0.043906 0.000000 0.255658
0.074062 0.000000 0.331864
0.097013 0.000000 0.405846
0.111261 0.004985 0.475583
0.115217 0.089418 0.538932
0.107202 0.158388 0.593629
0.085448 0.210626 0.637290
0.048097 0.244760 0.667406
0.000000 0.259320 0.681349
0.000000 0.252738 0.676368
0.000000 0.223341 0.649590
0.000000 0.169363 0.598023
0.000000 0.088931 0.518550
0.000000 0.000000 0.407934
0.000000 0.000000 0.262815
0.000000 0.000000 0.079714
0.000000 0.000000 0.000000
0.000000 0.000000 0.000000
0.000000 0.000000 0.000000
0.000000 0.000000 0.000000
0.000000 0.000000 0.000000
0.000000 0.000000 0.000000
0.000000 0.000000 0.000000
0.000000 0.000000 0.000000
0.000000 0.000000 0.000000
0.000000 0.000000 0.000000
0.000000 0.000000 0.000000
0.000000 0.000000 0.000000
0.000000 0.000000 0.000000
0.023540 0.000000 0.054836
0.071708 0.000000 0.127141
0.116708 0.000000 0.203326
0.157343 0.000000 0.281821
0.192322 0.000000 0.360930
0.220268 0.000000 0.438840
0.239711 0.000000 0.513613
0.249094 0.056985 0.583191
0.246769 0.143761 0.645394
0.230998 0.213415 0.697920
0.199952 0.264618 0.738345
0.151714 0.295939 0.764124
0.084278 0.305848 0.772591
0.000000 0.292716 0.760957
0.000000 0.254812 0.726312
0.000000 0.190309 0.665624
0.000000 0.097275 0.575740
0.000000 0.000000 0.453384
0.000000 0.000000 0.295159
0.000000 0.000000 0.097547
0.000000 0.000000 0.000000
0.000000 0.000000 0.000000
0.000000 0.000000 0.000000
0.000000 0.000000 0.000000
0.000000 0.000000 0.000000
0.000000 0.000000 0.000000
0.000000 0.000000 0.000000
0.000000 0.000000 0.000000
0.000000 0.000000 0.000000
0.000000 0.000000 0.000000
0.000000 0.000000 0.000000
0.000000 0.000000 0.000000
0.000000 0.000000 0.000000
0.225229 0.000000 0.184154
0.274879 0.000000 0.261242
0.320267 0.000000 0.341432
0.360137 0.000000 0.423115
0.393139 0.000000 0.504559
0.417836 0.000000 0.583911
0.432701 0.015530 0.659197
0.436114 0.121764 0.728321
0.426370 0.210465 0.789064
0.401671 0.280344 0.839086
0.360130 0.330011 0.875927
0.299770 0.357975 0.897002
0.218524 0.362647 0.899609
0.114237 0.342338 0.880919
0.000000 0.295258 0.837986
0.000000 0.219518 0.767739
0.000000 0.113129 0.666987
0.000000 0.000000 0.532417
0.000000 0.000000 0.360595
0.000000 0.000000 0.147963
0.000000 0.000000 0.000000
0.000000 0.000000 0.000000
0.000000 0.000000 0.000000
0.000000 0.000000 0.000000
0.000000 0.000000 0.000000
0.000000 0.000000 0.000000
0.000000 0.000000 0.000000
0.000000 0.000000 0.000000
0.000000 0.000000 0.000000
0.000000 0.000000 0.000000
0.000000 0.000000 0.000000
0.000000 0.000000 0.000000
0.000000 0.000000 0.000000
0.491304 0.000000 0.358630
0.541515 0.000000 0.440311
0.586339 0.000000 0.524299
0.624457 0.000000 0.608945
0.654463 0.000000 0.692480
0.674859 0.000000 0.773014
0.684058 0.091599 0.848535
0.680384 0.201021 0.916907
0.662070 0.291228 0.975875
0.627259 0.360869 1.000000
0.574005 0.408495 1.000000
0.500272 0.432556 1.000000
0.403934 0.431403 1.000000
0.282774 0.403286 1.000000
0.134489 0.346356 0.990543
0.000000 0.258665 0.910298
0.000000 0.138163 0.798223
0.000000 0.000000 0.650965
0.000000 0.000000 0.465052
0.000000 0.000000 0.236891
0.000000 0.000000 0.000000
0.000000 0.000000 0.000000
0.000000 0.000000 0.000000
0.000000 0.000000 0.000000
0.000000 0.000000 0.000000
0.000000 0.000000 0.000000
0.000000 0.000000 0.000000
0.000000 0.000000 0.000000
0.000000 0.000000 0.000000
0.000000 0.000000 0.000000
0.000000 0.000000 0.000000
0.000000 0.000000 0.000000
0.000000 0.000000 0.000000
0.830384 0.000000 0.584573
0.880222 0.000000 0.670656
0.923512 0.000000 0.758232
0.958879 0.000000 0.845616
0.984855 0.000000 0.930999
0.999883 0.052462 1.000000
1.000000 0.184321 1.000000
0.990424 0.296549 1.000000
0.962374 0.387837 1.000000
0.916253 0.456774 1.000000
0.850055 0.501851 1.000000
0.761685 0.521459 1.000000
0.648957 0.513887 1.000000
0.509596 0.477328 1.000000
0.341238 0.409872 1.000000
0.141428 0.309511 1.000000
0.000000 0.174135 0.975744
0.000000 0.001538 0.815324
0.000000 0.000000 0.614829
0.000000 0.000000 0.370627
0.000000 0.000000 0.078965
0.000000 0.000000 0.000000
0.000000 0.000000 0.000000
0.000000 0.000000 0.000000
0.000000 0.000000 0.000000
0.000000 0.000000 0.000000
0.000000 0.000000 0.000000
0.000000 0.000000 0.000000
0.000000 0.000000 0.000000
0.000000 0.000000 0.000000
0.000000 0.000000 0.000000
0.000000 0.000000 0.000000
0.000000 0.000000 0.000000
1.000000 0.000000 0.868656
1.000000 0.000000 0.958951
1.000000 0.000000 1.000000
1.000000 0.000000 1.000000
1.000000 0.003536 1.000000
1.000000 0.159592 1.000000
1.000000 0.295579 1.000000
1.000000 0.410228 1.000000
1.000000 0.502170 1.000000
1.000000 0.569933 1.000000
1.000000 0.611949 1.000000
1.000000 0.626550 1.000000
0.962503 0.611964 1.000000
0.803597 0.566325 1.000000
0.613790 0.487663 1.000000
0.390567 0.373910 1.000000
0.131324 0.222897 1.000000
0.000000 0.032356 1.000000
0.000000 0.000000 0.816590
0.000000 0.000000 0.555838
0.000000 0.000000 0.246112
0.000000 0.000000 0.000000
0.000000 0.000000 0.000000
0.000000 0.000000 0.000000
0.000000 0.000000 0.000000
0.000000 0.000000 0.000000
0.000000 0.000000 0.000000
0.000000 0.000000 0.000000
0.000000 0.000000 0.000000
0.000000 0.000000 0.000000
0.000000 0.000000 0.000000
0.000000 0.000000 0.000000
0.000000 0.000000 0.000000
1.000000 0.000000 1.000000
1.000000 0.000000 1.000000
1.000000 0.000000 1.000000
1.000000 0.000000 1.000000
1.000000 0.126052 1.000000
1.000000 0.287580 1.000000
1.000000 0.427349 1.000000
1.000000 0.544030 1.000000
1.000000 0.636193 1.000000
1.000000 0.702310 1.000000
1.000000 0.740751 1.000000
1.000000 0.749786 1.000000
1.000000 0.727588 1.000000
1.000000 0.672227 1.000000
0.961482 0.581676 1.000000
0.713423 0.453805 1.000000
0.427288 0.286387 1.000000
0.100326 0.077094 1.000000
0.000000 0.000000 1.000000
0.000000 0.000000 0.799555
0.000000 0.000000 0.471236
0.000000 0.000000 0.088461
0.000000 0.000000 0.000000
0.000000 0.000000 0.000000
0.000000 0.000000 0.000000
0.000000 0.000000 0.000000
0.000000 0.000000 0.000000
0.000000 0.000000 0.000000
0.000000 0.000000 0.000000
0.000000 0.000000 0.000000
0.000000 0.000000 0.000000
0.000000 0.000000 0.000000
0.000000 0.000000 0.000000
1.000000 0.000000 1.000000
1.000000 0.000000 1.000000
1.000000 0.000000 1.000000
1.000000 0.082913 1.000000
1.000000 0.271803 1.000000
1.000000 0.438494 1.000000
1.000000 0.581694 1.000000
1.000000 0.700014 1.000000
1.000000 0.791966 1.000000
1.000000 0.855959 1.000000
1.000000 0.890305 1.000000
1.000000 0.893215 1.000000
1.000000 0.862801 1.000000
1.000000 0.797074 1.000000
1.000000 0.693946 1.000000
1.000000 0.551229 1.000000
0.805282 0.366635 1.000000
0.447809 0.137777 1.000000
0.044458 0.000000 1.000000
0.000000 0.000000 1.000000
0.000000 0.000000 0.761739
0.000000 0.000000 0.358254
0.000000 0.000000 0.000000
0.000000 0.000000 0.000000
0.000000 0.000000 0.000000
0.000000 0.000000 0.000000
0.000000 0.000000 0.000000
0.000000 0.000000 0.000000
0.000000 0.000000 0.000000
0.000000 0.000000 0.000000
0.000000 0.000000 0.000000
0.000000 0.000000 0.000000
0.000000 0.000000 0.000000
1.000000 0.000000 1.000000
1.000000 0.000000 1.000000
1.000000 0.029373 1.000000
1.000000 0.247494 1.000000
1.000000 0.442950 1.000000
1.000000 0.614492 1.000000
1.000000 0.760770 1.000000
1.000000 0.880333 1.000000
1.000000 0.971635 1.000000
1.000000 1.000000 1.000000
1.000000 1.000000 1.000000
1.000000 1.000000 1.000000
1.000000 1.000000 1.000000
1.000000 0.942997 1.000000
1.000000 0.826602 1.000000
1.000000 0.668306 1.000000
1.000000 0.465761 1.000000
0.886029 0.216521 1.000000
0.448411 0.000000 1.000000
0.000000 0.000000 1.000000
0.000000 0.000000 1.000000
0.000000 0.000000 0.700647
0.000000 0.000000 0.214109
0.000000 0.000000 0.000000
0.000000 0.000000 0.000000
0.000000 0.000000 0.000000
0.000000 0.000000 0.000000
0.000000 0.000000 0.000000
0.000000 0.000000 0.000000
0.000000 0.000000 0.000000
0.000000 0.000000 0.000000
0.000000 0.000000 0.000000
0.000000 0.000000 0.000000
1.000000 0.000000 1.000000
1.000000 0.000000 1.000000
1.000000 0.213886 1.000000
1.000000 0.439997 1.000000
1.000000 0.641745 1.000000
1.000000 0.817823 1.000000
1.000000 0.966820 1.000000
1.000000 1.000000 1.000000
1.000000 1.000000 1.000000
1.000000 1.000000 1.000000
1.000000 1.000000 1.000000
1.000000 1.000000 1.000000
1.000000 1.000000 1.000000
1.000000 1.000000 1.000000
1.000000 0.981859 1.000000
1.000000 0.807248 1.000000
1.000000 0.585975 1.000000
1.000000 0.315533 1.000000
0.952206 0.000000 1.000000
0.425255 0.000000 1.000000
0.000000 0.000000 1.000000
0.000000 0.000000 1.000000
0.000000 0.000000 0.613772
0.000000 0.000000 0.036005
0.000000 0.000000 0.000000
0.000000 0.000000 0.000000
0.000000 0.000000 0.000000
0.000000 0.000000 0.000000
0.000000 0.000000 0.000000
0.000000 0.000000 0.000000
0.000000 0.000000 0.000000
0.000000 0.000000 0.000000
0.000000 0.000000 0.000000
1.000000 0.000000 1.000000
1.000000 0.170205 1.000000
1.000000 0.428901 1.000000
1.000000 0.662765 1.000000
1.000000 0.870529 1.000000
1.000000 1.000000 1.000000
1.000000 1.000000 1.000000
1.000000 1.000000 1.000000
1.000000 1.000000 1.000000
1.000000 1.000000 1.000000
1.000000 1.000000 1.000000
1.000000 1.000000 1.000000
1.000000 1.000000 1.000000
1.000000 1.000000 1.000000
1.000000 1.000000 1.000000
1.000000 0.970359 1.000000
1.000000 0.729576 1.000000
1.000000 0.437108 1.000000
1.000000 0.090288 1.000000
1.000000 0.000000 1.000000
0.374379 0.000000 1.000000
0.000000 0.000000 1.000000
0.000000 0.000000 1.000000
0.000000 0.000000 0.498593
0.000000 0.000000 0.000000
0.000000 0.000000 0.000000
0.000000 0.000000 0.000000
0.000000 0.000000 0.000000
0.000000 0.000000 0.000000
0.000000 0.000000 0.000000
0.000000 0.000000 0.000000
0.000000 0.000000 0.000000
0.000000 0.000000 0.000000
1.000000 0.115668 1.000000
1.000000 0.408922 1.000000
1.000000 0.676854 1.000000
1.000000 0.918234 1.000000
1.000000 1.000000 1.000000
1.000000 1.000000 1.000000
1.000000 1.000000 1.000000
1.000000 1.000000 1.000000
1.000000 1.000000 1.000000
1.000000 1.000000 1.000000
1.000000 1.000000 1.000000
1.000000 1.000000 1.000000
1.000000 1.000000 1.000000
1.000000 1.000000 1.000000
1.000000 1.000000 1.000000
1.000000 1.000000 1.000000
1.000000 0.898954 1.000000
1.000000 0.583634 1.000000
1.000000 0.211343 1.000000
1.000000 0.000000 1.000000
1.000000 0.000000 1.000000
0.291697 0.000000 1.000000
0.000000 0.000000 1.000000
0.000000 0.000000 1.000000
0.000000 0.000000 0.352575
0.000000 0.000000 0.000000
0.000000 0.000000 0.000000
