public/luts/fuji_astia_100f.cube
# Generated from ColorChecker fit
LUT_3D_SIZE 33
DOMAIN_MIN 0.0 0.0 0.0
DOMAIN_MAX 1.0 1.0 1.0
0.146888 0.000000 0.226280
0.106900 0.000000 0.222183
0.073628 0.000000 0.230405
0.046726 0.000000 0.249445
0.025809 0.000000 0.277806
0.010453 0.000000 0.313994
0.000194 0.000000 0.356519
0.000000 0.000000 0.403895
0.000000 0.013894 0.454640
0.000000 0.031680 0.507276
0.000000 0.049424 0.560330
0.006292 0.066656 0.612331
0.014621 0.082842 0.661813
0.023677 0.097385 0.707314
0.032676 0.109625 0.747375
0.040794 0.118842 0.780542
0.047168 0.124248 0.805364
0.050894 0.124997 0.820396
0.051027 0.120176 0.824195
0.046585 0.108812 0.815321
0.036544 0.089867 0.792341
0.019841 0.062243 0.753823
0.000000 0.024775 0.698340
0.000000 0.000000 0.624471
0.000000 0.000000 0.530795
0.000000 0.000000 0.415898
0.000000 0.000000 0.278368
0.000000 0.000000 0.116799
0.000000 0.000000 0.000000
0.000000 0.000000 0.000000
0.000000 0.000000 0.000000
0.000000 0.000000 0.000000
0.000000 0.000000 0.000000
0.090671 0.000000 0.147551
0.059987 0.000000 0.147593
0.035765 0.000000 0.159917
0.017612 0.000000 0.182990
0.005096 0.000000 0.215283
0.000000 0.000000 0.255270
0.000000 0.000000 0.301430
0.000000 0.000000 0.352247
0.001364 0.000000 0.406205
0.009153 0.011786 0.461797
0.019148 0.033444 0.517516
0.030637 0.054228 0.571861
0.042867 0.073578 0.623334
0.055048 0.090871 0.670441
0.066348 0.105422 0.711693
0.075895 0.116482 0.745604
0.082779 0.123239 0.770692
0.086047 0.124818 0.785478
0.084709 0.120283 0.788489
0.077734 0.108632 0.778255
0.064050 0.088803 0.753309
0.042546 0.059669 0.712189
0.012072 0.020041 0.653437
0.000000 0.000000 0.575599
0.000000 0.000000 0.477223
0.000000 0.000000 0.356864
0.000000 0.000000 0.213079
0.000000 0.000000 0.044429
0.000000 0.000000 0.000000
0.000000 0.000000 0.000000
0.000000 0.000000 0.000000
0.000000 0.000000 0.000000
0.000000 0.000000 0.000000
0.027199 0.000000 0.068810
0.005603 0.000000 0.073063
0.000000 0.000000 0.089559
0.000000 0.000000 0.116733
0.000000 0.000000 0.153027
0.000000 0.000000 0.196882
0.000000 0.000000 0.246746
0.000000 0.000000 0.301069
0.000259 0.000000 0.358308
0.013613 0.000000 0.416922
0.028518 0.020772 0.475372
0.044214 0.045008 0.532126
0.059903 0.067397 0.585655
0.074745 0.087292 0.634434
0.087861 0.103979 0.676940
0.098332 0.116683 0.711658
0.105199 0.124568 0.737073
0.107464 0.126731 0.751677
0.104088 0.122209 0.753962
0.093991 0.109975 0.742429
0.076055 0.088940 0.715578
0.049123 0.057950 0.671917
0.011994 0.015791 0.609955
0.000000 0.000000 0.528207
0.000000 0.000000 0.425190
0.000000 0.000000 0.299427
0.000000 0.000000 0.149444
0.000000 0.000000 0.000000
0.000000 0.000000 0.000000
0.000000 0.000000 0.000000
0.000000 0.000000 0.000000
0.000000 0.000000 0.000000
0.000000 0.000000 0.000000
0.000000 0.000000 0.000000
0.000000 0.000000 0.000000
0.000000 0.000000 0.019110
0.000000 0.000000 0.050446
0.000000 0.000000 0.090798
0.000000 0.000000 0.138578
0.000000 0.000000 0.192202
0.000000 0.000000 0.250090
0.000000 0.000000 0.310665
0.008397 0.000000 0.372355
0.027806 0.011291 0.433592
0.047285 0.038884 0.492809
0.065985 0.064194 0.548448
0.083021 0.086546 0.598951
0.097466 0.105201 0.642766
0.108352 0.119358 0.678343
0.114675 0.128152 0.704137
0.115386 0.130657 0.718609
0.109401 0.125882 0.720219
0.095592 0.112774 0.707436
0.072793 0.090217 0.678731
0.039798 0.057032 0.632577
0.000000 0.011977 0.567454
0.000000 0.000000 0.481844
0.000000 0.000000 0.374234
0.000000 0.000000 0.243114
0.000000 0.000000 0.086979
0.000000 0.000000 0.000000
0.000000 0.000000 0.000000
0.000000 0.000000 0.000000
0.000000 0.000000 0.000000
0.000000 0.000000 0.000000
0.000000 0.000000 0.000000
0.000000 0.000000 0.000000
0.000000 0.000000 0.000000
0.000000 0.000000 0.000000
0.000000 0.000000 0.000000
0.000000 0.000000 0.028502
0.000000 0.000000 0.080254
0.000000 0.000000 0.137685
0.000000 0.000000 0.199182
0.000000 0.000000 0.263139
0.000000 0.000000 0.327950
0.017503 0.004800 0.392016
0.040335 0.035661 0.453741
0.061597 0.063778 0.511532
0.080357 0.088449 0.563802
0.095639 0.108910 0.608966
0.106429 0.124332 0.645443
0.111674 0.133824 0.671658
0.110280 0.136434 0.686037
0.101111 0.131145 0.687013
0.082996 0.116877 0.673020
0.054719 0.092489 0.642497
0.015027 0.056774 0.593889
0.000000 0.008465 0.525642
0.000000 0.000000 0.436208
0.000000 0.000000 0.324041
0.000000 0.000000 0.187600
0.000000 0.000000 0.025348
0.000000 0.000000 0.000000
0.000000 0.000000 0.000000
0.000000 0.000000 0.000000
0.000000 0.000000 0.000000
0.000000 0.000000 0.000000
0.000000 0.000000 0.000000
0.000000 0.000000 0.000000
0.000000 0.000000 0.000000
0.000000 0.000000 0.000000
0.000000 0.000000 0.000000
0.000000 0.000000 0.000000
0.000000 0.000000 0.021954
0.000000 0.000000 0.083226
0.000000 0.000000 0.148367
0.000000 0.000000 0.215739
0.000000 0.000000 0.283704
0.000000 0.001013 0.350633
0.024074 0.035059 0.414897
0.047446 0.065876 0.474873
0.067456 0.092734 0.528940
0.083081 0.114842 0.575484
0.093261 0.131348 0.612892
0.096893 0.141332 0.639556
0.092836 0.143817 0.653873
0.079908 0.137759 0.654241
0.056888 0.122051 0.639066
0.022515 0.095527 0.606755
0.000000 0.056953 0.555720
0.000000 0.005036 0.484375
0.000000 0.000000 0.391142
0.000000 0.000000 0.274443
0.000000 0.000000 0.132707
0.000000 0.000000 0.000000
0.000000 0.000000 0.000000
0.000000 0.000000 0.000000
0.000000 0.000000 0.000000
0.000000 0.000000 0.000000
0.000000 0.000000 0.000000
0.000000 0.000000 0.000000
0.000000 0.000000 0.000000
0.000000 0.000000 0.000000
0.000000 0.000000 0.000000
0.000000 0.000000 0.000000
0.000000 0.000000 0.000000
0.000000 0.000000 0.000000
0.000000 0.000000 0.029004
0.000000 0.000000 0.097813
0.000000 0.000000 0.168621
0.000000 0.000000 0.239764
0.000000 0.000000 0.309577
0.000000 0.036715 0.376401
0.024464 0.070128 0.438582
0.045247 0.099046 0.494467
0.060719 0.122652 0.542410
0.069769 0.140065 0.580768
0.071250 0.150341 0.607901
0.063971 0.152476 0.622172
0.046704 0.145399 0.621952
0.018179 0.127978 0.605612
0.000000 0.099018 0.571528
0.000000 0.057262 0.518081
0.000000 0.001389 0.443655
0.000000 0.000000 0.346638
0.000000 0.000000 0.225422
0.000000 0.000000 0.078404
0.000000 0.000000 0.000000
0.000000 0.000000 0.000000
0.000000 0.000000 0.000000
0.000000 0.000000 0.000000
0.000000 0.000000 0.000000
0.000000 0.000000 0.000000
0.000000 0.000000 0.000000
0.000000 0.000000 0.000000
0.000000 0.000000 0.000000
0.000000 0.000000 0.000000
0.000000 0.000000 0.000000
0.000000 0.000000 0.000000
0.000000 0.000000 0.000000
0.000000 0.000000 0.000000
0.000000 0.000000 0.047833
0.000000 0.000000 0.122091
0.000000 0.000000 0.196422
0.000000 0.000000 0.269129
0.000000 0.040180 0.338524
0.000000 0.076093 0.402919
0.014884 0.106951 0.460632
0.029701 0.131908 0.509983
0.037101 0.150058 0.549299
0.035888 0.160432 0.576907
0.024825 0.161997 0.591141
0.002635 0.153657 0.590338
0.000000 0.134254 0.572839
0.000000 0.102567 0.536988
0.000000 0.057311 0.481135
0.000000 0.000000 0.403631
0.000000 0.000000 0.302834
0.000000 0.000000 0.177105
0.000000 0.000000 0.024806
0.000000 0.000000 0.000000
0.000000 0.000000 0.000000
0.000000 0.000000 0.000000
0.000000 0.000000 0.000000
0.000000 0.000000 0.000000
0.000000 0.000000 0.000000
0.000000 0.000000 0.000000
0.000000 0.000000 0.000000
0.000000 0.000000 0.000000
0.000000 0.000000 0.000000
0.000000 0.000000 0.000000
0.000000 0.000000 0.000000
0.000000 0.000000 0.000000
0.000000 0.000000 0.000000
0.000000 0.000000 0.000000
0.000000 0.000000 0.076599
0.000000 0.000000 0.154117
0.000000 0.001764 0.229720
0.000000 0.044923 0.301684
0.000000 0.083247 0.368292
0.000000 0.115928 0.427830
0.000000 0.142096 0.478587
0.000000 0.160820 0.518857
0.000000 0.171101 0.546938
0.000000 0.171882 0.561130
0.000000 0.162042 0.559740
0.000000 0.140394 0.541076
0.000000 0.105691 0.503453
0.000000 0.056624 0.445187
0.000000 0.000000 0.364599
0.000000 0.000000 0.260015
0.000000 0.000000 0.129764
0.000000 0.000000 0.000000
0.000000 0.000000 0.000000
0.000000 0.000000 0.000000
0.000000 0.000000 0.000000
0.000000 0.000000 0.000000
0.000000 0.000000 0.000000
0.000000 0.000000 0.000000
0.000000 0.000000 0.000000
0.000000 0.000000 0.000000
0.000000 0.000000 0.000000
0.000000 0.000000 0.000000
0.000000 0.000000 0.000000
0.000000 0.000000 0.000000
0.000000 0.000000 0.000000
0.000000 0.000000 0.000000
0.000000 0.000000 0.000000
0.000000 0.000000 0.032743
0.000000 0.000000 0.113438
0.000000 0.004262 0.191924
0.000000 0.050330 0.266446
0.000000 0.090978 0.335254
0.000000 0.125373 0.396604
0.000000 0.152619 0.448753
0.000000 0.171756 0.489964
0.000000 0.181762 0.518502
0.000000 0.181552 0.532638
0.000000 0.169977 0.530645
0.000000 0.145827 0.510801
0.000000 0.107828 0.471388
0.000000 0.054642 0.410692
0.000000 0.000000 0.327003
0.000000 0.000000 0.218614
0.000000 0.000000 0.083822
0.000000 0.000000 0.000000
0.000000 0.000000 0.000000
0.000000 0.000000 0.000000
0.000000 0.000000 0.000000
0.000000 0.000000 0.000000
0.000000 0.000000 0.000000
0.000000 0.000000 0.000000
0.000000 0.000000 0.000000
0.000000 0.000000 0.000000
0.000000 0.000000 0.000000
0.000000 0.000000 0.000000
0.000000 0.000000 0.000000
0.000000 0.000000 0.000000
0.000000 0.000000 0.000000
0.000000 0.000000 0.000000
0.000000 0.000000 0.000000
0.000000 0.000000 0.000000
0.000000 0.000000 0.075118
0.000000 0.006779 0.156464
0.000000 0.055700 0.233520
0.000000 0.098593 0.304506
0.000000 0.134598 0.367644
0.000000 0.162793 0.421161
0.000000 0.182190 0.463287
0.000000 0.191743 0.492257
0.000000 0.190339 0.506310
0.000000 0.176804 0.503687
0.000000 0.149901 0.482636
0.000000 0.108328 0.441406
0.000000 0.050724 0.378252
0.000000 0.000000 0.291432
0.000000 0.000000 0.179208
0.000000 0.000000 0.039847
0.000000 0.000000 0.000000
0.000000 0.000000 0.000000
0.000000 0.000000 0.000000
0.000000 0.000000 0.000000
0.000000 0.000000 0.000000
0.000000 0.000000 0.000000
0.000000 0.000000 0.000000
0.000000 0.000000 0.000000
0.000000 0.000000 0.000000
0.000000 0.000000 0.000000
0.000000 0.000000 0.000000
0.000000 0.000000 0.000000
0.000000 0.000000 0.000000
0.000000 0.000000 0.000000
0.000000 0.000000 0.000000
0.000000 0.000000 0.000000
0.000000 0.000000 0.000000
0.000000 0.000000 0.040037
0.000000 0.008526 0.124210
0.000000 0.060252 0.203768
0.000000 0.105316 0.276896
0.000000 0.142833 0.341787
0.000000 0.171852 0.396635
0.000000 0.191363 0.439641
0.000000 0.200290 0.469006
0.000000 0.197496 0.482938
0.000000 0.181779 0.479649
0.000000 0.151876 0.457352
0.000000 0.106460 0.414266
0.000000 0.044142 0.348615
0.000000 0.000000 0.258625
0.000000 0.000000 0.142526
0.000000 0.000000 0.000000
0.000000 0.000000 0.000000
0.000000 0.000000 0.000000
0.000000 0.000000 0.000000
0.000000 0.000000 0.000000
0.000000 0.000000 0.000000
0.000000 0.000000 0.000000
0.000000 0.000000 0.000000
0.000000 0.000000 0.000000
0.000000 0.000000 0.000000
0.000000 0.000000 0.000000
0.000000 0.000000 0.000000
0.000000 0.000000 0.000000
0.000000 0.000000 0.000000
0.000000 0.000000 0.000000
0.000000 0.000000 0.000000
0.000000 0.000000 0.000000
0.000000 0.000000 0.000000
0.000000 0.000000 0.009225
0.000000 0.008632 0.096180
0.000000 0.063118 0.178193
0.000000 0.110285 0.253418
0.000000 0.149220 0.320015
0.000000 0.178948 0.376149
0.000000 0.198430 0.419987
0.000000 0.206565 0.449700
0.000000 0.202189 0.463464
0.000000 0.184074 0.459458
0.000000 0.150932 0.435866
0.000000 0.101408 0.390875
0.000000 0.034087 0.322676
0.000000 0.000000 0.229464
0.000000 0.000000 0.109439
0.000000 0.000000 0.000000
0.000000 0.000000 0.000000
0.000000 0.000000 0.000000
0.000000 0.000000 0.000000
0.000000 0.000000 0.000000
0.000000 0.000000 0.000000
0.000000 0.000000 0.000000
0.000000 0.000000 0.000000
0.000000 0.000000 0.000000
0.000000 0.000000 0.000000
0.000000 0.000000 0.000000
0.000000 0.000000 0.000000
0.000000 0.000000 0.000000
0.000000 0.000000 0.000000
0.000000 0.000000 0.000000
0.000000 0.000000 0.000000
0.000000 0.000000 0.000000
0.000000 0.000000 0.000000
0.000000 0.000000 0.000000
0.000000 0.006138 0.073537
0.000000 0.063347 0.157949
0.000000 0.112555 0.235214
0.000000 0.152821 0.303461
0.000000 0.183145 0.360823
0.000000 0.202462 0.405434
0.000000 0.209644 0.435436
0.000000 0.203501 0.448972
0.000000 0.182779 0.444191
0.000000 0.146162 0.419243
0.000000 0.092271 0.372286
0.000000 0.019663 0.301478
0.000000 0.000000 0.204983
0.000000 0.000000 0.080969
0.000000 0.000000 0.000000
0.000000 0.000000 0.000000
0.000000 0.000000 0.000000
0.000000 0.000000 0.000000
0.000000 0.000000 0.000000
0.000000 0.000000 0.000000
0.000000 0.000000 0.000000
0.000000 0.000000 0.000000
0.000000 0.000000 0.000000
0.000000 0.000000 0.000000
0.000000 0.000000 0.000000
0.000000 0.000000 0.000000
0.000000 0.000000 0.000000
0.000000 0.000000 0.000000
0.000000 0.000000 0.000000
0.000000 0.000000 0.000000
0.000000 0.000000 0.000000
0.000000 0.000000 0.000000
0.000000 0.000000 0.000000
0.000000 0.000006 0.057592
0.000000 0.059906 0.144336
0.000000 0.111096 0.223574
0.000000 0.152613 0.293402
0.000000 0.183427 0.351922
0.000000 0.202448 0.397239
0.000000 0.208522 0.427459
0.000000 0.200432 0.440698
0.000000 0.176899 0.435069
0.000000 0.136579 0.408695
0.000000 0.078066 0.359699
0.000000 0.000000 0.286210
0.000000 0.000000 0.186359
0.000000 0.000000 0.058283
0.000000 0.000000 0.000000
0.000000 0.000000 0.000000
0.000000 0.000000 0.000000
0.000000 0.000000 0.000000
0.000000 0.000000 0.000000
0.000000 0.000000 0.000000
0.000000 0.000000 0.000000
0.000000 0.000000 0.000000
0.000000 0.000000 0.000000
0.000000 0.000000 0.000000
0.000000 0.000000 0.000000
0.000000 0.000000 0.000000
0.000000 0.000000 0.000000
0.000000 0.000000 0.000000
0.000000 0.000000 0.000000
0.000000 0.000000 0.000000
0.000000 0.000000 0.000000
0.000000 0.000000 0.000000
0.000000 0.000000 0.000000
0.000000 0.000000 0.049804
0.000000 0.051674 0.138801
0.000000 0.104797 0.219933
0.000000 0.147488 0.291263
0.000000 0.178692 0.350862
0.000000 0.197292 0.396803
0.000000 0.202108 0.427162
0.000000 0.191898 0.440020
0.000000 0.165353 0.433463
0.000000 0.121107 0.405580
0.000000 0.057726 0.354463
0.000000 0.000000 0.278208
0.000000 0.000000 0.174917
0.000000 0.000000 0.042695
0.000000 0.000000 0.000000
0.000000 0.000000 0.000000
0.000000 0.000000 0.000000
0.000000 0.000000 0.000000
0.000000 0.000000 0.000000
0.000000 0.000000 0.000000
0.000000 0.000000 0.000000
0.000000 0.000000 0.000000
0.000000 0.000000 0.000000
0.000000 0.000000 0.000000
0.000000 0.000000 0.000000
0.000000 0.000000 0.000000
0.000000 0.000000 0.000000
0.000000 0.000000 0.000000
0.000000 0.000000 0.000000
0.000000 0.000000 0.000000
0.000000 0.000000 0.000000
0.000000 0.000000 0.000000
0.000000 0.000000 0.000000
0.000000 0.000000 0.051777
0.000000 0.037451 0.142939
0.000000 0.092460 0.225874
0.000000 0.136255 0.298616
0.000000 0.167754 0.359203
0.000000 0.185814 0.405676
0.000000 0.189229 0.436082
0.000000 0.176728 0.448468
0.000000 0.146981 0.440890
0.000000 0.098590 0.411404
0.000000 0.030098 0.358071
0.000000 0.000000 0.278957
0.000000 0.000000 0.172131
0.000000 0.000000 0.035666
0.000000 0.000000 0.000000
0.000000 0.000000 0.000000
0.000000 0.000000 0.000000
0.000000 0.000000 0.000000
0.000000 0.000000 0.000000
0.000000 0.000000 0.000000
0.000000 0.000000 0.000000
0.000000 0.000000 0.000000
0.000000 0.000000 0.000000
0.000000 0.000000 0.000000
0.000000 0.000000 0.000000
0.000000 0.000000 0.000000
0.000000 0.000000 0.000000
0.000000 0.000000 0.000000
0.000000 0.000000 0.000000
0.000000 0.000000 0.000000
0.000000 0.000000 0.000000
0.000000 0.000000 0.000000
0.000000 0.000000 0.000000
0.000000 0.000000 0.065263
0.000000 0.015950 0.158489
0.000000 0.072805 0.243127
0.000000 0.117639 0.317180
0.000000 0.149344 0.378653
0.000000 0.166750 0.425557
0.000000 0.168625 0.455905
0.000000 0.153673 0.467716
0.000000 0.120534 0.459012
0.000000 0.067787 0.427819
0.000000 0.000000 0.372166
0.000000 0.000000 0.290087
0.000000 0.000000 0.179620
0.000000 0.000000 0.038806
0.000000 0.000000 0.000000
0.000000 0.000000 0.000000
0.000000 0.000000 0.000000
0.000000 0.000000 0.000000
0.000000 0.000000 0.000000
0.000000 0.000000 0.000000
0.000000 0.000000 0.000000
0.000000 0.000000 0.000000
0.000000 0.000000 0.000000
0.000000 0.000000 0.000000
0.000000 0.000000 0.000000
0.000000 0.000000 0.000000
0.000000 0.000000 0.000000
0.000000 0.000000 0.000000
0.000000 0.000000 0.000000
0.000000 0.000000 0.000000
0.000000 0.000000 0.000000
0.000000 0.000000 0.000000
0.000000 0.000000 0.000000
0.000000 0.000000 0.092162
0.000000 0.000000 0.187341
0.000000 0.044467 0.273570
0.000000 0.090282 0.348820
0.000000 0.122109 0.411066
0.000000 0.138754 0.458287
0.000000 0.138956 0.488465
0.000000 0.121394 0.499586
0.000000 0.084683 0.489642
0.000000 0.027374 0.456625
0.000000 0.000000 0.398536
0.000000 0.000000 0.313375
0.000000 0.000000 0.199150
0.000000 0.000000 0.053869
0.000000 0.000000 0.000000
0.000000 0.000000 0.000000
0.000000 0.000000 0.000000
0.000000 0.000000 0.000000
0.000000 0.000000 0.000000
0.000000 0.000000 0.000000
0.000000 0.000000 0.000000
0.000000 0.000000 0.000000
0.000000 0.000000 0.000000
0.000000 0.000000 0.000000
0.000000 0.000000 0.000000
0.000000 0.000000 0.000000
0.000000 0.000000 0.000000
0.000000 0.000000 0.000000
0.000000 0.000000 0.000000
0.000000 0.000000 0.000000
0.000000 0.000000 0.000000
0.000000 0.000000 0.000000
0.000000 0.000000 0.030264
0.000000 0.000000 0.134520
0.000000 0.000000 0.231529
0.000000 0.005999 0.319226
0.000000 0.052740 0.395551
0.000000 0.084612 0.458446
0.000000 0.100393 0.505859
0.000000 0.098796 0.535741
0.000000 0.078473 0.546047
0.000000 0.038013 0.534735
0.000000 0.000000 0.499770
0.000000 0.000000 0.439117
0.000000 0.000000 0.350747
0.000000 0.000000 0.232634
0.000000 0.000000 0.082759
0.000000 0.000000 0.000000
0.000000 0.000000 0.000000
0.000000 0.000000 0.000000
0.000000 0.000000 0.000000
0.000000 0.000000 0.000000
0.000000 0.000000 0.000000
0.000000 0.000000 0.000000
0.000000 0.000000 0.000000
0.000000 0.000000 0.000000
0.000000 0.000000 0.000000
0.000000 0.000000 0.000000
0.000000 0.000000 0.000000
0.000000 0.000000 0.000000
0.000000 0.000000 0.000000
0.000000 0.000000 0.000000
0.000000 0.000000 0.000000
0.000000 0.000000 0.000000
0.000000 0.000000 0.000000
0.000000 0.000000 0.088246
0.000000 0.000000 0.194530
0.000000 0.000000 0.293236
0.000000 0.000000 0.382267
0.000000 0.003488 0.459531
0.000000 0.035333 0.522941
0.000000 0.050152 0.570410
0.000000 0.046634 0.599860
0.000000 0.023405 0.609214
0.000000 0.000000 0.596399
0.000000 0.000000 0.559346
0.000000 0.000000 0.495991
0.000000 0.000000 0.404273
0.000000 0.000000 0.282135
0.000000 0.000000 0.127524
0.000000 0.000000 0.000000
0.000000 0.000000 0.000000
0.000000 0.000000 0.000000
0.000000 0.000000 0.000000
0.000000 0.000000 0.000000
0.000000 0.000000 0.000000
0.000000 0.000000 0.000000
0.000000 0.000000 0.000000
0.000000 0.000000 0.000000
0.000000 0.000000 0.000000
0.000000 0.000000 0.000000
0.000000 0.000000 0.000000
0.000000 0.000000 0.000000
0.000000 0.000000 0.000000
0.000000 0.000000 0.000000
0.000000 0.000000 0.000000
0.000000 0.000000 0.000000
0.000000 0.000000 0.052419
0.000000 0.000000 0.166365
0.000000 0.000000 0.274533
0.000000 0.000000 0.374790
0.000000 0.000000 0.465010
0.000000 0.000000 0.543069
0.000000 0.000000 0.606846
0.000000 0.000000 0.654226
0.000000 0.000000 0.683097
0.000000 0.000000 0.691351
0.000000 0.000000 0.676883
0.000000 0.000000 0.637595
0.000000 0.000000 0.571388
0.000000 0.000000 0.476172
0.000000 0.000000 0.349858
0.000000 0.000000 0.190362
0.000000 0.000000 0.000000
0.000000 0.000000 0.000000
0.000000 0.000000 0.000000
0.000000 0.000000 0.000000
0.000000 0.000000 0.000000
0.000000 0.000000 0.000000
0.000000 0.000000 0.000000
0.000000 0.000000 0.000000
0.000000 0.000000 0.000000
0.000000 0.000000 0.000000
0.000000 0.000000 0.000000
0.000000 0.000000 0.000000
0.000000 0.000000 0.000000
0.000000 0.000000 0.000000
0.000000 0.000000 0.000000
0.000000 0.000000 0.000000
0.000000 0.000000 0.031254
0.030719 0.000000 0.151142
0.070349 0.000000 0.267118
0.094102 0.000000 0.377015
0.100268 0.000000 0.478669
0.087097 0.000000 0.569922
0.052796 0.000000 0.648618
0.000000 0.000000 0.712606
0.000000 0.000000 0.759738
0.000000 0.000000 0.787872
0.000000 0.000000 0.794867
0.000000 0.000000 0.778588
0.000000 0.000000 0.736904
0.000000 0.000000 0.667686
0.000000 0.000000 0.568811
0.000000 0.000000 0.438160
0.000000 0.000000 0.273616
0.000000 0.000000 0.073067
0.000000 0.000000 0.000000
0.000000 0.000000 0.000000
0.000000 0.000000 0.000000
0.000000 0.000000 0.000000
0.000000 0.000000 0.000000
0.000000 0.000000 0.000000
0.000000 0.000000 0.000000
0.000000 0.000000 0.000000
0.000000 0.000000 0.000000
0.000000 0.000000 0.000000
0.000000 0.000000 0.000000
0.000000 0.000000 0.000000
0.000000 0.000000 0.000000
0.043236 0.000000 0.000000
0.120424 0.000000 0.029288
0.185683 0.000000 0.153290
0.237375 0.000000 0.275312
0.273821 0.000000 0.393151
0.293302 0.000000 0.504611
0.294060 0.000000 0.607495
0.274297 0.000000 0.699613
0.232174 0.000000 0.778779
0.165814 0.000000 0.842809
0.073298 0.000000 0.889525
0.000000 0.000000 0.916752
0.000000 0.000000 0.922319
0.000000 0.000000 0.904059
0.000000 0.000000 0.859808
0.000000 0.000000 0.787408
0.000000 0.000000 0.684702
0.000000 0.000000 0.549541
0.000000 0.000000 0.379776
0.000000 0.000000 0.173264
0.000000 0.000000 0.000000
0.000000 0.000000 0.000000
0.000000 0.000000 0.000000
0.000000 0.000000 0.000000
0.000000 0.000000 0.000000
0.000000 0.000000 0.000000
0.000000 0.000000 0.000000
0.000000 0.000000 0.000000
0.000000 0.000000 0.000000
0.000000 0.000000 0.000000
0.012030 0.000000 0.000000
0.117591 0.000000 0.000000
0.215076 0.000000 0.000000
0.302918 0.000000 0.051375
0.379512 0.000000 0.177553
0.443211 0.000000 0.303751
0.492328 0.000000 0.427730
0.525137 0.000000 0.547257
0.539874 0.000000 0.660102
0.534731 0.000000 0.764038
0.507862 0.000000 0.856844
0.457382 0.000000 0.936301
0.381366 0.000000 1.000000
0.277847 0.000000 1.000000
0.144819 0.000000 1.000000
0.000000 0.000000 1.000000
0.000000 0.000000 1.000000
0.000000 0.000000 1.000000
0.000000 0.000000 0.933224
0.000000 0.000000 0.826505
0.000000 0.000000 0.686651
0.000000 0.000000 0.511481
0.000000 0.000000 0.298822
0.000000 0.000000 0.046502
0.000000 0.000000 0.000000
0.000000 0.000000 0.000000
0.000000 0.000000 0.000000
0.000000 0.000000 0.000000
0.000000 0.000000 0.000000
0.000000 0.000000 0.000000
0.000000 0.000000 0.000000
0.088981 0.000000 0.000000
0.209387 0.000000 0.000000
0.323982 0.000000 0.000000
0.431231 0.000000 0.000000
0.529559 0.000000 0.102684
0.617353 0.000000 0.228995
0.692959 0.000000 0.357391
0.754683 0.000000 0.485598
0.800791 0.000000 0.611348
0.829509 0.000000 0.732375
0.839025 0.000000 0.846417
0.827484 0.000000 0.951217
0.792993 0.000000 1.000000
0.733619 0.000000 1.000000
0.647388 0.000000 1.000000
0.532287 0.000000 1.000000
0.386262 0.000000 1.000000
0.207222 0.000000 1.000000
0.000000 0.000000 1.000000
0.000000 0.000000 1.000000
0.000000 0.000000 1.000000
0.000000 0.000000 0.997027
0.000000 0.000000 0.852285
0.000000 0.000000 0.671516
0.000000 0.000000 0.452513
0.000000 0.000000 0.193075
0.000000 0.000000 0.000000
0.000000 0.000000 0.000000
0.000000 0.000000 0.000000
0.000000 0.000000 0.000000
0.000000 0.000000 0.000000
0.000000 0.000000 0.000000
0.000000 0.000000 0.000000
0.457089 0.000000 0.000000
0.580435 0.000000 0.000000
0.697200 0.000000 0.070945
0.805801 0.000000 0.188707
0.904618 0.000000 0.312998
0.991987 0.000000 0.441506
1.000000 0.000000 0.571922
1.000000 0.000000 0.701942
1.000000 0.000000 0.829264
1.000000 0.000000 0.951591
1.000000 0.000000 1.000000
1.000000 0.000000 1.000000
1.000000 0.000000 1.000000
1.000000 0.000000 1.000000
0.969299 0.000000 1.000000
0.842034 0.000000 1.000000
0.682409 0.000000 1.000000
0.488286 0.000000 1.000000
0.257482 0.000000 1.000000
0.000000 0.000000 1.000000
0.000000 0.000000 1.000000
0.000000 0.000000 1.000000
0.000000 0.000000 1.000000
0.000000 0.000000 0.862811
0.000000 0.000000 0.637259
0.000000 0.000000 0.370496
0.000000 0.000000 0.060292
