public/luts/fuji_400h.cube
# Generated from ColorChecker fit
LUT_3D_SIZE 5
DOMAIN_MIN 0.0 0.0 0.0
DOMAIN_MAX 1.0 1.0 1.0
0.188097 0.000000 0.195288
0.000000 0.000000 0.024095
0.000000 0.000000 0.000000
0.000000 0.000000 0.000000
0.000000 0.000000 0.000000
0.000000 0.000000 0.293080
0.000000 0.000000 0.463195
0.000000 0.000000 0.717699
0.000000 0.085722 0.867251
0.250754 0.731023 0.629679
0.000000 0.000000 0.000000
0.190016 0.333025 0.386761
0.401436 0.640500 0.810928
0.405462 0.727082 0.914730
0.150464 0.781114 0.320143
1.000000 0.602907 0.246297
1.000000 1.000000 0.996485
1.000000 1.000000 1.000000
0.906158 0.699425 1.000000
0.000000 0.000000 0.248278
1.000000 1.000000 1.000000
1.000000 1.000000 1.000000
1.000000 1.000000 1.000000
1.000000 0.000000 1.000000
0.000000 0.000000 1.000000
0.894858 0.978902 0.035749
0.000000 0.236847 0.000000
0.000000 0.000000 0.000000
0.000000 0.000000 0.000000
0.000000 0.000000 0.000000
0.533279 0.493138 0.329970
0.235548 0.262172 0.259947
0.210424 0.232346 0.391522
0.280139 0.258848 0.608835
0.437891 0.473055 0.703198
0.219034 0.419142 0.026974
0.257299 0.561258 0.250884
0.402126 0.740585 0.537329
0.315638 0.646187 0.674597
0.000000 0.243319 0.358145
1.000000 0.820241 0.275859
1.000000 1.000000 0.806437
1.000000 1.000000 1.000000
0.338974 0.510779 1.000000
0.000000 0.000000 0.162536
1.000000 1.000000 1.000000
1.000000 1.000000 1.000000
1.000000 1.000000 1.000000
1.000000 0.000000 1.000000
0.000000 0.000000 1.000000
1.000000 1.000000 0.000000
0.140238 0.415701 0.000000
0.000000 0.000000 0.000000
0.000000 0.000000 0.000000
0.000000 0.000000 0.000000
1.000000 0.962343 0.510733
0.432352 0.280176 0.220591
0.327303 0.095147 0.234853
0.455779 0.039354 0.511142
0.695691 0.021087 0.914251
0.428048 0.673987 0.244410
0.262449 0.431191 0.261192
0.404573 0.506007 0.423812
0.401254 0.364411 0.594040
0.000000 0.000000 0.540814
0.942282 0.794675 0.349436
0.981421 0.896681 0.696983
0.928129 0.960527 0.956239
0.169127 0.286062 0.893119
0.000000 0.000000 0.180708
1.000000 1.000000 1.000000
1.000000 1.000000 1.000000
1.000000 1.000000 1.000000
1.000000 0.000000 1.000000
0.000000 0.000000 1.000000
1.000000 1.000000 0.000000
0.000000 0.294945 0.000000
0.000000 0.000000 0.000000
0.000000 0.000000 0.000000
0.000000 0.000000 0.257664
1.000000 1.000000 0.632549
0.583415 0.174930 0.240259
0.422494 0.010232 0.240778
0.743578 0.157824 0.665210
1.000000 0.302906 1.000000
0.814361 0.844319 0.428871
0.451069 0.327308 0.364776
0.706455 0.518454 0.515420
1.000000 0.660643 0.816054
0.970418 0.272952 1.000000
0.736689 0.761798 0.368123
0.855958 0.762982 0.667169
1.000000 1.000000 0.927321
0.863069 0.852471 0.987974
0.000000 0.000000 0.595696
1.000000 0.927332 1.000000
1.000000 1.000000 1.000000
1.000000 1.000000 1.000000
1.000000 0.610226 1.000000
0.000000 0.000000 1.000000
1.000000 1.000000 0.000000
0.000000 0.003774 0.000000
0.000000 0.000000 0.000000
0.000000 0.014580 0.000000
0.000000 0.857340 0.684037
1.000000 1.000000 0.240645
0.583857 0.123937 0.000000
0.443192 0.352310 0.150428
1.000000 1.000000 0.910120
1.000000 1.000000 1.000000
1.000000 0.958745 0.177539
0.834974 0.475419 0.256771
1.000000 1.000000 0.605239
1.000000 1.000000 1.000000
1.000000 1.000000 1.000000
0.847678 0.798524 0.000000
1.000000 1.000000 0.464086
1.000000 1.000000 0.943212
1.000000 1.000000 1.000000
1.000000 1.000000 1.000000
1.000000 0.749420 1.000000
1.000000 1.000000 1.000000
1.000000 1.000000 1.000000
1.000000 1.000000 1.000000
1.000000 1.000000 1.000000
