public/luts/fuji_eterna.cube
# Generated from ColorChecker fit
LUT_3D_SIZE 5
DOMAIN_MIN 0.0 0.0 0.0
DOMAIN_MAX 1.0 1.0 1.0
0.706677 0.326790 0.570775
0.008909 0.000000 0.705858
0.007781 0.000000 1.000000
0.000000 0.000000 1.000000
0.000000 0.000000 0.000000
0.019345 0.000000 0.197228
0.000000 0.000000 0.420690
0.000000 0.035880 0.771606
0.000000 0.000000 0.000000
0.000000 0.000000 0.000000
0.816424 0.000000 0.754082
0.759269 0.321704 1.000000
0.000000 0.211234 1.000000
0.000000 0.000000 0.000000
0.000000 0.000000 0.000000
1.000000 0.464827 1.000000
1.000000 1.000000 1.000000
1.000000 1.000000 1.000000
0.000000 0.000000 1.000000
0.000000 0.000000 0.000000
1.000000 1.000000 1.000000
1.000000 1.000000 1.000000
1.000000 1.000000 1.000000
1.000000 1.000000 1.000000
0.000000 0.000000 1.000000
1.000000 0.850111 0.522905
0.054399 0.000000 0.000000
0.437049 0.000000 0.458403
1.000000 0.593807 0.925343
1.000000 1.000000 0.000000
0.514356 0.541269 0.460696
0.206413 0.286885 0.251160
0.515185 0.347263 0.670750
0.548712 0.062028 0.467891
0.000000 0.000000 0.000000
0.578287 0.173048 0.507854
0.584072 0.832927 0.583810
0.236370 0.718288 0.816638
0.000000 0.000000 0.000000
0.000000 0.000000 0.000000
1.000000 1.000000 1.000000
1.000000 1.000000 1.000000
1.000000 1.000000 1.000000
0.000000 0.000000 1.000000
0.000000 0.000000 0.000000
1.000000 1.000000 1.000000
1.000000 1.000000 1.000000
1.000000 1.000000 1.000000
1.000000 1.000000 1.000000
0.000000 0.000000 1.000000
1.000000 1.000000 0.680599
0.000000 0.000000 0.000000
0.110235 0.000000 0.000000
1.000000 1.000000 0.504352
1.000000 1.000000 0.714519
1.000000 1.000000 0.917149
0.590757 0.252655 0.290162
0.966717 0.284929 0.670883
1.000000 1.000000 1.000000
1.000000 1.000000 0.162836
0.647105 0.764046 0.366389
0.466691 0.664271 0.179851
0.493012 0.562446 0.561119
0.000000 0.000000 0.359157
0.000000 0.000000 0.000000
1.000000 1.000000 1.000000
1.000000 1.000000 1.000000
1.000000 1.000000 1.000000
0.000000 0.000000 0.832253
0.000000 0.000000 0.000000
1.000000 1.000000 1.000000
1.000000 1.000000 1.000000
1.000000 1.000000 1.000000
1.000000 1.000000 1.000000
0.000000 0.000000 0.513667
1.000000 1.000000 0.000000
0.000000 0.000000 0.000000
0.000000 0.000000 0.000000
0.939574 1.000000 0.000000
1.000000 1.000000 0.581698
1.000000 1.000000 0.795419
0.706116 0.337833 0.000000
0.945956 0.800136 0.452857
1.000000 1.000000 1.000000
1.000000 1.000000 1.000000
1.000000 1.000000 0.351056
0.715706 0.518902 0.123892
1.000000 0.906145 0.752377
1.000000 1.000000 1.000000
1.000000 1.000000 0.685845
1.000000 0.838049 0.384486
1.000000 1.000000 0.568986
1.000000 1.000000 1.000000
0.890425 0.792227 1.000000
0.000000 0.000000 0.000000
1.000000 1.000000 1.000000
1.000000 1.000000 1.000000
1.000000 1.000000 1.000000
1.000000 1.000000 1.000000
0.000000 0.000000 0.047189
0.000000 1.000000 0.000000
0.000000 0.000000 0.000000
0.000000 0.402014 0.000000
0.000000 1.000000 0.000000
1.000000 1.000000 0.000000
1.000000 1.000000 0.000000
0.000000 0.219988 0.000000
0.000000 1.000000 0.000000
1.000000 1.000000 1.000000
1.000000 1.000000 1.000000
1.000000 0.517985 0.170262
1.000000 0.285563 0.350351
1.000000 1.000000 1.000000
1.000000 1.000000 1.000000
1.000000 1.000000 1.000000
1.000000 0.000000 0.463645
1.000000 0.584908 1.000000
1.000000 1.000000 1.000000
1.000000 1.000000 1.000000
1.000000 1.000000 1.000000
1.000000 1.000000 1.000000
1.000000 1.000000 1.000000
1.000000 1.000000 1.000000
1.000000 1.000000 1.000000
1.000000 1.000000 1.000000
