public/luts/fuji_fortia_50.cube
# Generated from ColorChecker fit
LUT_3D_SIZE 9
DOMAIN_MIN 0.0 0.0 0.0
DOMAIN_MAX 1.0 1.0 1.0
0.000000 0.000000 0.000000
0.000000 0.000000 0.059026
0.000000 0.000000 0.217383
0.003125 0.070224 0.373361
0.134595 0.182476 0.515445
0.260849 0.258566 0.618291
0.312422 0.226286 0.642731
0.199271 0.000000 0.535770
0.000000 0.000000 0.230584
0.185357 0.151073 0.000000
0.107011 0.149515 0.013151
0.097431 0.186473 0.191165
0.149678 0.263820 0.367890
0.236228 0.359422 0.527165
0.308980 0.427130 0.638999
0.299249 0.396785 0.659577
0.117771 0.174215 0.531257
0.000000 0.000000 0.182570
0.252926 0.331165 0.000000
0.163467 0.303782 0.000000
0.128753 0.314116 0.149360
0.142623 0.366091 0.348987
0.178337 0.439616 0.523907
0.188570 0.490589 0.639482
0.105420 0.450898 0.647251
0.000000 0.228418 0.484923
0.000000 0.000000 0.076383
0.229669 0.466662 0.000000
0.142632 0.421964 0.000000
0.093220 0.411260 0.117879
0.076052 0.440519 0.342921
0.065168 0.491696 0.532298
0.014025 0.522738 0.646726
0.000000 0.467577 0.633096
0.000000 0.236136 0.424472
0.000000 0.000000 0.000000
0.178040 0.597178 0.000000
0.117117 0.548832 0.000000
0.073601 0.527830 0.122784
0.042892 0.542186 0.376115
0.000000 0.575902 0.579122
0.000000 0.588971 0.687875
0.000000 0.517372 0.644617
0.000000 0.273074 0.377766
0.000000 0.000000 0.000000
0.159328 0.753926 0.000000
0.158369 0.720756 0.000000
0.151500 0.705352 0.190297
0.134901 0.717774 0.475149
0.084171 0.744071 0.691317
0.000000 0.746281 0.790226
0.000000 0.662432 0.709470
0.000000 0.406538 0.372821
0.000000 0.000000 0.000000
0.233656 0.959719 0.000000
0.336668 0.965705 0.000000
0.407354 0.976951 0.346792
0.442676 1.000000 0.666757
0.419010 1.000000 0.895979
0.292157 1.000000 0.981234
0.000000 0.956507 0.855470
0.000000 0.695433 0.437812
0.000000 0.152090 0.000000
0.459981 1.000000 0.000000
0.721127 1.000000 0.187313
0.920435 1.000000 0.618803
1.000000 1.000000 0.977833
1.000000 1.000000 1.000000
1.000000 1.000000 1.000000
0.745362 1.000000 1.000000
0.189958 1.000000 0.601068
0.000000 0.650161 0.000000
0.896094 1.000000 0.000000
1.000000 1.000000 0.533337
1.000000 1.000000 1.000000
1.000000 1.000000 1.000000
1.000000 1.000000 1.000000
1.000000 1.000000 1.000000
1.000000 1.000000 1.000000
1.000000 1.000000 0.891074
0.596747 1.000000 0.000000
0.090384 0.000000 0.095805
0.011923 0.000000 0.152361
0.019875 0.022382 0.220167
0.111081 0.093638 0.306468
0.261807 0.177392 0.404678
0.427734 0.227485 0.494389
0.543964 0.173743 0.541364
0.525017 0.000000 0.497538
0.264833 0.000000 0.301022
0.293591 0.216778 0.082458
0.207919 0.196011 0.153952
0.198498 0.211393 0.242602
0.262951 0.266832 0.351005
0.378321 0.342227 0.467929
0.501072 0.393462 0.568319
0.567085 0.352412 0.613290
0.491661 0.126940 0.550131
0.169520 0.000000 0.312307
0.349542 0.363164 0.035092
0.260615 0.322535 0.128986
0.234677 0.318491 0.242240
0.270134 0.356987 0.372805
0.344809 0.419968 0.504803
0.415946 0.465365 0.608529
0.420205 0.427099 0.640454
0.273668 0.215079 0.543220
0.000000 0.000000 0.245642
0.318874 0.467137 0.000000
0.240802 0.416528 0.099416
0.209363 0.400014 0.241395
0.223740 0.425596 0.394542
0.262536 0.477264 0.538331
0.283776 0.514998 0.638412
0.224902 0.474764 0.646608
0.002774 0.268517 0.500913
0.000000 0.000000 0.125498
0.261055 0.566319 0.000000
0.218110 0.520770 0.087353
0.202339 0.503898 0.262537
0.213708 0.525751 0.439044
0.231601 0.572365 0.591702
0.214820 0.605766 0.681515
0.101589 0.563967 0.655658
0.000000 0.360970 0.447479
0.000000 0.000000 0.000000
0.234390 0.689935 0.000000
0.260998 0.669642 0.115063
0.292225 0.669680 0.328290
0.328816 0.702145 0.529295
0.350936 0.755119 0.688261
0.318167 0.792674 0.761542
0.169514 0.754870 0.691667
0.000000 0.557756 0.407339
0.000000 0.093368 0.000000
0.296019 0.858809 0.000000
0.436763 0.889122 0.204968
0.556473 0.928495 0.461436
0.656673 0.991068 0.688437
0.718308 1.000000 0.851507
0.701742 1.000000 0.902352
0.546758 1.000000 0.778856
0.172557 0.915789 0.405072
0.000000 0.466078 0.000000
0.501913 1.000000 0.049249
0.811535 1.000000 0.379645
1.000000 1.000000 0.684913
1.000000 1.000000 0.939767
1.000000 1.000000 1.000000
1.000000 1.000000 1.000000
1.000000 1.000000 0.941598
0.984103 1.000000 0.465413
0.273301 1.000000 0.000000
0.906880 1.000000 0.256715
1.000000 1.000000 0.661828
1.000000 1.000000 1.000000
1.000000 1.000000 1.000000
1.000000 1.000000 1.000000
1.000000 1.000000 1.000000
1.000000 1.000000 1.000000
1.000000 1.000000 0.613252
1.000000 1.000000 0.000000
0.176614 0.048903 0.230433
0.082354 0.038305 0.197826
0.076056 0.053384 0.193715
0.159131 0.098038 0.230275
0.312408 0.152150 0.305854
0.496134 0.171594 0.404976
0.649976 0.088230 0.498334
0.693021 0.000000 0.542798
0.523774 0.000000 0.481411
0.359346 0.252274 0.246512
0.261326 0.218528 0.227188
0.241870 0.215058 0.242434
0.303167 0.247804 0.299776
0.426826 0.298699 0.392918
0.573875 0.325661 0.501734
0.684762 0.262598 0.592273
0.679351 0.019407 0.616756
0.456930 0.000000 0.513578
0.400480 0.369957 0.227552
0.303235 0.319164 0.226878
0.272054 0.300315 0.263147
0.309908 0.321399 0.339238
0.399187 0.366394 0.444206
0.501697 0.395265 0.553281
0.558667 0.343967 0.627862
0.490743 0.124443 0.615526
0.197991 0.000000 0.450020
0.357670 0.445988 0.191552
0.275887 0.389402 0.215255
0.244573 0.363503 0.274572
0.267478 0.378326 0.367736
0.327769 0.419895 0.479156
0.388037 0.450223 0.579412
0.390288 0.407309 0.625259
0.255949 0.205144 0.559625
0.000000 0.000000 0.311612
0.287399 0.516002 0.156668
0.245927 0.470034 0.210834
0.236228 0.450569 0.295585
0.262832 0.469688 0.404507
0.309688 0.515461 0.517360
0.340165 0.551948 0.600081
0.297052 0.519195 0.604775
0.102554 0.333237 0.469725
0.000000 0.000000 0.119385
0.244989 0.607233 0.141211
0.278831 0.593451 0.232286
0.322652 0.599060 0.345215
0.381762 0.638188 0.468938
0.440892 0.700951 0.578569
0.464189 0.753456 0.635396
0.395222 0.737795 0.586880
0.156978 0.572050 0.366654
0.000000 0.150292 0.000000
0.284593 0.738515 0.163650
0.438910 0.783642 0.298439
0.578314 0.838122 0.442650
0.708895 0.918127 0.580577
0.816163 1.000000 0.682688
0.865047 1.000000 0.705623
0.799896 1.000000 0.592196
0.544476 0.976508 0.271394
0.001974 0.586363 0.000000
0.459199 0.920281 0.242608
0.789310 1.000000 0.428274
1.000000 1.000000 0.607231
1.000000 1.000000 0.759126
1.000000 1.000000 0.849778
1.000000 1.000000 0.831182
1.000000 1.000000 0.641505
1.000000 1.000000 0.205087
0.842876 1.000000 0.000000
0.820631 1.000000 0.396865
1.000000 1.000000 0.640932
1.000000 1.000000 0.858457
1.000000 1.000000 1.000000
1.000000 1.000000 1.000000
1.000000 1.000000 1.000000
1.000000 1.000000 0.755743
1.000000 1.000000 0.189027
1.000000 1.000000 0.000000
0.281188 0.110751 0.303335
0.177592 0.098740 0.209337
0.158341 0.101793 0.162386
0.229411 0.125838 0.179587
0.376196 0.152793 0.264221
0.563508 0.140566 0.405743
0.735580 0.023051 0.579779
0.816065 0.000000 0.748132
0.708032 0.000000 0.858775
0.446793 0.292240 0.335140
0.339064 0.255376 0.250097
0.307042 0.239405 0.218340
0.357482 0.252304 0.252330
0.476559 0.278035 0.350700
0.629866 0.276554 0.498258
0.762416 0.183800 0.665984
0.798640 0.000000 0.811032
0.642389 0.000000 0.876729
0.474929 0.389376 0.332887
0.368177 0.335130 0.260071
0.325394 0.304680 0.243080
0.354118 0.308048 0.289730
0.441301 0.331246 0.394006
0.553318 0.336272 0.536069
0.635962 0.261115 0.682253
0.614445 0.019751 0.785064
0.393397 0.000000 0.783184
0.420263 0.444203 0.310980
0.329754 0.385202 0.254023
0.288379 0.349973 0.251730
0.304455 0.350585 0.307270
0.365717 0.375094 0.409982
0.439317 0.387548 0.535379
0.471829 0.327980 0.645149
0.389246 0.112412 0.687151
0.096978 0.000000 0.595418
0.336296 0.490368 0.283981
0.287454 0.444396 0.246873
0.269813 0.419244 0.259570
0.292468 0.429027 0.320590
0.343936 0.463851 0.414627
0.392149 0.489806 0.512546
0.384462 0.448975 0.571389
0.247645 0.259425 0.534368
0.000000 0.000000 0.330870
0.275364 0.553115 0.266605
0.303769 0.543111 0.253699
0.342344 0.548048 0.282034
0.400963 0.584089 0.345484
0.468923 0.643384 0.424094
0.514936 0.694072 0.484084
0.487137 0.680281 0.477847
0.313078 0.522125 0.343949
0.000000 0.115709 0.007130
0.288635 0.649289 0.273727
0.440027 0.703347 0.289732
0.577457 0.763541 0.334716
0.711581 0.848081 0.397904
0.832475 0.951162 0.454695
0.909633 1.000000 0.466663
0.891969 1.000000 0.381552
0.707814 0.953449 0.133283
0.264922 0.592434 0.000000
0.426114 0.787331 0.320374
0.756388 0.938704 0.370361
1.000000 1.000000 0.433362
1.000000 1.000000 0.493956
1.000000 1.000000 0.522896
1.000000 1.000000 0.477108
1.000000 1.000000 0.299690
1.000000 1.000000 0.000000
1.000000 1.000000 0.000000
0.736638 0.967286 0.421731
1.000000 1.000000 0.511129
1.000000 1.000000 0.593876
1.000000 1.000000 0.649905
1.000000 1.000000 0.645320
1.000000 1.000000 0.532402
1.000000 1.000000 0.249601
1.000000 1.000000 0.000000
1.000000 1.000000 0.000000
0.422386 0.174361 0.321392
0.323581 0.177577 0.204222
0.300334 0.181733 0.153950
0.363186 0.194792 0.192618
0.502096 0.200707 0.328436
0.686442 0.159417 0.555792
0.865023 0.006850 0.855246
0.966056 0.000000 1.000000
0.897176 0.000000 1.000000
0.579232 0.346698 0.358545
0.472092 0.320205 0.243325
0.432634 0.301716 0.201412
0.472177 0.301241 0.250200
0.581462 0.304776 0.393253
0.730648 0.274310 0.620312
0.869312 0.147816 0.907289
0.926452 0.000000 1.000000
0.810484 0.000000 1.000000
0.601205 0.434596 0.364621
0.491417 0.387239 0.252529
0.438335 0.352021 0.216453
0.454060 0.340999 0.269137
0.530112 0.342218 0.409502
0.637429 0.319710 0.622638
0.726371 0.213497 0.879813
0.726714 0.000000 1.000000
0.547655 0.000000 1.000000
0.539988 0.478112 0.350432
0.443395 0.423889 0.243006
0.389435 0.383015 0.210602
0.390989 0.369592 0.261319
0.440355 0.373711 0.389430
0.509255 0.361453 0.575379
0.548825 0.274884 0.785785
0.489624 0.032061 0.973441
0.241628 0.000000 1.000000
0.446096 0.508902 0.326942
0.388701 0.466969 0.226079
0.356765 0.436666 0.195544
0.363951 0.434143 0.238790
0.403338 0.451537 0.345441
0.447426 0.456975 0.491296
0.448134 0.394570 0.638327
0.336799 0.184425 0.734679
0.024178 0.000000 0.714672
0.368882 0.550221 0.305274
0.386841 0.544888 0.213230
0.409990 0.546541 0.183121
0.452769 0.573375 0.213750
0.509040 0.619574 0.290096
0.552081 0.655311 0.383310
0.534592 0.626745 0.450718
0.388690 0.456028 0.435818
0.025913 0.041295 0.268282
0.356530 0.616923 0.296705
0.496159 0.677658 0.216097
0.617609 0.737807 0.185328
0.736100 0.817611 0.198555
0.846274 0.913301 0.236109
0.922190 0.997095 0.264495
0.917327 1.000000 0.236392
0.764583 0.897816 0.090651
0.376276 0.539121 0.000000
0.456058 0.715461 0.312671
0.773831 0.876888 0.246474
1.000000 1.000000 0.214319
1.000000 1.000000 0.205717
1.000000 1.000000 0.196353
1.000000 1.000000 0.148084
1.000000 1.000000 0.008941
1.000000 1.000000 0.000000
1.000000 1.000000 0.000000
0.713322 0.843890 0.364760
1.000000 1.000000 0.316309
1.000000 1.000000 0.282403
1.000000 1.000000 0.247906
1.000000 1.000000 0.183855
1.000000 1.000000 0.047462
1.000000 1.000000 0.000000
1.000000 1.000000 0.000000
1.000000 1.000000 0.000000
0.577618 0.221944 0.294896
0.505391 0.260654 0.203214
0.494765 0.282674 0.199589
0.560847 0.298001 0.310993
0.698160 0.292619 0.550569
0.880650 0.228504 0.917638
1.000000 0.043616 1.000000
1.000000 0.000000 1.000000
1.000000 0.000000 1.000000
0.739089 0.401011 0.330338
0.650498 0.402009 0.230927
0.616393 0.394614 0.226150
0.652661 0.390869 0.338331
0.754605 0.378805 0.575967
0.896951 0.322443 0.933731
1.000000 0.161790 1.000000
1.000000 0.000000 1.000000
1.000000 0.000000 1.000000
0.766751 0.494137 0.339687
0.668061 0.467639 0.231632
0.613642 0.438117 0.221085
0.620162 0.419660 0.325725
0.683706 0.402348 0.549402
0.779778 0.352245 0.882142
0.863302 0.211408 1.000000
0.868621 0.000000 1.000000
0.709496 0.000000 1.000000
0.709303 0.539388 0.330158
0.616933 0.500765 0.212902
0.555524 0.461560 0.192329
0.542520 0.437910 0.281469
0.574789 0.421938 0.479528
0.628615 0.381759 0.771884
0.659700 0.261473 1.000000
0.603170 0.000000 1.000000
0.373565 0.000000 1.000000
0.614277 0.566431 0.309124
0.554806 0.536210 0.182468
0.509885 0.504923 0.147970
0.497739 0.490751 0.214013
0.516016 0.487867 0.375154
0.541779 0.466429 0.612124
0.531512 0.372586 0.891828
0.421119 0.128474 1.000000
0.125922 0.000000 1.000000
0.528038 0.596532 0.284110
0.538202 0.600396 0.148218
0.543406 0.599782 0.096256
0.562657 0.614918 0.131962
0.594381 0.642023 0.245244
0.616422 0.653302 0.412189
0.586046 0.596949 0.595052
0.439936 0.397149 0.742264
0.094193 0.000000 0.788429
0.495788 0.642554 0.262800
0.622479 0.711343 0.118193
0.721602 0.769314 0.045589
0.812945 0.838744 0.044077
0.895713 0.917895 0.098920
0.948532 0.981022 0.181557
0.929447 0.978364 0.249597
0.775920 0.836151 0.246823
0.404835 0.456600 0.103194
0.561562 0.708961 0.253034
0.861829 0.878671 0.100593
1.000000 1.000000 0.004526
1.000000 1.000000 0.000000
1.000000 1.000000 0.000000
1.000000 1.000000 0.000000
1.000000 1.000000 0.000000
1.000000 1.000000 0.000000
1.000000 1.000000 0.000000
0.768227 0.791819 0.262806
1.000000 1.000000 0.103772
1.000000 1.000000 0.000000
1.000000 1.000000 0.000000
1.000000 1.000000 0.000000
1.000000 1.000000 0.000000
1.000000 1.000000 0.000000
1.000000 1.000000 0.000000
1.000000 1.000000 0.000000
0.683419 0.211051 0.237550
0.667218 0.309153 0.230462
0.693492 0.369428 0.333892
0.781913 0.403905 0.579745
0.931569 0.400603 0.986098
1.000000 0.323529 1.000000
1.000000 0.112679 1.000000
1.000000 0.000000 1.000000
1.000000 0.000000 1.000000
0.867916 0.415886 0.267542
0.823495 0.465125 0.240372
0.815196 0.486065 0.330465
0.863469 0.492784 0.565077
0.968185 0.475347 0.957640
1.000000 0.399808 1.000000
1.000000 0.208208 1.000000
1.000000 0.000000 1.000000
1.000000 0.000000 1.000000
0.918138 0.531859 0.278426
0.852338 0.543821 0.228164
0.813207 0.534088 0.298208
0.821976 0.518782 0.511168
0.879297 0.490016 0.875827
0.965239 0.415889 1.000000
1.000000 0.240491 1.000000
1.000000 0.000000 1.000000
0.886779 0.000000 1.000000
0.879797 0.595046 0.273824
0.809616 0.586476 0.197818
0.753553 0.559884 0.241461
0.733621 0.533443 0.422716
0.751249 0.501309 0.745718
0.787289 0.433631 1.000000
0.802009 0.276542 1.000000
0.735097 0.000000 1.000000
0.505662 0.000000 1.000000
0.797442 0.633126 0.257510
0.750035 0.625921 0.153470
0.701098 0.601444 0.164719
0.673421 0.579912 0.304575
0.669217 0.557529 0.572526
0.670115 0.506489 0.954235
0.637166 0.374973 1.000000
0.510836 0.087151 1.000000
0.211016 0.000000 1.000000
0.714454 0.665372 0.233419
0.727134 0.686588 0.099411
0.719536 0.688354 0.072633
0.715231 0.692932 0.161756
0.717211 0.698574 0.361621
0.707887 0.679519 0.653245
0.649088 0.585996 1.000000
0.482062 0.344220 1.000000
0.127479 0.000000 1.000000
0.673050 0.702660 0.205637
0.793286 0.784509 0.040089
0.871398 0.841801 0.000000
0.931738 0.898847 0.000000
0.978076 0.955944 0.118530
0.993605 0.989378 0.303692
0.940934 0.951423 0.517454
0.762091 0.770343 0.708532
0.378525 0.350388 0.811815
0.714279 0.747465 0.178409
0.999699 0.927314 0.000000
1.000000 1.000000 0.000000
1.000000 1.000000 0.000000
1.000000 1.000000 0.000000
1.000000 1.000000 0.000000
1.000000 1.000000 0.000000
1.000000 1.000000 0.000000
1.000000 1.000000 0.000000
0.878027 0.793861 0.156136
1.000000 1.000000 0.000000
1.000000 1.000000 0.000000
1.000000 1.000000 0.000000
1.000000 1.000000 0.000000
1.000000 1.000000 0.000000
1.000000 1.000000 0.000000
1.000000 1.000000 0.000000
1.000000 1.000000 0.000000
0.635452 0.074577 0.166465
0.712387 0.259600 0.313519
0.807501 0.382150 0.594858
0.945029 0.456289 1.000000
1.000000 0.472071 1.000000
1.000000 0.395536 1.000000
1.000000 0.168714 1.000000
1.000000 0.000000 1.000000
1.000000 0.000000 1.000000
0.866394 0.327372 0.190589
0.899425 0.449231 0.302534
0.945043 0.519378 0.555676
1.000000 0.553926 0.982204
1.000000 0.544972 1.000000
1.000000 0.460603 1.000000
1.000000 0.244897 1.000000
1.000000 0.000000 1.000000
1.000000 0.000000 1.000000
0.961062 0.486966 0.204593
0.957607 0.558619 0.276324
0.958049 0.586397 0.492462
0.988183 0.588457 0.880551
1.000000 0.558945 1.000000
1.000000 0.467994 1.000000
1.000000 0.261726 1.000000
1.000000 0.000000 1.000000
1.000000 0.000000 1.000000
0.962184 0.587446 0.208501
0.939819 0.627009 0.235272
0.909561 0.627605 0.405961
0.897987 0.609439 0.743463
0.911093 0.568703 1.000000
0.934296 0.477576 1.000000
0.932429 0.284227 1.000000
0.849747 0.000000 1.000000
0.609921 0.000000 1.000000
0.911324 0.654498 0.202495
0.897781 0.685242 0.179921
0.861458 0.679001 0.297073
0.829711 0.658027 0.572201
0.809317 0.620556 1.000000
0.786472 0.540815 1.000000
0.726792 0.369021 1.000000
0.575309 0.031376 1.000000
0.256477 0.000000 1.000000
0.848879 0.705409 0.186913
0.882048 0.755761 0.110966
0.874450 0.768184 0.166854
0.854223 0.766973 0.368180
0.828923 0.752414 0.714716
0.785527 0.700779 1.000000
0.690430 0.564331 1.000000
0.489445 0.271319 1.000000
0.107806 0.000000 1.000000
0.814080 0.749064 0.162249
0.942008 0.852608 0.029261
1.000000 0.914350 0.016517
1.000000 0.960633 0.132971
1.000000 0.993787 0.373750
1.000000 0.992133 0.720156
0.923518 0.909979 1.000000
0.702488 0.677621 1.000000
0.284399 0.201344 1.000000
0.844995 0.785949 0.129151
1.000000 0.981424 0.000000
1.000000 1.000000 0.000000
1.000000 1.000000 0.000000
1.000000 1.000000 0.000000
1.000000 1.000000 0.185918
1.000000 1.000000 0.422143
1.000000 1.000000 0.646589
0.905580 0.897892 0.794431
0.978522 0.808147 0.088425
1.000000 1.000000 0.000000
1.000000 1.000000 0.000000
1.000000 1.000000 0.000000
1.000000 1.000000 0.000000
1.000000 1.000000 0.000000
1.000000 1.000000 0.000000
1.000000 1.000000 0.000000
1.000000 1.000000 0.000000
0.288509 0.000000 0.102162
0.503349 0.023862 0.483352
0.706902 0.236336 1.000000
0.927970 0.374280 1.000000
1.000000 0.429781 1.000000
1.000000 0.370912 1.000000
1.000000 0.141737 1.000000
1.000000 0.000000 1.000000
1.000000 0.000000 1.000000
0.594330 0.046863 0.123322
0.745756 0.269350 0.451701
0.881064 0.413206 0.946515
1.000000 0.496575 1.000000
1.000000 0.513590 1.000000
1.000000 0.434371 1.000000
1.000000 0.205028 1.000000
1.000000 0.000000 1.000000
1.000000 0.000000 1.000000
0.760348 0.274005 0.145348
0.856354 0.430210 0.413717
0.928314 0.516852 0.851899
1.000000 0.554123 1.000000
1.000000 0.538202 1.000000
1.000000 0.441256 1.000000
1.000000 0.211441 1.000000
1.000000 0.000000 1.000000
1.000000 0.000000 1.000000
0.826305 0.434287 0.164673
0.885044 0.543695 0.366190
0.908709 0.589684 0.737200
0.928443 0.594490 1.000000
0.954807 0.556339 1.000000
0.977783 0.449444 1.000000
0.966769 0.224009 1.000000
0.870586 0.000000 1.000000
0.617472 0.000000 1.000000
0.830780 0.551404 0.177882
0.880563 0.638660 0.306068
0.881144 0.665711 0.599723
0.864449 0.656841 1.000000
0.841818 0.612322 1.000000
0.804013 0.508414 1.000000
0.721214 0.297365 1.000000
0.543021 0.000000 1.000000
0.198451 0.000000 1.000000
0.811187 0.640653 0.181718
0.890479 0.735556 0.230452
0.903346 0.770542 0.436931
0.882491 0.771941 0.819688
0.840037 0.742072 1.000000
0.767524 0.659241 1.000000
0.635914 0.477744 1.000000
0.395586 0.127864 1.000000
0.000000 0.000000 1.000000
0.803773 0.708931 0.173081
0.961198 0.846436 0.136600
1.000000 0.921385 0.246440
1.000000 0.962154 0.516487
1.000000 0.973109 0.946800
0.955349 0.934602 1.000000
0.808059 0.802976 1.000000
0.535629 0.510560 1.000000
0.068638 0.000000 1.000000
0.843618 0.754731 0.149023
1.000000 0.974950 0.021927
1.000000 1.000000 0.026025
1.000000 1.000000 0.170557
1.000000 1.000000 0.450937
1.000000 1.000000 0.848751
1.000000 1.000000 1.000000
1.000000 1.000000 1.000000
0.591689 0.631928 1.000000
0.964638 0.768150 0.106758
1.000000 1.000000 0.000000
1.000000 1.000000 0.000000
1.000000 1.000000 0.000000
1.000000 1.000000 0.000000
1.000000 1.000000 0.093457
1.000000 1.000000 0.340204
1.000000 1.000000 0.584018
1.000000 1.000000 0.760357
