public/luts/ilford_hp5_cc.cube
# Generated from ColorChecker fit
LUT_3D_SIZE 33
DOMAIN_MIN 0.0 0.0 0.0
DOMAIN_MAX 1.0 1.0 1.0
0.282701 1.000000 1.000000
0.263177 0.953295 1.000000
0.247266 0.863958 1.000000
0.234645 0.786549 1.000000
0.225003 0.719928 1.000000
0.218047 0.663018 1.000000
0.213501 0.614802 1.000000
0.211106 0.574326 1.000000
0.210617 0.540695 1.000000
0.211808 0.513076 1.000000
0.214469 0.490695 0.951667
0.218405 0.472842 0.909160
0.223440 0.458865 0.873014
0.229413 0.448176 0.842136
0.236179 0.440246 0.815563
0.243611 0.434607 0.792461
0.251597 0.430853 0.772120
0.260042 0.428638 0.753962
0.268869 0.427677 0.737533
0.278016 0.427747 0.722511
0.287437 0.428685 0.708698
0.297104 0.430389 0.696025
0.307004 0.432819 0.684553
0.317142 0.435995 0.674468
0.327539 0.439998 0.666086
0.338232 0.444970 0.659848
0.349275 0.451115 0.656326
0.360738 0.458696 0.656217
0.372708 0.468039 0.660349
0.385289 0.479530 0.669676
0.398600 0.493615 0.685279
0.412778 0.510804 0.708368
0.427976 0.531665 0.740281
0.263177 0.953295 1.000000
0.245515 0.857600 1.000000
0.231356 0.774622 1.000000
0.220379 0.703176 1.000000
0.212278 0.642139 1.000000
0.206765 0.590449 1.000000
0.203566 0.547104 1.000000
0.202427 0.511165 1.000000
0.203108 0.481753 0.946050
0.205387 0.458048 0.894001
0.209057 0.439295 0.850322
0.213928 0.424796 0.813699
0.219828 0.413917 0.782945
0.226599 0.406083 0.756999
0.234102 0.400781 0.734932
0.242213 0.397558 0.715938
0.250825 0.396024 0.699343
0.259846 0.395847 0.684598
0.269204 0.396758 0.671284
0.278840 0.398550 0.659107
0.288714 0.401074 0.647904
0.298800 0.404244 0.637638
0.309091 0.408035 0.628400
0.319595 0.412481 0.620409
0.330337 0.417681 0.614012
0.341359 0.423790 0.609684
0.352719 0.431027 0.608028
0.364490 0.439673 0.609773
0.376765 0.450066 0.615778
0.389650 0.462609 0.627030
0.403270 0.477764 0.644641
0.417765 0.496054 0.669855
0.433292 0.518064 0.704039
0.247266 0.863958 1.000000
0.231356 0.774622 1.000000
0.218841 0.697602 1.000000
0.209402 0.631730 1.000000
0.202739 0.575897 1.000000
0.198568 0.529057 1.000000
0.196619 0.490225 0.970481
0.196642 0.458474 0.904721
0.198400 0.432941 0.849746
0.201677 0.412823 0.804019
0.206269 0.397379 0.766128
0.211992 0.385927 0.734791
0.218675 0.377847 0.708852
0.226167 0.372579 0.687283
0.234331 0.369627 0.669186
0.243048 0.368553 0.653789
0.252215 0.368981 0.640448
0.261746 0.370595 0.628647
0.271570 0.373142 0.617997
0.281633 0.376428 0.608239
0.291900 0.380321 0.599239
0.302350 0.384751 0.590994
0.312978 0.389705 0.583626
0.323797 0.395237 0.577387
0.334836 0.401456 0.572655
0.346142 0.408536 0.569937
0.357775 0.416711 0.569867
0.369815 0.426275 0.573209
0.382357 0.437583 0.580851
0.395513 0.451053 0.593813
0.409409 0.467162 0.613240
0.424193 0.486449 0.640405
0.440023 0.509512 0.676711
0.234645 0.786549 1.000000
0.220379 0.703176 1.000000
0.209402 0.631730 1.000000
0.201400 0.571057 1.000000
0.196076 0.520065 1.000000
0.193150 0.477721 0.948150
0.192358 0.443056 0.877380
0.193451 0.415160 0.818455
0.196200 0.393183 0.769739
0.200390 0.376339 0.729725
0.205822 0.363900 0.697034
0.212315 0.355201 0.670417
0.219705 0.349637 0.648748
0.227843 0.346664 0.631033
0.236597 0.345800 0.616405
0.245852 0.346622 0.604123
0.255509 0.348769 0.593576
0.265485 0.351943 0.584280
0.275714 0.355903 0.575878
0.286148 0.360472 0.568142
0.296753 0.365533 0.560972
0.307513 0.371029 0.554394
0.318429 0.376967 0.548565
0.329517 0.383412 0.543767
0.340810 0.390491 0.540411
0.352357 0.398391 0.539035
0.364226 0.407362 0.540306
0.376499 0.417714 0.545018
0.389276 0.429818 0.554094
0.402671 0.444104 0.568583
0.416817 0.461067 0.589664
0.431864 0.481260 0.618642
0.447976 0.505298 0.656950
0.225003 0.719928 1.000000
0.212278 0.642139 1.000000
0.202739 0.575897 1.000000
0.196076 0.520065 1.000000
0.191997 0.473564 0.940727
0.190224 0.435378 0.863774
0.190498 0.404552 0.799808
0.192576 0.380191 0.747098
0.196231 0.361463 0.704042
0.201252 0.347594 0.669165
0.207446 0.337873 0.641119
0.214635 0.331649 0.618687
0.222659 0.328334 0.600776
0.231373 0.327398 0.586423
0.240649 0.328373 0.574793
0.250377 0.330854 0.565177
0.260461 0.334495 0.556997
0.270824 0.339010 0.549799
0.281402 0.344177 0.543260
0.292153 0.349832 0.537183
0.303045 0.355874 0.531500
0.314069 0.362263 0.526269
0.325226 0.369017 0.521679
0.336540 0.376220 0.518043
0.348046 0.384012 0.515805
0.359799 0.392597 0.515535
0.371870 0.402239 0.517932
0.384344 0.413264 0.523822
0.397325 0.426057 0.534159
0.410934 0.441066 0.550026
0.425307 0.458798 0.572631
0.440597 0.479823 0.603313
0.456972 0.504770 0.643537
0.218047 0.663018 1.000000
0.206765 0.590449 1.000000
0.198568 0.529057 1.000000
0.193150 0.477721 0.948150
0.190224 0.435378 0.863774
0.189517 0.401026 0.793614
0.190773 0.373726 0.735842
0.193752 0.352598 0.688760
0.198233 0.336825 0.650798
0.204009 0.325648 0.620512
0.210891 0.318372 0.596588
0.218704 0.314361 0.577839
0.227293 0.313042 0.563205
0.236517 0.313900 0.551754
0.246252 0.316484 0.542684
0.256392 0.320402 0.535318
0.266846 0.325324 0.529108
0.277540 0.330980 0.523635
0.288416 0.337161 0.518605
0.299433 0.343722 0.513855
0.310567 0.350574 0.509348
0.321809 0.357693 0.505175
0.333168 0.365114 0.501555
0.344669 0.372933 0.498836
0.356353 0.381308 0.497491
0.368278 0.390458 0.498123
0.380519 0.400661 0.501463
0.393167 0.412259 0.508370
0.406330 0.425652 0.519828
0.420131 0.441303 0.536953
0.434710 0.459735 0.560985
0.450226 0.481532 0.593295
0.466852 0.507340 0.635380
0.213501 0.614802 1.000000
0.203566 0.547104 1.000000
0.196619 0.490225 0.970481
0.192358 0.443056 0.877380
0.190498 0.404552 0.799808
0.190773 0.373726 0.735842
0.192929 0.349654 0.683687
0.196732 0.331470 0.641678
0.201964 0.318374 0.608276
0.208422 0.309622 0.582069
0.215920 0.304533 0.561775
0.224290 0.302488 0.546238
0.233379 0.302928 0.534432
0.243051 0.305354 0.525456
0.253187 0.309329 0.518539
0.263683 0.314477 0.513037
0.274454 0.320483 0.508435
0.285428 0.327093 0.504343
0.296553 0.334114 0.500502
0.307792 0.341414 0.496779
0.319124 0.348920 0.493170
0.330545 0.356624 0.489797
0.342067 0.364576 0.486912
0.353721 0.372887 0.484894
0.365552 0.381730 0.484249
0.377620 0.391339 0.485612
0.390007 0.402008 0.489745
0.402805 0.414094 0.497538
0.416128 0.428012 0.510010
0.430103 0.444241 0.528306
0.444875 0.463318 0.553700
0.460604 0.485844 0.587593
0.477470 0.512479 0.631516
0.211106 0.574326 1.000000
0.202427 0.511165 1.000000
0.196642 0.458474 0.904721
0.193451 0.415160 0.818455
0.192576 0.380191 0.747098
0.193752 0.352598 0.688760
0.196732 0.331470 0.641678
0.201285 0.315959 0.604218
0.207195 0.305277 0.574873
0.214266 0.298698 0.552264
0.222316 0.295554 0.535140
0.231180 0.295243 0.522378
0.240709 0.297219 0.512982
0.250771 0.301001 0.506086
0.261252 0.306166 0.500948
0.272052 0.312353 0.496957
0.283090 0.319262 0.493630
0.294298 0.326656 0.490610
0.305628 0.334355 0.487668
0.317047 0.342242 0.484704
0.328538 0.350263 0.481746
0.340103 0.358421 0.478949
0.351756 0.366783 0.476595
0.363533 0.375475 0.475095
0.375482 0.384686 0.474988
0.387670 0.394665 0.476941
0.400179 0.405721 0.481748
0.413109 0.418225 0.490331
0.426575 0.432609 0.503740
0.440711 0.449367 0.523152
0.455663 0.469051 0.549875
0.471599 0.492277 0.585340
0.488700 0.519720 0.631110
0.210617 0.540695 1.000000
0.203108 0.481753 0.946050
0.198400 0.432941 0.849746
0.196200 0.393183 0.769739
0.196231 0.361463 0.704042
0.198233 0.336825 0.650798
0.201964 0.318374 0.608276
0.207195 0.305277 0.574873
0.213718 0.296763 0.549115
0.221337 0.292118 0.529655
0.229876 0.290693 0.515274
0.239174 0.291898 0.504880
0.249087 0.295205 0.497510
0.259487 0.300146 0.492328
0.270262 0.306314 0.488627
0.281318 0.313364 0.485826
0.292576 0.321011 0.483474
0.303976 0.329031 0.481247
0.315471 0.337262 0.478947
0.327033 0.345603 0.476507
0.338650 0.354011 0.473986
0.350326 0.362509 0.471570
0.362082 0.371176 0.469575
0.373956 0.380155 0.468443
0.386000 0.389649 0.468746
0.398286 0.399923 0.471181
0.410900 0.411301 0.476574
0.423946 0.424170 0.485881
0.437544 0.438976 0.500183
0.451830 0.456228 0.520689
0.466957 0.476495 0.548738
0.483095 0.500407 0.585795
0.500429 0.528655 0.633453
0.211808 0.513076 1.000000
0.205387 0.458048 0.894001
0.201677 0.412823 0.804019
0.200390 0.376339 0.729725
0.201252 0.347594 0.669165
0.204009 0.325648 0.620512
0.208422 0.309622 0.582069
0.214266 0.298698 0.552264
0.221337 0.292118 0.529655
0.229445 0.289186 0.512927
0.238415 0.289268 0.500893
0.248093 0.291788 0.492492
0.258337 0.296234 0.486795
0.269024 0.302152 0.482996
0.280047 0.309153 0.480421
0.291314 0.316905 0.478522
0.302753 0.325138 0.476877
0.314306 0.333645 0.475196
0.325930 0.342278 0.473313
0.337603 0.350951 0.471192
0.349315 0.359638 0.468925
0.361075 0.368375 0.466729
0.372909 0.377257 0.464953
0.384857 0.386443 0.464071
0.396978 0.396151 0.464685
0.409345 0.406661 0.467526
0.422051 0.418312 0.473452
0.435203 0.431506 0.483449
0.448924 0.446705 0.498632
0.463355 0.464434 0.520241
0.478654 0.485275 0.549647
0.494993 0.509875 0.588347
0.512563 0.538939 0.637966
0.214469 0.490695 0.951667
0.209057 0.439295 0.850322
0.206269 0.397379 0.766128
0.205822 0.363900 0.697034
0.207446 0.337873 0.641119
0.210891 0.318372 0.596588
0.215920 0.304533 0.561775
0.222316 0.295554 0.535140
0.229876 0.290693 0.515274
0.238415 0.289268 0.500893
0.247764 0.290659 0.490841
0.257770 0.294308 0.484092
0.268298 0.299717 0.479746
0.279227 0.306447 0.477031
0.290454 0.314124 0.475303
0.301894 0.322432 0.474047
0.313476 0.331117 0.472875
0.325147 0.339985 0.471525
0.336870 0.348905 0.469866
0.348624 0.357805 0.467892
0.360405 0.366675 0.465728
0.372226 0.375566 0.463624
0.384117 0.384590 0.461958
0.396122 0.393918 0.461238
0.408303 0.403786 0.462099
0.420741 0.414487 0.465301
0.433528 0.426377 0.471737
0.446778 0.439873 0.482423
0.460619 0.455452 0.498506
0.475194 0.473653 0.521259
0.490665 0.495075 0.552085
0.507211 0.520380 0.592511
0.525025 0.550288 0.644196
0.218405 0.472842 0.909160
0.213928 0.424796 0.813699
0.211992 0.385927 0.734791
0.212315 0.355201 0.670417
0.214635 0.331649 0.618687
0.218704 0.314361 0.577839
0.224290 0.302488 0.546238
0.231180 0.295243 0.522378
0.239174 0.291898 0.504880
0.248093 0.291788 0.492492
0.257770 0.294308 0.484092
0.268058 0.298915 0.478683
0.278825 0.305125 0.475399
0.289955 0.312517 0.473500
0.301349 0.320729 0.472374
0.312925 0.329463 0.471536
0.324618 0.338478 0.470631
0.336377 0.347598 0.469430
0.348170 0.356704 0.467833
0.359980 0.365742 0.465867
0.371809 0.374716 0.463687
0.383672 0.383692 0.461577
0.395603 0.392797 0.459946
0.407651 0.402219 0.459334
0.419883 0.412207 0.460407
0.432381 0.423071 0.463959
0.445246 0.435182 0.470913
0.458591 0.448971 0.482319
0.472551 0.464931 0.499354
0.487273 0.483617 0.523324
0.502923 0.505642 0.555663
0.519683 0.531683 0.597932
0.537751 0.562477 0.651820
0.223440 0.458865 0.873014
0.219828 0.413917 0.782945
0.218675 0.377847 0.708852
0.219705 0.349637 0.648748
0.222659 0.328334 0.600776
0.227293 0.313042 0.563205
0.233379 0.302928 0.534432
0.240709 0.297219 0.512982
0.249087 0.295205 0.497510
0.258337 0.296234 0.486795
0.268298 0.299717 0.479746
0.278825 0.305125 0.475399
0.289791 0.311991 0.472920
0.301085 0.319908 0.471601
0.312611 0.328531 0.470861
0.324292 0.337575 0.470248
0.336066 0.346816 0.469439
0.347887 0.356092 0.468237
0.359727 0.365301 0.466572
0.371574 0.374402 0.464506
0.383432 0.383415 0.462224
0.395322 0.392422 0.460041
0.407280 0.401564 0.458401
0.419362 0.411046 0.457873
0.431638 0.421131 0.459157
0.444193 0.432144 0.463079
0.457133 0.444471 0.470593
0.470576 0.458560 0.482780
0.484659 0.474919 0.500851
0.499535 0.494116 0.526143
0.515373 0.516782 0.560122
0.532360 0.543608 0.604381
0.550697 0.575345 0.660641
0.229413 0.448176 0.842136
0.226599 0.406083 0.756999
0.226167 0.372579 0.687283
0.227843 0.346664 0.631033
0.231373 0.327398 0.586423
0.236517 0.313900 0.551754
0.243051 0.305354 0.525456
0.250771 0.301001 0.506086
0.259487 0.300146 0.492328
0.269024 0.302152 0.482996
0.279227 0.306447 0.477031
0.289955 0.312517 0.473500
0.301085 0.319908 0.471601
0.312509 0.328231 0.470657
0.324138 0.337154 0.470121
0.335896 0.346409 0.469572
0.347726 0.355786 0.468719
0.359588 0.365138 0.467396
0.371456 0.374379 0.465567
0.383322 0.383484 0.463323
0.395196 0.392487 0.460884
0.407101 0.401486 0.458596
0.419080 0.410637 0.456934
0.431190 0.420160 0.456501
0.443506 0.430333 0.458026
0.456119 0.441497 0.462369
0.469136 0.454053 0.470515
0.482682 0.468464 0.483579
0.496897 0.485253 0.502801
0.511938 0.505004 0.529552
0.527978 0.528363 0.565329
0.545208 0.556035 0.611758
0.563835 0.588789 0.670591
0.236179 0.440246 0.815563
0.234102 0.400781 0.734932
0.234331 0.369627 0.669186
0.236597 0.345800 0.616405
0.240649 0.328373 0.574793
0.246252 0.316484 0.542684
0.253187 0.309329 0.518539
0.261252 0.306166 0.500948
0.270262 0.306314 0.488627
0.280047 0.309153 0.480421
0.290454 0.314124 0.475303
0.301349 0.320729 0.472374
0.312611 0.328531 0.470861
0.324138 0.337154 0.470121
0.335842 0.346283 0.469638
0.347654 0.355663 0.469023
0.359520 0.365102 0.468017
0.371404 0.374466 0.466487
0.383285 0.383686 0.464428
0.395159 0.392750 0.461964
0.407039 0.401709 0.459344
0.418953 0.410676 0.456949
0.430948 0.419822 0.455286
0.443085 0.429382 0.454987
0.455443 0.439651 0.456817
0.468117 0.450982 0.461664
0.481220 0.463795 0.470548
0.494878 0.478565 0.484614
0.509237 0.495831 0.505136
0.524458 0.516194 0.533514
0.540718 0.540313 0.571280
0.558213 0.568911 0.620090
0.577151 0.602768 0.681728
0.243611 0.434607 0.792461
0.242213 0.397558 0.715938
0.243048 0.368553 0.653789
0.245852 0.346622 0.604123
0.250377 0.330854 0.565177
0.256392 0.320402 0.535318
0.263683 0.314477 0.513037
0.272052 0.312353 0.496957
0.281318 0.313364 0.485826
0.291314 0.316905 0.478522
0.301894 0.322432 0.474047
0.312925 0.329463 0.471536
0.324292 0.337575 0.470248
0.335896 0.346409 0.469572
0.347654 0.355663 0.469023
0.359501 0.365099 0.468246
0.371387 0.374540 0.467011
0.383279 0.383868 0.465219
0.395162 0.393026 0.462896
0.407035 0.402021 0.460199
0.418916 0.410919 0.457409
0.430836 0.419845 0.454937
0.442847 0.428988 0.453323
0.455014 0.438597 0.453233
0.467420 0.448983 0.455460
0.480164 0.460514 0.460928
0.493362 0.473625 0.470687
0.507147 0.488807 0.485913
0.521666 0.506614 0.507913
0.537087 0.527661 0.538121
0.553589 0.552623 0.578097
0.571372 0.582239 0.629531
0.590651 0.617304 0.694240
0.251597 0.430853 0.772120
0.250825 0.396024 0.699343
0.252215 0.368981 0.640448
0.255509 0.348769 0.593576
0.260461 0.334495 0.556997
0.266846 0.325324 0.529108
0.274454 0.320483 0.508435
0.283090 0.319262 0.493630
0.292576 0.321011 0.483474
0.302753 0.325138 0.476877
0.313476 0.331117 0.472875
0.324618 0.338478 0.470631
0.336066 0.346816 0.469439
0.347726 0.355786 0.468719
0.359520 0.365102 0.468017
0.371387 0.374540 0.467011
0.383280 0.383938 0.465504
0.395172 0.393195 0.463427
0.407050 0.402270 0.460839
0.418918 0.411182 0.457928
0.430798 0.420013 0.455008
0.442726 0.428906 0.452522
0.454757 0.438063 0.451042
0.466960 0.447748 0.451264
0.479424 0.458288 0.454017
0.492250 0.470067 0.460253
0.505560 0.483533 0.471054
0.519488 0.499194 0.487632
0.534190 0.517620 0.511322
0.549833 0.539439 0.543591
0.566604 0.565344 0.586032
0.584705 0.596085 0.640366
0.604355 0.632477 0.708442
0.260042 0.428638 0.753962
0.259846 0.395847 0.684598
0.261746 0.370595 0.628647
0.265485 0.351943 0.584280
0.270824 0.339010 0.549799
0.277540 0.330980 0.523635
0.285428 0.327093 0.504343
0.294298 0.326656 0.490610
0.303976 0.329031 0.481247
0.314306 0.333645 0.475196
0.325147 0.339985 0.471525
0.336377 0.347598 0.469430
0.347887 0.356092 0.468237
0.359588 0.365138 0.467396
0.371404 0.374466 0.466487
0.383279 0.383868 0.465219
0.395172 0.393195 0.463427
0.407058 0.402363 0.461074
0.418928 0.411344 0.458251
0.430791 0.420175 0.455178
0.442673 0.428953 0.452202
0.454615 0.437833 0.449796
0.466674 0.447036 0.448565
0.478925 0.456841 0.449237
0.491460 0.467587 0.452672
0.504385 0.479676 0.459856
0.517825 0.493571 0.471902
0.531920 0.509794 0.490052
0.546828 0.528931 0.515676
0.562721 0.551626 0.550271
0.579791 0.578586 0.595463
0.598243 0.610577 0.653004
0.618301 0.648429 0.724776
0.268869 0.427677 0.737533
0.269204 0.396758 0.671284
0.271570 0.373142 0.617997
0.275714 0.355903 0.575878
0.281402 0.344177 0.543260
0.288416 0.337161 0.518605
0.296553 0.334114 0.500502
0.305628 0.334355 0.487668
0.315471 0.337262 0.478947
0.325930 0.342278 0.473313
0.336870 0.348905 0.469866
0.348170 0.356704 0.467833
0.359727 0.365301 0.466572
0.371456 0.374379 0.465567
0.383285 0.383686 0.464428
0.395162 0.393026 0.462896
0.407050 0.402270 0.460839
0.418928 0.411344 0.458251
0.430792 0.420239 0.455256
0.442655 0.429006 0.452105
0.454546 0.437757 0.449177
0.466510 0.446663 0.446978
0.478610 0.455959 0.446143
0.490925 0.465940 0.447434
0.503548 0.476961 0.451742
0.516593 0.489438 0.460085
0.530187 0.503849 0.473608
0.544475 0.520733 0.493585
0.559618 0.540690 0.521418
0.575793 0.564379 0.558637
0.593196 0.592523 0.606897
0.612036 0.625903 0.667985
0.632542 0.665363 0.743814
0.278016 0.427747 0.722511
0.278840 0.398550 0.659107
0.281633 0.376428 0.608239
0.286148 0.360472 0.568142
0.292153 0.349832 0.537183
0.299433 0.343722 0.513855
0.307792 0.341414 0.496779
0.317047 0.342242 0.484704
0.327033 0.345603 0.476507
0.337603 0.350951 0.471192
0.348624 0.357805 0.467892
0.359980 0.365742 0.465867
0.371574 0.374402 0.464506
0.383322 0.383484 0.463323
0.395159 0.392750 0.461964
0.407035 0.402021 0.460199
0.418918 0.411182 0.457928
0.430791 0.420175 0.455178
0.442655 0.429006 0.452105
0.454526 0.437741 0.448992
0.466437 0.446507 0.446249
0.478438 0.455492 0.444414
0.490595 0.464944 0.444156
0.502992 0.475173 0.446267
0.515727 0.486551 0.451670
0.528916 0.499510 0.461415
0.542691 0.514541 0.476680
0.557202 0.532199 0.498770
0.572614 0.553099 0.529120
0.589107 0.577916 0.569290
0.606882 0.607388 0.620969
0.626151 0.642311 0.685975
0.647148 0.683545 0.766253
0.287437 0.428685 0.708698
0.288714 0.401074 0.647904
0.291900 0.380321 0.599239
0.296753 0.365533 0.560972
0.303045 0.355874 0.531500
0.310567 0.350574 0.509348
0.319124 0.348920 0.493170
0.328538 0.350263 0.481746
0.338650 0.354011 0.473986
0.349315 0.359638 0.468925
0.360405 0.366675 0.465728
0.371809 0.374716 0.463688
0.383432 0.383415 0.462224
0.395196 0.392487 0.460884
0.407039 0.401709 0.459344
0.418916 0.410919 0.457409
0.430798 0.420013 0.455008
0.442673 0.428953 0.452202
0.454546 0.437757 0.449177
0.466437 0.446507 0.446249
0.478383 0.455346 0.443859
0.490439 0.464476 0.442580
0.502675 0.474162 0.443109
0.515177 0.484729 0.446273
0.528049 0.496562 0.453025
0.541412 0.510110 0.464448
0.555401 0.525880 0.481752
0.570169 0.544441 0.506274
0.585886 0.566423 0.539479
0.602737 0.592517 0.582961
0.620926 0.623476 0.638441
0.640671 0.660111 0.707769
0.662208 0.703298 0.792920
0.297104 0.430389 0.696025
0.298800 0.404244 0.637638
0.302350 0.384751 0.590994
0.307513 0.371029 0.554394
0.314069 0.362263 0.526269
0.321809 0.357693 0.505175
0.330545 0.356624 0.489797
0.340103 0.358421 0.478949
0.350326 0.362509 0.471570
0.361075 0.368375 0.466729
0.372226 0.375566 0.463624
0.383672 0.383692 0.461577
0.395322 0.392422 0.460041
0.407101 0.401486 0.458596
0.418953 0.410676 0.456949
0.430836 0.419845 0.454937
0.442726 0.428906 0.452522
0.454615 0.437833 0.449796
0.466510 0.446663 0.446978
0.478438 0.455492 0.444414
0.490439 0.464476 0.442580
0.502572 0.473835 0.442078
0.514910 0.483848 0.443638
0.527546 0.494855 0.448119
0.540586 0.507258 0.456507
0.554155 0.521519 0.469915
0.568393 0.538161 0.489586
0.583457 0.557768 0.516889
0.599521 0.580987 0.553322
0.616774 0.608522 0.600509
0.635425 0.641142 0.660204
0.655694 0.679675 0.734288
0.677823 0.725009 0.824769
0.307004 0.432819 0.684553
0.309091 0.408035 0.628400
0.312978 0.389705 0.583626
0.318429 0.376967 0.548565
0.325226 0.369017 0.521679
0.333168 0.365114 0.501555
0.342067 0.364576 0.486912
0.351756 0.366783 0.476595
0.362082 0.371176 0.469575
0.372909 0.377257 0.464953
0.384117 0.384590 0.461958
0.395603 0.392797 0.459946
0.407280 0.401564 0.458401
0.419080 0.410637 0.456934
0.430948 0.419823 0.455286
0.442847 0.428988 0.453323
0.454757 0.438063 0.451042
0.466674 0.447036 0.448565
0.478610 0.455959 0.446143
0.490595 0.464944 0.444156
0.502675 0.474162 0.443109
0.514910 0.483848 0.443638
0.527381 0.494296 0.446505
0.540182 0.505862 0.452600
0.553424 0.518963 0.462941
0.567237 0.534076 0.478674
0.581764 0.551739 0.501073
0.597166 0.572552 0.531539
0.613623 0.597177 0.571602
0.631326 0.626333 0.622919
0.650489 0.660804 0.687274
0.671337 0.701433 0.766582
0.694114 0.749125 0.862882
0.317142 0.435995 0.674468
0.319595 0.412481 0.620409
0.323797 0.395237 0.577387
0.329517 0.383412 0.543767
0.336540 0.376220 0.518043
0.344669 0.372933 0.498836
0.353721 0.372887 0.484894
0.363533 0.375475 0.475095
0.373956 0.380155 0.468443
0.384857 0.386443 0.464071
0.396122 0.393918 0.461238
0.407651 0.402219 0.459334
0.419362 0.411046 0.457873
0.431190 0.420160 0.456501
0.443085 0.429382 0.454987
0.455014 0.438597 0.453233
0.466960 0.447748 0.451264
0.478925 0.456841 0.449237
0.490925 0.465940 0.447435
0.502992 0.475173 0.446267
0.515177 0.484729 0.446273
0.527546 0.494855 0.448119
0.540182 0.505862 0.452600
0.553183 0.518121 0.460638
0.566667 0.532063 0.473282
0.580764 0.548182 0.491712
0.595624 0.567031 0.517231
0.611412 0.589225 0.551274
0.628311 0.615439 0.595403
0.646517 0.646411 0.651305
0.666247 0.682939 0.720799
0.687731 0.725880 0.805830
0.711218 0.776154 0.908469
0.327539 0.439998 0.666086
0.330337 0.417681 0.614012
0.334836 0.401456 0.572655
0.340810 0.390491 0.540411
0.348046 0.384012 0.515805
0.356353 0.381309 0.497491
0.365552 0.381730 0.484249
0.375482 0.384686 0.474988
0.386000 0.389649 0.468746
0.396978 0.396151 0.464685
0.408303 0.403786 0.462099
0.419883 0.412207 0.460407
0.431638 0.421131 0.459157
0.443506 0.430333 0.458026
0.455443 0.439651 0.456817
0.467420 0.448983 0.455460
0.479424 0.458288 0.454017
0.491460 0.467587 0.452672
0.503548 0.476961 0.451743
0.515727 0.486551 0.451670
0.528049 0.496562 0.453025
0.540586 0.507258 0.456507
0.553424 0.518963 0.462941
0.566667 0.532063 0.473282
0.580434 0.547007 0.488612
0.594861 0.564301 0.510141
0.610103 0.584515 0.539205
0.626328 0.608279 0.577271
0.643722 0.636283 0.625933
0.662487 0.669281 0.686910
0.682844 0.708085 0.762052
0.705026 0.753568 0.853336
0.729287 0.806666 0.962867
0.338232 0.444970 0.659848
0.341359 0.423790 0.609684
0.346142 0.408536 0.569937
0.352357 0.398391 0.539035
0.359799 0.392597 0.515535
0.368278 0.390458 0.498123
0.377620 0.391339 0.485612
0.387670 0.394665 0.476941
0.398286 0.399923 0.471181
0.409345 0.406661 0.467526
0.420741 0.414487 0.465301
0.432381 0.423071 0.463959
0.444193 0.432144 0.463079
0.456119 0.441497 0.462369
0.468117 0.450982 0.461664
0.480164 0.460514 0.460928
0.492250 0.470067 0.460253
0.504385 0.479676 0.459856
0.516593 0.489438 0.460085
0.528916 0.499510 0.461415
0.541412 0.510110 0.464448
0.554155 0.521519 0.469915
0.567237 0.534076 0.478674
0.580764 0.548182 0.491712
0.594861 0.564301 0.510141
0.609669 0.582955 0.535204
0.625345 0.604729 0.568270
0.642061 0.630268 0.610837
0.660009 0.660278 0.664530
0.679394 0.695526 0.731102
0.700440 0.736841 0.812434
0.723387 0.785112 0.910536
0.748490 0.841289 1.000000
0.349275 0.451115 0.656326
0.352719 0.431027 0.608028
0.357775 0.416711 0.569867
0.364226 0.407362 0.540306
0.371870 0.402240 0.517932
0.380519 0.400661 0.501463
0.390007 0.402008 0.489745
0.400179 0.405721 0.481748
0.410900 0.411301 0.476574
0.422051 0.418312 0.473452
0.433528 0.426377 0.471737
0.445246 0.435182 0.470913
0.457133 0.444471 0.470593
0.469136 0.454053 0.470515
0.481220 0.463795 0.470548
0.493362 0.473625 0.470687
0.505560 0.483533 0.471054
0.517825 0.493571 0.471902
0.530187 0.503849 0.473608
0.542691 0.514541 0.476680
0.555401 0.525880 0.481752
0.568393 0.538161 0.489586
0.581764 0.551739 0.501073
0.595624 0.567031 0.517231
0.610103 0.584515 0.539205
0.625345 0.604729 0.568270
0.641510 0.628273 0.605826
