public/luts/ilford_hp5_cc.cube
# Generated from ColorChecker fit
LUT_3D_SIZE 5
DOMAIN_MIN 0.0 0.0 0.0
DOMAIN_MAX 1.0 1.0 1.0
0.282701 1.000000 1.000000
0.210617 0.540695 1.000000
0.251597 0.430853 0.772120
0.327539 0.439998 0.666086
0.427976 0.531665 0.740281
0.210617 0.540695 1.000000
0.213718 0.296763 0.549115
0.292576 0.321011 0.483474
0.386000 0.389649 0.468746
0.500429 0.528655 0.633453
0.251597 0.430853 0.772120
0.292576 0.321011 0.483474
0.383280 0.383938 0.465504
0.479424 0.458288 0.454017
0.604355 0.632477 0.708442
0.327539 0.439998 0.666086
0.386000 0.389649 0.468746
0.479424 0.458288 0.454017
0.580434 0.547007 0.488612
0.729287 0.806666 0.962867
0.427976 0.531665 0.740281
0.500429 0.528655 0.633453
0.604355 0.632477 0.708442
0.729287 0.806666 0.962867
0.932389 1.000000 1.000000
0.210617 0.540695 1.000000
0.213718 0.296763 0.549115
0.292576 0.321011 0.483474
0.386000 0.389649 0.468746
0.500429 0.528655 0.633453
0.213718 0.296763 0.549116
0.270532 0.245032 0.369954
0.371435 0.345259 0.417833
0.472141 0.436093 0.428561
0.595999 0.605952 0.661565
0.292576 0.321011 0.483474
0.371435 0.345259 0.417833
0.473984 0.446866 0.447533
0.572847 0.526926 0.439288
0.708281 0.736299 0.783431
0.386000 0.389649 0.468746
0.472141 0.436093 0.428561
0.572847 0.526926 0.439288
0.677650 0.625686 0.498546
0.843716 0.945671 1.000000
0.500429 0.528655 0.633453
0.595999 0.605952 0.661565
0.708281 0.736299 0.783431
0.843716 0.945671 1.000000
1.000000 1.000000 1.000000
0.251597 0.430853 0.772120
0.292576 0.321011 0.483474
0.383280 0.383938 0.465504
0.479424 0.458288 0.454017
0.604355 0.632477 0.708442
0.292576 0.321011 0.483474
0.371435 0.345259 0.417833
0.473984 0.446866 0.447533
0.572847 0.526926 0.439288
0.708281 0.736299 0.783431
0.383280 0.383938 0.465504
0.473984 0.446866 0.447533
0.573617 0.533371 0.436840
0.671711 0.606987 0.431042
0.825430 0.881015 0.951380
0.479424 0.458288 0.454017
0.572847 0.526926 0.439288
0.671711 0.606987 0.431042
0.782453 0.724445 0.557804
0.979150 1.000000 1.000000
0.604355 0.632477 0.708442
0.708281 0.736299 0.783431
0.825430 0.881015 0.951380
0.979150 1.000000 1.000000
1.000000 1.000000 1.000000
0.327539 0.439998 0.666086
0.386000 0.389649 0.468746
0.479424 0.458288 0.454017
0.580434 0.547007 0.488612
0.729287 0.806666 0.962867
0.386000 0.389649 0.468746
0.472141 0.436093 0.428561
0.572847 0.526926 0.439288
0.677650 0.625686 0.498546
0.843716 0.945671 1.000000
0.479424 0.458288 0.454017
0.572847 0.526926 0.439288
0.671711 0.606987 0.431042
0.782453 0.724445 0.557804
0.979150 1.000000 1.000000
0.580434 0.547007 0.488612
0.677650 0.625686 0.498546
0.782453 0.724445 0.557804
0.918191 0.931702 0.925816
1.000000 1.000000 1.000000
0.729287 0.806666 0.962867
0.843716 0.945671 1.000000
0.979150 1.000000 1.000000
1.000000 1.000000 1.000000
1.000000 1.000000 1.000000
0.427976 0.531665 0.740281
0.500429 0.528655 0.633453
0.604355 0.632477 0.708442
0.729287 0.806666 0.962867
0.932389 1.000000 1.000000
0.500429 0.528655 0.633453
0.595999 0.605952 0.661565
0.708281 0.736299 0.783431
0.843716 0.945671 1.000000
1.000000 1.000000 1.000000
0.604355 0.632477 0.708442
0.708281 0.736299 0.783431
0.825430 0.881015 0.951380
0.979150 1.000000 1.000000
1.000000 1.000000 1.000000
0.729287 0.806666 0.962867
0.843716 0.945671 1.000000
0.979150 1.000000 1.000000
1.000000 1.000000 1.000000
1.000000 1.000000 1.000000
0.932389 1.000000 1.000000
1.000000 1.000000 1.000000
1.000000 1.000000 1.000000
1.000000 1.000000 1.000000
1.000000 1.000000 1.000000
