public/luts/ilford_hp5_cc.cube
# Generated from ColorChecker fit
LUT_3D_SIZE 9
DOMAIN_MIN 0.0 0.0 0.0
DOMAIN_MAX 1.0 1.0 1.0
0.282701 1.000000 1.000000
0.225003 0.719928 1.000000
0.210617 0.540695 1.000000
0.223440 0.458865 0.873014
0.251597 0.430853 0.772120
0.287437 0.428685 0.708698
0.327539 0.439998 0.666086
0.372708 0.468039 0.660349
0.427976 0.531665 0.740281
0.225003 0.719928 1.000000
0.191997 0.473564 0.940727
0.196231 0.361463 0.704042
0.222659 0.328334 0.600776
0.260461 0.334495 0.556997
0.303045 0.355874 0.531500
0.348046 0.384012 0.515805
0.397325 0.426057 0.534159
0.456972 0.504770 0.643537
0.210617 0.540695 1.000000
0.196231 0.361463 0.704042
0.213718 0.296763 0.549115
0.249087 0.295205 0.497510
0.292576 0.321011 0.483474
0.338650 0.354011 0.473986
0.386000 0.389649 0.468746
0.437544 0.438976 0.500183
0.500429 0.528655 0.633453
0.223440 0.458865 0.873014
0.222659 0.328334 0.600776
0.249087 0.295205 0.497510
0.289791 0.311991 0.472920
0.336066 0.346816 0.469439
0.383432 0.383415 0.462224
0.431638 0.421131 0.459157
0.484659 0.474919 0.500851
0.550697 0.575345 0.660641
0.251597 0.430853 0.772120
0.260461 0.334495 0.556997
0.292576 0.321011 0.483474
0.336066 0.346816 0.469439
0.383280 0.383938 0.465504
0.430798 0.420013 0.455008
0.479424 0.458288 0.454017
0.534190 0.517620 0.511322
0.604355 0.632477 0.708442
0.287437 0.428685 0.708698
0.303045 0.355874 0.531500
0.338650 0.354011 0.473986
0.383432 0.383415 0.462224
0.430798 0.420013 0.455008
0.478383 0.455346 0.443859
0.528049 0.496562 0.453025
0.585886 0.566423 0.539479
0.662208 0.703298 0.792920
0.327539 0.439998 0.666086
0.348046 0.384012 0.515805
0.386000 0.389649 0.468746
0.431638 0.421131 0.459157
0.479424 0.458288 0.454017
0.528049 0.496562 0.453025
0.580434 0.547007 0.488612
0.643722 0.636283 0.625933
0.729287 0.806666 0.962867
0.372708 0.468039 0.660349
0.397325 0.426057 0.534159
0.437544 0.438976 0.500183
0.484659 0.474919 0.500851
0.534190 0.517620 0.511322
0.585886 0.566423 0.539479
0.643722 0.636283 0.625933
0.715901 0.757767 0.844019
0.814852 0.977048 1.000000
0.427976 0.531665 0.740281
0.456972 0.504770 0.643537
0.500429 0.528655 0.633453
0.550697 0.575345 0.660641
0.604355 0.632477 0.708442
0.662208 0.703298 0.792920
0.729287 0.806666 0.962867
0.814852 0.977048 1.000000
0.932389 1.000000 1.000000
0.225003 0.719928 1.000000
0.191997 0.473564 0.940727
0.196231 0.361463 0.704042
0.222659 0.328334 0.600776
0.260461 0.334495 0.556997
0.303045 0.355874 0.531500
0.348046 0.384012 0.515805
0.397325 0.426057 0.534159
0.456972 0.504770 0.643537
0.191997 0.473564 0.940727
0.180471 0.304847 0.604507
0.200465 0.249362 0.467357
0.237990 0.255719 0.430800
0.283283 0.288138 0.429087
0.330808 0.326452 0.429193
0.379256 0.366102 0.430820
0.431547 0.418139 0.466398
0.494826 0.509228 0.601081
0.196231 0.361463 0.704042
0.200465 0.249362 0.467357
0.231204 0.232062 0.394189
0.275515 0.262076 0.394244
0.324691 0.307527 0.409952
0.374255 0.352149 0.416472
0.423954 0.395286 0.421686
0.477763 0.451895 0.466206
0.543886 0.552539 0.623369
0.222659 0.328334 0.600776
0.237990 0.255719 0.430800
0.275515 0.262076 0.394244
0.323357 0.303820 0.408993
0.373868 0.352977 0.425660
0.423625 0.397185 0.427585
0.473433 0.439690 0.430834
0.528325 0.499350 0.484197
0.597560 0.610632 0.669194
0.260461 0.334495 0.556997
0.283283 0.288138 0.429087
0.324691 0.307527 0.409952
0.373868 0.352977 0.425660
0.424220 0.400420 0.435006
0.473382 0.441393 0.429511
0.523216 0.483046 0.433421
0.579811 0.548141 0.503709
0.653483 0.675046 0.730077
0.303045 0.355874 0.531500
0.330808 0.326452 0.429193
0.374255 0.352149 0.416472
0.423625 0.397185 0.427585
0.473382 0.441393 0.429511
0.522218 0.480214 0.421949
0.573050 0.524700 0.437330
0.633026 0.601514 0.540809
0.713516 0.752930 0.830266
0.348046 0.384012 0.515805
0.379256 0.366102 0.430820
0.423954 0.395286 0.421686
0.473433 0.439690 0.430834
0.523216 0.483046 0.433421
0.573050 0.524700 0.437330
0.626911 0.579606 0.483174
0.693001 0.678329 0.644287
0.783750 0.867045 1.000000
0.397325 0.426057 0.534159
0.431547 0.418140 0.466398
0.477763 0.451895 0.466206
0.528325 0.499350 0.484197
0.579811 0.548141 0.503709
0.633026 0.601514 0.540809
0.693001 0.678329 0.644287
0.768996 0.813051 0.895663
0.874498 1.000000 1.000000
0.456972 0.504770 0.643537
0.494826 0.509228 0.601081
0.543886 0.552539 0.623369
0.597560 0.610632 0.669194
0.653483 0.675046 0.730077
0.713516 0.752930 0.830266
0.783750 0.867045 1.000000
0.874498 1.000000 1.000000
1.000000 1.000000 1.000000
0.210617 0.540695 1.000000
0.196231 0.361463 0.704042
0.213718 0.296763 0.549115
0.249087 0.295205 0.497510
0.292576 0.321011 0.483474
0.338650 0.354011 0.473986
0.386000 0.389649 0.468746
0.437544 0.438976 0.500183
0.500429 0.528655 0.633453
0.196231 0.361463 0.704042
0.200465 0.249362 0.467357
0.231204 0.232062 0.394189
0.275515 0.262076 0.394244
0.324691 0.307527 0.409952
0.374255 0.352149 0.416472
0.423954 0.395286 0.421686
0.477763 0.451895 0.466206
0.543886 0.552539 0.623369
0.213718 0.296763 0.549116
0.231204 0.232062 0.394189
0.270532 0.245032 0.369954
0.319826 0.292089 0.394298
0.371435 0.345259 0.417833
0.421939 0.392177 0.423899
0.472141 0.436093 0.428561
0.527075 0.495861 0.480610
0.595999 0.605952 0.661565
0.249087 0.295205 0.497510
0.275515 0.262076 0.394244
0.319826 0.292089 0.394298
0.371200 0.345564 0.423742
0.423044 0.398428 0.441369
0.472995 0.442222 0.438699
0.522913 0.484094 0.439981
0.578887 0.546805 0.502188
0.651234 0.668725 0.715019
0.292576 0.321011 0.483474
0.324691 0.307527 0.409952
0.371435 0.345259 0.417833
0.423044 0.398428 0.441369
0.473984 0.446866 0.447533
0.522946 0.486015 0.436030
0.572847 0.526926 0.439288
0.630835 0.596263 0.522461
0.708281 0.736299 0.783431
0.338650 0.354011 0.473986
0.374255 0.352149 0.416472
0.421939 0.392177 0.423899
0.472995 0.442222 0.438699
0.522946 0.486015 0.436030
0.571539 0.522902 0.423775
0.622749 0.567838 0.442545
0.684780 0.651388 0.565676
0.770060 0.819727 0.899231
0.386000 0.389649 0.468746
0.423954 0.395286 0.421686
0.472141 0.436093 0.428561
0.522913 0.484094 0.439981
0.572847 0.526926 0.439288
0.622749 0.567838 0.442545
0.677650 0.625686 0.498546
0.746810 0.734937 0.688807
0.843716 0.945671 1.000000
0.437544 0.438976 0.500183
0.477763 0.451895 0.466206
0.527075 0.495862 0.480610
0.578887 0.546805 0.502188
0.630835 0.596263 0.522461
0.684780 0.651388 0.565676
0.746810 0.734937 0.688807
0.827243 0.885283 0.981554
0.940621 1.000000 1.000000
0.500429 0.528655 0.633453
0.543886 0.552539 0.623369
0.595999 0.605952 0.661565
0.651234 0.668725 0.715019
0.708281 0.736299 0.783431
0.770060 0.819727 0.899231
0.843716 0.945671 1.000000
0.940621 1.000000 1.000000
1.000000 1.000000 1.000000
0.223440 0.458865 0.873014
0.222659 0.328334 0.600776
0.249087 0.295205 0.497510
0.289791 0.311991 0.472920
0.336066 0.346816 0.469439
0.383432 0.383415 0.462224
0.431638 0.421131 0.459157
0.484659 0.474919 0.500851
0.550697 0.575345 0.660641
0.222659 0.328334 0.600776
0.237990 0.255719 0.430800
0.275515 0.262076 0.394244
0.323357 0.303820 0.408993
0.373868 0.352977 0.425660
0.423625 0.397185 0.427585
0.473433 0.439690 0.430834
0.528325 0.499350 0.484197
0.597560 0.610632 0.669194
0.249087 0.295205 0.497510
0.275515 0.262076 0.394244
0.319826 0.292089 0.394298
0.371200 0.345564 0.423742
0.423044 0.398428 0.441369
0.472995 0.442222 0.438699
0.522913 0.484094 0.439981
0.578887 0.546805 0.502188
0.651234 0.668725 0.715019
0.289791 0.311991 0.472920
0.323357 0.303820 0.408993
0.371200 0.345564 0.423742
0.423555 0.401444 0.451417
0.474889 0.451293 0.458995
0.523893 0.490550 0.446178
0.573484 0.530270 0.445394
0.630809 0.597115 0.521799
0.707241 0.733357 0.773274
0.336066 0.346816 0.469439
0.373868 0.352977 0.425660
0.423044 0.398428 0.441369
0.474889 0.451293 0.458995
0.524924 0.495304 0.453698
0.572896 0.529808 0.433361
0.622782 0.569759 0.438594
0.682783 0.645722 0.542734
0.765329 0.803873 0.851844
0.383432 0.383415 0.462224
0.423625 0.397185 0.427585
0.472995 0.442222 0.438699
0.523893 0.490550 0.446178
0.572896 0.529808 0.433361
0.620810 0.563242 0.416313
0.672667 0.609710 0.443827
0.737726 0.703679 0.597421
0.829473 0.895228 0.991338
0.431638 0.421131 0.459157
0.473433 0.439690 0.430834
0.522913 0.484094 0.439981
0.573484 0.530270 0.445394
0.622782 0.569759 0.438594
0.672667 0.609710 0.443827
0.729230 0.672883 0.518067
0.802785 0.797648 0.751014
0.907876 1.000000 1.000000
0.484659 0.474919 0.500851
0.528325 0.499350 0.484197
0.578887 0.546805 0.502188
0.630809 0.597115 0.521799
0.682783 0.645722 0.542734
0.737726 0.703679 0.597421
0.802785 0.797648 0.751014
0.889332 0.969902 1.000000
1.000000 1.000000 1.000000
0.550697 0.575345 0.660641
0.597560 0.610632 0.669194
0.651234 0.668725 0.715019
0.707241 0.733357 0.773274
0.765329 0.803873 0.851844
0.829473 0.895228 0.991338
0.907876 1.000000 1.000000
1.000000 1.000000 1.000000
1.000000 1.000000 1.000000
0.251597 0.430853 0.772120
0.260461 0.334495 0.556997
0.292576 0.321011 0.483474
0.336066 0.346816 0.469439
0.383280 0.383938 0.465504
0.430798 0.420013 0.455008
0.479424 0.458288 0.454017
0.534190 0.517620 0.511322
0.604355 0.632477 0.708442
0.260461 0.334495 0.556997
0.283283 0.288138 0.429087
0.324691 0.307527 0.409952
0.373868 0.352977 0.425660
0.424220 0.400420 0.435006
0.473382 0.441393 0.429511
0.523216 0.483046 0.433421
0.579811 0.548141 0.503709
0.653483 0.675046 0.730077
0.292576 0.321011 0.483474
0.324691 0.307527 0.409952
0.371435 0.345259 0.417833
0.423044 0.398428 0.441369
0.473984 0.446866 0.447533
0.522946 0.486015 0.436030
0.572847 0.526926 0.439288
0.630835 0.596263 0.522461
0.708281 0.736299 0.783431
0.336066 0.346816 0.469439
0.373868 0.352977 0.425660
0.423044 0.398428 0.441369
0.474889 0.451293 0.458995
0.524924 0.495304 0.453698
0.572896 0.529808 0.433361
0.622782 0.569759 0.438594
0.682783 0.645722 0.542734
0.765329 0.803873 0.851844
0.383280 0.383938 0.465504
0.424220 0.400420 0.435006
0.473984 0.446866 0.447533
0.524924 0.495304 0.453698
0.573617 0.533371 0.436840
0.620868 0.564312 0.413024
0.671711 0.606987 0.431042
0.735402 0.695861 0.572413
0.825430 0.881015 0.951380
0.430798 0.420013 0.455008
0.473382 0.441393 0.429511
0.522946 0.486015 0.436030
0.572896 0.529808 0.433361
0.620868 0.564312 0.413024
0.668724 0.596676 0.399266
0.722553 0.649661 0.449060
0.792669 0.761636 0.652107
0.893617 0.986583 1.000000
0.479424 0.458288 0.454017
0.523216 0.483046 0.433421
0.572847 0.526926 0.439288
0.622782 0.569759 0.438594
0.671711 0.606987 0.431042
0.722553 0.649661 0.449060
0.782453 0.724445 0.557804
0.862786 0.873611 0.855154
0.979150 1.000000 1.000000
0.534190 0.517620 0.511322
0.579811 0.548141 0.503709
0.630835 0.596263 0.522461
0.682783 0.645722 0.542734
0.735402 0.695861 0.572413
0.792669 0.761636 0.652107
0.862786 0.873611 0.855154
0.958182 1.000000 1.000000
1.000000 1.000000 1.000000
0.604355 0.632477 0.708442
0.653483 0.675046 0.730077
0.708281 0.736299 0.783431
0.765329 0.803873 0.851844
0.825430 0.881015 0.951380
0.893617 0.986583 1.000000
0.979150 1.000000 1.000000
1.000000 1.000000 1.000000
1.000000 1.000000 1.000000
0.287437 0.428685 0.708698
0.303045 0.355874 0.531500
0.338650 0.354011 0.473986
0.383432 0.383415 0.462224
0.430798 0.420013 0.455008
0.478383 0.455346 0.443859
0.528049 0.496562 0.453025
0.585886 0.566423 0.539479
0.662208 0.703298 0.792920
0.303045 0.355874 0.531500
0.330808 0.326452 0.429193
0.374255 0.352149 0.416472
0.423625 0.397185 0.427585
0.473382 0.441393 0.429511
0.522218 0.480214 0.421949
0.573050 0.524700 0.437330
0.633026 0.601514 0.540809
0.713516 0.752930 0.830266
0.338650 0.354011 0.473986
0.374255 0.352149 0.416472
0.421939 0.392177 0.423899
0.472995 0.442222 0.438699
0.522946 0.486015 0.436030
0.571539 0.522902 0.423775
0.622749 0.567838 0.442545
0.684780 0.651388 0.565676
0.770060 0.819727 0.899231
0.383432 0.383415 0.462224
0.423625 0.397185 0.427585
0.472995 0.442222 0.438699
0.523893 0.490550 0.446178
0.572896 0.529808 0.433361
0.620810 0.563242 0.416313
0.672667 0.609710 0.443827
0.737726 0.703679 0.597421
0.829473 0.895228 0.991338
0.430798 0.420013 0.455008
0.473382 0.441393 0.429511
0.522946 0.486015 0.436030
0.572896 0.529808 0.433361
0.620868 0.564312 0.413024
0.668724 0.596676 0.399266
0.722553 0.649661 0.449060
0.792669 0.761636 0.652107
0.893617 0.986583 1.000000
0.478383 0.455346 0.443859
0.522218 0.480214 0.421949
0.571539 0.522902 0.423775
0.620810 0.563242 0.416313
0.668724 0.596676 0.399266
0.718199 0.634256 0.405061
0.776381 0.702645 0.498855
0.854642 0.844116 0.778528
0.968582 1.000000 1.000000
0.528049 0.496562 0.453025
0.573050 0.524700 0.437330
0.622749 0.567838 0.442545
0.672667 0.609710 0.443827
0.722553 0.649661 0.449060
0.776381 0.702645 0.498855
0.842354 0.799228 0.666547
0.932903 0.985586 1.000000
1.000000 1.000000 1.000000
0.585886 0.566423 0.539479
0.633026 0.601514 0.540809
0.684780 0.651388 0.565676
0.737726 0.703679 0.597421
0.792669 0.761636 0.652107
0.854642 0.844116 0.778528
0.932903 0.985586 1.000000
1.000000 1.000000 1.000000
1.000000 1.000000 1.000000
0.662208 0.703298 0.792920
0.713516 0.752930 0.830266
0.770060 0.819727 0.899232
0.829473 0.895228 0.991338
0.893617 0.986583 1.000000
0.968582 1.000000 1.000000
1.000000 1.000000 1.000000
1.000000 1.000000 1.000000
1.000000 1.000000 1.000000
0.327539 0.439998 0.666086
0.348046 0.384012 0.515805
0.386000 0.389649 0.468746
0.431638 0.421131 0.459157
0.479424 0.458288 0.454017
0.528049 0.496562 0.453025
0.580434 0.547007 0.488612
0.643722 0.636283 0.625933
0.729287 0.806666 0.962867
0.348046 0.384012 0.515805
0.379256 0.366102 0.430820
0.423954 0.395286 0.421686
0.473433 0.439690 0.430834
0.523216 0.483046 0.433421
0.573050 0.524700 0.437330
0.626911 0.579606 0.483174
0.693001 0.678329 0.644287
0.783750 0.867045 1.000000
0.386000 0.389649 0.468746
0.423954 0.395286 0.421686
0.472141 0.436093 0.428561
0.522913 0.484094 0.439981
0.572847 0.526926 0.439288
0.622749 0.567838 0.442545
0.677650 0.625686 0.498546
0.746810 0.734937 0.688807
0.843716 0.945671 1.000000
0.431638 0.421131 0.459157
0.473433 0.439690 0.430834
0.522913 0.484094 0.439981
0.573484 0.530270 0.445394
0.622782 0.569759 0.438594
0.672667 0.609710 0.443827
0.729230 0.672883 0.518067
0.802785 0.797648 0.751014
0.907876 1.000000 1.000000
0.479424 0.458288 0.454017
0.523216 0.483046 0.433421
0.572847 0.526926 0.439288
0.622782 0.569759 0.438594
0.671711 0.606987 0.431042
0.722553 0.649661 0.449060
0.782453 0.724445 0.557804
0.862786 0.873611 0.855154
0.979150 1.000000 1.000000
0.528049 0.496562 0.453025
0.573050 0.524700 0.437330
0.622749 0.567838 0.442545
0.672667 0.609710 0.443827
0.722553 0.649661 0.449060
0.776381 0.702645 0.498855
0.842354 0.799228 0.666547
0.932903 0.985586 1.000000
1.000000 1.000000 1.000000
0.580434 0.547007 0.488612
0.626911 0.579606 0.483174
0.677650 0.625686 0.498546
0.729230 0.672883 0.518067
0.782453 0.724445 0.557804
0.842354 0.799228 0.666547
0.918191 0.931702 0.925816
1.000000 1.000000 1.000000
1.000000 1.000000 1.000000
0.643722 0.636284 0.625933
0.693001 0.678329 0.644287
0.746810 0.734937 0.688807
0.802785 0.797648 0.751014
0.862786 0.873611 0.855154
0.932903 0.985586 1.000000
1.000000 1.000000 1.000000
1.000000 1.000000 1.000000
1.000000 1.000000 1.000000
0.729287 0.806666 0.962867
0.783750 0.867045 1.000000
0.843716 0.945671 1.000000
0.907876 1.000000 1.000000
0.979150 1.000000 1.000000
1.000000 1.000000 1.000000
1.000000 1.000000 1.000000
1.000000 1.000000 1.000000
1.000000 1.000000 1.000000
0.372708 0.468039 0.660349
0.397325 0.426057 0.534159
0.437544 0.438976 0.500183
0.484659 0.474919 0.500851
0.534190 0.517620 0.511322
0.585886 0.566423 0.539479
0.643722 0.636284 0.625933
0.715901 0.757767 0.844019
0.814852 0.977048 1.000000
0.397325 0.426057 0.534159
0.431547 0.418140 0.466398
0.477763 0.451895 0.466206
0.528325 0.499350 0.484197
0.579811 0.548141 0.503709
0.633026 0.601514 0.540809
0.693001 0.678329 0.644287
0.768996 0.813051 0.895663
0.874498 1.000000 1.000000
0.437544 0.438976 0.500183
0.477763 0.451895 0.466206
0.527075 0.495862 0.480610
0.578887 0.546805 0.502188
0.630835 0.596263 0.522461
0.684780 0.651388 0.565676
0.746810 0.734937 0.688807
0.827243 0.885283 0.981554
0.940621 1.000000 1.000000
0.484659 0.474919 0.500851
0.528325 0.499350 0.484197
0.578887 0.546805 0.502188
0.630809 0.597115 0.521799
0.682783 0.645722 0.542734
0.737726 0.703679 0.597421
0.802785 0.797648 0.751014
0.889332 0.969902 1.000000
1.000000 1.000000 1.000000
0.534190 0.517620 0.511322
0.579811 0.548141 0.503709
0.630835 0.596263 0.522461
0.682783 0.645722 0.542734
0.735402 0.695861 0.572413
0.792669 0.761636 0.652107
0.862786 0.873611 0.855154
0.958182 1.000000 1.000000
1.000000 1.000000 1.000000
0.585886 0.566423 0.539479
0.633026 0.601514 0.540809
0.684780 0.651388 0.565676
0.737726 0.703679 0.597421
0.792669 0.761636 0.652107
0.854642 0.844116 0.778528
0.932903 0.985586 1.000000
1.000000 1.000000 1.000000
1.000000 1.000000 1.000000
0.643722 0.636284 0.625933
0.693001 0.678329 0.644287
0.746810 0.734937 0.688807
0.802785 0.797648 0.751014
0.862786 0.873611 0.855154
0.932903 0.985586 1.000000
1.000000 1.000000 1.000000
1.000000 1.000000 1.000000
1.000000 1.000000 1.000000
0.715901 0.757767 0.844019
0.768996 0.813052 0.895663
0.827243 0.885283 0.981554
0.889332 0.969902 1.000000
0.958182 1.000000 1.000000
1.000000 1.000000 1.000000
1.000000 1.000000 1.000000
1.000000 1.000000 1.000000
1.000000 1.000000 1.000000
0.814852 0.977048 1.000000
0.874498 1.000000 1.000000
0.940621 1.000000 1.000000
1.000000 1.000000 1.000000
1.000000 1.000000 1.000000
1.000000 1.000000 1.000000
1.000000 1.000000 1.000000
1.000000 1.000000 1.000000
1.000000 1.000000 1.000000
0.427976 0.531665 0.740281
0.456972 0.504770 0.643537
0.500429 0.528655 0.633453
0.550697 0.575345 0.660641
0.604355 0.632477 0.708442
0.662208 0.703298 0.792920
0.729287 0.806666 0.962867
0.814852 0.977048 1.000000
0.932389 1.000000 1.000000
0.456972 0.504770 0.643537
0.494826 0.509228 0.601081
0.543886 0.552539 0.623369
0.597560 0.610632 0.669194
0.653483 0.675046 0.730077
0.713516 0.752930 0.830266
0.783750 0.867045 1.000000
0.874498 1.000000 1.000000
1.000000 1.000000 1.000000
0.500429 0.528655 0.633453
0.543886 0.552539 0.623369
0.595999 0.605952 0.661565
0.651234 0.668725 0.715019
0.708281 0.736299 0.783431
0.770060 0.819727 0.899232
0.843716 0.945671 1.000000
0.940621 1.000000 1.000000
1.000000 1.000000 1.000000
0.550697 0.575345 0.660641
0.597560 0.610632 0.669194
0.651234 0.668725 0.715019
0.707241 0.733357 0.773274
0.765329 0.803873 0.851844
0.829473 0.895228 0.991338
0.907876 1.000000 1.000000
1.000000 1.000000 1.000000
1.000000 1.000000 1.000000
0.604355 0.632477 0.708442
0.653483 0.675046 0.730077
0.708281 0.736299 0.783431
0.765329 0.803873 0.851844
0.825430 0.881015 0.951380
0.893617 0.986583 1.000000
0.979150 1.000000 1.000000
1.000000 1.000000 1.000000
1.000000 1.000000 1.000000
0.662208 0.703298 0.792920
0.713516 0.752930 0.830266
0.770060 0.819727 0.899232
0.829473 0.895228 0.991338
0.893617 0.986583 1.000000
0.968582 1.000000 1.000000
1.000000 1.000000 1.000000
1.000000 1.000000 1.000000
1.000000 1.000000 1.000000
0.729287 0.806666 0.962867
0.783750 0.867045 1.000000
0.843716 0.945671 1.000000
0.907876 1.000000 1.000000
0.979150 1.000000 1.000000
1.000000 1.000000 1.000000
1.000000 1.000000 1.000000
1.000000 1.000000 1.000000
1.000000 1.000000 1.000000
0.814852 0.977048 1.000000
0.874498 1.000000 1.000000
0.940621 1.000000 1.000000
1.000000 1.000000 1.000000
1.000000 1.000000 1.000000
1.000000 1.000000 1.000000
1.000000 1.000000 1.000000
1.000000 1.000000 1.000000
1.000000 1.000000 1.000000
0.932389 1.000000 1.000000
1.000000 1.000000 1.000000
1.000000 1.000000 1.000000
1.000000 1.000000 1.000000
1.000000 1.000000 1.000000
1.000000 1.000000 1.000000
1.000000 1.000000 1.000000
1.000000 1.000000 1.000000
1.000000 1.000000 1.000000
