public/luts/kodachrome_v3.cube
# Generated from ColorChecker fit
LUT_3D_SIZE 33
DOMAIN_MIN 0.0 0.0 0.0
DOMAIN_MAX 1.0 1.0 1.0
0.074048 0.000000 0.016812
0.000000 0.000000 0.000000
0.000000 0.000000 0.000000
0.000000 0.000000 0.000000
0.000000 0.000000 0.000000
0.000000 0.000000 0.000000
0.000000 0.000000 0.000000
0.000000 0.000000 0.000000
0.000000 0.000000 0.000000
0.000000 0.000000 0.000000
0.000000 0.000000 0.000000
0.000000 0.000000 0.000000
0.000000 0.000000 0.000000
0.000000 0.000000 0.000000
0.000000 0.000000 0.000000
0.000000 0.000000 0.000000
0.000000 0.000000 0.000000
0.000000 0.000000 0.000000
0.000000 0.000000 0.000000
0.000000 0.000000 0.000000
0.000000 0.000000 0.000000
0.000000 0.000000 0.000000
0.000000 0.000000 0.000000
0.000000 0.000000 0.000000
0.000000 0.000000 0.000000
0.000000 0.000000 0.000000
0.000000 0.000000 0.000000
0.000000 0.000000 0.000000
0.000000 0.000000 0.000000
0.000000 0.000000 0.000000
0.000000 0.000000 0.000000
0.000000 0.000000 0.000000
0.000000 0.000000 0.000000
0.095039 0.000000 0.128641
0.012392 0.000000 0.062221
0.000000 0.000000 0.002859
0.000000 0.000000 0.000000
0.000000 0.000000 0.000000
0.000000 0.000000 0.000000
0.000000 0.000000 0.000000
0.000000 0.000000 0.000000
0.000000 0.000000 0.000000
0.000000 0.000000 0.000000
0.000000 0.000000 0.000000
0.000000 0.000000 0.000000
0.000000 0.000000 0.000000
0.000000 0.000000 0.000000
0.000000 0.000000 0.000000
0.000000 0.000000 0.000000
0.000000 0.000000 0.000000
0.000000 0.000000 0.000000
0.000000 0.000000 0.000000
0.000000 0.000000 0.000000
0.000000 0.000000 0.000000
0.000000 0.000000 0.000000
0.000000 0.000000 0.000000
0.000000 0.000000 0.000000
0.000000 0.000000 0.000000
0.000000 0.000000 0.000000
0.000000 0.000000 0.000000
0.000000 0.000000 0.000000
0.000000 0.000000 0.000000
0.000000 0.000000 0.000000
0.000000 0.000000 0.000000
0.000000 0.000000 0.000000
0.000000 0.000000 0.000000
0.107770 0.000000 0.218358
0.031192 0.000000 0.165044
0.000000 0.000000 0.118671
0.000000 0.000000 0.078517
0.000000 0.000000 0.043859
0.000000 0.000000 0.013972
0.000000 0.000000 0.000000
0.000000 0.000000 0.000000
0.000000 0.000000 0.000000
0.000000 0.000000 0.000000
0.000000 0.000000 0.000000
0.000000 0.000000 0.000000
0.000000 0.000000 0.000000
0.000000 0.000000 0.000000
0.000000 0.000000 0.000000
0.000000 0.000000 0.000000
0.000000 0.000000 0.000000
0.000000 0.000000 0.000000
0.000000 0.000000 0.000000
0.000000 0.000000 0.000000
0.000000 0.000000 0.000000
0.000000 0.000000 0.000000
0.000000 0.000000 0.000000
0.000000 0.000000 0.000000
0.000000 0.000000 0.000000
0.000000 0.000000 0.000000
0.000000 0.000000 0.000000
0.000000 0.000000 0.000000
0.000000 0.000000 0.000000
0.000000 0.000000 0.000000
0.000000 0.000000 0.000000
0.000000 0.000000 0.000000
0.000000 0.000000 0.000000
0.113143 0.017526 0.287176
0.042684 0.000000 0.246279
0.000000 0.000000 0.212179
0.000000 0.000000 0.184112
0.000000 0.000000 0.161311
0.000000 0.000000 0.143010
0.000000 0.000000 0.128441
0.000000 0.000000 0.116833
0.000000 0.000000 0.107416
0.000000 0.000000 0.099419
0.000000 0.000000 0.092068
0.000000 0.000000 0.084589
0.000000 0.000000 0.076206
0.000000 0.000000 0.066144
0.000000 0.000000 0.053624
0.000000 0.000000 0.037867
0.000000 0.000000 0.018093
0.000000 0.000000 0.000000
0.000000 0.000000 0.000000
0.000000 0.000000 0.000000
0.000000 0.000000 0.000000
0.000000 0.000000 0.000000
0.000000 0.000000 0.000000
0.000000 0.000000 0.000000
0.000000 0.000000 0.000000
0.000000 0.000000 0.000000
0.000000 0.000000 0.000000
0.000000 0.000000 0.000000
0.000000 0.000000 0.000000
0.000000 0.000000 0.000000
0.000000 0.000000 0.000000
0.000000 0.000000 0.000000
0.000000 0.000000 0.000000
0.112205 0.033759 0.336764
0.047878 0.000000 0.307545
0.000000 0.000000 0.284956
0.000000 0.000000 0.268188
0.000000 0.000000 0.256432
0.000000 0.000000 0.248878
0.000000 0.000000 0.244716
0.000000 0.000000 0.243134
0.000000 0.000000 0.243317
0.000000 0.000000 0.244451
0.000000 0.000000 0.245720
0.000000 0.000000 0.246307
0.000000 0.000000 0.245395
0.000000 0.000000 0.242163
0.000000 0.000000 0.235792
0.000000 0.000000 0.225459
0.000000 0.000000 0.210341
0.000000 0.000000 0.189614
0.000000 0.000000 0.162454
0.000000 0.000000 0.128033
0.000000 0.000000 0.085524
0.000000 0.000000 0.034098
0.000000 0.000000 0.000000
0.000000 0.000000 0.000000
0.000000 0.000000 0.000000
0.000000 0.000000 0.000000
0.000000 0.000000 0.000000
0.000000 0.000000 0.000000
0.000000 0.000000 0.000000
0.000000 0.000000 0.000000
0.000000 0.000000 0.000000
0.000000 0.000000 0.000000
0.000000 0.000362 0.000000
0.106145 0.048205 0.369236
0.047929 0.020872 0.350914
0.000000 0.000000 0.339026
0.000000 0.000000 0.332722
0.000000 0.000000 0.331152
0.000000 0.000000 0.333461
0.000000 0.000000 0.338796
0.000000 0.000000 0.346303
0.000000 0.000000 0.355125
0.000000 0.000000 0.364404
0.000000 0.000000 0.373282
0.000000 0.000000 0.380899
0.000000 0.000000 0.386395
0.000000 0.000000 0.388907
0.000000 0.000000 0.387571
0.000000 0.000000 0.381524
0.000000 0.000000 0.369899
0.000000 0.000000 0.351830
0.000000 0.000000 0.326448
0.000000 0.000000 0.292885
0.000000 0.000000 0.250269
0.000000 0.000000 0.197729
0.000000 0.000000 0.134393
0.000000 0.000000 0.059386
0.000000 0.000000 0.000000
0.000000 0.000000 0.000000
0.000000 0.000000 0.000000
0.000000 0.000000 0.000000
0.000000 0.000000 0.000000
0.000000 0.000000 0.000000
0.000000 0.000000 0.000000
0.000000 0.000000 0.000000
0.000000 0.066296 0.000000
0.096295 0.061180 0.387164
0.044136 0.041591 0.378907
0.000000 0.020724 0.376865
0.000000 0.000000 0.380145
0.000000 0.000000 0.387853
0.000000 0.000000 0.399094
0.000000 0.000000 0.412970
0.000000 0.000000 0.428584
0.000000 0.000000 0.445037
0.000000 0.000000 0.461429
0.000000 0.000000 0.476858
0.000000 0.000000 0.490422
0.000000 0.000000 0.501217
0.000000 0.000000 0.508338
0.000000 0.000000 0.510880
0.000000 0.000000 0.507934
0.000000 0.000000 0.498592
0.000000 0.000000 0.481945
0.000000 0.000000 0.457082
0.000000 0.000000 0.423090
0.000000 0.000000 0.379057
0.000000 0.000000 0.324067
0.000000 0.000000 0.257206
0.000000 0.000000 0.177557
0.000000 0.000000 0.084201
0.000000 0.000000 0.000000
0.000000 0.000000 0.000000
0.000000 0.000000 0.000000
0.000000 0.000000 0.000000
0.000000 0.000000 0.000000
0.000000 0.000000 0.000000
0.000000 0.000000 0.000000
0.000000 0.112538 0.000000
0.084131 0.072920 0.393566
0.037940 0.061324 0.394498
0.000000 0.048463 0.401400
0.000000 0.033507 0.413336
0.000000 0.015772 0.429371
0.000000 0.000000 0.448564
0.000000 0.000000 0.469978
0.000000 0.000000 0.492671
0.000000 0.000000 0.515701
0.000000 0.000000 0.538127
0.000000 0.000000 0.559002
0.000000 0.000000 0.577383
0.000000 0.000000 0.592323
0.000000 0.000000 0.602873
0.000000 0.000000 0.608086
0.000000 0.000000 0.607010
0.000000 0.000000 0.598695
0.000000 0.000000 0.582189
0.000000 0.000000 0.556537
0.000000 0.000000 0.520785
0.000000 0.000000 0.473976
0.000000 0.000000 0.415154
0.000000 0.000000 0.343361
0.000000 0.000000 0.257636
0.000000 0.000000 0.157019
0.000000 0.000000 0.040547
0.000000 0.000000 0.000000
0.000000 0.000000 0.000000
0.000000 0.000000 0.000000
0.000000 0.000000 0.000000
0.000000 0.000000 0.000000
0.000000 0.000000 0.000000
0.000000 0.138333 0.000000
0.071271 0.083583 0.391914
0.030926 0.080198 0.401111
0.000000 0.075507 0.416009
0.000000 0.068629 0.435628
0.000000 0.058829 0.458989
0.000000 0.045517 0.485111
0.000000 0.028244 0.513013
0.000000 0.006708 0.541709
0.000000 0.000000 0.570217
0.000000 0.000000 0.597550
0.000000 0.000000 0.622721
0.000000 0.000000 0.644743
0.000000 0.000000 0.662625
0.000000 0.000000 0.675378
0.000000 0.000000 0.682009
0.000000 0.000000 0.681526
0.000000 0.000000 0.672935
0.000000 0.000000 0.655241
0.000000 0.000000 0.627447
0.000000 0.000000 0.588556
0.000000 0.000000 0.537568
0.000000 0.000000 0.473485
0.000000 0.000000 0.395304
0.000000 0.000000 0.302023
0.000000 0.000000 0.192639
0.000000 0.000000 0.066147
0.000000 0.000000 0.000000
0.000000 0.000000 0.000000
0.000000 0.000000 0.000000
0.000000 0.000000 0.000000
0.000000 0.000000 0.000000
0.000000 0.000000 0.000000
0.000000 0.142851 0.000000
0.059478 0.093251 0.386131
0.024822 0.098265 0.402623
0.000000 0.101875 0.424521
0.000000 0.103153 0.450802
0.000000 0.101312 0.480445
0.000000 0.095711 0.512425
0.000000 0.085854 0.545718
0.000000 0.071386 0.579296
0.000000 0.052098 0.612134
0.000000 0.027926 0.643203
0.000000 0.000000 0.671472
0.000000 0.000000 0.695911
0.000000 0.000000 0.715488
0.000000 0.000000 0.729169
0.000000 0.000000 0.735921
0.000000 0.000000 0.734707
0.000000 0.000000 0.724491
0.000000 0.000000 0.704234
0.000000 0.000000 0.672898
0.000000 0.000000 0.629442
0.000000 0.000000 0.572825
0.000000 0.000000 0.502004
0.000000 0.000000 0.415934
0.000000 0.000000 0.313571
0.000000 0.000000 0.193869
0.000000 0.000000 0.055779
0.000000 0.000000 0.000000
0.000000 0.000000 0.000000
0.000000 0.000000 0.000000
0.000000 0.000000 0.000000
0.000000 0.000000 0.000000
0.000000 0.000000 0.000000
0.000000 0.125183 0.000000
0.050657 0.101927 0.380590
0.021499 0.115496 0.403361
0.000000 0.127509 0.431218
0.000000 0.136989 0.463095
0.000000 0.143098 0.497926
0.000000 0.145147 0.534646
0.000000 0.142587 0.572187
0.000000 0.135015 0.609480
0.000000 0.122172 0.645455
0.000000 0.103941 0.679040
0.000000 0.080353 0.709163
0.000000 0.051578 0.734750
0.000000 0.017934 0.754727
0.000000 0.000000 0.768017
0.000000 0.000000 0.773544
0.000000 0.000000 0.770228
0.000000 0.000000 0.756990
0.000000 0.000000 0.732750
0.000000 0.000000 0.696426
0.000000 0.000000 0.646934
0.000000 0.000000 0.583190
0.000000 0.000000 0.504108
0.000000 0.000000 0.408602
0.000000 0.000000 0.295584
0.000000 0.000000 0.163965
0.000000 0.000000 0.012654
0.000000 0.000000 0.000000
0.000000 0.000000 0.000000
0.000000 0.000000 0.000000
0.000000 0.000000 0.000000
0.000000 0.000000 0.000000
0.000000 0.000000 0.000000
0.000000 0.084343 0.000000
0.046857 0.109536 0.380116
0.022973 0.131786 0.408105
0.001577 0.152274 0.440831
0.000000 0.169971 0.477190
0.000000 0.183992 0.516072
0.000000 0.193595 0.556368
0.000000 0.198184 0.596968
0.000000 0.197305 0.636760
0.000000 0.190647 0.674631
0.000000 0.178047 0.709468
0.000000 0.159481 0.740154
0.000000 0.135073 0.765574
0.000000 0.105089 0.784609
0.000000 0.069938 0.796142
0.000000 0.030176 0.799051
0.000000 0.000000 0.792217
0.000000 0.000000 0.774515
0.000000 0.000000 0.744824
0.000000 0.000000 0.702018
0.000000 0.000000 0.644971
0.000000 0.000000 0.572557
0.000000 0.000000 0.483646
0.000000 0.000000 0.377109
0.000000 0.000000 0.251817
0.000000 0.000000 0.106636
0.000000 0.000000 0.000000
0.000000 0.000000 0.000000
0.000000 0.000000 0.000000
0.000000 0.000000 0.000000
0.000000 0.000000 0.000000
0.000000 0.000000 0.000000
0.000000 0.000000 0.000000
0.000000 0.019267 0.000000
0.050269 0.115928 0.389987
0.031400 0.146952 0.422082
0.014893 0.175954 0.458545
0.000000 0.201854 0.498225
0.000000 0.223716 0.539972
0.000000 0.240750 0.582634
0.000000 0.252308 0.625057
0.000000 0.257887 0.666087
0.000000 0.257126 0.704569
0.000000 0.249811 0.739344
0.000000 0.235870 0.769257
0.000000 0.215375 0.793146
0.000000 0.188542 0.809853
0.000000 0.155732 0.818215
0.000000 0.117448 0.817069
0.000000 0.074340 0.805252
0.000000 0.027199 0.781598
0.000000 0.000000 0.744941
0.000000 0.000000 0.694114
0.000000 0.000000 0.627948
0.000000 0.000000 0.545272
0.000000 0.000000 0.444917
0.000000 0.000000 0.325709
0.000000 0.000000 0.186475
0.000000 0.000000 0.026041
0.000000 0.000000 0.000000
0.000000 0.000000 0.000000
0.000000 0.000000 0.000000
0.000000 0.000000 0.000000
0.000000 0.000000 0.000000
0.000000 0.000000 0.000000
0.000000 0.000000 0.000000
0.000000 0.000000 0.000000
0.063230 0.120872 0.415930
0.049082 0.160735 0.450976
0.037121 0.198259 0.489993
0.025309 0.232315 0.531789
0.011810 0.261919 0.575169
0.000000 0.286227 0.618939
0.000000 0.304544 0.661903
0.000000 0.316316 0.702863
0.000000 0.321132 0.740622
0.000000 0.318727 0.773979
0.000000 0.308981 0.801733
0.000000 0.291914 0.822684
0.000000 0.267693 0.835627
0.000000 0.236629 0.839359
0.000000 0.199175 0.832673
0.000000 0.155931 0.814363
0.000000 0.107637 0.783221
0.000000 0.055180 0.738038
0.000000 0.000000 0.677603
0.000000 0.000000 0.600706
0.000000 0.000000 0.506133
0.000000 0.000000 0.392671
0.000000 0.000000 0.259105
0.000000 0.000000 0.104217
0.000000 0.000000 0.000000
0.000000 0.000000 0.000000
0.000000 0.000000 0.000000
0.000000 0.000000 0.000000
0.000000 0.000000 0.000000
0.000000 0.000000 0.000000
0.000000 0.000000 0.000000
0.000000 0.000000 0.000000
0.000000 0.000000 0.000000
0.088216 0.124061 0.464124
0.078464 0.172795 0.500919
0.070671 0.218819 0.541263
0.062757 0.260956 0.583920
0.052845 0.298168 0.627655
0.039259 0.329565 0.671230
0.020527 0.354399 0.713405
0.000000 0.372067 0.752942
0.000000 0.382109 0.788598
0.000000 0.384209 0.819131
0.000000 0.378197 0.843298
0.000000 0.364043 0.859854
0.000000 0.341864 0.867553
0.000000 0.311921 0.865148
0.000000 0.274617 0.851390
0.000000 0.230502 0.825031
0.000000 0.180265 0.784819
0.000000 0.124745 0.729502
0.000000 0.064920 0.657828
0.000000 0.001915 0.568542
0.000000 0.000000 0.460388
0.000000 0.000000 0.332111
0.000000 0.000000 0.182452
0.000000 0.000000 0.010152
0.000000 0.000000 0.000000
0.000000 0.000000 0.000000
0.000000 0.000000 0.000000
0.000000 0.000000 0.000000
0.000000 0.000000 0.000000
0.000000 0.000000 0.000000
0.000000 0.000000 0.000000
0.000000 0.000000 0.000000
0.000000 0.000000 0.000000
0.127850 0.125111 0.541200
0.122132 0.182717 0.578494
0.118096 0.237189 0.618890
0.113620 0.287297 0.661110
0.106782 0.331955 0.703875
0.095864 0.370223 0.745904
0.079353 0.401302 0.785916
0.055937 0.424540 0.822627
0.024508 0.439426 0.854755
0.000000 0.445594 0.881013
0.000000 0.442824 0.900115
0.000000 0.431037 0.910775
0.000000 0.410299 0.911702
0.000000 0.380821 0.901608
0.000000 0.342956 0.879201
0.000000 0.297204 0.843189
0.000000 0.244205 0.792278
0.000000 0.184746 0.725174
0.000000 0.119757 0.640580
0.000000 0.050312 0.537201
0.000000 0.000000 0.413737
0.000000 0.000000 0.268889
0.000000 0.000000 0.101358
0.000000 0.000000 0.000000
0.000000 0.000000 0.000000
0.000000 0.000000 0.000000
0.000000 0.000000 0.000000
0.000000 0.000000 0.000000
0.000000 0.000000 0.000000
0.000000 0.000000 0.000000
0.000000 0.000000 0.000000
0.000000 0.000000 0.000000
0.000000 0.000000 0.000000
0.184897 0.123558 0.654239
0.182818 0.190008 0.690737
0.182094 0.252843 0.729865
0.180559 0.310784 0.770301
0.176249 0.362695 0.810724
0.167404 0.407585 0.849811
0.152466 0.444606 0.886237
0.130082 0.473055 0.918676
0.099101 0.492372 0.945802
0.058574 0.502141 0.966287
0.007758 0.502090 0.978802
0.000000 0.492093 0.982016
0.000000 0.472164 0.974599
0.000000 0.442464 0.955216
0.000000 0.403297 0.922535
0.000000 0.355111 0.875220
0.000000 0.298499 0.811935
0.000000 0.234195 0.731343
0.000000 0.163081 0.632105
0.000000 0.086179 0.512881
0.000000 0.004658 0.372331
0.000000 0.000000 0.209111
0.000000 0.000000 0.021880
0.000000 0.000000 0.000000
0.000000 0.000000 0.000000
0.000000 0.000000 0.000000
0.000000 0.000000 0.000000
0.000000 0.000000 0.000000
0.000000 0.000000 0.000000
0.000000 0.000000 0.000000
0.000000 0.000000 0.000000
0.000000 0.000000 0.000000
0.000000 0.000000 0.000000
0.262266 0.118863 0.810774
0.263396 0.194096 0.845134
0.265504 0.265180 0.881626
0.266380 0.330784 0.918886
0.264018 0.389723 0.955550
0.256615 0.440956 0.990251
0.242570 0.483585 1.000000
0.220487 0.516856 1.000000
0.189171 0.540160 1.000000
0.147633 0.553031 1.000000
0.095084 0.555147 1.000000
0.030940 0.546330 1.000000
0.000000 0.526547 1.000000
0.000000 0.495908 1.000000
0.000000 0.454666 0.988273
0.000000 0.403220 0.927960
0.000000 0.342111 0.850579
0.000000 0.272026 0.754753
0.000000 0.193795 0.639098
0.000000 0.108390 0.502232
0.000000 0.016930 0.342772
0.000000 0.000000 0.159332
0.000000 0.000000 0.000000
0.000000 0.000000 0.000000
0.000000 0.000000 0.000000
0.000000 0.000000 0.000000
0.000000 0.000000 0.000000
0.000000 0.000000 0.000000
0.000000 0.000000 0.000000
0.000000 0.000000 0.000000
0.000000 0.000000 0.000000
0.000000 0.000000 0.000000
0.000000 0.000000 0.000000
0.363006 0.110408 1.000000
0.366883 0.194333 1.000000
0.371309 0.273519 1.000000
0.374033 0.346586 1.000000
0.373005 0.412298 1.000000
0.366379 0.469563 1.000000
0.352511 0.517435 1.000000
0.329964 0.555108 1.000000
0.297499 0.581925 1.000000
0.254083 0.597368 1.000000
0.198885 0.601067 1.000000
0.131279 0.592792 1.000000
0.050840 0.572461 1.000000
0.000000 0.540133 1.000000
0.000000 0.496013 1.000000
0.000000 0.440448 1.000000
0.000000 0.373930 0.915450
0.000000 0.297095 0.802595
0.000000 0.210724 0.668705
0.000000 0.115739 0.512353
0.000000 0.013208 0.332114
0.000000 0.000000 0.126560
0.000000 0.000000 0.000000
0.000000 0.000000 0.000000
0.000000 0.000000 0.000000
0.000000 0.000000 0.000000
0.000000 0.000000 0.000000
0.000000 0.000000 0.000000
0.000000 0.000000 0.000000
0.000000 0.000000 0.000000
0.000000 0.000000 0.000000
0.000000 0.000000 0.000000
0.000000 0.000000 0.000000
0.490314 0.097497 1.000000
0.496440 0.189993 1.000000
0.502637 0.277104 1.000000
0.506610 0.357402 1.000000
0.506267 0.429600 1.000000
0.499720 0.492557 1.000000
0.485281 0.545275 1.000000
0.461469 0.586900 1.000000
0.427005 0.616724 1.000000
0.380811 0.634179 1.000000
0.322014 0.638844 1.000000
0.249945 0.630442 1.000000
0.164136 0.608838 1.000000
0.064324 0.574042 1.000000
0.000000 0.526209 1.000000
0.000000 0.465635 1.000000
0.000000 0.392764 1.000000
0.000000 0.308181 0.882516
0.000000 0.212616 0.728524
0.000000 0.106942 0.550796
0.000000 0.000000 0.347862
0.000000 0.000000 0.118252
0.000000 0.000000 0.000000
0.000000 0.000000 0.000000
0.000000 0.000000 0.000000
0.000000 0.000000 0.000000
0.000000 0.000000 0.000000
0.000000 0.000000 0.000000
0.000000 0.000000 0.000000
0.000000 0.000000 0.000000
0.000000 0.000000 0.000000
0.000000 0.000000 0.000000
0.000000 0.000000 0.000000
0.647527 0.079357 1.000000
0.655370 0.180270 1.000000
0.662756 0.275100 1.000000
0.667347 0.362365 1.000000
0.667007 0.440732 1.000000
0.659805 0.509008 1.000000
0.644012 0.566146 1.000000
0.618103 0.611242 1.000000
0.580755 0.643535 1.000000
0.530850 0.662411 1.000000
0.467470 0.667398 1.000000
0.389902 0.658166 1.000000
0.297638 0.634534 1.000000
0.190371 0.596459 1.000000
0.067996 0.544047 1.000000
0.000000 0.477546 1.000000
0.000000 0.397347 1.000000
0.000000 0.303985 1.000000
0.000000 0.198142 0.826605
0.000000 0.080640 0.625563
0.000000 0.000000 0.397972
0.000000 0.000000 0.142319
0.000000 0.000000 0.000000
0.000000 0.000000 0.000000
0.000000 0.000000 0.000000
0.000000 0.000000 0.000000
0.000000 0.000000 0.000000
0.000000 0.000000 0.000000
0.000000 0.000000 0.000000
0.000000 0.000000 0.000000
0.000000 0.000000 0.000000
0.000000 0.000000 0.000000
0.000000 0.000000 0.000000
0.838126 0.055138 1.000000
0.847122 0.164284 1.000000
0.855081 0.266593 1.000000
0.859623 0.360534 1.000000
0.858570 0.444721 1.000000
0.849947 0.517913 1.000000
0.831982 0.579013 1.000000
0.803108 0.627066 1.000000
0.761959 0.661262 1.000000
0.707373 0.680937 1.000000
0.638391 0.685567 1.000000
0.554257 0.674775 1.000000
0.454419 0.648326 1.000000
0.338526 0.606132 1.000000
0.206433 0.548246 1.000000
0.058197 0.474865 1.000000
0.000000 0.386331 1.000000
0.000000 0.283131 1.000000
0.000000 0.165894 0.971449
0.000000 0.035393 0.745110
0.000000 0.000000 0.490852
0.000000 0.000000 0.207121
0.000000 0.000000 0.000000
0.000000 0.000000 0.000000
0.000000 0.000000 0.000000
0.000000 0.000000 0.000000
0.000000 0.000000 0.000000
0.000000 0.000000 0.000000
0.000000 0.000000 0.000000
0.000000 0.000000 0.000000
0.000000 0.000000 0.000000
0.000000 0.000000 0.000000
0.000000 0.000000 0.000000
1.000000 0.023910 1.000000
1.000000 0.141075 1.000000
1.000000 0.250594 1.000000
1.000000 0.350885 1.000000
1.000000 0.440514 1.000000
1.000000 0.518188 1.000000
1.000000 0.582761 1.000000
1.000000 0.633227 1.000000
0.973968 0.668728 1.000000
0.913699 0.688548 1.000000
0.838062 0.692114 1.000000
0.746258 0.678998 1.000000
0.637692 0.648917 1.000000
0.511971 0.601730 1.000000
0.368906 0.537442 1.000000
0.208511 0.456199 1.000000
0.031002 0.358295 1.000000
0.000000 0.244164 1.000000
0.000000 0.114386 1.000000
0.000000 0.000000 0.918340
0.000000 0.000000 0.635361
0.000000 0.000000 0.321471
0.000000 0.000000 0.000000
0.000000 0.000000 0.000000
0.000000 0.000000 0.000000
0.000000 0.000000 0.000000
0.000000 0.000000 0.000000
0.000000 0.000000 0.000000
0.000000 0.000000 0.000000
0.000000 0.000000 0.000000
0.000000 0.000000 0.000000
0.000000 0.000000 0.000000
0.000000 0.000000 0.000000
1.000000 0.000000 1.000000
1.000000 0.109607 1.000000
1.000000 0.226034 1.000000
1.000000 0.332321 1.000000
1.000000 0.426981 1.000000
1.000000 0.508672 1.000000
1.000000 0.576198 1.000000
1.000000 0.628504 1.000000
1.000000 0.664680 1.000000
1.000000 0.683961 1.000000
1.000000 0.685723 1.000000
0.969300 0.669490 1.000000
0.850819 0.634927 1.000000
0.714032 0.581845 1.000000
0.558706 0.510196 1.000000
0.384814 0.420079 1.000000
0.192529 0.311736 1.000000
0.000000 0.185552 1.000000
0.000000 0.042057 1.000000
0.000000 0.000000 1.000000
0.000000 0.000000 0.840809
0.000000 0.000000 0.494633
0.000000 0.000000 0.114440
0.000000 0.000000 0.000000
0.000000 0.000000 0.000000
0.000000 0.000000 0.000000
0.000000 0.000000 0.000000
0.000000 0.000000 0.000000
0.000000 0.000000 0.000000
0.000000 0.000000 0.000000
0.000000 0.000000 0.000000
0.000000 0.000000 0.000000
0.000000 0.000000 0.000000
1.000000 0.000000 1.000000
1.000000 0.068763 1.000000
1.000000 0.191768 1.000000
1.000000 0.303664 1.000000
1.000000 0.402914 1.000000
1.000000 0.488127 1.000000
1.000000 0.558056 1.000000
1.000000 0.611595 1.000000
1.000000 0.647786 1.000000
1.000000 0.665813 1.000000
1.000000 0.665002 1.000000
1.000000 0.644827 1.000000
1.000000 0.604903 1.000000
0.948175 0.544991 1.000000
0.779267 0.464993 1.000000
0.590505 0.364958 1.000000
0.382020 0.245077 1.000000
0.154147 0.105687 1.000000
0.000000 0.000000 1.000000
0.000000 0.000000 1.000000
0.000000 0.000000 1.000000
0.000000 0.000000 0.736321
0.000000 0.000000 0.320138
0.000000 0.000000 0.000000
0.000000 0.000000 0.000000
0.000000 0.000000 0.000000
0.000000 0.000000 0.000000
0.000000 0.000000 0.000000
0.000000 0.000000 0.000000
0.000000 0.000000 0.000000
0.000000 0.000000 0.000000
0.000000 0.000000 0.000000
0.000000 0.000000 0.000000
1.000000 0.000000 1.000000
1.000000 0.017352 1.000000
1.000000 0.146573 1.000000
1.000000 0.263660 1.000000
1.000000 0.367029 1.000000
1.000000 0.455237 1.000000
1.000000 0.526986 1.000000
1.000000 0.581123 1.000000
1.000000 0.616638 1.000000
1.000000 0.632664 1.000000
1.000000 0.628480 1.000000
1.000000 0.603507 1.000000
1.000000 0.557312 1.000000
1.000000 0.489604 1.000000
1.000000 0.400237 1.000000
0.829128 0.289209 1.000000
0.602986 0.156661 1.000000
0.356033 0.002880 1.000000
0.088763 0.000000 1.000000
0.000000 0.000000 1.000000
0.000000 0.000000 1.000000
0.000000 0.000000 1.000000
0.000000 0.000000 0.602283
0.000000 0.000000 0.109032
0.000000 0.000000 0.000000
0.000000 0.000000 0.000000
0.000000 0.000000 0.000000
0.000000 0.000000 0.000000
0.000000 0.000000 0.000000
0.000000 0.000000 0.000000
0.000000 0.000000 0.000000
0.000000 0.000000 0.000000
0.000000 0.000000 0.000000
1.000000 0.000000 1.000000
1.000000 0.000000 1.000000
1.000000 0.089147 1.000000
1.000000 0.210979 1.000000
1.000000 0.317963 1.000000
1.000000 0.408607 1.000000
1.000000 0.481565 1.000000
1.000000 0.535632 1.000000
1.000000 0.569749 1.000000
1.000000 0.582998 1.000000
1.000000 0.574608 1.000000
1.000000 0.543951 1.000000
1.000000 0.490544 1.000000
1.000000 0.414044 1.000000
1.000000 0.314257 1.000000
1.000000 0.191130 1.000000
0.859079 0.044755 1.000000
0.591505 0.000000 1.000000
0.302097 0.000000 1.000000
0.000000 0.000000 1.000000
0.000000 0.000000 1.000000
0.000000 0.000000 1.000000
0.000000 0.000000 0.971446
0.000000 0.000000 0.436044
0.000000 0.000000 0.000000
0.000000 0.000000 0.000000
0.000000 0.000000 0.000000
