public/luts/kodachrome_v3.cube
# Generated from ColorChecker fit
LUT_3D_SIZE 9
DOMAIN_MIN 0.0 0.0 0.0
DOMAIN_MAX 1.0 1.0 1.0
0.074048 0.000000 0.016812
0.000000 0.000000 0.000000
0.000000 0.000000 0.000000
0.000000 0.000000 0.000000
0.000000 0.000000 0.000000
0.000000 0.000000 0.000000
0.000000 0.000000 0.000000
0.000000 0.000000 0.000000
0.000000 0.000000 0.000000
0.112205 0.033759 0.336764
0.000000 0.000000 0.256432
0.000000 0.000000 0.243317
0.000000 0.000000 0.245395
0.000000 0.000000 0.210341
0.000000 0.000000 0.085524
0.000000 0.000000 0.000000
0.000000 0.000000 0.000000
0.000000 0.000362 0.000000
0.071271 0.083583 0.391914
0.000000 0.058829 0.458989
0.000000 0.000000 0.570217
0.000000 0.000000 0.662625
0.000000 0.000000 0.672935
0.000000 0.000000 0.537568
0.000000 0.000000 0.192639
0.000000 0.000000 0.000000
0.000000 0.142851 0.000000
0.050269 0.115928 0.389987
0.000000 0.223716 0.539972
0.000000 0.257126 0.704569
0.000000 0.188542 0.809853
0.000000 0.027199 0.781598
0.000000 0.000000 0.545272
0.000000 0.000000 0.026041
0.000000 0.000000 0.000000
0.000000 0.000000 0.000000
0.184897 0.123558 0.654239
0.176249 0.362695 0.810724
0.099101 0.492372 0.945802
0.000000 0.472164 0.974599
0.000000 0.298499 0.811935
0.000000 0.004658 0.372331
0.000000 0.000000 0.000000
0.000000 0.000000 0.000000
0.000000 0.000000 0.000000
0.647527 0.079357 1.000000
0.667007 0.440732 1.000000
0.580755 0.643535 1.000000
0.297638 0.634534 1.000000
0.000000 0.397347 1.000000
0.000000 0.000000 0.397972
0.000000 0.000000 0.000000
0.000000 0.000000 0.000000
0.000000 0.000000 0.000000
1.000000 0.000000 1.000000
1.000000 0.402914 1.000000
1.000000 0.647786 1.000000
1.000000 0.604903 1.000000
0.382020 0.245077 1.000000
0.000000 0.000000 1.000000
0.000000 0.000000 0.000000
0.000000 0.000000 0.000000
0.000000 0.000000 0.000000
1.000000 0.000000 1.000000
1.000000 0.174446 1.000000
1.000000 0.422413 1.000000
1.000000 0.292645 1.000000
1.000000 0.000000 1.000000
0.090042 0.000000 1.000000
0.000000 0.000000 0.716038
0.000000 0.000000 0.000000
0.000000 0.000000 0.000000
1.000000 0.000000 1.000000
1.000000 0.000000 1.000000
1.000000 0.000000 1.000000
1.000000 0.000000 1.000000
1.000000 0.000000 1.000000
1.000000 0.000000 1.000000
0.000000 0.000000 1.000000
0.000000 0.000000 0.000000
0.000000 0.000000 0.000000
0.277986 0.186876 0.059691
0.002976 0.000000 0.000000
0.000000 0.000000 0.000000
0.000000 0.000000 0.000000
0.000000 0.000000 0.000000
0.000000 0.000000 0.000000
0.000000 0.000000 0.000000
0.000000 0.000000 0.000000
0.000000 0.988437 0.000000
0.314518 0.288116 0.319514
0.127408 0.130889 0.191999
0.000000 0.000000 0.150706
0.000000 0.000000 0.160238
0.000000 0.000000 0.184893
0.000000 0.000000 0.188668
0.000000 0.000000 0.135253
0.000000 0.258517 0.000000
0.395817 1.000000 0.000000
0.254844 0.346382 0.326061
0.150899 0.298501 0.350064
0.083995 0.248997 0.438728
0.000000 0.173733 0.545707
0.000000 0.085421 0.624348
0.000000 0.033629 0.627696
0.000000 0.104774 0.508493
0.000000 0.422128 0.219175
0.299822 1.000000 0.000000
0.206934 0.385270 0.293628
0.172695 0.456969 0.400970
0.159490 0.502930 0.544936
0.088477 0.486207 0.668228
0.000000 0.406706 0.713243
0.000000 0.301184 0.622076
0.000000 0.243252 0.336518
0.000000 0.343373 0.000000
0.000000 0.748863 0.000000
0.315430 0.408497 0.552038
0.328718 0.602092 0.662631
0.334142 0.731805 0.775331
0.241893 0.747881 0.821891
0.014163 0.637418 0.733757
0.000000 0.424364 0.442073
0.000000 0.169523 0.000000
0.000000 0.000000 0.000000
0.000000 0.000000 0.000000
0.761648 0.399896 1.000000
0.791562 0.709788 1.000000
0.771827 0.903624 1.000000
0.601663 0.918840 1.000000
0.232293 0.729724 1.000000
0.000000 0.347419 0.473486
0.000000 0.000000 0.000000
0.000000 0.000000 0.000000
0.000000 0.000000 0.000000
1.000000 0.323424 1.000000
1.000000 0.736096 1.000000
1.000000 0.966507 1.000000
1.000000 0.939285 1.000000
0.770314 0.615911 1.000000
0.000000 0.000000 1.000000
0.000000 0.000000 0.000000
0.000000 0.000000 0.000000
0.000000 0.000000 0.000000
1.000000 0.123153 1.000000
1.000000 0.617171 1.000000
1.000000 0.848694 1.000000
1.000000 0.729541 1.000000
1.000000 0.208385 1.000000
0.567730 0.000000 1.000000
0.000000 0.000000 1.000000
0.000000 0.000000 0.000000
0.000000 0.000000 0.000000
1.000000 0.000000 1.000000
1.000000 0.269291 1.000000
1.000000 0.458545 1.000000
1.000000 0.190050 1.000000
1.000000 0.000000 1.000000
1.000000 0.000000 1.000000
0.000000 0.000000 1.000000
0.000000 0.000000 0.577648
0.000000 0.000000 0.000000
0.428169 0.310160 0.127119
0.173824 0.036496 0.000000
0.023762 0.000000 0.000000
0.000000 0.000000 0.000000
0.000000 0.000000 0.000000
0.000000 0.000000 0.000000
0.134777 0.000000 0.000000
0.712479 0.671767 0.000000
1.000000 1.000000 0.000000
0.459217 0.427519 0.328293
0.277092 0.223948 0.167798
0.204465 0.081368 0.104927
0.174789 0.000000 0.120909
0.173517 0.000000 0.196667
0.238103 0.000000 0.312823
0.458006 0.260515 0.449693
0.974687 0.850017 0.587289
1.000000 1.000000 0.705323
0.375368 0.488374 0.280553
0.262125 0.376558 0.273966
0.250710 0.312585 0.344947
0.263604 0.262987 0.463772
0.275290 0.231144 0.600415
0.312256 0.257292 0.724548
0.452989 0.418520 0.805536
0.827981 0.828768 0.812442
1.000000 1.000000 0.714024
0.293537 0.527272 0.204765
0.237118 0.520956 0.280227
0.261967 0.535306 0.406722
0.279595 0.524044 0.543576
0.253516 0.477744 0.649813
0.199247 0.423832 0.684153
0.184309 0.426590 0.605012
0.328222 0.587148 0.370501
0.802512 1.000000 0.000000
0.367311 0.558881 0.437323
0.346937 0.663893 0.511064
0.374381 0.748363 0.602825
0.350185 0.753206 0.660983
0.226895 0.656186 0.633609
0.009058 0.471922 0.468475
0.000000 0.251887 0.113044
0.000000 0.084404 0.000000
0.000000 0.094649 0.000000
0.786952 0.577987 1.000000
0.773121 0.792238 1.000000
0.760770 0.930709 1.000000
0.639472 0.921507 1.000000
0.350802 0.729588 0.956084
0.000000 0.356764 0.469881
0.000000 0.000000 0.000000
0.000000 0.000000 0.000000
0.000000 0.000000 0.000000
1.000000 0.559496 1.000000
1.000000 0.872979 1.000000
1.000000 1.000000 1.000000
1.000000 0.980102 1.000000
0.817288 0.641189 1.000000
0.020421 0.013677 1.000000
0.000000 0.000000 0.000000
0.000000 0.000000 0.000000
0.000000 0.000000 0.000000
1.000000 0.458433 1.000000
1.000000 0.853225 1.000000
1.000000 1.000000 1.000000
1.000000 0.860266 1.000000
1.000000 0.314345 1.000000
0.625303 0.000000 1.000000
0.000000 0.000000 1.000000
0.000000 0.000000 0.000000
0.000000 0.000000 0.000000
1.000000 0.209944 1.000000
1.000000 0.660205 1.000000
1.000000 0.784794 1.000000
1.000000 0.473393 1.000000
1.000000 0.000000 1.000000
1.000000 0.000000 1.000000
0.000000 0.000000 1.000000
0.000000 0.000000 1.000000
0.000000 0.000000 0.000000
0.572727 0.371625 0.217509
0.305224 0.064730 0.000000
0.210940 0.000000 0.000000
0.224647 0.000000 0.000000
0.333121 0.000000 0.000000
0.575139 0.000000 0.000000
1.000000 0.441271 0.000000
1.000000 1.000000 0.157960
1.000000 1.000000 0.735198
0.604364 0.505514 0.370591
0.394819 0.246495 0.197292
0.359158 0.098756 0.125416
0.421184 0.032305 0.152815
0.556702 0.054001 0.277040
0.793522 0.207558 0.495338
1.000000 0.573541 0.804649
1.000000 1.000000 1.000000
1.000000 1.000000 1.000000
0.500836 0.568688 0.271959
0.347312 0.382717 0.253237
0.355449 0.291815 0.317384
0.438079 0.253183 0.451303
0.560039 0.260872 0.641593
0.738167 0.345785 0.874550
1.000000 0.575681 1.000000
1.000000 1.000000 1.000000
1.000000 1.000000 1.000000
0.388002 0.606646 0.149046
0.279841 0.510978 0.209362
0.308228 0.480140 0.327516
0.375025 0.458523 0.479459
0.434102 0.427369 0.640841
0.491326 0.404774 0.787008
0.604570 0.445689 0.893000
0.883710 0.641912 0.933554
1.000000 1.000000 0.883106
0.428396 0.645006 0.344819
0.346218 0.648981 0.396722
0.362585 0.673514 0.474953
0.368392 0.650190 0.544515
0.306538 0.547442 0.570104
0.171922 0.370558 0.516118
0.011447 0.161680 0.346645
0.000000 0.000000 0.025474
0.060547 0.000762 0.000000
0.821227 0.689507 1.000000
0.736929 0.794545 1.000000
0.700285 0.861842 1.000000
0.591222 0.810171 1.000000
0.341668 0.595161 0.840233
0.000000 0.209290 0.460818
0.000000 0.000000 0.000000
0.000000 0.000000 0.000000
0.000000 0.000000 0.000000
1.000000 0.726006 1.000000
1.000000 0.925612 1.000000
1.000000 1.000000 1.000000
1.000000 0.900574 1.000000
0.740488 0.524715 1.000000
0.000000 0.000000 1.000000
0.000000 0.000000 0.008011
0.000000 0.000000 0.000000
0.000000 0.000000 0.000000
1.000000 0.720480 1.000000
1.000000 1.000000 1.000000
1.000000 1.000000 1.000000
1.000000 0.863623 1.000000
1.000000 0.270413 1.000000
0.517697 0.000000 1.000000
0.000000 0.000000 1.000000
0.000000 0.000000 0.000000
0.000000 0.000000 0.000000
1.000000 0.619026 1.000000
1.000000 0.956610 1.000000
1.000000 0.997373 1.000000
1.000000 0.621664 1.000000
1.000000 0.000000 1.000000
1.000000 0.000000 1.000000
0.000000 0.000000 1.000000
0.000000 0.000000 1.000000
0.000000 0.000000 0.000000
0.714871 0.391648 0.307461
0.427844 0.074121 0.000000
0.378017 0.000000 0.000000
0.490516 0.000000 0.000000
0.742470 0.039779 0.000000
1.000000 0.368868 0.000000
1.000000 0.977585 0.149597
1.000000 1.000000 0.793312
1.000000 1.000000 1.000000
0.763101 0.548060 0.432087
0.521192 0.255075 0.272130
0.512596 0.121421 0.209790
0.651469 0.107774 0.259547
0.903970 0.211663 0.435575
1.000000 0.467470 0.751747
1.000000 0.946428 1.000000
1.000000 1.000000 1.000000
1.000000 1.000000 1.000000
0.654321 0.618866 0.295033
0.456992 0.379105 0.288602
0.476200 0.279402 0.362739
0.615132 0.267624 0.520970
0.828977 0.328493 0.766522
1.000000 0.483581 1.000000
1.000000 0.791314 1.000000
1.000000 1.000000 1.000000
1.000000 1.000000 1.000000
0.523337 0.660517 0.130305
0.361329 0.494746 0.198180
0.386193 0.435730 0.323094
0.490146 0.418527 0.497625
0.617409 0.415051 0.714048
0.764203 0.434066 0.964332
0.978754 0.521191 1.000000
1.000000 0.758895 1.000000
1.000000 1.000000 1.000000
0.541627 0.709582 0.287437
0.396958 0.630650 0.338487
0.396608 0.611139 0.416570
0.421824 0.573301 0.503313
0.405857 0.476239 0.580040
0.333960 0.315911 0.627772
0.243388 0.125126 0.627224
0.223401 0.000000 0.558810
0.415258 0.000000 0.402638
0.917344 0.782750 1.000000
0.763312 0.795589 1.000000
0.698156 0.806486 1.000000
0.592155 0.724884 0.967366
0.367589 0.497079 0.781921
0.000000 0.106220 0.498145
0.000000 0.000000 0.085804
0.000000 0.000000 0.000000
0.000000 0.000000 0.000000
1.000000 0.876831 1.000000
1.000000 0.978456 1.000000
1.000000 1.000000 1.000000
1.000000 0.846334 1.000000
0.712544 0.442711 1.000000
0.000000 0.000000 1.000000
0.000000 0.000000 0.125013
0.000000 0.000000 0.000000
0.000000 0.000000 0.000000
1.000000 0.968752 1.000000
1.000000 1.000000 1.000000
1.000000 1.000000 1.000000
1.000000 0.890828 1.000000
1.000000 0.258394 1.000000
0.454930 0.000000 1.000000
0.000000 0.000000 1.000000
0.000000 0.000000 0.000000
0.000000 0.000000 0.000000
1.000000 1.000000 1.000000
1.000000 1.000000 1.000000
1.000000 1.000000 1.000000
1.000000 0.791663 1.000000
1.000000 0.000000 1.000000
1.000000 0.000000 1.000000
0.000000 0.000000 1.000000
0.000000 0.000000 1.000000
0.000000 0.000000 0.000000
0.812897 0.363017 0.351759
0.527435 0.088045 0.015519
0.538202 0.026522 0.000000
0.760676 0.142601 0.000000
1.000000 0.437288 0.000000
1.000000 0.948443 0.042370
1.000000 1.000000 0.600031
1.000000 1.000000 1.000000
1.000000 1.000000 1.000000
0.903657 0.553530 0.476643
0.651893 0.278648 0.362146
0.687918 0.208908 0.333858
0.916241 0.295656 0.422883
1.000000 0.527089 0.660022
1.000000 0.928258 1.000000
1.000000 1.000000 1.000000
1.000000 1.000000 1.000000
1.000000 1.000000 1.000000
0.813985 0.642866 0.322719
0.596781 0.400266 0.358976
0.646037 0.340473 0.465896
0.855293 0.402023 0.663630
1.000000 0.560306 0.972031
1.000000 0.827565 1.000000
1.000000 1.000000 1.000000
1.000000 1.000000 1.000000
1.000000 1.000000 1.000000
0.687633 0.698425 0.130561
0.497128 0.512386 0.234673
0.538866 0.472786 0.387421
0.695417 0.505355 0.598009
0.901355 0.572674 0.875338
1.000000 0.674178 1.000000
1.000000 0.846153 1.000000
1.000000 1.000000 1.000000
1.000000 1.000000 1.000000
0.705024 0.767730 0.256277
0.524637 0.654610 0.333430
0.529386 0.637533 0.430717
0.590874 0.629420 0.546391
0.632703 0.580046 0.678401
0.630479 0.476035 0.824393
0.611810 0.340865 0.981709
0.656309 0.234869 1.000000
0.895588 0.255229 1.000000
1.000000 0.878421 1.000000
0.887685 0.846662 1.000000
0.817253 0.846520 1.000000
0.732595 0.778109 0.944677
0.546346 0.578393 0.805212
0.223140 0.221190 0.611896
0.000000 0.000000 0.351121
0.000000 0.000000 0.008975
0.000000 0.000000 0.000000
1.000000 1.000000 1.000000
1.000000 1.000000 1.000000
1.000000 1.000000 1.000000
1.000000 0.935431 1.000000
0.861170 0.543808 1.000000
0.131402 0.000000 1.000000
0.000000 0.000000 0.288230
0.000000 0.000000 0.000000
0.000000 0.000000 0.000000
1.000000 1.000000 1.000000
1.000000 1.000000 1.000000
1.000000 1.000000 1.000000
1.000000 1.000000 1.000000
1.000000 0.432503 1.000000
0.602103 0.000000 1.000000
0.000000 0.000000 1.000000
0.000000 0.000000 0.000000
0.000000 0.000000 0.000000
1.000000 1.000000 1.000000
1.000000 1.000000 1.000000
1.000000 1.000000 1.000000
1.000000 1.000000 1.000000
1.000000 0.180809 1.000000
1.000000 0.000000 1.000000
0.000000 0.000000 1.000000
0.000000 0.000000 1.000000
0.000000 0.000000 0.000000
0.780183 0.250937 0.283376
0.544834 0.102291 0.031497
0.659788 0.213729 0.000000
1.000000 0.540074 0.000000
1.000000 1.000000 0.000000
1.000000 1.000000 0.356893
1.000000 1.000000 1.000000
1.000000 1.000000 1.000000
1.000000 1.000000 1.000000
0.949340 0.492711 0.446310
0.737690 0.318586 0.415362
0.863349 0.393176 0.451612
1.000000 0.658495 0.602788
1.000000 1.000000 0.916316
1.000000 1.000000 1.000000
1.000000 1.000000 1.000000
1.000000 1.000000 1.000000
1.000000 1.000000 1.000000
0.913069 0.617056 0.306143
0.727377 0.453156 0.421458
0.853114 0.512572 0.589926
1.000000 0.724509 0.848326
1.000000 1.000000 1.000000
1.000000 1.000000 1.000000
1.000000 1.000000 1.000000
1.000000 1.000000 1.000000
1.000000 1.000000 1.000000
0.824064 0.702324 0.110021
0.657869 0.576436 0.285018
0.764335 0.634434 0.492645
1.000000 0.792718 0.758732
1.000000 1.000000 1.000000
1.000000 1.000000 1.000000
1.000000 1.000000 1.000000
1.000000 1.000000 1.000000
1.000000 1.000000 1.000000
0.871695 0.806988 0.220622
0.709816 0.738982 0.356805
0.768939 0.801403 0.498621
0.911017 0.897842 0.660947
1.000000 0.968741 0.858357
1.000000 0.991394 1.000000
1.000000 0.979949 1.000000
1.000000 0.985406 1.000000
1.000000 1.000000 1.000000
1.000000 0.969640 1.000000
1.000000 0.971469 1.000000
1.000000 1.000000 1.000000
1.000000 1.000000 0.997444
0.950803 0.954567 0.912354
0.709070 0.700250 0.810291
0.339744 0.293113 0.694272
0.000000 0.000000 0.567010
0.000000 0.000000 0.430914
1.000000 1.000000 1.000000
1.000000 1.000000 1.000000
1.000000 1.000000 1.000000
1.000000 1.000000 1.000000
1.000000 0.949056 1.000000
0.599654 0.365685 1.000000
0.000000 0.000000 0.520932
0.000000 0.000000 0.000000
0.000000 0.000000 0.000000
1.000000 1.000000 1.000000
1.000000 1.000000 1.000000
1.000000 1.000000 1.000000
1.000000 1.000000 1.000000
1.000000 0.919371 1.000000
1.000000 0.000000 1.000000
0.000000 0.000000 1.000000
0.000000 0.000000 0.000000
0.000000 0.000000 0.000000
1.000000 1.000000 1.000000
1.000000 1.000000 1.000000
1.000000 1.000000 1.000000
1.000000 1.000000 1.000000
1.000000 0.812796 1.000000
1.000000 0.000000 1.000000
0.098087 0.000000 1.000000
0.000000 0.000000 1.000000
0.000000 0.000000 0.000000
0.485190 0.000000 0.013469
0.375959 0.085063 0.000000
0.666150 0.481581 0.000000
1.000000 1.000000 0.000000
1.000000 1.000000 0.107308
1.000000 1.000000 0.622766
1.000000 1.000000 1.000000
1.000000 1.000000 1.000000
1.000000 1.000000 1.000000
0.778547 0.308804 0.261323
0.684433 0.348677 0.357987
0.972197 0.678598 0.495231
1.000000 1.000000 0.737412
1.000000 1.000000 1.000000
1.000000 1.000000 1.000000
1.000000 1.000000 1.000000
1.000000 1.000000 1.000000
1.000000 1.000000 1.000000
0.839899 0.490221 0.174621
0.764563 0.517143 0.411334
1.000000 0.805652 0.676088
1.000000 1.000000 1.000000
1.000000 1.000000 1.000000
1.000000 1.000000 1.000000
1.000000 1.000000 1.000000
1.000000 1.000000 1.000000
1.000000 1.000000 1.000000
0.830888 0.626580 0.007079
0.769269 0.671850 0.293579
1.000000 0.936214 0.589102
1.000000 1.000000 0.936101
1.000000 1.000000 1.000000
1.000000 1.000000 1.000000
1.000000 1.000000 1.000000
1.000000 1.000000 1.000000
1.000000 1.000000 1.000000
0.949830 0.787305 0.127943
0.888144 0.874303 0.362057
1.000000 1.000000 0.579697
1.000000 1.000000 0.812367
1.000000 1.000000 1.000000
1.000000 1.000000 1.000000
1.000000 1.000000 1.000000
1.000000 1.000000 1.000000
1.000000 1.000000 1.000000
1.000000 1.000000 1.000000
1.000000 1.000000 1.000000
1.000000 1.000000 1.000000
1.000000 1.000000 1.000000
1.000000 1.000000 1.000000
1.000000 1.000000 1.000000
1.000000 1.000000 1.000000
0.947867 1.000000 1.000000
0.631468 0.692946 1.000000
1.000000 1.000000 1.000000
1.000000 1.000000 1.000000
1.000000 1.000000 1.000000
1.000000 1.000000 1.000000
1.000000 1.000000 1.000000
1.000000 1.000000 1.000000
0.619631 0.650931 0.824576
0.000000 0.000000 0.216317
0.000000 0.000000 0.000000
1.000000 1.000000 1.000000
1.000000 1.000000 1.000000
1.000000 1.000000 1.000000
1.000000 1.000000 1.000000
1.000000 1.000000 1.000000
1.000000 1.000000 1.000000
0.474043 0.000000 1.000000
0.000000 0.000000 0.233759
0.000000 0.000000 0.000000
1.000000 1.000000 1.000000
1.000000 1.000000 1.000000
1.000000 1.000000 1.000000
1.000000 1.000000 1.000000
1.000000 1.000000 1.000000
1.000000 0.589781 1.000000
1.000000 0.000000 1.000000
0.000000 0.000000 1.000000
0.000000 0.000000 0.000000
0.000000 0.000000 0.000000
0.000000 0.000000 0.000000
0.435746 0.801279 0.000000
1.000000 1.000000 0.000000
1.000000 1.000000 0.104974
1.000000 1.000000 0.759191
1.000000 1.000000 1.000000
1.000000 1.000000 1.000000
1.000000 1.000000 1.000000
0.224753 0.000000 0.000000
0.353057 0.315119 0.094413
0.902852 1.000000 0.375082
1.000000 1.000000 0.743094
1.000000 1.000000 1.000000
1.000000 1.000000 1.000000
1.000000 1.000000 1.000000
1.000000 1.000000 1.000000
1.000000 1.000000 1.000000
0.437884 0.183557 0.000000
0.579206 0.544012 0.242077
1.000000 1.000000 0.643825
1.000000 1.000000 1.000000
1.000000 1.000000 1.000000
1.000000 1.000000 1.000000
1.000000 1.000000 1.000000
1.000000 1.000000 1.000000
1.000000 1.000000 1.000000
0.561447 0.397972 0.000000
0.712123 0.755993 0.182909
1.000000 1.000000 0.605315
1.000000 1.000000 1.000000
1.000000 1.000000 1.000000
1.000000 1.000000 1.000000
1.000000 1.000000 1.000000
1.000000 1.000000 1.000000
1.000000 1.000000 1.000000
0.802702 0.641045 0.000000
0.950349 1.000000 0.280814
1.000000 1.000000 0.611546
1.000000 1.000000 0.944224
1.000000 1.000000 1.000000
1.000000 1.000000 1.000000
1.000000 1.000000 1.000000
1.000000 1.000000 1.000000
1.000000 1.000000 1.000000
1.000000 0.973268 0.823763
1.000000 1.000000 1.000000
1.000000 1.000000 1.000000
1.000000 1.000000 1.000000
1.000000 1.000000 1.000000
1.000000 1.000000 1.000000
1.000000 1.000000 1.000000
1.000000 1.000000 1.000000
1.000000 1.000000 1.000000
1.000000 1.000000 1.000000
1.000000 1.000000 1.000000
1.000000 1.000000 1.000000
1.000000 1.000000 1.000000
1.000000 1.000000 1.000000
1.000000 1.000000 1.000000
1.000000 1.000000 1.000000
1.000000 1.000000 0.760880
0.102586 0.853680 0.382166
1.000000 1.000000 1.000000
1.000000 1.000000 1.000000
1.000000 1.000000 1.000000
1.000000 1.000000 1.000000
1.000000 1.000000 1.000000
1.000000 1.000000 1.000000
1.000000 1.000000 1.000000
0.239200 0.251799 0.633240
0.000000 0.000000 0.000000
1.000000 1.000000 1.000000
1.000000 1.000000 1.000000
1.000000 1.000000 1.000000
1.000000 1.000000 1.000000
1.000000 1.000000 1.000000
1.000000 1.000000 1.000000
1.000000 0.791121 1.000000
0.036239 0.000000 1.000000
0.000000 0.000000 0.000000
