public/luts/kodak_gold_v1.cube
# Generated from ColorChecker fit
LUT_3D_SIZE 5
DOMAIN_MIN 0.0 0.0 0.0
DOMAIN_MAX 1.0 1.0 1.0
0.218136 0.057818 0.490499
0.069070 0.039942 0.448415
0.082606 0.137286 0.558812
0.000000 0.102255 0.367726
0.000000 0.000000 0.000000
0.395810 0.322811 0.570089
0.274283 0.466744 0.594888
0.101267 0.398175 0.637088
0.000000 0.000000 0.155252
0.000000 0.000000 0.000000
0.391691 0.502081 0.882722
0.179560 0.792913 0.893524
0.000000 0.448032 0.723152
0.000000 0.000000 0.000000
0.000000 0.000000 0.000000
1.000000 1.000000 1.000000
1.000000 1.000000 1.000000
0.351735 0.763943 1.000000
0.000000 0.000000 0.566916
0.000000 0.000000 0.000000
1.000000 1.000000 1.000000
1.000000 1.000000 1.000000
1.000000 1.000000 1.000000
1.000000 0.000000 1.000000
0.000000 0.000000 0.000000
0.024835 0.104447 0.094804
0.000000 0.000000 0.000000
0.157549 0.000000 0.222669
0.562329 0.309738 0.636454
0.322380 0.384984 0.790965
0.303865 0.350981 0.291162
0.255637 0.348698 0.294371
0.435429 0.419090 0.587721
0.434990 0.266297 0.796152
0.000000 0.000000 0.435545
0.318996 0.520850 0.469907
0.273671 0.762472 0.531238
0.177233 0.683898 0.684396
0.000000 0.000000 0.466848
0.000000 0.000000 0.000000
1.000000 1.000000 1.000000
1.000000 1.000000 1.000000
1.000000 1.000000 1.000000
0.000000 0.000000 1.000000
0.000000 0.000000 0.000000
1.000000 1.000000 1.000000
1.000000 1.000000 1.000000
1.000000 1.000000 1.000000
1.000000 0.511224 1.000000
0.000000 0.000000 1.000000
0.217768 0.451051 0.198718
0.000000 0.000000 0.000000
0.189297 0.000000 0.020725
0.901319 0.486622 0.636328
1.000000 1.000000 1.000000
0.505320 0.541897 0.355997
0.353775 0.241247 0.243138
0.601532 0.282896 0.546262
0.983854 0.445485 1.000000
0.781847 0.235945 1.000000
0.388139 0.573222 0.253769
0.316990 0.555969 0.285929
0.374410 0.518489 0.536019
0.199550 0.116656 0.707883
0.000000 0.000000 0.396306
1.000000 1.000000 1.000000
1.000000 1.000000 1.000000
1.000000 1.000000 1.000000
0.352729 0.100118 1.000000
0.000000 0.000000 0.000000
1.000000 1.000000 1.000000
1.000000 1.000000 1.000000
1.000000 1.000000 1.000000
1.000000 1.000000 1.000000
0.195464 0.000000 1.000000
0.541155 0.834565 0.350762
0.060854 0.096810 0.000000
0.231795 0.192124 0.000000
1.000000 1.000000 0.312775
1.000000 1.000000 1.000000
0.935100 0.830762 0.544197
0.658488 0.321783 0.353098
0.844229 0.409177 0.556922
1.000000 0.946086 1.000000
1.000000 1.000000 1.000000
0.724753 0.792664 0.244996
0.590013 0.549066 0.300590
0.655294 0.569655 0.553316
0.703263 0.584806 0.873396
0.062434 0.053183 1.000000
1.000000 1.000000 0.899111
1.000000 1.000000 1.000000
1.000000 1.000000 1.000000
0.868124 0.656547 1.000000
0.000000 0.000000 0.224315
1.000000 1.000000 1.000000
1.000000 1.000000 1.000000
1.000000 1.000000 1.000000
1.000000 1.000000 1.000000
1.000000 0.000000 1.000000
0.123447 0.299506 0.000000
0.000000 0.000000 0.000000
0.000000 0.298451 0.000000
0.538003 1.000000 0.000000
1.000000 1.000000 0.273757
0.912366 0.460356 0.283582
0.643795 0.075279 0.184370
0.792401 0.525097 0.312122
1.000000 1.000000 0.790913
1.000000 1.000000 1.000000
0.838704 0.620225 0.102491
0.757468 0.424999 0.366426
0.839477 0.762824 0.659795
1.000000 1.000000 1.000000
0.743802 1.000000 1.000000
1.000000 1.000000 0.642282
1.000000 1.000000 1.000000
1.000000 1.000000 1.000000
1.000000 1.000000 1.000000
0.000000 0.966627 0.876539
1.000000 1.000000 1.000000
1.000000 1.000000 1.000000
1.000000 1.000000 1.000000
1.000000 1.000000 1.000000
1.000000 1.000000 1.000000
