public/luts/kodak_gold_v2.cube
# Generated from ColorChecker fit
LUT_3D_SIZE 5
DOMAIN_MIN 0.0 0.0 0.0
DOMAIN_MAX 1.0 1.0 1.0
0.190573 0.194006 0.151073
0.000000 0.000000 0.000000
0.000000 0.000000 0.000000
0.000000 0.000000 0.000000
0.000000 0.000000 0.042697
0.554677 0.464483 0.443863
0.130538 0.224928 0.518284
0.000000 0.000000 0.371565
0.000000 0.000000 0.017947
0.214270 0.587714 0.000000
0.572808 0.497713 0.185330
0.237761 0.367869 0.553953
0.000000 0.238908 0.459032
0.000000 0.319556 0.000000
0.911928 1.000000 0.000000
0.000000 0.000000 0.000000
0.000000 0.000000 0.212509
0.000000 0.000000 0.211744
0.000000 0.000000 0.000000
0.498196 1.000000 0.000000
0.000000 0.000000 0.000000
0.000000 0.000000 0.084323
0.000000 0.000000 0.281225
0.000000 0.000000 0.000000
0.000000 0.000000 0.000000
0.159104 0.146535 0.014357
0.214887 0.262999 0.000000
0.292637 0.309035 0.058455
0.278419 0.195943 0.477107
0.722966 0.481011 1.000000
0.352506 0.383164 0.285063
0.283691 0.320371 0.396190
0.257522 0.229040 0.507938
0.203872 0.063271 0.674275
0.717285 0.423152 1.000000
0.380094 0.586568 0.166491
0.375554 0.626633 0.549627
0.378487 0.632516 0.686740
0.362576 0.601116 0.554230
0.966175 1.000000 0.620701
0.000000 0.000000 0.000000
0.000000 0.143737 0.598708
0.125884 0.558776 0.846357
0.264597 0.926151 0.429617
1.000000 1.000000 0.000000
0.000000 0.000000 0.000000
0.000000 0.000000 1.000000
0.000000 0.000000 1.000000
0.000000 0.000000 1.000000
0.216842 1.000000 0.000000
0.367542 0.251215 0.115616
0.645057 0.469347 0.081423
1.000000 0.646758 0.414297
1.000000 0.482924 1.000000
1.000000 0.323310 1.000000
0.374824 0.404563 0.280745
0.392006 0.288789 0.313110
0.488580 0.129617 0.532213
0.360384 0.000000 1.000000
0.367924 0.000000 1.000000
0.294494 0.603859 0.165773
0.354255 0.571889 0.402085
0.398411 0.446310 0.574251
0.166608 0.012197 0.698400
0.063162 0.000000 1.000000
0.000000 0.000000 0.000000
0.241858 0.512645 0.606593
0.520373 0.868193 0.859807
0.415889 0.860261 0.665998
0.376533 0.962709 0.455927
0.000000 0.000000 0.351833
0.000000 0.000000 1.000000
0.394284 0.239051 1.000000
0.687761 1.000000 1.000000
0.927285 1.000000 0.826438
0.691661 0.383827 0.332846
1.000000 0.730655 0.488781
1.000000 1.000000 1.000000
1.000000 0.805839 1.000000
1.000000 0.155489 1.000000
0.679150 0.570673 0.428262
0.668682 0.416745 0.494011
0.774428 0.180198 0.896973
0.458188 0.000000 1.000000
0.000000 0.000000 1.000000
0.555265 0.757793 0.299888
0.568806 0.656412 0.455653
0.543737 0.377634 0.693507
0.000000 0.000000 1.000000
0.000000 0.000000 1.000000
0.269762 0.293872 0.212716
0.763981 0.875703 0.699849
1.000000 1.000000 0.943392
0.553982 0.696282 0.921634
0.000000 0.000000 1.000000
0.000000 0.000000 0.899665
1.000000 0.073083 1.000000
1.000000 1.000000 1.000000
1.000000 1.000000 1.000000
1.000000 1.000000 1.000000
0.509735 0.000000 0.000000
1.000000 0.680464 0.721549
1.000000 1.000000 1.000000
1.000000 1.000000 1.000000
1.000000 0.344797 1.000000
0.825498 0.436682 0.170783
0.829417 0.503995 0.609676
0.986444 0.425107 1.000000
0.524345 0.000000 1.000000
0.000000 0.000000 1.000000
0.904167 0.769774 0.131359
0.916647 0.846174 0.500469
0.867585 0.637029 1.000000
0.028555 0.000000 1.000000
0.000000 0.000000 1.000000
0.974914 0.513347 0.204477
1.000000 1.000000 0.787968
1.000000 1.000000 1.000000
1.000000 1.000000 1.000000
0.000000 0.000000 1.000000
1.000000 0.000000 1.000000
1.000000 1.000000 1.000000
1.000000 1.000000 1.000000
1.000000 1.000000 1.000000
1.000000 1.000000 1.000000
