public/luts/kodak_gold_v2.cube
# Generated from ColorChecker fit
LUT_3D_SIZE 9
DOMAIN_MIN 0.0 0.0 0.0
DOMAIN_MAX 1.0 1.0 1.0
0.190573 0.194006 0.151073
0.000000 0.090657 0.059736
0.000000 0.000000 0.000000
0.000000 0.000000 0.000000
0.000000 0.000000 0.000000
0.000000 0.000000 0.000000
0.000000 0.000000 0.000000
0.000000 0.000000 0.000000
0.000000 0.000000 0.042697
0.368542 0.291386 0.351936
0.135795 0.167286 0.327099
0.000000 0.056757 0.302489
0.000000 0.000000 0.238589
0.000000 0.000000 0.126646
0.000000 0.000000 0.000000
0.000000 0.000000 0.000000
0.000000 0.000000 0.000000
0.000000 0.124999 0.100076
0.554677 0.464483 0.443863
0.326141 0.334597 0.490379
0.130538 0.224928 0.518284
0.000000 0.095656 0.483213
0.000000 0.000000 0.371565
0.000000 0.000000 0.200502
0.000000 0.000000 0.017947
0.000000 0.000000 0.000000
0.214270 0.587714 0.000000
0.657599 0.584949 0.390648
0.444374 0.469077 0.517192
0.266170 0.377098 0.601878
0.083901 0.271868 0.595492
0.000000 0.156613 0.479585
0.000000 0.074937 0.266471
0.000000 0.110816 0.000000
0.000000 0.388602 0.000000
0.651500 1.000000 0.000000
0.572808 0.497713 0.185330
0.388475 0.420492 0.404400
0.237761 0.367869 0.553953
0.084318 0.305373 0.579930
0.000000 0.238908 0.459032
0.000000 0.214752 0.198726
0.000000 0.319556 0.000000
0.170267 0.680345 0.000000
0.911928 1.000000 0.000000
0.182681 0.020982 0.000000
0.043303 0.011882 0.178108
0.000000 0.025115 0.404439
0.000000 0.028883 0.470278
0.000000 0.031767 0.347479
0.000000 0.082717 0.038661
0.000000 0.271061 0.000000
0.087920 0.726500 0.000000
0.897789 1.000000 0.000000
0.000000 0.000000 0.000000
0.000000 0.000000 0.000000
0.000000 0.000000 0.212509
0.000000 0.000000 0.329531
0.000000 0.000000 0.211744
0.000000 0.000000 0.000000
0.000000 0.000000 0.000000
0.000000 0.352393 0.000000
0.498196 1.000000 0.000000
0.000000 0.000000 0.000000
0.000000 0.000000 0.000000
0.000000 0.000000 0.066582
0.000000 0.000000 0.249932
0.000000 0.000000 0.147890
0.000000 0.000000 0.000000
0.000000 0.000000 0.000000
0.000000 0.000000 0.000000
0.000000 0.511467 0.000000
0.000000 0.000000 0.000000
0.000000 0.000000 0.000000
0.000000 0.000000 0.084323
0.000000 0.000000 0.352966
0.000000 0.000000 0.281225
0.000000 0.000000 0.000000
0.000000 0.000000 0.000000
0.000000 0.000000 0.000000
0.000000 0.000000 0.000000
0.156520 0.162503 0.066991
0.060274 0.149816 0.000000
0.008998 0.161841 0.000000
0.000000 0.140169 0.000000
0.000000 0.066763 0.000000
0.000000 0.000000 0.000000
0.000000 0.000000 0.100451
0.000000 0.000000 0.414259
0.085683 0.308190 1.000000
0.294335 0.252255 0.262449
0.174534 0.198547 0.253165
0.105034 0.176384 0.270723
0.026645 0.130030 0.278091
0.000000 0.044125 0.268998
0.000000 0.000000 0.267936
0.000000 0.000000 0.330161
0.000000 0.001110 0.541690
0.337665 0.410877 1.000000
0.448558 0.432624 0.366635
0.320948 0.361336 0.423482
0.245478 0.325453 0.488069
0.165697 0.271916 0.518513
0.066697 0.188039 0.503698
0.000000 0.101511 0.463267
0.000000 0.080395 0.447628
0.128411 0.233127 0.537950
0.634273 0.708517 0.846167
0.545276 0.589766 0.347587
0.428081 0.529173 0.481916
0.361378 0.504875 0.600472
0.291451 0.466489 0.656525
0.206132 0.404003 0.634110
0.134788 0.347781 0.548023
0.148334 0.368561 0.443822
0.359223 0.577454 0.397830
0.921451 1.000000 0.517132
0.497449 0.583115 0.202588
0.411380 0.566327 0.429572
0.370661 0.583754 0.612860
0.324317 0.587686 0.700876
0.262914 0.570789 0.672804
0.218561 0.566099 0.538595
0.264909 0.647031 0.338957
0.517149 0.927371 0.145366
1.000000 1.000000 0.060058
0.204920 0.245378 0.000000
0.173167 0.310340 0.296800
0.178133 0.404467 0.559406
0.171580 0.482722 0.689559
0.146813 0.540446 0.661597
0.138679 0.613351 0.480621
0.223567 0.777525 0.182493
0.519406 1.000000 0.000000
1.000000 1.000000 0.000000
0.000000 0.000000 0.000000
0.000000 0.000000 0.143195
0.000000 0.000000 0.503526
0.000000 0.000000 0.689814
0.000000 0.138300 0.671550
0.000000 0.319696 0.448985
0.000000 0.595039 0.053136
0.270088 1.000000 0.000000
0.988986 1.000000 0.000000
0.000000 0.000000 0.000000
0.000000 0.000000 0.057598
0.000000 0.000000 0.537883
0.000000 0.000000 0.798126
0.000000 0.000000 0.802969
0.000000 0.000000 0.547816
0.000000 0.000000 0.058835
0.000000 0.542581 0.000000
0.435420 1.000000 0.000000
0.000000 0.000000 0.000000
0.000000 0.000000 0.158097
0.000000 0.000000 0.784386
0.000000 0.000000 1.000000
0.000000 0.000000 1.000000
0.000000 0.000000 0.910488
0.000000 0.000000 0.336788
0.000000 0.000000 0.000000
0.000000 0.508571 0.000000
0.159104 0.146535 0.014357
0.151165 0.182793 0.000000
0.214887 0.262999 0.000000
0.273715 0.315504 0.000000
0.292637 0.309035 0.058455
0.278182 0.252690 0.201803
0.278419 0.195943 0.477107
0.382962 0.228643 0.977718
0.722966 0.481011 1.000000
0.246665 0.215992 0.188166
0.196217 0.190197 0.169756
0.219022 0.212398 0.202576
0.241264 0.213619 0.252077
0.230668 0.165262 0.314472
0.196500 0.079102 0.416735
0.189570 0.007287 0.616605
0.302228 0.042340 1.000000
0.668366 0.317157 1.000000
0.352506 0.383164 0.285063
0.282421 0.327232 0.324695
0.283691 0.320371 0.396190
0.285237 0.296281 0.460149
0.257522 0.229040 0.507938
0.212551 0.133095 0.561683
0.203872 0.063271 0.674275
0.326573 0.114766 0.929367
0.717285 0.423152 1.000000
0.420173 0.548711 0.277329
0.355806 0.499391 0.389030
0.357404 0.497247 0.508817
0.356627 0.478655 0.592442
0.326677 0.420365 0.626422
0.282295 0.339503 0.628038
0.279768 0.293566 0.645331
0.416922 0.380427 0.757106
0.833127 0.738334 1.000000
0.380094 0.586568 0.166491
0.349281 0.585446 0.368110
0.375554 0.626633 0.549627
0.393309 0.649181 0.661947
0.378487 0.632516 0.686740
0.348568 0.596436 0.636436
0.362576 0.601116 0.554230
0.521076 0.747103 0.514078
0.966175 1.000000 0.620701
0.149573 0.343947 0.000000
0.182633 0.437442 0.296529
0.260407 0.565410 0.557037
0.320032 0.669577 0.710904
0.340185 0.732043 0.734949
0.341085 0.775283 0.636758
0.384494 0.862145 0.454675
0.573715 1.000000 0.257810
1.000000 1.000000 0.146034
0.000000 0.000000 0.000000
0.000000 0.000000 0.238126
0.000000 0.143737 0.598708
0.048427 0.374836 0.810794
0.125884 0.558776 0.846357
0.176441 0.720706 0.708132
0.264597 0.926151 0.429617
0.496395 1.000000 0.075073
1.000000 1.000000 0.000000
0.000000 0.000000 0.000000
0.000000 0.000000 0.285985
0.000000 0.000000 0.771546
0.000000 0.000000 1.000000
0.000000 0.000000 1.000000
0.000000 0.250647 0.958929
0.000000 0.615909 0.591249
0.197554 1.000000 0.081882
0.774568 1.000000 0.000000
0.000000 0.000000 0.000000
0.000000 0.000000 0.562437
0.000000 0.000000 1.000000
0.000000 0.000000 1.000000
0.000000 0.000000 1.000000
0.000000 0.000000 1.000000
0.000000 0.000000 1.000000
0.000000 0.444256 0.423500
0.216842 1.000000 0.000000
0.229439 0.176210 0.029876
0.275747 0.234982 0.000000
0.420414 0.355416 0.000000
0.572256 0.452623 0.051915
0.681633 0.482091 0.194670
0.740448 0.439680 0.436669
0.782144 0.361625 0.842984
0.881705 0.324536 1.000000
1.000000 0.445394 1.000000
0.268005 0.223095 0.173251
0.253046 0.198020 0.135262
0.334298 0.235868 0.170664
0.423316 0.254426 0.247391
0.473199 0.211856 0.364137
0.478587 0.106694 0.550361
0.475660 0.000000 0.866285
0.542143 0.000000 1.000000
0.797300 0.006622 1.000000
0.320349 0.366990 0.250770
0.274122 0.298457 0.259868
0.318468 0.291138 0.322724
0.367681 0.265495 0.402423
0.377597 0.182364 0.492813
0.345594 0.042956 0.618504
0.310592 0.000000 0.834869
0.353051 0.000000 1.000000
0.594976 0.000000 1.000000
0.347481 0.523058 0.238958
0.302468 0.456292 0.311845
0.338900 0.446060 0.414447
0.373808 0.415498 0.505002
0.365767 0.328118 0.572509
0.314893 0.187805 0.636731
0.262843 0.038820 0.748192
0.292818 0.000000 0.988181
0.529558 0.093739 1.000000
0.297291 0.579736 0.143584
0.288456 0.564798 0.300785
0.348447 0.598742 0.459249
0.397033 0.607379 0.572365
0.395528 0.556896 0.624285
0.346784 0.453854 0.629923
0.295198 0.345188 0.634957
0.326707 0.318205 0.715825
0.568792 0.500591 0.979731
0.104547 0.398741 0.000000
0.169337 0.490525 0.265526
0.286842 0.620568 0.499788
0.379571 0.717356 0.650993
0.411575 0.749753 0.698443
0.388445 0.726993 0.652206
0.357316 0.698685 0.553109
0.406862 0.754815 0.472746
0.667303 1.000000 0.513471
0.000000 0.000000 0.000000
0.000000 0.073299 0.274152
0.080696 0.356200 0.607971
0.250515 0.594928 0.816613
0.345484 0.761021 0.874532
0.373934 0.866388 0.786949
0.385736 0.963315 0.589843
0.472304 1.000000 0.349959
0.766594 1.000000 0.164802
0.000000 0.000000 0.000000
0.000000 0.000000 0.423990
0.000000 0.000000 0.884946
0.000000 0.062867 1.000000
0.115708 0.418308 1.000000
0.224185 0.704484 1.000000
0.303876 0.976355 0.861596
0.448933 1.000000 0.467723
0.795048 1.000000 0.057808
0.000000 0.000000 0.065475
0.000000 0.000000 0.841614
0.000000 0.000000 1.000000
0.000000 0.000000 1.000000
0.000000 0.000000 1.000000
0.000000 0.047000 1.000000
0.022032 0.548360 1.000000
0.249525 1.000000 0.975544
0.667925 1.000000 0.345816
0.367542 0.251215 0.115616
0.443770 0.321355 0.044113
0.645057 0.469347 0.081423
0.865593 0.597066 0.202809
1.000000 0.646758 0.414297
1.000000 0.601045 0.752679
1.000000 0.482924 1.000000
1.000000 0.355764 1.000000
1.000000 0.323310 1.000000
0.369732 0.283638 0.227233
0.366129 0.247374 0.173438
0.481698 0.287438 0.212967
0.613369 0.308380 0.316236
0.699612 0.255121 0.484424
0.720440 0.112958 0.749471
0.697407 0.000000 1.000000
0.693608 0.000000 1.000000
0.813683 0.000000 1.000000
0.374824 0.404563 0.280745
0.328517 0.310759 0.260214
0.392006 0.288789 0.313110
0.464957 0.245876 0.404999
0.488580 0.129617 0.532213
0.445625 0.000000 0.721845
0.360384 0.000000 1.000000
0.298692 0.000000 1.000000
0.367924 0.000000 1.000000
0.361294 0.543656 0.256920
0.311892 0.446012 0.289032
0.359419 0.412736 0.370263
0.406279 0.353725 0.461332
0.396419 0.219253 0.553722
0.315328 0.000000 0.669678
0.190036 0.000000 0.862208
0.089116 0.000000 1.000000
0.122681 0.000000 1.000000
0.294494 0.603859 0.165773
0.284089 0.560909 0.273729
0.354255 0.571889 0.402085
0.410134 0.549373 0.506714
0.398411 0.446310 0.574251
0.307313 0.256019 0.622093
0.166608 0.012197 0.698400
0.047607 0.000000 0.882095
0.063162 0.000000 1.000000
0.126655 0.461389 0.046564
0.199822 0.536502 0.257384
0.333710 0.652137 0.455479
0.436201 0.723544 0.591872
0.456716 0.706345 0.648349
0.386222 0.596535 0.637460
0.257225 0.430487 0.602518
0.143773 0.284945 0.617596
0.161457 0.277027 0.787532
0.000000 0.000000 0.000000
0.000682 0.227121 0.312326
0.241858 0.512645 0.606593
0.431034 0.740237 0.796774
0.520373 0.868193 0.859807
0.503576 0.895186 0.803394
0.415889 0.860261 0.665998
0.334099 0.842837 0.516845
0.376533 0.962709 0.455927
0.000000 0.000000 0.027221
0.000000 0.000000 0.540126
0.009651 0.000000 0.960823
0.328070 0.436727 1.000000
0.525297 0.773966 1.000000
0.597773 0.998917 1.000000
0.583482 1.000000 1.000000
0.561946 1.000000 0.704347
0.654234 1.000000 0.416372
0.000000 0.000000 0.351833
0.000000 0.000000 1.000000
0.000000 0.000000 1.000000
0.047620 0.000000 1.000000
0.394284 0.239051 1.000000
0.594091 0.727950 1.000000
0.687761 1.000000 1.000000
0.757558 1.000000 1.000000
0.927285 1.000000 0.826438
0.542339 0.340809 0.239007
0.633888 0.426457 0.189063
0.877201 0.604625 0.265901
1.000000 0.763949 0.447268
1.000000 0.833438 0.741674
1.000000 0.782473 1.000000
1.000000 0.620813 1.000000
1.000000 0.398587 1.000000
1.000000 0.206302 1.000000
0.532130 0.377269 0.325001
0.525479 0.333193 0.273399
0.660967 0.377328 0.332827
0.820897 0.400985 0.476182
0.929111 0.335847 0.707127
0.950994 0.153971 1.000000
0.893474 0.000000 1.000000
0.805019 0.000000 1.000000
0.775641 0.000000 1.000000
0.507575 0.485920 0.357337
0.446980 0.369460 0.322311
0.515407 0.333930 0.378150
0.597898 0.273317 0.492907
0.621034 0.121977 0.665394
0.552937 0.000000 0.925188
0.403273 0.000000 1.000000
0.223249 0.000000 1.000000
0.105613 0.000000 1.000000
0.464614 0.610932 0.321028
0.396811 0.484261 0.324630
0.441424 0.428269 0.394527
0.486233 0.339617 0.493919
0.460555 0.155338 0.616774
0.335252 0.000000 0.787819
0.122728 0.000000 1.000000
0.000000 0.000000 1.000000
0.000000 0.000000 1.000000
0.386063 0.669749 0.230330
0.360271 0.599875 0.298438
0.426799 0.587460 0.403858
0.476162 0.531836 0.504943
0.440418 0.372712 0.590813
0.293167 0.090172 0.681346
0.049549 0.000000 0.827186
0.000000 0.000000 1.000000
0.000000 0.000000 1.000000
0.241617 0.553090 0.128748
0.309538 0.611859 0.291060
0.446191 0.711892 0.457291
0.544830 0.755199 0.580948
0.540249 0.684162 0.646301
0.408787 0.481540 0.668382
0.168323 0.170465 0.692986
0.000000 0.000000 0.796671
0.000000 0.000000 1.000000
0.000000 0.124954 0.089030
0.203667 0.389044 0.379065
0.461138 0.675234 0.635218
0.656254 0.888208 0.806147
0.726548 0.973025 0.871275
0.651096 0.915116 0.840785
0.450516 0.740290 0.755625
0.186967 0.514727 0.687504
0.000000 0.344982 0.738894
0.000000 0.000000 0.213169
0.000000 0.000000 0.668269
0.420055 0.324429 1.000000
0.761333 0.782643 1.000000
0.952695 1.000000 1.000000
0.975957 1.000000 1.000000
0.854474 1.000000 1.000000
0.653143 1.000000 0.910984
0.478403 1.000000 0.730153
0.000000 0.000000 0.632405
0.000000 0.000000 1.000000
0.258236 0.000000 1.000000
0.797842 0.263559 1.000000
1.000000 0.882720 1.000000
1.000000 1.000000 1.000000
1.000000 1.000000 1.000000
1.000000 1.000000 1.000000
1.000000 1.000000 1.000000
0.691661 0.383827 0.332846
0.793662 0.504407 0.339551
1.000000 0.730655 0.488781
1.000000 0.937965 0.760765
1.000000 1.000000 1.000000
1.000000 0.999226 1.000000
1.000000 0.805839 1.000000
1.000000 0.498838 1.000000
1.000000 0.155489 1.000000
0.704388 0.453210 0.406811
0.690016 0.419985 0.389628
0.840756 0.485332 0.498950
1.000000 0.527322 0.710161
1.000000 0.464399 1.000000
1.000000 0.255383 1.000000
1.000000 0.000000 1.000000
0.893677 0.000000 1.000000
0.710204 0.000000 1.000000
0.679150 0.570673 0.428262
0.599788 0.449456 0.408098
0.668682 0.416745 0.494011
0.756244 0.353286 0.656538
0.774428 0.180198 0.896973
0.676730 0.000000 1.000000
0.458188 0.000000 1.000000
0.155382 0.000000 1.000000
0.000000 0.000000 1.000000
0.629349 0.694885 0.386454
0.538861 0.556324 0.388038
0.576284 0.493232 0.470864
0.614766 0.389031 0.600616
0.569002 0.167514 0.773744
0.395223 0.000000 1.000000
0.091208 0.000000 1.000000
0.000000 0.000000 1.000000
0.000000 0.000000 1.000000
0.555265 0.757793 0.299888
0.509999 0.677372 0.351774
0.568806 0.656412 0.455653
0.607575 0.581010 0.572364
0.543737 0.377634 0.693507
0.336262 0.013129 0.841445
0.000000 0.000000 1.000000
0.000000 0.000000 1.000000
0.000000 0.000000 1.000000
0.444057 0.664622 0.216311
0.502841 0.722659 0.350872
0.638372 0.821179 0.503769
0.729275 0.848952 0.630993
0.695719 0.735123 0.719296
0.499415 0.449211 0.786194
0.143615 0.001108 0.879964
0.000000 0.000000 1.000000
0.000000 0.000000 1.000000
0.269762 0.293872 0.212716
0.493907 0.575520 0.466147
0.763981 0.875703 0.699849
0.961348 1.000000 0.864962
1.000000 1.000000 0.943392
0.871129 1.000000 0.947806
0.553982 0.696282 0.921634
0.105006 0.268294 0.939068
0.000000 0.000000 1.000000
0.000000 0.000000 0.395339
0.446593 0.092567 0.807659
0.911514 0.681429 1.000000
1.000000 1.000000 1.000000
1.000000 1.000000 1.000000
1.000000 1.000000 1.000000
1.000000 1.000000 1.000000
0.807976 1.000000 1.000000
0.362739 0.977392 1.000000
0.000000 0.000000 0.899665
0.311176 0.000000 1.000000
1.000000 0.073083 1.000000
1.000000 0.904994 1.000000
1.000000 1.000000 1.000000
1.000000 1.000000 1.000000
1.000000 1.000000 1.000000
1.000000 1.000000 1.000000
1.000000 1.000000 1.000000
0.722245 0.288677 0.295289
0.839561 0.478901 0.407961
1.000000 0.786416 0.676672
1.000000 1.000000 1.000000
1.000000 1.000000 1.000000
1.000000 1.000000 1.000000
1.000000 1.000000 1.000000
1.000000 0.671924 1.000000
1.000000 0.201564 1.000000
0.804603 0.430261 0.378281
0.787568 0.441835 0.441966
0.958619 0.560819 0.645407
1.000000 0.652045 0.966468
1.000000 0.620718 1.000000
1.000000 0.412419 1.000000
1.000000 0.013101 1.000000
0.945787 0.000000 1.000000
0.613310 0.000000 1.000000
0.819003 0.588007 0.406597
0.726128 0.495218 0.444878
0.800744 0.496989 0.602223
0.898638 0.460825 0.851647
0.917137 0.294607 1.000000
0.795109 0.000000 1.000000
0.512964 0.000000 1.000000
0.092656 0.000000 1.000000
0.000000 0.000000 1.000000
0.796312 0.735088 0.373736
0.688588 0.617061 0.414020
0.724271 0.577769 0.548264
0.761885 0.487396 0.744637
0.701495 0.256497 1.000000
0.484707 0.000000 1.000000
0.094670 0.000000 1.000000
0.000000 0.000000 1.000000
0.000000 0.000000 1.000000
0.754274 0.817956 0.302444
0.695175 0.758647 0.375957
0.751909 0.759281 0.513919
0.785736 0.692715 0.679650
0.699459 0.472180 0.867233
0.437423 0.051280 1.000000
0.000000 0.000000 1.000000
0.000000 0.000000 1.000000
0.000000 0.000000 1.000000
0.697509 0.756336 0.244710
0.752993 0.844539 0.386503
0.893243 0.970921 0.558823
0.982258 1.000000 0.720142
0.925579 0.880722 0.859695
0.670289 0.536327 0.997482
0.205014 0.000000 1.000000
0.000000 0.000000 1.000000
0.000000 0.000000 1.000000
0.617518 0.443231 0.281772
0.856023 0.772574 0.530716
1.000000 1.000000 0.771855
1.000000 1.000000 0.958814
1.000000 1.000000 1.000000
1.000000 1.000000 1.000000
0.759559 0.790689 1.000000
0.131215 0.181275 1.000000
0.000000 0.000000 1.000000
0.492679 0.000000 0.524109
0.985127 0.413868 0.922898
1.000000 1.000000 1.000000
1.000000 1.000000 1.000000
1.000000 1.000000 1.000000
1.000000 1.000000 1.000000
1.000000 1.000000 1.000000
1.000000 1.000000 1.000000
0.371333 0.852698 1.000000
0.288249 0.000000 1.000000
1.000000 0.000000 1.000000
1.000000 0.679720 1.000000
1.000000 1.000000 1.000000
1.000000 1.000000 1.000000
1.000000 1.000000 1.000000
1.000000 1.000000 1.000000
1.000000 1.000000 1.000000
1.000000 1.000000 1.000000
0.509735 0.000000 0.000000
0.656958 0.243208 0.272040
1.000000 0.680464 0.721549
1.000000 1.000000 1.000000
1.000000 1.000000 1.000000
1.000000 1.000000 1.000000
1.000000 1.000000 1.000000
1.000000 0.902828 1.000000
1.000000 0.344797 1.000000
0.719777 0.196791 0.110391
0.714866 0.302399 0.315621
0.921022 0.522731 0.671629
1.000000 0.709382 1.000000
1.000000 0.754318 1.000000
1.000000 0.589880 1.000000
1.000000 0.188782 1.000000
0.916465 0.000000 1.000000
0.449803 0.000000 1.000000
0.825498 0.436682 0.170783
0.734090 0.420794 0.325319
0.829417 0.503995 0.609676
0.952635 0.540552 0.999353
0.986444 0.425107 1.000000
0.855086 0.092676 1.000000
0.524345 0.000000 1.000000
0.001545 0.000000 1.000000
0.000000 0.000000 1.000000
0.875225 0.640692 0.168776
0.765442 0.590906 0.302701
0.814568 0.621601 0.541079
0.866500 0.589720 0.854561
0.806675 0.392580 1.000000
0.562074 0.000000 1.000000
0.101217 0.000000 1.000000
0.000000 0.000000 1.000000
0.000000 0.000000 1.000000
0.904167 0.769774 0.131359
0.846610 0.778523 0.278576
0.916647 0.846174 0.500469
0.960914 0.832346 0.762840
0.867585 0.637029 1.000000
0.566379 0.200590 1.000000
0.028555 0.000000 1.000000
0.000000 0.000000 1.000000
0.000000 0.000000 1.000000
0.934409 0.758157 0.114766
1.000000 0.922709 0.313001
1.000000 1.000000 0.551724
1.000000 1.000000 0.791891
1.000000 1.000000 1.000000
0.902498 0.749241 1.000000
0.343339 0.112223 1.000000
0.000000 0.000000 1.000000
0.000000 0.000000 1.000000
0.974914 0.513347 0.204477
1.000000 0.935805 0.495277
1.000000 1.000000 0.787968
1.000000 1.000000 1.000000
1.000000 1.000000 1.000000
1.000000 1.000000 1.000000
1.000000 1.000000 1.000000
0.277504 0.300984 1.000000
0.000000 0.000000 1.000000
1.000000 0.000000 0.515217
1.000000 0.703429 0.943951
1.000000 1.000000 1.000000
1.000000 1.000000 1.000000
1.000000 1.000000 1.000000
1.000000 1.000000 1.000000
1.000000 1.000000 1.000000
1.000000 1.000000 1.000000
0.537181 0.966241 1.000000
1.000000 0.000000 1.000000
1.000000 0.084475 1.000000
1.000000 1.000000 1.000000
1.000000 1.000000 1.000000
1.000000 1.000000 1.000000
1.000000 1.000000 1.000000
1.000000 1.000000 1.000000
1.000000 1.000000 1.000000
1.000000 1.000000 1.000000
