public/luts/kodak_gold_v1.cube
# Generated from ColorChecker fit
LUT_3D_SIZE 33
DOMAIN_MIN 0.0 0.0 0.0
DOMAIN_MAX 1.0 1.0 1.0
0.218136 0.057818 0.490499
0.186193 0.047495 0.464062
0.157782 0.039223 0.444957
0.133176 0.033215 0.432575
0.112539 0.029617 0.426284
0.095924 0.028510 0.425422
0.083272 0.029908 0.429304
0.074414 0.033758 0.437215
0.069070 0.039942 0.448415
0.066848 0.048275 0.462137
0.067247 0.058504 0.477588
0.069655 0.070314 0.493948
0.073347 0.083318 0.510370
0.077488 0.097067 0.525981
0.081135 0.111045 0.539880
0.083230 0.124667 0.551142
0.082606 0.137286 0.558812
0.077985 0.148184 0.561912
0.067978 0.156580 0.559434
0.051086 0.161625 0.550346
0.025697 0.162405 0.533588
0.000000 0.157939 0.508073
0.000000 0.147179 0.472688
0.000000 0.129011 0.426295
0.000000 0.102255 0.367726
0.000000 0.065665 0.295789
0.000000 0.017928 0.209265
0.000000 0.000000 0.106906
0.000000 0.000000 0.000000
0.000000 0.000000 0.000000
0.000000 0.000000 0.000000
0.000000 0.000000 0.000000
0.000000 0.000000 0.000000
0.281819 0.102441 0.513572
0.252117 0.096327 0.489045
0.225755 0.091916 0.471790
0.202985 0.089390 0.461177
0.183945 0.088866 0.456552
0.168665 0.090394 0.457232
0.157064 0.093959 0.462510
0.148947 0.099477 0.471650
0.144013 0.106800 0.483892
0.141846 0.115714 0.498446
0.141921 0.125936 0.514497
0.143602 0.137119 0.531206
0.146142 0.148849 0.547703
0.148682 0.160645 0.563093
0.150255 0.171962 0.576456
0.149779 0.182185 0.586844
0.146065 0.190636 0.593281
0.137811 0.196568 0.594767
0.123605 0.199170 0.590274
0.101923 0.197563 0.578747
0.071131 0.190802 0.559105
0.029484 0.177877 0.530242
0.000000 0.157710 0.491021
0.000000 0.129157 0.440283
0.000000 0.091008 0.376840
0.000000 0.041987 0.299477
0.000000 0.000000 0.206954
0.000000 0.000000 0.098003
0.000000 0.000000 0.000000
0.000000 0.000000 0.000000
0.000000 0.000000 0.000000
0.000000 0.000000 0.000000
0.000000 0.000000 0.000000
0.331679 0.143494 0.531634
0.303982 0.141583 0.508934
0.279416 0.141002 0.493428
0.258209 0.141904 0.484468
0.240477 0.144377 0.481378
0.226225 0.148440 0.483453
0.215348 0.154047 0.489965
0.207631 0.161086 0.500157
0.202745 0.169378 0.513246
0.200254 0.178679 0.528423
0.199607 0.188676 0.544852
0.200147 0.198993 0.561669
0.201101 0.209185 0.577985
0.201589 0.218742 0.592885
0.200618 0.227087 0.605425
0.197085 0.233578 0.614636
0.189776 0.237504 0.619523
0.177366 0.238090 0.619063
0.158419 0.234494 0.612206
0.131389 0.225808 0.597877
0.094618 0.211057 0.574973
0.046337 0.189199 0.542365
0.000000 0.159128 0.498898
0.000000 0.119670 0.443390
0.000000 0.069585 0.374631
0.000000 0.007566 0.291385
0.000000 0.000000 0.192392
0.000000 0.000000 0.076361
0.000000 0.000000 0.000000
0.000000 0.000000 0.000000
0.000000 0.000000 0.000000
0.000000 0.000000 0.000000
0.000000 0.000000 0.000000
0.368412 0.181032 0.545014
0.342494 0.183325 0.524052
0.319480 0.186552 0.510193
0.299574 0.190838 0.502768
0.282869 0.196238 0.501078
0.269347 0.202743 0.504399
0.258880 0.210278 0.511980
0.251227 0.218699 0.523044
0.246038 0.227799 0.536785
0.242853 0.237301 0.552373
0.241097 0.246866 0.568951
0.240090 0.256085 0.585634
0.239035 0.264484 0.601512
0.237029 0.271522 0.615648
0.233056 0.276594 0.627076
0.225989 0.279027 0.634807
0.214590 0.278080 0.637823
0.197511 0.272948 0.635081
0.173293 0.262759 0.625509
0.140365 0.246576 0.608011
0.097047 0.223392 0.581463
0.041547 0.192137 0.544714
0.000000 0.151675 0.496588
0.000000 0.100800 0.435881
0.000000 0.038244 0.361361
0.000000 0.000000 0.271774
0.000000 0.000000 0.165834
0.000000 0.000000 0.042233
0.000000 0.000000 0.000000
0.000000 0.000000 0.000000
0.000000 0.000000 0.000000
0.000000 0.000000 0.000000
0.000000 0.000000 0.000000
0.392946 0.215179 0.554281
0.368590 0.221685 0.534966
0.346894 0.228707 0.522649
0.328037 0.236339 0.516638
0.312089 0.244607 0.516212
0.299009 0.253472 0.520626
0.288644 0.262827 0.529109
0.280732 0.272500 0.540860
0.274899 0.282254 0.555055
0.270659 0.291782 0.570840
0.267417 0.300713 0.587338
0.264466 0.308611 0.603642
0.260989 0.314970 0.618821
0.256058 0.319221 0.631916
0.248633 0.320726 0.641941
0.237563 0.318784 0.647884
0.221589 0.312624 0.648707
0.199338 0.301411 0.643345
0.169327 0.284244 0.630704
0.129963 0.260153 0.609668
0.079542 0.228103 0.579091
0.016247 0.186995 0.537801
0.000000 0.135661 0.484600
0.000000 0.072867 0.418262
0.000000 0.000000 0.337536
0.000000 0.000000 0.241145
0.000000 0.000000 0.127782
0.000000 0.000000 0.000000
0.000000 0.000000 0.000000
0.000000 0.000000 0.000000
0.000000 0.000000 0.000000
0.000000 0.000000 0.000000
0.000000 0.000000 0.000000
0.406442 0.246129 0.560247
0.383442 0.256867 0.542487
0.362838 0.267679 0.531603
0.344787 0.278629 0.526881
0.329336 0.289713 0.527580
0.316419 0.300862 0.532933
0.305861 0.311940 0.542146
0.297376 0.322744 0.554400
0.290565 0.333007 0.568846
0.284921 0.342392 0.584612
0.279824 0.350499 0.600797
0.274545 0.356860 0.616475
0.268241 0.360942 0.630691
0.259962 0.362143 0.642466
0.248645 0.359798 0.650794
0.233116 0.353173 0.654639
0.212091 0.341469 0.652944
0.184174 0.323820 0.644620
0.147859 0.299295 0.628555
0.101529 0.266896 0.603609
0.043456 0.225557 0.568615
0.000000 0.174147 0.522381
0.000000 0.111470 0.463686
0.000000 0.036262 0.391284
0.000000 0.000000 0.303903
0.000000 0.000000 0.200242
0.000000 0.000000 0.078975
0.000000 0.000000 0.000000
0.000000 0.000000 0.000000
0.000000 0.000000 0.000000
0.000000 0.000000 0.000000
0.000000 0.000000 0.000000
0.000000 0.000000 0.000000
0.410295 0.274148 0.563965
0.388453 0.289145 0.547665
0.368727 0.303751 0.538103
0.351249 0.317999 0.534543
0.336044 0.331857 0.536225
0.323022 0.345224 0.542359
0.311984 0.357934 0.552130
0.302620 0.369756 0.564697
0.294509 0.380391 0.579192
0.287120 0.389474 0.594719
0.279810 0.396574 0.610356
0.271825 0.401193 0.625156
0.262301 0.402767 0.638144
0.250263 0.400666 0.648318
0.234623 0.394193 0.654650
0.214186 0.382586 0.656086
0.187644 0.365015 0.651543
0.153577 0.340585 0.639915
0.110456 0.308333 0.620066
0.056640 0.267232 0.590836
0.000000 0.216187 0.551035
0.000000 0.154037 0.499451
0.000000 0.079554 0.434842
0.000000 0.000000 0.355939
0.000000 0.000000 0.261449
0.000000 0.000000 0.150051
0.000000 0.000000 0.020397
0.000000 0.000000 0.000000
0.000000 0.000000 0.000000
0.000000 0.000000 0.000000
0.000000 0.000000 0.000000
0.000000 0.000000 0.000000
0.000000 0.000000 0.000000
0.406131 0.299573 0.566733
0.385260 0.318864 0.551794
0.366206 0.337276 0.543440
0.349079 0.354811 0.540914
0.333878 0.371407 0.543434
0.320491 0.386934 0.550188
0.308696 0.401197 0.560342
0.298159 0.413932 0.573031
0.288436 0.424812 0.587367
0.278971 0.433441 0.602432
0.269099 0.439359 0.617284
0.258042 0.442038 0.630953
0.244913 0.440884 0.642444
0.228712 0.435236 0.650732
0.208330 0.424368 0.654770
0.182547 0.407488 0.653480
0.150031 0.383736 0.645760
0.109340 0.352187 0.630480
0.058921 0.311848 0.606486
0.000000 0.261661 0.572593
0.000000 0.200502 0.527594
0.000000 0.127180 0.470251
0.000000 0.040438 0.399303
0.000000 0.000000 0.313461
0.000000 0.000000 0.211408
0.000000 0.000000 0.091803
0.000000 0.000000 0.000000
0.000000 0.000000 0.000000
0.000000 0.000000 0.000000
0.000000 0.000000 0.000000
0.000000 0.000000 0.000000
0.000000 0.000000 0.000000
0.000000 0.000000 0.000000
0.395810 0.322811 0.570089
0.375733 0.346440 0.556410
0.357156 0.368677 0.549148
0.340165 0.389497 0.547524
0.324738 0.408806 0.550733
0.310737 0.426444 0.557946
0.297917 0.442185 0.568303
0.285922 0.455738 0.580921
0.274283 0.466744 0.594888
0.262421 0.474777 0.609266
0.249648 0.479347 0.623092
0.235162 0.479897 0.635375
0.218052 0.475801 0.645096
0.197296 0.466371 0.651213
0.171761 0.450850 0.652653
0.140203 0.428414 0.648319
0.101267 0.398175 0.637088
0.053487 0.359177 0.617809
0.000000 0.310398 0.589304
0.000000 0.250750 0.550369
0.000000 0.179079 0.499775
0.000000 0.094163 0.436263
0.000000 0.000000 0.358550
0.000000 0.000000 0.265325
0.000000 0.000000 0.155252
0.000000 0.000000 0.026966
0.000000 0.000000 0.000000
0.000000 0.000000 0.000000
0.000000 0.000000 0.000000
0.000000 0.000000 0.000000
0.000000 0.000000 0.000000
0.000000 0.000000 0.000000
0.000000 0.000000 0.000000
0.381426 0.344337 0.575814
0.361975 0.372357 0.563292
0.343688 0.398450 0.557002
0.326631 0.422560 0.556145
0.310754 0.444564 0.559894
0.295900 0.464272 0.567399
0.281798 0.481429 0.577778
0.268068 0.495711 0.590128
0.254220 0.506732 0.603514
0.239650 0.514035 0.616978
0.223646 0.517100 0.629535
0.205384 0.515340 0.640172
0.183929 0.508100 0.647851
0.158235 0.494660 0.651505
0.127145 0.474234 0.650042
0.089393 0.445969 0.642344
0.043600 0.408946 0.627266
0.000000 0.362179 0.603635
0.000000 0.304616 0.570252
0.000000 0.235140 0.525893
0.000000 0.152565 0.469305
0.000000 0.055642 0.399210
0.000000 0.000000 0.314303
0.000000 0.000000 0.213252
0.000000 0.000000 0.094698
0.000000 0.000000 0.000000
0.000000 0.000000 0.000000
0.000000 0.000000 0.000000
0.000000 0.000000 0.000000
0.000000 0.000000 0.000000
0.000000 0.000000 0.000000
0.000000 0.000000 0.000000
0.000000 0.000000 0.000000
0.365305 0.364702 0.585932
0.346320 0.397173 0.574460
0.328149 0.427160 0.569020
0.310830 0.454575 0.568793
0.294292 0.479265 0.572930
0.278354 0.501010 0.580557
0.262722 0.519526 0.590776
0.246993 0.534460 0.602657
0.230651 0.545393 0.615248
0.213072 0.551841 0.627567
0.193517 0.553252 0.638609
0.171141 0.549010 0.647339
0.144985 0.538429 0.652697
0.113979 0.520761 0.653597
0.076944 0.495189 0.648924
0.032589 0.460829 0.637538
0.000000 0.416733 0.618274
0.000000 0.361885 0.589936
0.000000 0.295203 0.551306
0.000000 0.215540 0.501137
0.000000 0.121680 0.438155
0.000000 0.012344 0.361060
0.000000 0.000000 0.268527
0.000000 0.000000 0.159201
0.000000 0.000000 0.031704
0.000000 0.000000 0.000000
0.000000 0.000000 0.000000
0.000000 0.000000 0.000000
0.000000 0.000000 0.000000
0.000000 0.000000 0.000000
0.000000 0.000000 0.000000
0.000000 0.000000 0.000000
0.000000 0.000000 0.000000
0.350005 0.384523 0.602709
0.331339 0.421516 0.592177
0.313115 0.455442 0.587463
0.295351 0.486184 0.587725
0.277950 0.513560 0.592093
0.260708 0.537320 0.599674
0.243308 0.557148 0.609544
0.225322 0.572662 0.620755
0.206213 0.583415 0.632332
0.185332 0.588890 0.643274
0.161917 0.588507 0.652552
0.135099 0.581619 0.659111
0.103896 0.567511 0.661870
0.067215 0.545404 0.659719
0.023852 0.514452 0.651525
0.000000 0.473740 0.636126
0.000000 0.422291 0.612333
0.000000 0.359059 0.578932
0.000000 0.282931 0.534682
0.000000 0.192731 0.478315
0.000000 0.087213 0.408535
0.000000 0.000000 0.324022
0.000000 0.000000 0.223427
0.000000 0.000000 0.105377
0.000000 0.000000 0.000000
0.000000 0.000000 0.000000
0.000000 0.000000 0.000000
0.000000 0.000000 0.000000
0.000000 0.000000 0.000000
0.000000 0.000000 0.000000
0.000000 0.000000 0.000000
0.000000 0.000000 0.000000
0.000000 0.000000 0.000000
0.338318 0.404491 0.628651
0.319832 0.446082 0.618949
0.301399 0.484002 0.614833
0.283014 0.518104 0.615441
0.264558 0.548173 0.619883
0.245801 0.573932 0.627242
0.226404 0.595034 0.636574
0.205916 0.611068 0.646911
0.183775 0.621554 0.657255
0.159309 0.625948 0.666583
0.131734 0.623640 0.673846
0.100156 0.613951 0.677967
0.063570 0.596137 0.677843
0.020859 0.569390 0.672345
0.000000 0.532832 0.660316
0.000000 0.485521 0.640574
0.000000 0.426447 0.611909
0.000000 0.354535 0.573085
0.000000 0.268643 0.522840
0.000000 0.167564 0.459883
0.000000 0.050023 0.382899
0.000000 0.000000 0.290545
0.000000 0.000000 0.181452
0.000000 0.000000 0.054225
0.000000 0.000000 0.000000
0.000000 0.000000 0.000000
0.000000 0.000000 0.000000
0.000000 0.000000 0.000000
0.000000 0.000000 0.000000
0.000000 0.000000 0.000000
0.000000 0.000000 0.000000
0.000000 0.000000 0.000000
0.000000 0.000000 0.000000
0.333269 0.425364 0.666510
0.314833 0.471642 0.657522
0.296045 0.513619 0.653875
0.276874 0.551119 0.654684
0.257179 0.583899 0.659038
0.236706 0.611651 0.665999
0.215094 0.633997 0.674602
0.191866 0.650496 0.683856
0.166439 0.660639 0.692743
0.138116 0.663852 0.700219
0.106090 0.659495 0.705212
0.069444 0.646858 0.706626
0.027148 0.625170 0.703335
0.000000 0.593589 0.694189
0.000000 0.551209 0.678010
0.000000 0.497058 0.653593
0.000000 0.430096 0.619709
0.000000 0.349219 0.575099
0.000000 0.253253 0.518480
0.000000 0.140962 0.448540
0.000000 0.011041 0.363943
0.000000 0.000000 0.263324
0.000000 0.000000 0.145293
0.000000 0.000000 0.008433
0.000000 0.000000 0.000000
0.000000 0.000000 0.000000
0.000000 0.000000 0.000000
0.000000 0.000000 0.000000
0.000000 0.000000 0.000000
0.000000 0.000000 0.000000
0.000000 0.000000 0.000000
0.000000 0.000000 0.000000
0.000000 0.000000 0.000000
0.338116 0.447974 0.719278
0.319611 0.499033 0.710887
0.300329 0.545139 0.707576
0.280217 0.586087 0.708438
0.259110 0.621603 0.712540
0.236730 0.651348 0.718923
0.212693 0.674916 0.726602
0.186499 0.691836 0.734563
0.157540 0.701569 0.741768
0.125097 0.703510 0.747150
0.088339 0.696989 0.749618
0.046326 0.681267 0.748052
0.000000 0.655541 0.741306
0.000000 0.618942 0.728208
0.000000 0.570533 0.707560
0.000000 0.509311 0.678135
0.000000 0.434207 0.638681
0.000000 0.344085 0.587920
0.000000 0.237745 0.524547
0.000000 0.113918 0.447228
0.000000 0.000000 0.354606
0.000000 0.000000 0.245294
0.000000 0.000000 0.117882
0.000000 0.000000 0.000000
0.000000 0.000000 0.000000
0.000000 0.000000 0.000000
0.000000 0.000000 0.000000
0.000000 0.000000 0.000000
0.000000 0.000000 0.000000
0.000000 0.000000 0.000000
0.000000 0.000000 0.000000
0.000000 0.000000 0.000000
0.000000 0.000000 0.000000
0.356348 0.473223 0.790189
0.337664 0.529166 0.782276
0.317762 0.579481 0.779165
0.296563 0.623934 0.779928
0.273880 0.662219 0.783613
0.249412 0.693969 0.789237
0.222750 0.718747 0.795794
0.193373 0.736051 0.802249
0.160647 0.745314 0.807543
0.123831 0.745899 0.810588
0.082070 0.737108 0.810270
0.034400 0.718171 0.805449
0.000000 0.688256 0.794958
0.000000 0.646463 0.777603
0.000000 0.591824 0.752163
0.000000 0.523308 0.717393
0.000000 0.439816 0.672018
0.000000 0.340181 0.614738
0.000000 0.223173 0.544226
0.000000 0.087494 0.459129
0.000000 0.000000 0.358067
0.000000 0.000000 0.239634
0.000000 0.000000 0.102395
0.000000 0.000000 0.000000
0.000000 0.000000 0.000000
0.000000 0.000000 0.000000
0.000000 0.000000 0.000000
0.000000 0.000000 0.000000
0.000000 0.000000 0.000000
0.000000 0.000000 0.000000
0.000000 0.000000 0.000000
0.000000 0.000000 0.000000
0.000000 0.000000 0.000000
0.391691 0.502081 0.882722
0.372727 0.563021 0.875163
0.352086 0.617635 0.872114
0.329665 0.665657 0.872625
0.305252 0.706754 0.875722
0.278524 0.740527 0.880403
0.249048 0.766510 0.885638
0.216278 0.784171 0.890372
0.179560 0.792913 0.893524
0.138127 0.792069 0.893984
0.091102 0.780910 0.890619
0.037496 0.758637 0.882265
0.000000 0.724388 0.867735
0.000000 0.677233 0.845814
0.000000 0.616175 0.815260
0.000000 0.540151 0.774804
0.000000 0.448032 0.723152
0.000000 0.338624 0.658982
0.000000 0.210664 0.580946
0.000000 0.062824 0.487670
0.000000 0.000000 0.377751
0.000000 0.000000 0.249762
0.000000 0.000000 0.102249
0.000000 0.000000 0.000000
0.000000 0.000000 0.000000
0.000000 0.000000 0.000000
0.000000 0.000000 0.000000
0.000000 0.000000 0.000000
0.000000 0.000000 0.000000
0.000000 0.000000 0.000000
0.000000 0.000000 0.000000
0.000000 0.000000 0.000000
0.000000 0.000000 0.000000
0.448099 0.535593 1.000000
0.428766 0.601650 0.993265
0.407277 0.660659 0.990137
0.383507 0.712325 0.990240
0.357220 0.756285 0.992578
0.328070 0.792109 0.996127
0.295600 0.819301 0.999837
0.259241 0.837300 1.000000
0.218314 0.845477 1.000000
0.172031 0.843138 1.000000
0.119489 0.829522 0.994356
0.059677 0.803802 0.982190
0.000000 0.765083 0.963326
0.000000 0.712407 0.936527
0.000000 0.644746 0.900530
0.000000 0.561008 0.854047
0.000000 0.460034 0.795760
0.000000 0.340600 0.724327
0.000000 0.201412 0.638378
0.000000 0.041114 0.536518
0.000000 0.000000 0.417322
0.000000 0.000000 0.279343
0.000000 0.000000 0.121104
0.000000 0.000000 0.000000
0.000000 0.000000 0.000000
0.000000 0.000000 0.000000
0.000000 0.000000 0.000000
0.000000 0.000000 0.000000
0.000000 0.000000 0.000000
0.000000 0.000000 0.000000
0.000000 0.000000 0.000000
0.000000 0.000000 0.000000
0.000000 0.000000 0.000000
0.529762 0.574870 1.000000
0.509980 0.646173 1.000000
0.487545 0.709685 1.000000
0.462309 0.765078 1.000000
0.434013 0.811959 1.000000
0.402288 0.849869 1.000000
0.366653 0.878283 1.000000
0.326517 0.896609 1.000000
0.281176 0.904189 1.000000
0.229817 0.900297 1.000000
0.171517 0.884144 1.000000
0.105239 0.854871 1.000000
0.029839 0.811556 1.000000
0.000000 0.753208 1.000000
0.000000 0.678770 1.000000
0.000000 0.587122 0.959043
0.000000 0.477073 0.893761
0.000000 0.347368 0.814688
0.000000 0.196686 0.720435
0.000000 0.023639 0.609583
0.000000 0.000000 0.480688
0.000000 0.000000 0.332280
0.000000 0.000000 0.162862
0.000000 0.000000 0.000000
0.000000 0.000000 0.000000
0.000000 0.000000 0.000000
0.000000 0.000000 0.000000
0.000000 0.000000 0.000000
0.000000 0.000000 0.000000
0.000000 0.000000 0.000000
0.000000 0.000000 0.000000
0.000000 0.000000 0.000000
0.000000 0.000000 0.000000
0.641104 0.621097 1.000000
0.620800 0.697785 1.000000
0.597330 0.765913 1.000000
0.570521 0.825123 1.000000
0.540093 0.874994 1.000000
0.505650 0.915035 1.000000
0.466690 0.944693 1.000000
0.422597 0.963343 1.000000
0.372644 0.970300 1.000000
0.315997 0.964807 1.000000
0.251705 0.946044 1.000000
0.178712 0.913123 1.000000
0.095847 0.865092 1.000000
0.001830 0.800931 1.000000
0.000000 0.719552 1.000000
0.000000 0.619804 1.000000
0.000000 0.500468 1.000000
0.000000 0.360257 0.934224
0.000000 0.197822 0.831271
0.000000 0.011744 0.711018
0.000000 0.000000 0.571999
0.000000 0.000000 0.412721
0.000000 0.000000 0.231667
0.000000 0.000000 0.027290
0.000000 0.000000 0.000000
0.000000 0.000000 0.000000
0.000000 0.000000 0.000000
0.000000 0.000000 0.000000
0.000000 0.000000 0.000000
0.000000 0.000000 0.000000
0.000000 0.000000 0.000000
0.000000 0.000000 0.000000
0.000000 0.000000 0.000000
0.786778 0.675529 1.000000
0.765892 0.757748 1.000000
0.741307 0.830614 1.000000
0.712829 0.893742 1.000000
0.680152 0.946678 1.000000
0.642859 0.988904 1.000000
0.600422 1.000000 1.000000
0.552204 1.000000 1.000000
0.497453 1.000000 1.000000
0.435311 1.000000 1.000000
0.364806 1.000000 1.000000
0.284856 0.979907 1.000000
0.194268 0.927050 1.000000
0.091738 0.856941 1.000000
0.000000 0.768465 1.000000
0.000000 0.660437 1.000000
0.000000 0.531609 1.000000
0.000000 0.380667 1.000000
0.000000 0.206229 0.975285
0.000000 0.006846 0.845218
0.000000 0.000000 0.695646
0.000000 0.000000 0.525056
0.000000 0.000000 0.331906
0.000000 0.000000 0.114631
0.000000 0.000000 0.000000
0.000000 0.000000 0.000000
0.000000 0.000000 0.000000
0.000000 0.000000 0.000000
0.000000 0.000000 0.000000
0.000000 0.000000 0.000000
0.000000 0.000000 0.000000
0.000000 0.000000 0.000000
0.000000 0.000000 0.000000
0.971674 0.739491 1.000000
0.950153 0.827395 1.000000
0.924384 0.905131 1.000000
0.894149 0.972285 1.000000
0.859118 1.000000 1.000000
0.818851 1.000000 1.000000
0.772797 1.000000 1.000000
0.720294 1.000000 1.000000
0.660568 1.000000 1.000000
0.592737 1.000000 1.000000
0.515805 1.000000 1.000000
0.428668 1.000000 1.000000
0.330107 0.998857 1.000000
0.218798 0.922676 1.000000
0.093300 0.826952 1.000000
0.000000 0.710473 1.000000
0.000000 0.571960 1.000000
0.000000 0.410068 1.000000
0.000000 0.223385 1.000000
0.000000 0.010433 1.000000
0.000000 0.000000 0.856265
0.000000 0.000000 0.673915
0.000000 0.000000 0.468209
0.000000 0.000000 0.237559
0.000000 0.000000 0.000000
0.000000 0.000000 0.000000
0.000000 0.000000 0.000000
0.000000 0.000000 0.000000
0.000000 0.000000 0.000000
0.000000 0.000000 0.000000
0.000000 0.000000 0.000000
0.000000 0.000000 0.000000
0.000000 0.000000 0.000000
1.000000 0.814378 1.000000
1.000000 0.908131 1.000000
1.000000 0.990878 1.000000
1.000000 1.000000 1.000000
1.000000 1.000000 1.000000
1.000000 1.000000 1.000000
0.988993 1.000000 1.000000
0.932056 1.000000 1.000000
0.867188 1.000000 1.000000
0.793482 1.000000 1.000000
0.709920 1.000000 1.000000
0.615373 1.000000 1.000000
0.508602 1.000000 1.000000
0.388256 0.999641 1.000000
0.252872 0.896531 1.000000
0.100879 0.771438 1.000000
0.000000 0.623052 1.000000
0.000000 0.450000 1.000000
0.000000 0.250839 1.000000
0.000000 0.024062 1.000000
0.000000 0.000000 1.000000
0.000000 0.000000 0.864173
0.000000 0.000000 0.645446
0.000000 0.000000 0.400941
0.000000 0.000000 0.129021
0.000000 0.000000 0.000000
0.000000 0.000000 0.000000
0.000000 0.000000 0.000000
0.000000 0.000000 0.000000
0.000000 0.000000 0.000000
0.000000 0.000000 0.000000
0.000000 0.000000 0.000000
0.000000 0.000000 0.000000
1.000000 0.901658 1.000000
1.000000 1.000000 1.000000
1.000000 1.000000 1.000000
1.000000 1.000000 1.000000
1.000000 1.000000 1.000000
1.000000 1.000000 1.000000
1.000000 1.000000 1.000000
1.000000 1.000000 1.000000
1.000000 1.000000 1.000000
1.000000 1.000000 1.000000
0.952602 1.000000 1.000000
0.850435 1.000000 1.000000
0.735223 1.000000 1.000000
0.605592 1.000000 1.000000
0.460056 0.978786 1.000000
0.297021 0.844924 1.000000
0.114778 0.686489 1.000000
0.000000 0.502075 1.000000
0.000000 0.290212 1.000000
0.000000 0.049361 1.000000
0.000000 0.000000 1.000000
0.000000 0.000000 1.000000
0.000000 0.000000 0.868731
0.000000 0.000000 0.609888
0.000000 0.000000 0.322760
0.000000 0.000000 0.005663
0.000000 0.000000 0.000000
0.000000 0.000000 0.000000
0.000000 0.000000 0.000000
0.000000 0.000000 0.000000
0.000000 0.000000 0.000000
0.000000 0.000000 0.000000
0.000000 0.000000 0.000000
1.000000 1.000000 1.000000
1.000000 1.000000 1.000000
1.000000 1.000000 1.000000
1.000000 1.000000 1.000000
1.000000 1.000000 1.000000
1.000000 1.000000 1.000000
1.000000 1.000000 1.000000
1.000000 1.000000 1.000000
1.000000 1.000000 1.000000
1.000000 1.000000 1.000000
1.000000 1.000000 1.000000
1.000000 1.000000 1.000000
1.000000 1.000000 1.000000
0.876519 1.000000 1.000000
0.720576 1.000000 1.000000
0.546225 0.932597 1.000000
0.351735 0.763943 1.000000
0.135264 0.567975 1.000000
0.000000 0.343194 1.000000
0.000000 0.088030 1.000000
0.000000 0.000000 1.000000
0.000000 0.000000 1.000000
0.000000 0.000000 1.000000
0.000000 0.000000 0.869753
0.000000 0.000000 0.566916
0.000000 0.000000 0.233201
0.000000 0.000000 0.000000
0.000000 0.000000 0.000000
0.000000 0.000000 0.000000
0.000000 0.000000 0.000000
0.000000 0.000000 0.000000
0.000000 0.000000 0.000000
0.000000 0.000000 0.000000
1.000000 1.000000 1.000000
1.000000 1.000000 1.000000
1.000000 1.000000 1.000000
1.000000 1.000000 1.000000
1.000000 1.000000 1.000000
1.000000 1.000000 1.000000
1.000000 1.000000 1.000000
1.000000 1.000000 1.000000
1.000000 1.000000 1.000000
1.000000 1.000000 1.000000
1.000000 1.000000 1.000000
1.000000 1.000000 1.000000
1.000000 1.000000 1.000000
1.000000 1.000000 1.000000
1.000000 1.000000 1.000000
0.854457 1.000000 1.000000
0.647437 0.857159 1.000000
0.417463 0.649453 1.000000
0.162561 0.411546 1.000000
0.000000 0.141840 1.000000
0.000000 0.000000 1.000000
0.000000 0.000000 1.000000
0.000000 0.000000 1.000000
0.000000 0.000000 1.000000
0.000000 0.000000 0.867082
0.000000 0.000000 0.516231
0.000000 0.000000 0.131826
0.000000 0.000000 0.000000
0.000000 0.000000 0.000000
0.000000 0.000000 0.000000
0.000000 0.000000 0.000000
0.000000 0.000000 0.000000
0.000000 0.000000 0.000000
1.000000 1.000000 1.000000
1.000000 1.000000 1.000000
1.000000 1.000000 1.000000
1.000000 1.000000 1.000000
1.000000 1.000000 1.000000
1.000000 1.000000 1.000000
1.000000 1.000000 1.000000
1.000000 1.000000 1.000000
1.000000 1.000000 1.000000
1.000000 1.000000 1.000000
1.000000 1.000000 1.000000
1.000000 1.000000 1.000000
1.000000 1.000000 1.000000
1.000000 1.000000 1.000000
1.000000 1.000000 1.000000
1.000000 1.000000 1.000000
1.000000 0.967951 1.000000
0.764326 0.748333 1.000000
0.494615 0.497101 1.000000
0.196850 0.212629 1.000000
0.000000 0.000000 1.000000
0.000000 0.000000 1.000000
0.000000 0.000000 1.000000
0.000000 0.000000 1.000000
0.000000 0.000000 1.000000
0.000000 0.000000 0.860584
0.000000 0.000000 0.457560
