public/luts/kodak_gold_v1.cube
# Generated from ColorChecker fit
LUT_3D_SIZE 9
DOMAIN_MIN 0.0 0.0 0.0
DOMAIN_MAX 1.0 1.0 1.0
0.218136 0.057818 0.490499
0.112539 0.029617 0.426284
0.069070 0.039942 0.448415
0.073347 0.083318 0.510370
0.082606 0.137286 0.558812
0.025697 0.162405 0.533588
0.000000 0.102255 0.367726
0.000000 0.000000 0.000000
0.000000 0.000000 0.000000
0.392946 0.215179 0.554281
0.312089 0.244607 0.516212
0.274899 0.282254 0.555055
0.260989 0.314970 0.618821
0.221589 0.312624 0.648707
0.079542 0.228103 0.579091
0.000000 0.000000 0.337536
0.000000 0.000000 0.000000
0.000000 0.000000 0.000000
0.395810 0.322811 0.570089
0.324738 0.408806 0.550733
0.274283 0.466744 0.594888
0.218052 0.475801 0.645096
0.101267 0.398175 0.637088
0.000000 0.179079 0.499775
0.000000 0.000000 0.155252
0.000000 0.000000 0.000000
0.000000 0.000000 0.000000
0.338318 0.404491 0.628651
0.264558 0.548173 0.619883
0.183775 0.621554 0.657255
0.063570 0.596137 0.677843
0.000000 0.426447 0.611909
0.000000 0.050023 0.382899
0.000000 0.000000 0.000000
0.000000 0.000000 0.000000
0.000000 0.000000 0.000000
0.391691 0.502081 0.882722
0.305252 0.706754 0.875722
0.179560 0.792913 0.893524
0.000000 0.724388 0.867735
0.000000 0.448032 0.723152
0.000000 0.000000 0.377751
0.000000 0.000000 0.000000
0.000000 0.000000 0.000000
0.000000 0.000000 0.000000
0.786778 0.675529 1.000000
0.680152 0.946678 1.000000
0.497453 1.000000 1.000000
0.194268 0.927050 1.000000
0.000000 0.531609 1.000000
0.000000 0.000000 0.695646
0.000000 0.000000 0.000000
0.000000 0.000000 0.000000
0.000000 0.000000 0.000000
1.000000 1.000000 1.000000
1.000000 1.000000 1.000000
1.000000 1.000000 1.000000
1.000000 1.000000 1.000000
0.351735 0.763943 1.000000
0.000000 0.000000 1.000000
0.000000 0.000000 0.566916
0.000000 0.000000 0.000000
0.000000 0.000000 0.000000
1.000000 1.000000 1.000000
1.000000 1.000000 1.000000
1.000000 1.000000 1.000000
1.000000 1.000000 1.000000
1.000000 1.000000 1.000000
0.684619 0.060280 1.000000
0.000000 0.000000 1.000000
0.000000 0.000000 0.315307
0.000000 0.000000 0.000000
1.000000 1.000000 1.000000
1.000000 1.000000 1.000000
1.000000 1.000000 1.000000
1.000000 1.000000 1.000000
1.000000 1.000000 1.000000
1.000000 0.684409 1.000000
1.000000 0.000000 1.000000
0.000000 0.000000 1.000000
0.000000 0.000000 0.000000
0.081274 0.054242 0.215725
0.000000 0.000000 0.121731
0.000000 0.000000 0.142334
0.031462 0.000000 0.241413
0.152901 0.090954 0.376028
0.263383 0.197877 0.496423
0.272343 0.265838 0.546028
0.060832 0.226091 0.461454
0.000000 0.000000 0.172499
0.298600 0.222696 0.341211
0.227104 0.205544 0.283901
0.228101 0.226192 0.331771
0.290174 0.276146 0.443231
0.373522 0.329931 0.569876
0.409957 0.345090 0.656483
0.302909 0.262184 0.641014
0.000000 0.004794 0.454615
0.000000 0.000000 0.021613
0.333149 0.339551 0.387622
0.281604 0.390331 0.358766
0.280027 0.444531 0.421704
0.310995 0.485984 0.529380
0.328699 0.481543 0.627921
0.258946 0.381077 0.656636
0.000000 0.117475 0.548022
0.000000 0.000000 0.227755
0.000000 0.000000 0.000000
0.298914 0.431333 0.445182
0.256020 0.552240 0.435857
0.235981 0.636217 0.500972
0.215364 0.659427 0.588003
0.142355 0.581048 0.637611
0.000000 0.343278 0.583638
0.000000 0.000000 0.353113
0.000000 0.000000 0.000000
0.000000 0.000000 0.000000
0.369519 0.542655 0.666140
0.326460 0.738063 0.666730
0.274549 0.850226 0.720437
0.184350 0.847632 0.769271
0.000000 0.681788 0.748424
0.000000 0.287218 0.586273
0.000000 0.000000 0.204378
0.000000 0.000000 0.000000
0.000000 0.000000 0.000000
0.778218 0.736212 1.000000
0.728657 1.000000 1.000000
0.633951 1.000000 1.000000
0.458654 1.000000 1.000000
0.138937 0.855191 1.000000
0.000000 0.286507 0.875351
0.000000 0.000000 0.311934
0.000000 0.000000 0.000000
0.000000 0.000000 0.000000
1.000000 1.000000 1.000000
1.000000 1.000000 1.000000
1.000000 1.000000 1.000000
1.000000 1.000000 1.000000
0.867857 1.000000 1.000000
0.101568 0.432842 1.000000
0.000000 0.000000 0.947925
0.000000 0.000000 0.000000
0.000000 0.000000 0.000000
1.000000 1.000000 1.000000
1.000000 1.000000 1.000000
1.000000 1.000000 1.000000
1.000000 1.000000 1.000000
1.000000 1.000000 1.000000
1.000000 0.836002 1.000000
0.063676 0.000000 1.000000
0.000000 0.000000 0.952045
0.000000 0.000000 0.000000
1.000000 1.000000 1.000000
1.000000 1.000000 1.000000
1.000000 1.000000 1.000000
1.000000 1.000000 1.000000
1.000000 1.000000 1.000000
1.000000 1.000000 1.000000
1.000000 0.000000 1.000000
0.006299 0.000000 1.000000
0.000000 0.000000 0.880368
0.024835 0.104447 0.094804
0.000000 0.000000 0.000000
0.000000 0.000000 0.000000
0.000000 0.000000 0.046761
0.157549 0.000000 0.222669
0.381992 0.145005 0.434624
0.562329 0.309738 0.636454
0.588580 0.416755 0.775169
0.322380 0.384984 0.790965
0.262990 0.254195 0.247798
0.173482 0.160390 0.154835
0.178529 0.132991 0.186139
0.275684 0.168163 0.310520
0.434114 0.245087 0.489968
0.594603 0.325963 0.679662
0.669549 0.356008 0.827961
0.542965 0.263457 0.876410
0.070481 0.000000 0.759735
0.303865 0.350981 0.291162
0.243473 0.332878 0.237318
0.255637 0.348698 0.294371
0.331902 0.386933 0.425663
0.435429 0.419090 0.587721
0.500995 0.399696 0.730253
0.434990 0.266297 0.796152
0.115423 0.000000 0.721496
0.000000 0.000000 0.435545
0.263858 0.424079 0.314616
0.222456 0.484945 0.290170
0.227021 0.541283 0.359283
0.263089 0.573910 0.479831
0.287817 0.546663 0.602872
0.229973 0.406394 0.672648
0.000000 0.082976 0.626586
0.000000 0.000000 0.395294
0.000000 0.000000 0.000000
0.318996 0.520850 0.469907
0.288941 0.666135 0.464446
0.273671 0.762472 0.531238
0.252720 0.783005 0.622691
0.177233 0.683898 0.684396
0.000000 0.404332 0.655129
0.000000 0.000000 0.466848
0.000000 0.000000 0.044697
0.000000 0.000000 0.000000
0.704935 0.706739 0.970809
0.681065 0.944075 0.973226
0.636210 1.000000 1.000000
0.543896 1.000000 1.000000
0.349263 0.904973 1.000000
0.000000 0.469868 0.888000
0.000000 0.000000 0.526552
0.000000 0.000000 0.000000
0.000000 0.000000 0.000000
1.000000 1.000000 1.000000
1.000000 1.000000 1.000000
1.000000 1.000000 1.000000
1.000000 1.000000 1.000000
1.000000 1.000000 1.000000
0.534946 0.697448 1.000000
0.000000 0.000000 1.000000
0.000000 0.000000 0.168020
0.000000 0.000000 0.000000
1.000000 1.000000 1.000000
1.000000 1.000000 1.000000
1.000000 1.000000 1.000000
1.000000 1.000000 1.000000
1.000000 1.000000 1.000000
1.000000 1.000000 1.000000
0.817671 0.000000 1.000000
0.000000 0.000000 1.000000
0.000000 0.000000 0.000000
1.000000 1.000000 1.000000
1.000000 1.000000 1.000000
1.000000 1.000000 1.000000
1.000000 1.000000 1.000000
1.000000 1.000000 1.000000
1.000000 1.000000 1.000000
1.000000 0.511224 1.000000
1.000000 0.000000 1.000000
0.000000 0.000000 1.000000
0.074577 0.240465 0.104283
0.000000 0.000000 0.000000
0.000000 0.000000 0.000000
0.000000 0.000000 0.000000
0.161019 0.000000 0.108357
0.455673 0.111507 0.366081
0.756873 0.356807 0.665163
0.963607 0.593413 0.963014
0.946481 0.744909 1.000000
0.323790 0.354102 0.265029
0.198577 0.168703 0.128271
0.183216 0.077347 0.125685
0.284230 0.080855 0.236480
0.479756 0.163064 0.433047
0.719548 0.290830 0.680960
0.924972 0.414027 0.938978
0.989013 0.465547 1.000000
0.776268 0.361299 1.000000
0.357553 0.413917 0.286139
0.269619 0.308397 0.200087
0.270064 0.266332 0.234855
0.359402 0.280871 0.364183
0.509765 0.328179 0.554995
0.664898 0.367437 0.767399
0.740162 0.340847 0.954687
0.622533 0.173627 1.000000
0.170604 0.000000 1.000000
0.294664 0.451935 0.256828
0.235058 0.430633 0.210966
0.237766 0.436232 0.268601
0.297296 0.454206 0.398007
0.379772 0.453047 0.560642
0.422933 0.384264 0.711147
0.336133 0.182387 0.797346
0.000341 0.000000 0.760247
0.000000 0.000000 0.534043
0.313553 0.518265 0.328341
0.275806 0.587704 0.311456
0.269717 0.641521 0.376780
0.283788 0.657516 0.487117
0.278136 0.596509 0.598459
0.184493 0.402337 0.659979
0.000000 0.001854 0.614035
0.000000 0.000000 0.396168
0.000000 0.000000 0.000000
0.652283 0.681102 0.713945
0.632404 0.849987 0.714135
0.608939 0.954759 0.771274
0.564382 0.965545 0.842701
0.452844 0.835492 0.878941
0.200048 0.500762 0.823698
0.000000 0.000000 0.613865
0.000000 0.000000 0.179515
0.000000 0.000000 0.000000
1.000000 1.000000 1.000000
1.000000 1.000000 1.000000
1.000000 1.000000 1.000000
1.000000 1.000000 1.000000
1.000000 1.000000 1.000000
0.779699 0.776735 1.000000
0.040104 0.000000 1.000000
0.000000 0.000000 0.380729
0.000000 0.000000 0.000000
1.000000 1.000000 1.000000
1.000000 1.000000 1.000000
1.000000 1.000000 1.000000
1.000000 1.000000 1.000000
1.000000 1.000000 1.000000
1.000000 1.000000 1.000000
1.000000 0.231158 1.000000
0.000000 0.000000 1.000000
0.000000 0.000000 0.000000
1.000000 1.000000 1.000000
1.000000 1.000000 1.000000
1.000000 1.000000 1.000000
1.000000 1.000000 1.000000
1.000000 1.000000 1.000000
1.000000 1.000000 1.000000
1.000000 0.956099 1.000000
1.000000 0.000000 1.000000
0.000000 0.000000 1.000000
0.217768 0.451051 0.198718
0.000000 0.097027 0.000000
0.000000 0.000000 0.000000
0.000000 0.000000 0.000000
0.189297 0.000000 0.020725
0.520092 0.161821 0.286696
0.901319 0.486622 0.636328
1.000000 0.850779 1.000000
1.000000 1.000000 1.000000
0.480191 0.523562 0.361905
0.311257 0.246768 0.181478
0.260709 0.090682 0.135948
0.344039 0.060780 0.214922
0.548353 0.145557 0.401189
0.832375 0.316524 0.670722
1.000000 0.528211 0.992680
1.000000 0.718167 1.000000
1.000000 0.806958 1.000000
0.505320 0.541897 0.355997
0.380829 0.345563 0.238787
0.353775 0.241247 0.243138
0.433643 0.226750 0.353189
0.601532 0.282896 0.546262
0.810159 0.373521 0.792864
0.983854 0.445485 1.000000
1.000000 0.428662 1.000000
0.781847 0.235945 1.000000
0.414358 0.540831 0.269705
0.326532 0.430370 0.204399
0.310603 0.377268 0.243348
0.370050 0.371654 0.365224
0.479964 0.386676 0.541884
0.587056 0.378502 0.738365
0.609648 0.286315 0.912893
0.437681 0.032317 1.000000
0.000000 0.000000 0.994898
0.388139 0.573222 0.253769
0.331681 0.556230 0.228359
0.316990 0.555969 0.285929
0.341538 0.554897 0.399687
0.374410 0.518489 0.536019
0.356308 0.395238 0.654499
0.199550 0.116656 0.707883
0.000000 0.000000 0.642110
0.000000 0.000000 0.396306
0.667126 0.710012 0.520954
0.639221 0.796268 0.522738
0.618363 0.852661 0.582261
0.596016 0.853973 0.667261
0.535260 0.758009 0.738660
0.370790 0.505588 0.750562
0.008916 0.020548 0.650258
0.000000 0.000000 0.378221
0.000000 0.000000 0.000000
1.000000 1.000000 1.000000
1.000000 1.000000 1.000000
1.000000 1.000000 1.000000
1.000000 1.000000 1.000000
1.000000 1.000000 1.000000
0.943004 0.809493 1.000000
0.352729 0.100118 1.000000
0.000000 0.000000 0.495144
0.000000 0.000000 0.000000
1.000000 1.000000 1.000000
1.000000 1.000000 1.000000
1.000000 1.000000 1.000000
1.000000 1.000000 1.000000
1.000000 1.000000 1.000000
1.000000 1.000000 1.000000
1.000000 0.475575 1.000000
0.303372 0.000000 1.000000
0.000000 0.000000 0.161894
1.000000 1.000000 1.000000
1.000000 1.000000 1.000000
1.000000 1.000000 1.000000
1.000000 1.000000 1.000000
1.000000 1.000000 1.000000
1.000000 1.000000 1.000000
1.000000 1.000000 1.000000
1.000000 0.000000 1.000000
0.195464 0.000000 1.000000
0.403195 0.681683 0.310683
0.132512 0.255687 0.006911
0.000000 0.000000 0.000000
0.029580 0.000000 0.000000
0.229884 0.035297 0.000000
0.572428 0.317113 0.170386
1.000000 0.735484 0.532132
1.000000 1.000000 0.988868
1.000000 1.000000 1.000000
0.692895 0.720445 0.485441
0.481905 0.367592 0.269740
0.391070 0.161139 0.180480
0.444851 0.111220 0.217665
0.639325 0.210983 0.374484
0.942184 0.436598 0.637308
1.000000 0.747252 0.985695
1.000000 1.000000 1.000000
1.000000 1.000000 1.000000
0.719790 0.705184 0.462193
0.559405 0.429777 0.323145
0.498751 0.273977 0.297217
0.556283 0.240242 0.378947
0.722069 0.314051 0.556056
0.957796 0.463897 0.809449
1.000000 0.641296 1.000000
1.000000 0.780778 1.000000
1.000000 0.799893 1.000000
0.607483 0.673421 0.329146
0.491100 0.481948 0.254639
0.449432 0.377318 0.275964
0.494928 0.354319 0.382190
0.611650 0.390754 0.555572
0.755278 0.447446 0.771549
0.853104 0.468236 0.998742
0.804037 0.379982 1.000000
0.478603 0.092560 1.000000
0.539213 0.680765 0.236535
0.462707 0.581894 0.213765
0.431311 0.531137 0.265568
0.451467 0.515606 0.375549
0.501232 0.505432 0.520494
0.530276 0.453766 0.670375
0.459886 0.296776 0.788346
0.182965 0.000000 0.830747
0.000000 0.000000 0.747100
0.757846 0.800908 0.396623
0.719575 0.805492 0.412091
0.692220 0.813490 0.476906
0.676215 0.804343 0.569205
0.643609 0.740509 0.660309
0.538067 0.567466 0.714722
0.274869 0.213706 0.690131
0.000000 0.000000 0.537409
0.000000 0.000000 0.200610
1.000000 1.000000 1.000000
1.000000 1.000000 1.000000
1.000000 1.000000 1.000000
1.000000 1.000000 1.000000
1.000000 1.000000 1.000000
1.000000 0.891235 1.000000
0.615440 0.323902 0.974224
0.000000 0.000000 0.588375
0.000000 0.000000 0.000000
1.000000 1.000000 1.000000
1.000000 1.000000 1.000000
1.000000 1.000000 1.000000
1.000000 1.000000 1.000000
1.000000 1.000000 1.000000
1.000000 1.000000 1.000000
1.000000 0.750322 1.000000
0.732963 0.000000 1.000000
0.000000 0.000000 0.345397
1.000000 1.000000 1.000000
1.000000 1.000000 1.000000
1.000000 1.000000 1.000000
1.000000 1.000000 1.000000
1.000000 1.000000 1.000000
1.000000 1.000000 1.000000
1.000000 1.000000 1.000000
1.000000 0.043644 1.000000
0.879852 0.000000 1.000000
0.541155 0.834565 0.350762
0.235771 0.370662 0.013224
0.060854 0.096810 0.000000
0.055845 0.035471 0.000000
0.231795 0.192124 0.000000
0.571374 0.555268 0.000000
1.000000 1.000000 0.312775
1.000000 1.000000 0.785799
1.000000 1.000000 1.000000
0.884123 0.859347 0.560664
0.642419 0.460907 0.326354
0.515875 0.233587 0.200846
0.537922 0.192178 0.194544
0.713605 0.334485 0.311035
1.000000 0.641333 0.547090
1.000000 1.000000 0.892664
1.000000 1.000000 1.000000
1.000000 1.000000 1.000000
0.935100 0.830762 0.544197
0.749164 0.503161 0.400899
0.658488 0.321783 0.353098
0.690496 0.293744 0.405733
0.844229 0.409177 0.556922
1.000000 0.641235 0.797970
1.000000 0.946086 1.000000
1.000000 1.000000 1.000000
1.000000 1.000000 1.000000
0.820097 0.789082 0.389064
0.684496 0.539880 0.323868
0.619666 0.406035 0.336898
0.647024 0.386990 0.427623
0.759603 0.465204 0.588696
0.922050 0.606158 0.805954
1.000000 0.758348 1.000000
1.000000 0.853289 1.000000
0.929313 0.805514 1.000000
0.724753 0.792664 0.244996
0.636538 0.631604 0.244301
0.590013 0.549066 0.300590
0.600590 0.536820 0.407867
0.655294 0.569655 0.553316
0.712766 0.605375 0.717308
0.703263 0.584806 0.873396
0.528657 0.431788 0.988318
0.062434 0.053183 1.000000
0.894338 0.917950 0.323750
0.853040 0.856956 0.373260
0.819763 0.831683 0.454545
0.803910 0.826227 0.556140
0.786501 0.807702 0.659765
0.720169 0.726242 0.740321
0.529164 0.514997 0.765896
0.109352 0.090138 0.697760
0.000000 0.000000 0.490367
1.000000 1.000000 0.899111
1.000000 1.000000 0.983837
1.000000 1.000000 1.000000
1.000000 1.000000 1.000000
1.000000 1.000000 1.000000
1.000000 1.000000 1.000000
0.868124 0.656547 1.000000
0.177578 0.000000 0.715546
0.000000 0.000000 0.224315
1.000000 1.000000 1.000000
1.000000 1.000000 1.000000
1.000000 1.000000 1.000000
1.000000 1.000000 1.000000
1.000000 1.000000 1.000000
1.000000 1.000000 1.000000
1.000000 1.000000 1.000000
1.000000 0.103703 1.000000
0.000000 0.000000 0.554102
1.000000 1.000000 1.000000
1.000000 1.000000 1.000000
1.000000 1.000000 1.000000
1.000000 1.000000 1.000000
1.000000 1.000000 1.000000
1.000000 1.000000 1.000000
1.000000 1.000000 1.000000
1.000000 0.732787 1.000000
1.000000 0.000000 1.000000
0.503463 0.768623 0.207552
0.185400 0.316017 0.000000
0.000000 0.075315 0.000000
0.000000 0.073634 0.000000
0.105559 0.321110 0.000000
0.437138 0.810897 0.000000
0.910223 1.000000 0.000000
1.000000 1.000000 0.374703
1.000000 1.000000 0.979611
0.937605 0.811585 0.490616
0.686210 0.413166 0.262630
0.538215 0.209618 0.116626
0.536020 0.220384 0.073407
0.693642 0.447927 0.146960
0.996712 0.877730 0.344454
1.000000 1.000000 0.666241
1.000000 1.000000 1.000000
1.000000 1.000000 1.000000
1.000000 0.802342 0.519495
0.855436 0.464561 0.397802
0.747994 0.298648 0.344805
0.760972 0.316375 0.375838
0.902379 0.512532 0.499420
1.000000 0.864927 0.717254
1.000000 1.000000 1.000000
1.000000 1.000000 1.000000
1.000000 1.000000 1.000000
0.959770 0.783916 0.381387
0.823972 0.515405 0.352282
0.748235 0.389793 0.374617
0.762947 0.411178 0.458258
0.870109 0.566676 0.606259
1.000000 0.826425 0.814854
1.000000 1.000000 1.000000
1.000000 1.000000 1.000000
1.000000 1.000000 1.000000
0.864248 0.817412 0.225520
0.782343 0.628988 0.274604
0.731945 0.548524 0.353903
0.737432 0.572445 0.467816
0.794802 0.680197 0.613930
0.871665 0.834242 0.783012
0.907246 0.980059 0.959015
0.812388 1.000000 1.000000
0.469546 0.944024 1.000000
1.000000 0.982022 0.263148
0.980704 0.886682 0.375328
0.951759 0.858397 0.492529
0.939548 0.885918 0.613685
0.934060 0.941018 0.730914
0.896900 0.978485 0.829517
0.761286 0.936127 0.887979
0.432052 0.734770 0.877969
0.000000 0.278256 0.764341
1.000000 1.000000 0.767550
1.000000 1.000000 0.927039
1.000000 1.000000 1.000000
1.000000 1.000000 1.000000
1.000000 1.000000 1.000000
1.000000 1.000000 1.000000
1.000000 1.000000 1.000000
0.524221 0.632721 0.909796
0.000000 0.000000 0.524537
1.000000 1.000000 1.000000
1.000000 1.000000 1.000000
1.000000 1.000000 1.000000
1.000000 1.000000 1.000000
1.000000 1.000000 1.000000
1.000000 1.000000 1.000000
1.000000 1.000000 1.000000
1.000000 0.870642 1.000000
0.135325 0.000000 0.843860
1.000000 1.000000 1.000000
1.000000 1.000000 1.000000
1.000000 1.000000 1.000000
1.000000 1.000000 1.000000
1.000000 1.000000 1.000000
1.000000 1.000000 1.000000
1.000000 1.000000 1.000000
1.000000 1.000000 1.000000
1.000000 0.000000 1.000000
0.123447 0.299506 0.000000
0.000000 0.000000 0.000000
0.000000 0.000000 0.000000
0.000000 0.000000 0.000000
0.000000 0.298451 0.000000
0.051444 0.975335 0.000000
0.538003 1.000000 0.000000
1.000000 1.000000 0.000000
1.000000 1.000000 0.273757
0.698591 0.405200 0.156351
0.468204 0.067550 0.000000
0.322694 0.000000 0.000000
0.313431 0.069289 0.000000
0.463399 0.439900 0.000000
0.767200 1.000000 0.000000
1.000000 1.000000 0.237095
1.000000 1.000000 0.656216
1.000000 1.000000 1.000000
0.912366 0.460356 0.283582
0.745067 0.169547 0.217620
0.643795 0.075279 0.184370
0.653914 0.193980 0.209565
0.792401 0.525097 0.312122
1.000000 1.000000 0.504143
1.000000 1.000000 0.790913
1.000000 1.000000 1.000000
1.000000 1.000000 1.000000
0.895588 0.510746 0.216054
0.788292 0.276485 0.258089
0.723583 0.211690 0.315596
0.740818 0.325118 0.408841
0.850969 0.608542 0.551275
1.000000 1.000000 0.749531
1.000000 1.000000 1.000000
1.000000 1.000000 1.000000
1.000000 1.000000 1.000000
0.838704 0.620225 0.102491
0.790807 0.454400 0.237327
0.757468 0.424999 0.366426
0.772036 0.533107 0.504587
0.839477 0.762824 0.659795
0.936370 1.000000 0.833215
1.000000 1.000000 1.000000
0.982914 1.000000 1.000000
0.743802 1.000000 1.000000
0.991790 0.870733 0.153641
1.000000 0.787415 0.365388
1.000000 0.801513 0.546220
1.000000 0.906437 0.705471
1.000000 1.000000 0.845657
1.000000 1.000000 0.962478
0.922230 1.000000 1.000000
0.669687 1.000000 1.000000
0.137369 1.000000 1.000000
1.000000 1.000000 0.642282
1.000000 1.000000 0.914355
1.000000 1.000000 1.000000
1.000000 1.000000 1.000000
1.000000 1.000000 1.000000
1.000000 1.000000 1.000000
1.000000 1.000000 1.000000
0.810266 1.000000 1.000000
0.000000 0.966627 0.876539
1.000000 1.000000 1.000000
1.000000 1.000000 1.000000
1.000000 1.000000 1.000000
1.000000 1.000000 1.000000
1.000000 1.000000 1.000000
1.000000 1.000000 1.000000
1.000000 1.000000 1.000000
1.000000 1.000000 1.000000
0.591801 0.898783 1.000000
1.000000 1.000000 1.000000
1.000000 1.000000 1.000000
1.000000 1.000000 1.000000
1.000000 1.000000 1.000000
1.000000 1.000000 1.000000
1.000000 1.000000 1.000000
1.000000 1.000000 1.000000
1.000000 1.000000 1.000000
1.000000 1.000000 1.000000
