public/luts/kodak_gold_v2.cube
# Generated from ColorChecker fit
LUT_3D_SIZE 33
DOMAIN_MIN 0.0 0.0 0.0
DOMAIN_MAX 1.0 1.0 1.0
0.190573 0.194006 0.151073
0.127626 0.163810 0.123812
0.069539 0.137437 0.100204
0.014843 0.113472 0.079166
0.000000 0.090657 0.059736
0.000000 0.067892 0.041072
0.000000 0.044235 0.022451
0.000000 0.018900 0.003273
0.000000 0.000000 0.000000
0.000000 0.000000 0.000000
0.000000 0.000000 0.000000
0.000000 0.000000 0.000000
0.000000 0.000000 0.000000
0.000000 0.000000 0.000000
0.000000 0.000000 0.000000
0.000000 0.000000 0.000000
0.000000 0.000000 0.000000
0.000000 0.000000 0.000000
0.000000 0.000000 0.000000
0.000000 0.000000 0.000000
0.000000 0.000000 0.000000
0.000000 0.000000 0.000000
0.000000 0.000000 0.000000
0.000000 0.000000 0.000000
0.000000 0.000000 0.000000
0.000000 0.000000 0.000000
0.000000 0.000000 0.000000
0.000000 0.000000 0.000000
0.000000 0.000000 0.000000
0.000000 0.000000 0.000000
0.000000 0.000000 0.000000
0.000000 0.000000 0.000000
0.000000 0.000000 0.042697
0.229796 0.205238 0.208421
0.166199 0.173246 0.185489
0.107593 0.145213 0.166066
0.052519 0.119734 0.149051
0.000000 0.095563 0.133464
0.000000 0.071610 0.118443
0.000000 0.046942 0.103247
0.000000 0.020785 0.087255
0.000000 0.000000 0.069968
0.000000 0.000000 0.051004
0.000000 0.000000 0.030103
0.000000 0.000000 0.007126
0.000000 0.000000 0.000000
0.000000 0.000000 0.000000
0.000000 0.000000 0.000000
0.000000 0.000000 0.000000
0.000000 0.000000 0.000000
0.000000 0.000000 0.000000
0.000000 0.000000 0.000000
0.000000 0.000000 0.000000
0.000000 0.000000 0.000000
0.000000 0.000000 0.000000
0.000000 0.000000 0.000000
0.000000 0.000000 0.000000
0.000000 0.000000 0.000000
0.000000 0.000000 0.000000
0.000000 0.000000 0.000000
0.000000 0.000000 0.000000
0.000000 0.000000 0.000000
0.000000 0.000000 0.000000
0.000000 0.000000 0.000000
0.000000 0.000000 0.000000
0.000000 0.000000 0.073783
0.273338 0.226254 0.261716
0.209218 0.192659 0.243168
0.150205 0.163149 0.227970
0.094852 0.136328 0.215001
0.041872 0.110961 0.203262
0.000000 0.085967 0.191871
0.000000 0.060425 0.180070
0.000000 0.033572 0.167220
0.000000 0.004801 0.152799
0.000000 0.000000 0.136409
0.000000 0.000000 0.117771
0.000000 0.000000 0.096727
0.000000 0.000000 0.073236
0.000000 0.000000 0.047381
0.000000 0.000000 0.019362
0.000000 0.000000 0.000000
0.000000 0.000000 0.000000
0.000000 0.000000 0.000000
0.000000 0.000000 0.000000
0.000000 0.000000 0.000000
0.000000 0.000000 0.000000
0.000000 0.000000 0.000000
0.000000 0.000000 0.000000
0.000000 0.000000 0.000000
0.000000 0.000000 0.000000
0.000000 0.000000 0.000000
0.000000 0.000000 0.000000
0.000000 0.000000 0.000000
0.000000 0.000000 0.000000
0.000000 0.000000 0.000000
0.000000 0.000000 0.000000
0.000000 0.000000 0.000000
0.000000 0.000000 0.094090
0.320003 0.255517 0.309876
0.255495 0.220533 0.295784
0.196198 0.189748 0.284866
0.140673 0.161775 0.275980
0.087647 0.135390 0.268108
0.036006 0.109523 0.260352
0.000000 0.083263 0.251932
0.000000 0.055856 0.242190
0.000000 0.026708 0.230588
0.000000 0.000000 0.216707
0.000000 0.000000 0.200249
0.000000 0.000000 0.181036
0.000000 0.000000 0.159010
0.000000 0.000000 0.134235
0.000000 0.000000 0.106892
0.000000 0.000000 0.077284
0.000000 0.000000 0.045834
0.000000 0.000000 0.013086
0.000000 0.000000 0.000000
0.000000 0.000000 0.000000
0.000000 0.000000 0.000000
0.000000 0.000000 0.000000
0.000000 0.000000 0.000000
0.000000 0.000000 0.000000
0.000000 0.000000 0.000000
0.000000 0.000000 0.000000
0.000000 0.000000 0.000000
0.000000 0.000000 0.000000
0.000000 0.000000 0.000000
0.000000 0.000000 0.000000
0.000000 0.000000 0.000000
0.000000 0.000000 0.008363
0.000000 0.023944 0.103017
0.368542 0.291386 0.351936
0.303792 0.255247 0.342388
0.244342 0.223407 0.335818
0.188764 0.194492 0.331067
0.135795 0.167286 0.327099
0.084333 0.140731 0.322995
0.033438 0.113927 0.317956
0.000000 0.086131 0.311307
0.000000 0.056757 0.302489
0.000000 0.025378 0.291065
0.000000 0.000000 0.276718
0.000000 0.000000 0.259251
0.000000 0.000000 0.238589
0.000000 0.000000 0.214773
0.000000 0.000000 0.187968
0.000000 0.000000 0.158458
0.000000 0.000000 0.126646
0.000000 0.000000 0.093057
0.000000 0.000000 0.058334
0.000000 0.000000 0.023244
0.000000 0.000000 0.000000
0.000000 0.000000 0.000000
0.000000 0.000000 0.000000
0.000000 0.000000 0.000000
0.000000 0.000000 0.000000
0.000000 0.000000 0.000000
0.000000 0.000000 0.000000
0.000000 0.000000 0.000000
0.000000 0.000000 0.000000
0.000000 0.000000 0.000000
0.000000 0.000000 0.000000
0.000000 0.000000 0.015713
0.000000 0.124999 0.100076
0.417655 0.332119 0.387044
0.352819 0.295075 0.382141
0.293357 0.262420 0.380004
0.237854 0.232790 0.379457
0.185057 0.204980 0.379442
0.133874 0.177943 0.379022
0.083376 0.150788 0.377381
0.032797 0.122783 0.373822
0.000000 0.093353 0.367769
0.000000 0.062080 0.358766
0.000000 0.028707 0.346478
0.000000 0.000000 0.330687
0.000000 0.000000 0.311299
0.000000 0.000000 0.288338
0.000000 0.000000 0.261949
0.000000 0.000000 0.232396
0.000000 0.000000 0.200066
0.000000 0.000000 0.165462
0.000000 0.000000 0.129210
0.000000 0.000000 0.092057
0.000000 0.000000 0.054867
0.000000 0.000000 0.018626
0.000000 0.000000 0.000000
0.000000 0.000000 0.000000
0.000000 0.000000 0.000000
0.000000 0.000000 0.000000
0.000000 0.000000 0.000000
0.000000 0.000000 0.000000
0.000000 0.000000 0.000000
0.000000 0.000000 0.000000
0.000000 0.000000 0.000000
0.000000 0.059185 0.011254
0.000000 0.233200 0.084893
0.465992 0.375866 0.414464
0.401233 0.338187 0.414323
0.341911 0.304975 0.416719
0.286621 0.274877 0.420456
0.234119 0.246699 0.424459
0.183326 0.219403 0.427771
0.133322 0.192109 0.429558
0.083353 0.164096 0.429103
0.032824 0.134799 0.425812
0.000000 0.103811 0.419209
0.000000 0.070884 0.408940
0.000000 0.035926 0.394769
0.000000 0.000000 0.376583
0.000000 0.000000 0.354387
0.000000 0.000000 0.328306
0.000000 0.000000 0.298587
0.000000 0.000000 0.265596
0.000000 0.000000 0.229818
0.000000 0.000000 0.191861
0.000000 0.000000 0.152451
0.000000 0.000000 0.112435
0.000000 0.000000 0.072780
0.000000 0.000000 0.034572
0.000000 0.000000 0.000000
0.000000 0.000000 0.000000
0.000000 0.000000 0.000000
0.000000 0.000000 0.000000
0.000000 0.000000 0.000000
0.000000 0.000000 0.000000
0.000000 0.000000 0.000000
0.000000 0.018457 0.000000
0.000000 0.166636 0.000000
0.000000 0.347302 0.057210
0.512151 0.420673 0.433573
0.447644 0.382648 0.438325
0.388622 0.349157 0.445368
0.333691 0.318858 0.453487
0.281619 0.290565 0.461588
0.231335 0.263253 0.468695
0.181932 0.236051 0.473955
0.132665 0.208249 0.476632
0.082951 0.179292 0.476113
0.032369 0.148785 0.471904
0.000000 0.116489 0.463631
0.000000 0.082323 0.451040
0.000000 0.046364 0.433998
0.000000 0.008848 0.412491
0.000000 0.000000 0.386626
0.000000 0.000000 0.356631
0.000000 0.000000 0.322852
0.000000 0.000000 0.285757
0.000000 0.000000 0.245933
0.000000 0.000000 0.204088
0.000000 0.000000 0.161050
0.000000 0.000000 0.117767
0.000000 0.000000 0.075306
0.000000 0.000000 0.034857
0.000000 0.000000 0.000000
0.000000 0.000000 0.000000
0.000000 0.000000 0.000000
0.000000 0.000000 0.000000
0.000000 0.000000 0.000000
0.000000 0.000000 0.000000
0.000000 0.124331 0.000000
0.000000 0.278711 0.000000
0.087545 0.465958 0.016881
0.554677 0.464483 0.443863
0.490607 0.426420 0.453654
0.432056 0.392947 0.465473
0.377641 0.362730 0.478086
0.326141 0.334597 0.490379
0.276497 0.307529 0.501359
0.227811 0.280670 0.510152
0.179349 0.253317 0.516004
0.130538 0.224928 0.518284
0.080969 0.195116 0.516477
0.030393 0.163654 0.510191
0.000000 0.130471 0.499154
0.000000 0.095656 0.483213
0.000000 0.059452 0.462335
0.000000 0.022264 0.436609
0.000000 0.000000 0.406243
0.000000 0.000000 0.371565
0.000000 0.000000 0.333023
0.000000 0.000000 0.291186
0.000000 0.000000 0.246742
0.000000 0.000000 0.200502
0.000000 0.000000 0.153392
0.000000 0.000000 0.106464
0.000000 0.000000 0.060885
0.000000 0.000000 0.017947
0.000000 0.000000 0.000000
0.000000 0.000000 0.000000
0.000000 0.000000 0.000000
0.000000 0.000000 0.000000
0.000000 0.102852 0.000000
0.000000 0.233397 0.000000
0.021245 0.393937 0.000000
0.214270 0.587714 0.000000
0.592066 0.505134 0.444938
0.528626 0.467361 0.459930
0.470727 0.434219 0.476669
0.416996 0.404389 0.493903
0.366221 0.376706 0.510499
0.317355 0.350165 0.525443
0.269511 0.323916 0.537845
0.221966 0.297270 0.546931
0.174157 0.269693 0.552049
0.125686 0.240811 0.552669
0.076314 0.210405 0.548377
0.025968 0.178417 0.538882
0.000000 0.144944 0.524014
0.000000 0.110241 0.503720
0.000000 0.074722 0.478070
0.000000 0.038959 0.447253
0.000000 0.003679 0.411579
0.000000 0.000000 0.371476
0.000000 0.000000 0.327494
0.000000 0.000000 0.280303
0.000000 0.000000 0.230694
0.000000 0.000000 0.179575
0.000000 0.000000 0.127978
0.000000 0.000000 0.077053
0.000000 0.000000 0.028071
0.000000 0.000000 0.000000
0.000000 0.000000 0.000000
0.000000 0.013850 0.000000
0.000000 0.098631 0.000000
0.000000 0.207722 0.000000
0.000000 0.344060 0.000000
0.136019 0.510739 0.000000
0.335299 0.711012 0.000000
0.622763 0.540360 0.436518
0.560157 0.503221 0.456888
0.503099 0.470746 0.478707
0.450227 0.441625 0.500703
0.400341 0.414704 0.521726
0.352402 0.388987 0.540743
0.305536 0.363637 0.556843
0.259029 0.337974 0.569235
0.212331 0.311474 0.577249
0.165051 0.283774 0.580332
0.116965 0.254666 0.578056
0.068008 0.224102 0.570108
0.018278 0.192188 0.556299
0.000000 0.159193 0.536559
0.000000 0.125538 0.510938
0.000000 0.091807 0.479605
0.000000 0.058737 0.442852
0.000000 0.027227 0.401089
0.000000 0.000000 0.354846
0.000000 0.000000 0.304774
0.000000 0.000000 0.251645
0.000000 0.000000 0.196349
0.000000 0.000000 0.139899
0.000000 0.000000 0.083424
0.000000 0.000000 0.028178
0.000000 0.000000 0.000000
0.000000 0.039858 0.000000
0.000000 0.107967 0.000000
0.000000 0.197912 0.000000
0.000000 0.312480 0.000000
0.074022 0.454620 0.000000
0.244071 0.627436 0.000000
0.449387 0.834190 0.000000
0.645160 0.567790 0.418439
0.583601 0.531650 0.444377
0.527584 0.500195 0.471449
0.475757 0.472124 0.498365
0.426932 0.446294 0.523954
0.380079 0.421720 0.547166
0.334336 0.397575 0.567070
0.288999 0.373189 0.582857
0.243528 0.348051 0.593836
0.197546 0.321805 0.599437
0.150836 0.294255 0.599212
0.103344 0.265362 0.592830
0.055181 0.235246 0.580083
0.006616 0.204182 0.560881
0.000000 0.172606 0.535255
0.000000 0.141108 0.503357
0.000000 0.110439 0.465458
0.000000 0.081507 0.421950
0.000000 0.055375 0.373345
0.000000 0.033268 0.320273
0.000000 0.016565 0.263488
0.000000 0.006805 0.203862
0.000000 0.005684 0.142387
0.000000 0.015055 0.080176
0.000000 0.036930 0.018461
0.000000 0.073478 0.000000
0.000000 0.127026 0.000000
0.000000 0.200059 0.000000
0.000000 0.295217 0.000000
0.025199 0.415303 0.000000
0.168533 0.563272 0.000000
0.344094 0.742241 0.000000
0.555237 0.955482 0.000000
0.657599 0.584949 0.390648
0.597310 0.550191 0.422360
0.542543 0.520127 0.454875
0.491958 0.493467 0.486882
0.444374 0.469077 0.517192
0.398777 0.445983 0.544736
0.354311 0.423369 0.568564
0.310285 0.400574 0.587848
0.266170 0.377098 0.601878
0.221598 0.352597 0.610066
0.176364 0.326884 0.611943
0.130425 0.299931 0.607161
0.083901 0.271868 0.595492
0.037073 0.242981 0.576827
0.000000 0.213714 0.551180
0.000000 0.184672 0.518681
0.000000 0.156613 0.479585
0.000000 0.130456 0.434262
0.000000 0.107276 0.383207
0.000000 0.088306 0.327032
0.000000 0.074937 0.266471
0.000000 0.068719 0.202376
0.000000 0.071357 0.135721
0.000000 0.084715 0.067599
0.000000 0.110816 0.000000
0.000000 0.151839 0.000000
0.000000 0.210122 0.000000
0.000000 0.288158 0.000000
0.000000 0.388602 0.000000
0.105474 0.514262 0.000000
0.253844 0.668108 0.000000
0.434731 0.853266 0.000000
0.651500 1.000000 0.000000
0.658370 0.589256 0.353207
0.599584 0.556284 0.390916
0.546286 0.528002 0.429077
0.497147 0.503131 0.466362
0.450998 0.480549 0.501562
0.406833 0.459291 0.533590
0.363809 0.438552 0.561477
0.321246 0.417681 0.584376
0.278623 0.396189 0.601557
0.235585 0.373742 0.612415
0.191937 0.350164 0.616460
0.147647 0.325437 0.613327
0.102845 0.299701 0.602768
0.057824 0.273253 0.584655
0.013038 0.246549 0.558983
0.000000 0.220201 0.525864
0.000000 0.194981 0.485532
0.000000 0.171816 0.438341
0.000000 0.151792 0.384765
0.000000 0.136153 0.325398
0.000000 0.126300 0.260953
0.000000 0.123794 0.192266
0.000000 0.130350 0.120290
0.000000 0.147843 0.046101
0.000000 0.178305 0.000000
0.000000 0.223927 0.000000
0.000000 0.287055 0.000000
0.000000 0.370197 0.000000
0.051631 0.476014 0.000000
0.175292 0.607327 0.000000
0.328535 0.767116 0.000000
0.514571 0.958516 0.000000
0.736777 1.000000 0.000000
0.645712 0.578029 0.306294
0.588671 0.547263 0.350234
0.537071 0.521173 0.394261
0.489593 0.498489 0.437025
0.445080 0.478101 0.477301
0.402536 0.459054 0.513980
0.361128 0.440553 0.546076
0.320187 0.421958 0.572721
0.279204 0.402790 0.593170
0.237833 0.382725 0.606795
0.195891 0.361599 0.613091
0.153355 0.339403 0.611670
0.110368 0.316288 0.602267
0.067232 0.292562 0.584736
0.024412 0.268690 0.559051
0.000000 0.245296 0.525306
0.000000 0.223161 0.483717
0.000000 0.203223 0.434618
0.000000 0.186579 0.378464
0.000000 0.174484 0.315830
0.000000 0.168348 0.247411
0.000000 0.169743 0.174023
0.000000 0.180394 0.096601
0.000000 0.202187 0.016202
0.000000 0.237165 0.000000
0.000000 0.287528 0.000000
0.000000 0.355635 0.000000
0.003687 0.444000 0.000000
0.105045 0.555299 0.000000
0.233174 0.692361 0.000000
0.391136 0.858177 0.000000
0.582155 1.000000 0.000000
0.809617 1.000000 0.000000
0.617812 0.548479 0.250200
0.562768 0.520359 0.300623
0.513105 0.496889 0.350748
0.467514 0.476810 0.399209
0.424847 0.459021 0.444758
0.384121 0.442579 0.486271
0.344514 0.426697 0.522740
0.305365 0.410749 0.553281
0.266179 0.394264 0.577127
0.226618 0.376929 0.593633
0.186510 0.358590 0.602274
0.145845 0.339249 0.602644
0.104775 0.319067 0.594459
0.063612 0.298364 0.577554
0.022833 0.277613 0.551883
0.000000 0.257451 0.517523
0.000000 0.238667 0.474669
0.000000 0.222211 0.423637
0.000000 0.209191 0.364863
0.000000 0.200870 0.298903
0.000000 0.198671 0.226434
0.000000 0.204174 0.148252
0.000000 0.219117 0.065273
0.000000 0.245395 0.000000
0.000000 0.285062 0.000000
0.000000 0.340328 0.000000
0.000000 0.413562 0.000000
0.039653 0.507290 0.000000
0.145121 0.624197 0.000000
0.277588 0.767124 0.000000
0.440126 0.939070 0.000000
0.635970 1.000000 0.000000
0.868518 1.000000 0.000000
0.572808 0.497713 0.185330
0.520023 0.472699 0.242502
0.472545 0.452296 0.298974
0.429074 0.435257 0.353362
0.388475 0.420492 0.404400
0.349774 0.407066 0.450943
0.312161 0.394206 0.491966
0.274985 0.381293 0.526564
0.237761 0.367869 0.553953
0.200163 0.353630 0.573468
0.162029 0.338432 0.584566
0.123360 0.322290 0.586821
0.084318 0.305373 0.579930
0.045227 0.288011 0.563709
0.006573 0.270691 0.538095
0.000000 0.254056 0.503143
0.000000 0.238908 0.459032
0.000000 0.226208 0.406058
0.000000 0.217072 0.344637
0.000000 0.212776 0.275307
0.000000 0.214752 0.198726
0.000000 0.224591 0.115671
0.000000 0.244041 0.027039
0.000000 0.275008 0.000000
0.000000 0.319556 0.000000
0.000000 0.379905 0.000000
0.000000 0.458436 0.000000
0.060797 0.557684 0.000000
0.170267 0.680345 0.000000
0.306952 0.829270 0.000000
0.473932 1.000000 0.000000
0.674455 1.000000 0.000000
0.911928 1.000000 0.000000
0.508785 0.422734 0.112203
0.458530 0.401303 0.176404
0.413494 0.384434 0.239488
0.372388 0.370890 0.300050
0.334087 0.359591 0.356805
0.297629 0.349614 0.408590
0.262212 0.340195 0.454362
0.227199 0.330726 0.493195
0.192113 0.320759 0.524287
0.156640 0.310001 0.546954
0.120630 0.298319 0.560634
0.084091 0.285736 0.564882
0.047199 0.272435 0.559377
0.010287 0.258754 0.543915
0.000000 0.245190 0.518414
0.000000 0.232398 0.482911
0.000000 0.221191 0.437565
0.000000 0.212538 0.382653
0.000000 0.207568 0.318574
0.000000 0.207565 0.245845
0.000000 0.213974 0.165105
0.000000 0.228394 0.077114
0.000000 0.252585 0.000000
0.000000 0.288464 0.000000
0.000000 0.338103 0.000000
0.000000 0.403736 0.000000
0.000000 0.487750 0.000000
0.065463 0.592695 0.000000
0.178841 0.721274 0.000000
0.319632 0.876350 0.000000
0.490931 1.000000 0.000000
0.695995 1.000000 0.000000
0.938241 1.000000 0.000000
0.423776 0.320440 0.031454
0.376333 0.303089 0.102980
0.334006 0.290240 0.172954
0.295519 0.280664 0.239950
0.259757 0.273294 0.302667
0.225767 0.267216 0.359922
0.192761 0.261676 0.410651
0.160109 0.256079 0.453912
0.127347 0.249984 0.488882
0.094172 0.243111 0.514859
0.060442 0.235336 0.531261
0.026180 0.226694 0.537627
0.000000 0.217377 0.533613
0.000000 0.207734 0.518999
0.000000 0.198273 0.493683
0.000000 0.189659 0.457684
0.000000 0.182714 0.411140
0.000000 0.178420 0.354311
0.000000 0.177915 0.287576
0.000000 0.182494 0.211434
0.000000 0.193611 0.126504
0.000000 0.212878 0.033527
0.000000 0.242063 0.000000
0.000000 0.283094 0.000000
0.000000 0.338056 0.000000
0.000000 0.409189 0.000000
0.000000 0.498895 0.000000
0.051949 0.609731 0.000000
0.169146 0.744412 0.000000
0.313944 0.905811 0.000000
0.489448 1.000000 0.000000
0.698924 1.000000 0.000000
0.945802 1.000000 0.000000
0.315764 0.187627 0.000000
0.271424 0.174871 0.022992
0.232084 0.166545 0.100149
0.196479 0.161430 0.173857
0.163505 0.158469 0.242794
0.132221 0.156759 0.305760
0.101847 0.155557 0.361671
0.071766 0.154276 0.409567
0.041524 0.152489 0.448605
0.010827 0.149924 0.478065
0.000000 0.146468 0.497346
0.000000 0.142166 0.505967
0.000000 0.137221 0.503566
0.000000 0.131993 0.489904
0.000000 0.126999 0.464860
0.000000 0.122916 0.428433
0.000000 0.120576 0.380744
0.000000 0.120970 0.322033
0.000000 0.125248 0.252660
0.000000 0.134715 0.173105
0.000000 0.150836 0.083969
0.000000 0.175233 0.000000
0.000000 0.209685 0.000000
0.000000 0.256129 0.000000
0.000000 0.316661 0.000000
0.000000 0.393532 0.000000
0.000000 0.489155 0.000000
0.018499 0.606095 0.000000
0.139438 0.747081 0.000000
0.288152 0.914994 0.000000
0.467755 1.000000 0.000000
0.681526 1.000000 0.000000
0.932904 1.000000 0.000000
0.182681 0.020982 0.000000
0.141744 0.013357 0.000000
0.105678 0.010076 0.021966
0.073229 0.009935 0.102676
0.043303 0.011882 0.178108
0.014970 0.015029 0.247041
0.000000 0.018641 0.308374
0.000000 0.022142 0.361127
0.000000 0.025115 0.404439
0.000000 0.027299 0.437570
0.000000 0.028592 0.459900
0.000000 0.029049 0.470929
0.000000 0.028883 0.470278
0.000000 0.028465 0.457686
0.000000 0.028322 0.433015
0.000000 0.029142 0.396246
0.000000 0.031767 0.347479
0.000000 0.037199 0.286936
0.000000 0.046597 0.214958
0.000000 0.061278 0.132006
0.000000 0.082717 0.038661
0.000000 0.112546 0.000000
0.000000 0.152555 0.000000
0.000000 0.204692 0.000000
0.000000 0.271061 0.000000
0.000000 0.353927 0.000000
0.000000 0.455710 0.000000
0.000000 0.578989 0.000000
0.087920 0.726500 0.000000
0.240468 0.901136 0.000000
0.424076 1.000000 0.000000
0.642033 1.000000 0.000000
0.897789 1.000000 0.000000
0.022408 0.000000 0.000000
0.000000 0.000000 0.000000
0.000000 0.000000 0.000000
0.000000 0.000000 0.027430
0.000000 0.000000 0.109645
0.000000 0.000000 0.184817
0.000000 0.000000 0.251827
0.000000 0.000000 0.309674
0.000000 0.000000 0.357479
0.000000 0.000000 0.394483
0.000000 0.000000 0.420048
0.000000 0.000000 0.433654
0.000000 0.000000 0.434903
0.000000 0.000000 0.423516
0.000000 0.000000 0.399335
0.000000 0.000000 0.362323
0.000000 0.000000 0.312560
0.000000 0.000000 0.250249
0.000000 0.000000 0.175714
0.000000 0.000000 0.089395
0.000000 0.000000 0.000000
0.000000 0.021799 0.000000
0.000000 0.067675 0.000000
0.000000 0.125802 0.000000
0.000000 0.198296 0.000000
0.000000 0.287431 0.000000
0.000000 0.395638 0.000000
0.000000 0.525507 0.000000
0.012743 0.679783 0.000000
0.169053 0.861371 0.000000
0.356581 1.000000 0.000000
0.578625 1.000000 0.000000
0.838647 1.000000 0.000000
0.000000 0.000000 0.000000
0.000000 0.000000 0.000000
0.000000 0.000000 0.000000
0.000000 0.000000 0.000000
0.000000 0.000000 0.038555
0.000000 0.000000 0.120253
0.000000 0.000000 0.193208
0.000000 0.000000 0.256402
0.000000 0.000000 0.308935
0.000000 0.000000 0.350030
0.000000 0.000000 0.379030
0.000000 0.000000 0.395396
0.000000 0.000000 0.398712
0.000000 0.000000 0.388678
0.000000 0.000000 0.365119
0.000000 0.000000 0.327977
0.000000 0.000000 0.277316
0.000000 0.000000 0.213318
0.000000 0.000000 0.136288
0.000000 0.000000 0.046647
0.000000 0.000000 0.000000
0.000000 0.000000 0.000000
0.000000 0.000000 0.000000
0.000000 0.016375 0.000000
0.000000 0.095299 0.000000
0.000000 0.190997 0.000000
0.000000 0.305911 0.000000
0.000000 0.442639 0.000000
0.000000 0.603940 0.000000
0.072019 0.792728 0.000000
0.263391 1.000000 0.000000
0.489433 1.000000 0.000000
0.753617 1.000000 0.000000
0.000000 0.000000 0.000000
0.000000 0.000000 0.000000
0.000000 0.000000 0.000000
0.000000 0.000000 0.000000
0.000000 0.000000 0.000000
0.000000 0.000000 0.054629
0.000000 0.000000 0.133814
0.000000 0.000000 0.202621
0.000000 0.000000 0.260132
0.000000 0.000000 0.305551
0.000000 0.000000 0.338201
0.000000 0.000000 0.357526
0.000000 0.000000 0.363088
0.000000 0.000000 0.354572
0.000000 0.000000 0.331781
0.000000 0.000000 0.294640
0.000000 0.000000 0.243191
0.000000 0.000000 0.177601
0.000000 0.000000 0.098153
0.000000 0.000000 0.005252
0.000000 0.000000 0.000000
0.000000 0.000000 0.000000
0.000000 0.000000 0.000000
0.000000 0.000000 0.000000
0.000000 0.000000 0.000000
0.000000 0.061474 0.000000
0.000000 0.183395 0.000000
0.000000 0.327273 0.000000
0.000000 0.495876 0.000000
0.000000 0.692130 0.000000
0.142573 0.919116 0.000000
0.372534 1.000000 0.000000
0.640788 1.000000 0.000000
0.000000 0.000000 0.000000
0.000000 0.000000 0.000000
0.000000 0.000000 0.000000
0.000000 0.000000 0.000000
0.000000 0.000000 0.000000
0.000000 0.000000 0.000000
0.000000 0.000000 0.075052
0.000000 0.000000 0.149754
0.000000 0.000000 0.212509
0.000000 0.000000 0.262499
0.000000 0.000000 0.299030
0.000000 0.000000 0.321526
0.000000 0.000000 0.329531
0.000000 0.000000 0.322711
0.000000 0.000000 0.300849
0.000000 0.000000 0.263852
0.000000 0.000000 0.211744
0.000000 0.000000 0.144671
0.000000 0.000000 0.062898
0.000000 0.000000 0.000000
0.000000 0.000000 0.000000
0.000000 0.000000 0.000000
0.000000 0.000000 0.000000
0.000000 0.000000 0.000000
0.000000 0.000000 0.000000
0.000000 0.000000 0.000000
0.000000 0.024855 0.000000
0.000000 0.176191 0.000000
0.000000 0.352393 0.000000
0.000000 0.556397 0.000000
0.000000 0.791296 0.000000
0.225956 1.000000 0.000000
0.498196 1.000000 0.000000
0.000000 0.000000 0.000000
0.000000 0.000000 0.000000
0.000000 0.000000 0.000000
0.000000 0.000000 0.000000
0.000000 0.000000 0.000000
0.000000 0.000000 0.000000
0.000000 0.000000 0.018447
0.000000 0.000000 0.099341
0.000000 0.000000 0.167618
0.000000 0.000000 0.222442
0.000000 0.000000 0.263099
0.000000 0.000000 0.288994
0.000000 0.000000 0.299653
0.000000 0.000000 0.294722
0.000000 0.000000 0.273966
0.000000 0.000000 0.237272
0.000000 0.000000 0.184647
0.000000 0.000000 0.116215
0.000000 0.000000 0.032225
0.000000 0.000000 0.000000
0.000000 0.000000 0.000000
0.000000 0.000000 0.000000
0.000000 0.000000 0.000000
0.000000 0.000000 0.000000
0.000000 0.000000 0.000000
0.000000 0.000000 0.000000
0.000000 0.000000 0.000000
0.000000 0.000000 0.000000
0.000000 0.170187 0.000000
0.000000 0.382246 0.000000
0.000000 0.625350 0.000000
0.047674 0.902761 0.000000
0.323826 1.000000 0.000000
0.000000 0.000000 0.000000
0.000000 0.000000 0.000000
0.000000 0.000000 0.000000
0.000000 0.000000 0.000000
0.000000 0.000000 0.000000
0.000000 0.000000 0.000000
0.000000 0.000000 0.000000
0.000000 0.000000 0.053032
0.000000 0.000000 0.127126
0.000000 0.000000 0.187061
0.000000 0.000000 0.232105
0.000000 0.000000 0.261642
0.000000 0.000000 0.275181
0.000000 0.000000 0.272347
0.000000 0.000000 0.252889
0.000000 0.000000 0.216672
0.000000 0.000000 0.163686
0.000000 0.000000 0.094036
0.000000 0.000000 0.007951
0.000000 0.000000 0.000000
0.000000 0.000000 0.000000
0.000000 0.000000 0.000000
0.000000 0.000000 0.000000
0.000000 0.000000 0.000000
0.000000 0.000000 0.000000
0.000000 0.000000 0.000000
0.000000 0.000000 0.000000
