public/luts/kodachrome_v3.cube
# Generated from ColorChecker fit
LUT_3D_SIZE 5
DOMAIN_MIN 0.0 0.0 0.0
DOMAIN_MAX 1.0 1.0 1.0
0.074048 0.000000 0.016812
0.000000 0.000000 0.000000
0.000000 0.000000 0.000000
0.000000 0.000000 0.000000
0.000000 0.000000 0.000000
0.071271 0.083583 0.391914
0.000000 0.000000 0.570217
0.000000 0.000000 0.672935
0.000000 0.000000 0.192639
0.000000 0.142851 0.000000
0.184897 0.123558 0.654239
0.099101 0.492372 0.945802
0.000000 0.298499 0.811935
0.000000 0.000000 0.000000
0.000000 0.000000 0.000000
1.000000 0.000000 1.000000
1.000000 0.647786 1.000000
0.382020 0.245077 1.000000
0.000000 0.000000 0.000000
0.000000 0.000000 0.000000
1.000000 0.000000 1.000000
1.000000 0.000000 1.000000
1.000000 0.000000 1.000000
0.000000 0.000000 1.000000
0.000000 0.000000 0.000000
0.428169 0.310160 0.127119
0.023762 0.000000 0.000000
0.000000 0.000000 0.000000
0.134777 0.000000 0.000000
1.000000 1.000000 0.000000
0.375368 0.488374 0.280553
0.250710 0.312585 0.344947
0.275290 0.231144 0.600415
0.452989 0.418520 0.805536
1.000000 1.000000 0.714024
0.367311 0.558881 0.437323
0.374381 0.748363 0.602825
0.226895 0.656186 0.633609
0.000000 0.251887 0.113044
0.000000 0.094649 0.000000
1.000000 0.559496 1.000000
1.000000 1.000000 1.000000
0.817288 0.641189 1.000000
0.000000 0.000000 0.000000
0.000000 0.000000 0.000000
1.000000 0.209944 1.000000
1.000000 0.784794 1.000000
1.000000 0.000000 1.000000
0.000000 0.000000 1.000000
0.000000 0.000000 0.000000
0.714871 0.391648 0.307461
0.378017 0.000000 0.000000
0.742470 0.039779 0.000000
1.000000 0.977585 0.149597
1.000000 1.000000 1.000000
0.654321 0.618866 0.295033
0.476200 0.279402 0.362739
0.828977 0.328493 0.766522
1.000000 0.791314 1.000000
1.000000 1.000000 1.000000
0.541627 0.709582 0.287437
0.396608 0.611139 0.416570
0.405857 0.476239 0.580040
0.243388 0.125126 0.627224
0.415258 0.000000 0.402638
1.000000 0.876831 1.000000
1.000000 1.000000 1.000000
0.712544 0.442711 1.000000
0.000000 0.000000 0.125013
0.000000 0.000000 0.000000
1.000000 1.000000 1.000000
1.000000 1.000000 1.000000
1.000000 0.000000 1.000000
0.000000 0.000000 1.000000
0.000000 0.000000 0.000000
0.780183 0.250937 0.283376
0.659788 0.213729 0.000000
1.000000 1.000000 0.000000
1.000000 1.000000 1.000000
1.000000 1.000000 1.000000
0.913069 0.617056 0.306143
0.853114 0.512572 0.589926
1.000000 1.000000 1.000000
1.000000 1.000000 1.000000
1.000000 1.000000 1.000000
0.871695 0.806988 0.220622
0.768939 0.801403 0.498621
1.000000 0.968741 0.858357
1.000000 0.979949 1.000000
1.000000 1.000000 1.000000
1.000000 1.000000 1.000000
1.000000 1.000000 1.000000
1.000000 0.949056 1.000000
0.000000 0.000000 0.520932
0.000000 0.000000 0.000000
1.000000 1.000000 1.000000
1.000000 1.000000 1.000000
1.000000 0.812796 1.000000
0.098087 0.000000 1.000000
0.000000 0.000000 0.000000
0.000000 0.000000 0.000000
0.435746 0.801279 0.000000
1.000000 1.000000 0.104974
1.000000 1.000000 1.000000
1.000000 1.000000 1.000000
0.437884 0.183557 0.000000
1.000000 1.000000 0.643825
1.000000 1.000000 1.000000
1.000000 1.000000 1.000000
1.000000 1.000000 1.000000
0.802702 0.641045 0.000000
1.000000 1.000000 0.611546
1.000000 1.000000 1.000000
1.000000 1.000000 1.000000
1.000000 1.000000 1.000000
1.000000 1.000000 1.000000
1.000000 1.000000 1.000000
1.000000 1.000000 1.000000
1.000000 1.000000 1.000000
0.102586 0.853680 0.382166
1.000000 1.000000 1.000000
1.000000 1.000000 1.000000
1.000000 1.000000 1.000000
1.000000 0.791121 1.000000
0.000000 0.000000 0.000000
