public/luts/magic_spice.cube
# Generated from ColorChecker fit
LUT_3D_SIZE 5
DOMAIN_MIN 0.0 0.0 0.0
DOMAIN_MAX 1.0 1.0 1.0
0.063876 0.000000 0.221929
0.000000 0.000000 0.225533
0.000000 0.000000 0.386222
0.000000 0.000000 0.475694
0.000000 0.344749 0.399221
0.201403 0.087508 0.260993
0.204678 0.123596 0.416546
0.332202 0.207270 0.743474
0.522166 0.391512 0.916977
0.717867 1.000000 0.745829
0.424053 0.562057 0.273908
0.265605 0.584038 0.441145
0.288195 0.624971 0.771999
0.341051 0.605422 0.845172
0.278508 0.741025 0.372941
1.000000 1.000000 1.000000
1.000000 1.000000 1.000000
1.000000 1.000000 1.000000
0.302234 0.429015 1.000000
0.000000 0.000000 0.373267
1.000000 1.000000 1.000000
1.000000 1.000000 1.000000
1.000000 1.000000 1.000000
1.000000 0.003482 1.000000
0.054028 0.000000 1.000000
0.214541 0.486963 0.110923
0.000000 0.201214 0.000000
0.000000 0.000000 0.000000
0.000000 0.000000 0.000000
0.000000 0.000000 0.000000
0.324798 0.380824 0.262600
0.261650 0.291022 0.281108
0.349379 0.349809 0.507554
0.398975 0.374364 0.672371
0.226534 0.476938 0.639567
0.450172 0.650777 0.241216
0.289819 0.603747 0.291765
0.325391 0.688188 0.553791
0.278920 0.588861 0.661229
0.000000 0.285594 0.381591
1.000000 1.000000 1.000000
1.000000 1.000000 1.000000
1.000000 1.000000 1.000000
0.342526 0.564560 0.936997
0.000000 0.000000 0.164646
1.000000 1.000000 1.000000
1.000000 1.000000 1.000000
1.000000 1.000000 1.000000
1.000000 0.441297 1.000000
0.069241 0.000000 1.000000
0.508158 0.927800 0.213091
0.000000 0.376048 0.000000
0.000000 0.032124 0.000000
0.000000 0.000000 0.000000
0.000000 0.000000 0.000000
0.559158 0.597095 0.367813
0.365278 0.270778 0.245302
0.395670 0.234617 0.346232
0.334124 0.069989 0.456268
0.000000 0.000000 0.494653
0.482284 0.647186 0.231715
0.304028 0.439030 0.210503
0.383355 0.515427 0.427568
0.315094 0.325333 0.572080
0.000000 0.000000 0.466783
1.000000 1.000000 0.789237
1.000000 1.000000 0.663490
1.000000 1.000000 0.768810
0.448105 0.482931 0.697869
0.000000 0.000000 0.176913
1.000000 1.000000 1.000000
1.000000 1.000000 1.000000
1.000000 1.000000 1.000000
1.000000 0.681261 1.000000
0.264670 0.000000 1.000000
0.954620 1.000000 0.490963
0.081072 0.465018 0.000000
0.000000 0.030722 0.000000
0.000000 0.000000 0.000000
0.000000 0.000000 0.000000
0.987005 0.793650 0.573934
0.606421 0.254340 0.349416
0.570271 0.187318 0.342781
0.435145 0.000000 0.394928
0.000000 0.000000 0.480334
0.675540 0.684573 0.277482
0.471721 0.357323 0.272422
0.633911 0.508270 0.511380
0.629736 0.350566 0.738759
0.000000 0.000000 0.832537
1.000000 1.000000 0.505167
1.000000 0.918789 0.487635
1.000000 1.000000 0.718207
0.871762 0.795816 0.844789
0.000000 0.000000 0.648863
1.000000 1.000000 1.000000
1.000000 1.000000 1.000000
1.000000 1.000000 1.000000
1.000000 1.000000 1.000000
0.974068 0.000000 1.000000
1.000000 1.000000 0.561098
0.000000 0.318877 0.000000
0.000000 0.000000 0.000000
0.000000 0.000000 0.000000
0.000000 0.000000 0.000000
1.000000 0.763057 0.532298
0.723004 0.168424 0.287770
0.619443 0.268773 0.234506
0.456635 0.173869 0.268641
0.000000 0.000000 0.419884
0.832160 0.631466 0.064626
0.603455 0.361299 0.206617
0.895950 0.803538 0.577307
1.000000 0.935528 0.976331
0.411352 0.029683 1.000000
1.000000 1.000000 0.000000
1.000000 1.000000 0.251244
1.000000 1.000000 0.765809
1.000000 1.000000 1.000000
0.370887 0.624953 1.000000
1.000000 1.000000 1.000000
1.000000 1.000000 1.000000
1.000000 1.000000 1.000000
1.000000 1.000000 1.000000
1.000000 1.000000 1.000000
