public/luts/magic_spice.cube
# Generated from ColorChecker fit
LUT_3D_SIZE 33
DOMAIN_MIN 0.0 0.0 0.0
DOMAIN_MAX 1.0 1.0 1.0
0.063876 0.000000 0.221929
0.037603 0.000000 0.202704
0.010521 0.000000 0.190595
0.000000 0.000000 0.184815
0.000000 0.000000 0.184608
0.000000 0.000000 0.189250
0.000000 0.000000 0.198052
0.000000 0.000000 0.210354
0.000000 0.000000 0.225533
0.000000 0.000000 0.242994
0.000000 0.000000 0.262179
0.000000 0.000000 0.282560
0.000000 0.000000 0.303641
0.000000 0.000000 0.324962
0.000000 0.000000 0.346091
0.000000 0.000000 0.366633
0.000000 0.000000 0.386222
0.000000 0.000000 0.404528
0.000000 0.000000 0.421250
0.000000 0.000000 0.436123
0.000000 0.000000 0.448912
0.000000 0.000000 0.459416
0.000000 0.000000 0.467466
0.000000 0.000000 0.472927
0.000000 0.000000 0.475694
0.000000 0.000000 0.475698
0.000000 0.000000 0.472899
0.000000 0.000000 0.467292
0.000000 0.000000 0.458904
0.000000 0.000000 0.447794
0.000000 0.079238 0.434055
0.000000 0.201897 0.417812
0.000000 0.344749 0.399221
0.110564 0.000000 0.247719
0.088628 0.000000 0.231194
0.066423 0.000000 0.221998
0.043968 0.000000 0.219317
0.021282 0.000000 0.222375
0.000000 0.000000 0.230422
0.000000 0.000000 0.242746
0.000000 0.000000 0.258665
0.000000 0.000000 0.277531
0.000000 0.000000 0.298726
0.000000 0.000000 0.321668
0.000000 0.000000 0.345805
0.000000 0.000000 0.370619
0.000000 0.000000 0.395624
0.000000 0.000000 0.420368
0.000000 0.000000 0.444429
0.000000 0.000000 0.467419
0.000000 0.000000 0.488984
0.000000 0.000000 0.508801
0.000000 0.000000 0.526579
0.000000 0.000000 0.542061
0.000000 0.000000 0.555022
0.000000 0.000000 0.565270
0.000000 0.000000 0.572645
0.000000 0.000000 0.577020
0.000000 0.000000 0.578301
0.000000 0.000000 0.576426
0.000000 0.000000 0.571366
0.000000 0.021197 0.563124
0.000000 0.110876 0.551735
0.000000 0.216944 0.537270
0.000000 0.340991 0.519828
0.000000 0.484679 0.499544
0.146674 0.000000 0.266680
0.128497 0.000000 0.252623
0.110569 0.000000 0.246101
0.092886 0.000000 0.246277
0.075447 0.000000 0.252350
0.058250 0.000000 0.263549
0.041295 0.000000 0.279137
0.024584 0.000000 0.298408
0.008120 0.000000 0.320690
0.000000 0.000000 0.345344
0.000000 0.000000 0.371762
0.000000 0.000000 0.399369
0.000000 0.000000 0.427624
0.000000 0.000000 0.456018
0.000000 0.000000 0.484073
0.000000 0.000000 0.511346
0.000000 0.000000 0.537425
0.000000 0.000000 0.561931
0.000000 0.000000 0.584518
0.000000 0.000000 0.604873
0.000000 0.000000 0.622713
0.000000 0.000000 0.637791
0.000000 0.000000 0.649892
0.000000 0.000000 0.658830
0.000000 0.000000 0.664457
0.000000 0.000000 0.666655
0.000000 0.001711 0.665337
0.000000 0.065533 0.660451
0.000000 0.142335 0.651976
0.000000 0.233529 0.639926
0.000000 0.340602 0.624346
0.000000 0.465113 0.605312
0.000000 0.608691 0.582935
0.172968 0.000000 0.278996
0.157957 0.000000 0.267171
0.143689 0.000000 0.263081
0.130138 0.000000 0.265868
0.117279 0.000000 0.274706
0.105092 0.000000 0.288799
0.093553 0.000000 0.307388
0.082643 0.000000 0.329743
0.072343 0.000000 0.355169
0.062635 0.000000 0.383002
0.053502 0.000000 0.412612
0.044930 0.000000 0.443401
0.036904 0.000000 0.474803
0.029412 0.000000 0.506284
0.022441 0.000000 0.537346
0.015983 0.000000 0.567520
0.010027 0.000000 0.596370
0.004566 0.000000 0.623496
0.000000 0.000000 0.648526
0.000000 0.000000 0.671125
0.000000 0.000000 0.690986
0.000000 0.000000 0.707838
0.000000 0.000000 0.721442
0.000000 0.000000 0.731591
0.000000 0.009519 0.738110
0.000000 0.053766 0.740859
0.000000 0.107979 0.739728
0.000000 0.173395 0.734640
0.000000 0.251323 0.725553
0.000000 0.343146 0.712455
0.000000 0.450318 0.695368
0.000000 0.574363 0.674345
0.000000 0.716880 0.649474
0.190459 0.000000 0.285044
0.178006 0.000000 0.275212
0.166764 0.000000 0.273312
0.156687 0.000000 0.278460
0.147729 0.000000 0.289806
0.139845 0.000000 0.306534
0.132993 0.000000 0.327858
0.127129 0.000000 0.353026
0.122214 0.000000 0.381320
0.118209 0.000000 0.412051
0.115074 0.000000 0.444566
0.112773 0.000000 0.478243
0.111271 0.000000 0.512493
0.110532 0.000000 0.546759
0.110524 0.000000 0.580518
0.111214 0.000000 0.613278
0.112572 0.000000 0.644582
0.114569 0.000000 0.674002
0.117176 0.000000 0.701146
0.120365 0.000000 0.725652
0.124113 0.000000 0.747193
0.128393 0.011319 0.765472
0.133182 0.035075 0.780228
0.138460 0.065190 0.791229
0.144204 0.102652 0.798279
0.150396 0.148524 0.801211
0.157017 0.203938 0.799893
0.164050 0.270099 0.794226
0.171479 0.348286 0.784142
0.179290 0.439846 0.769607
0.187470 0.546203 0.750618
0.196006 0.668849 0.727206
0.204888 0.809350 0.699434
0.200409 0.010647 0.285399
0.189889 0.003583 0.277319
0.181026 0.000000 0.277360
0.173750 0.000000 0.284616
0.167995 0.000000 0.298213
0.163694 0.000000 0.317312
0.160782 0.000000 0.341102
0.159195 0.000000 0.368809
0.158872 0.000000 0.399690
0.159750 0.001516 0.433034
0.161771 0.003507 0.468164
0.164875 0.005646 0.504433
0.169004 0.008024 0.541230
0.174104 0.010807 0.577974
0.180118 0.014231 0.614119
0.186993 0.018605 0.649149
0.194677 0.024308 0.682582
0.203118 0.031794 0.713968
0.212267 0.041587 0.742892
0.222075 0.054285 0.768967
0.232493 0.070555 0.791843
0.243477 0.091138 0.811201
0.254981 0.116848 0.826753
0.266962 0.148569 0.838246
0.279376 0.187258 0.845460
0.292183 0.233943 0.848204
0.305343 0.289727 0.846324
0.318817 0.355781 0.839695
0.332567 0.433351 0.828226
0.346557 0.523754 0.811861
0.360753 0.628380 0.790572
0.375120 0.748688 0.764367
0.389627 0.886213 0.733286
0.204332 0.031154 0.280832
0.195105 0.025574 0.274258
0.187956 0.022861 0.275990
0.182793 0.022427 0.285098
0.179528 0.023756 0.300685
0.178072 0.026405 0.321887
0.178339 0.029999 0.347872
0.180244 0.034241 0.377840
0.183701 0.038900 0.411025
0.188630 0.043823 0.446694
0.194947 0.048924 0.484144
0.202573 0.054191 0.522707
0.211428 0.059685 0.561746
0.221434 0.065537 0.600659
0.232515 0.071953 0.638873
0.244596 0.079208 0.675852
0.257601 0.087650 0.711089
0.271459 0.097699 0.744110
0.286097 0.109849 0.774476
0.301446 0.124663 0.801778
0.317435 0.142777 0.825642
0.333998 0.164901 0.845724
0.351067 0.191814 0.861715
0.368576 0.224370 0.873337
0.386463 0.263492 0.880345
0.404663 0.310177 0.882527
0.423115 0.365494 0.879704
0.441759 0.430584 0.871728
0.460535 0.506659 0.858484
0.479385 0.595004 0.839892
0.498254 0.696975 0.815902
0.517084 0.814002 0.786498
0.535823 0.947586 0.751695
0.203992 0.056679 0.272309
0.195403 0.052278 0.266993
0.189287 0.051034 0.270161
0.185532 0.052325 0.280862
0.184028 0.055603 0.298174
0.184665 0.060391 0.321210
0.187333 0.066285 0.349113
0.191927 0.072952 0.381062
0.198341 0.080132 0.416265
0.206469 0.087637 0.453966
0.216209 0.095350 0.493440
0.227458 0.103228 0.533994
0.240115 0.111297 0.574968
0.254082 0.119657 0.615736
0.269258 0.128481 0.655702
0.285548 0.138012 0.694305
0.302856 0.148567 0.731016
0.321086 0.160532 0.765338
0.340146 0.174369 0.796806
0.359942 0.190609 0.824990
0.380386 0.209856 0.849491
0.401386 0.232786 0.869942
0.422854 0.260148 0.886009
0.444703 0.292762 0.897392
0.466848 0.331519 0.903823
0.489203 0.377385 0.905065
0.511685 0.431395 0.900915
0.534212 0.494657 0.891204
0.556703 0.568353 0.875791
0.579079 0.653735 0.854574
0.601261 0.752126 0.827478
0.623171 0.864924 0.794464
0.644734 0.993597 0.755524
0.201403 0.087508 0.260993
0.192779 0.083979 0.256682
0.187001 0.083873 0.261030
0.183934 0.086536 0.273060
0.183447 0.091389 0.291829
0.185407 0.097923 0.316425
0.189684 0.105700 0.345968
0.196150 0.114355 0.379613
0.204678 0.123596 0.416546
0.215140 0.133203 0.455984
0.227412 0.143027 0.497181
0.241370 0.152990 0.539421
0.256891 0.163089 0.582018
0.273855 0.173391 0.624324
0.292140 0.184035 0.665721
0.311628 0.195234 0.705621
0.332202 0.207270 0.743474
0.353744 0.220499 0.778758
0.376141 0.235349 0.810986
0.399278 0.252319 0.839702
0.423042 0.271982 0.864486
0.447323 0.294981 0.884945
0.472009 0.322032 0.900725
0.496993 0.353922 0.911499
0.522166 0.391512 0.916977
0.547422 0.435734 0.916898
0.572656 0.487591 0.911035
0.597764 0.548160 0.899196
0.622644 0.618588 0.881218
0.647193 0.700096 0.856972
0.671313 0.793975 0.826362
0.694903 0.901591 0.789325
0.717867 1.000000 0.745829
0.198830 0.123936 0.248239
0.189484 0.120964 0.244679
0.183331 0.121661 0.249946
0.180216 0.125341 0.263041
0.179985 0.131392 0.282995
0.182483 0.139271 0.308875
0.187561 0.148509 0.339776
0.195066 0.158710 0.374829
0.204850 0.169549 0.413198
0.216764 0.180772 0.454076
0.230663 0.192199 0.496693
0.246399 0.203721 0.540309
0.263830 0.215300 0.584216
0.282812 0.226972 0.627741
0.303202 0.238844 0.670241
0.324862 0.251095 0.711109
0.347650 0.263977 0.749767
0.371430 0.277812 0.785672
0.396064 0.292997 0.818313
0.421416 0.309998 0.847210
0.447353 0.329355 0.871919
0.473741 0.351679 0.892025
0.500449 0.377654 0.907148
0.527346 0.408036 0.916940
0.554302 0.443651 0.921085
0.581189 0.485400 0.919301
0.607881 0.534254 0.911337
0.634252 0.591257 0.896975
0.660178 0.657524 0.876030
0.685535 0.734243 0.848350
0.710201 0.822675 0.813816
0.734056 0.924151 0.772339
0.756981 1.000000 0.723865
0.198787 0.166265 0.235603
0.188016 0.163533 0.232535
0.180761 0.164693 0.238457
0.176846 0.169028 0.252347
0.176094 0.175892 0.273213
0.178331 0.184713 0.300096
0.183383 0.194987 0.332070
0.191078 0.206287 0.368241
0.201245 0.218254 0.407749
0.213715 0.230604 0.449766
0.228318 0.243122 0.493496
0.244887 0.255669 0.538175
0.263257 0.268173 0.583074
0.283262 0.280639 0.627495
0.304740 0.293141 0.670772
0.327527 0.305826 0.712273
0.351463 0.318913 0.751398
0.376388 0.332693 0.787580
0.402143 0.347529 0.820283
0.428571 0.363856 0.849006
0.455517 0.382181 0.873279
0.482824 0.403083 0.892666
0.510340 0.427213 0.906761
0.537913 0.455294 0.915194
0.565391 0.488123 0.917625
0.592624 0.526565 0.913747
0.619464 0.571561 0.903288
0.645764 0.624121 0.886005
0.671377 0.685329 0.861690
0.696158 0.756341 0.830167
0.719965 0.838384 0.791293
0.742654 0.932757 0.744956
0.764085 1.000000 0.691079
0.204041 0.214806 0.224834
0.191124 0.211989 0.221996
0.182023 0.213268 0.228307
0.176540 0.217892 0.242719
0.174476 0.225183 0.264218
0.175635 0.234535 0.291821
0.179822 0.245415 0.324579
0.186842 0.257361 0.361575
0.196503 0.269984 0.401924
0.208614 0.282965 0.444774
0.222984 0.296058 0.489306
0.239425 0.309091 0.534735
0.257747 0.321962 0.580305
0.277766 0.334641 0.625295
0.299296 0.347171 0.669017
0.322152 0.359666 0.710814
0.346152 0.372314 0.750063
0.371115 0.385371 0.786173
0.396860 0.399170 0.818586
0.423208 0.414113 0.846776
0.449982 0.430674 0.870250
0.477004 0.449401 0.888548
0.504100 0.470912 0.901241
0.531096 0.495899 0.907934
0.557818 0.525123 0.908265
0.584096 0.559420 0.901904
0.609758 0.599698 0.888553
0.634637 0.646934 0.867948
0.658563 0.702181 0.839856
0.681371 0.766560 0.804077
0.702895 0.841268 0.760446
0.722971 0.927571 0.708827
0.741437 1.000000 0.649118
0.217605 0.269875 0.217875
0.201808 0.266647 0.215003
0.190103 0.267694 0.221432
0.182268 0.272236 0.236091
0.178084 0.279561 0.257942
0.177333 0.289032 0.285980
0.179797 0.300082 0.319230
0.185262 0.312218 0.356752
0.193513 0.325017 0.397639
0.204336 0.338129 0.441015
0.217519 0.351277 0.486037
0.232853 0.364254 0.531895
0.250127 0.376927 0.577812
0.269133 0.389234 0.623042
0.289664 0.401184 0.666874
0.311515 0.412861 0.708627
0.334481 0.424418 0.747655
0.358358 0.436082 0.783343
0.382946 0.448151 0.815109
0.408042 0.460995 0.842404
0.433448 0.475057 0.864712
0.458965 0.490852 0.881548
0.484396 0.508965 0.892460
0.509546 0.530056 0.897031
0.534220 0.554855 0.894874
0.558225 0.584164 0.885635
0.581368 0.618858 0.868993
0.603460 0.659885 0.844660
0.624309 0.708261 0.812381
0.643729 0.765080 0.771931
0.661533 0.831502 0.723121
0.677533 0.908763 0.665793
0.691546 0.998171 0.599821
0.242747 0.331798 0.216869
0.223319 0.327825 0.213694
0.208234 0.328287 0.219967
0.197247 0.332370 0.234595
0.190119 0.339333 0.256514
0.186610 0.348503 0.284695
0.186481 0.359283 0.318143
0.189493 0.371147 0.355892
0.195413 0.383640 0.397011
0.204003 0.396379 0.440601
0.215031 0.409055 0.485796
0.228264 0.421429 0.531762
0.243472 0.433335 0.577698
0.260423 0.444679 0.622836
0.278890 0.455439 0.666439
0.298644 0.465663 0.707805
0.319461 0.475476 0.746262
0.341114 0.485070 0.781174
0.363380 0.494711 0.811934
0.386037 0.504738 0.837969
0.408864 0.515560 0.858739
0.431640 0.527660 0.873738
0.454146 0.541592 0.882489
0.476166 0.557982 0.884550
0.497483 0.577528 0.879513
0.517881 0.601001 0.866998
0.537148 0.629243 0.846663
0.555071 0.663168 0.818195
0.571439 0.703763 0.781314
0.586041 0.752086 0.735775
0.598669 0.809268 0.681362
0.609115 0.876511 0.617895
0.617173 0.955089 0.545225
0.282983 0.400908 0.224152
0.259157 0.395852 0.220403
0.239900 0.395370 0.226244
0.224947 0.398615 0.240557
0.214036 0.404812 0.262256
0.206905 0.413259 0.290289
0.203293 0.423324 0.323635
0.202942 0.434450 0.361307
0.205593 0.446148 0.402349
0.210990 0.458006 0.445839
0.218877 0.469679 0.490887
0.229001 0.480897 0.536635
0.241108 0.491463 0.582260
0.254947 0.501249 0.626969
0.270267 0.510200 0.670003
0.286819 0.518335 0.710634
0.304356 0.525743 0.748170
0.322630 0.532586 0.781947
0.341396 0.539097 0.811337
0.360411 0.545582 0.835744
0.379430 0.552419 0.854604
0.398212 0.560058 0.867386
0.416518 0.569020 0.873591
0.434107 0.579899 0.872753
0.450742 0.593362 0.864440
0.466186 0.610146 0.848250
0.480204 0.631061 0.823815
0.492561 0.656990 0.790800
0.503024 0.688886 0.748902
0.511363 0.727775 0.697850
0.517345 0.774756 0.637407
0.520743 0.830998 0.567369
0.521327 0.897745 0.487562
0.342079 0.477545 0.242255
0.313073 0.471064 0.237657
0.288838 0.469274 0.242786
0.269087 0.471295 0.256499
0.253537 0.476321 0.277688
0.241905 0.483616 0.305276
0.233907 0.492517 0.338220
0.229263 0.502432 0.375507
0.227694 0.512844 0.416160
0.228921 0.523305 0.459232
0.232666 0.533440 0.503809
0.238655 0.542946 0.549012
0.246613 0.551593 0.593992
0.256266 0.559220 0.637933
0.267341 0.565743 0.680052
0.279569 0.571145 0.719599
0.292679 0.575484 0.755857
0.306404 0.578890 0.788139
0.320475 0.581564 0.815794
0.334627 0.583779 0.838201
0.348596 0.585880 0.854773
0.362118 0.588286 0.864956
0.374931 0.591485 0.868227
0.386773 0.596039 0.864098
0.397386 0.602582 0.852110
0.406510 0.611820 0.831840
0.413890 0.624529 0.802896
0.419268 0.641560 0.764920
0.422390 0.663835 0.717584
0.423002 0.692347 0.660594
0.420854 0.728162 0.593691
0.415692 0.772418 0.516644
0.407269 0.826325 0.429259
0.424053 0.562057 0.273908
0.389067 0.553804 0.268183
0.359031 0.550338 0.272316
0.333637 0.550745 0.285141
0.312577 0.554188 0.305525
0.295547 0.559897 0.332369
0.282243 0.567179 0.364605
0.272363 0.575410 0.401198
0.265605 0.584038 0.441145
0.261670 0.592583 0.483478
0.260257 0.600640 0.527259
0.261071 0.607872 0.571585
0.263814 0.614016 0.615582
0.268191 0.618881 0.658412
0.273908 0.622348 0.699269
0.280673 0.624369 0.737379
0.288195 0.624971 0.771999
0.296183 0.624249 0.802423
0.304349 0.622373 0.827972
0.312404 0.619584 0.848005
0.320063 0.616195 0.861909
0.327041 0.612591 0.869108
0.333053 0.609230 0.869054
0.337817 0.606640 0.861236
0.341051 0.605422 0.845172
0.342476 0.606251 0.820415
0.341812 0.609871 0.786550
0.338782 0.617099 0.743194
0.333109 0.628826 0.689997
0.324519 0.646013 0.626641
0.312737 0.669692 0.552843
0.297490 0.700971 0.468349
0.278508 0.741025 0.372941
0.533171 0.654801 0.322033
0.491393 0.644424 0.314901
0.454717 0.638907 0.317751
0.422815 0.637306 0.329396
0.395359 0.638749 0.348678
0.372021 0.642436 0.374475
0.352476 0.647640 0.405695
0.336399 0.653705 0.441279
0.323469 0.660046 0.480203
0.313363 0.666153 0.521473
0.305759 0.671586 0.564128
0.300340 0.675977 0.607240
0.296787 0.679030 0.649915
0.294783 0.680523 0.691289
0.294013 0.680304 0.730532
0.294162 0.678293 0.766847
0.294917 0.674483 0.799469
0.295967 0.668938 0.827666
0.297000 0.661796 0.850738
0.297708 0.653265 0.868018
0.297783 0.643626 0.878871
0.296916 0.633231 0.882696
0.294804 0.622506 0.878923
0.291141 0.611947 0.867017
0.285625 0.602123 0.846472
0.277954 0.593676 0.816818
0.267826 0.587318 0.777616
0.254943 0.583834 0.728459
0.239007 0.584081 0.668974
0.219720 0.588989 0.598820
0.196787 0.599559 0.517690
0.169914 0.616864 0.425306
0.138808 0.642048 0.321426
0.673952 0.756139 0.389751
0.624550 0.743282 0.380927
0.580381 0.735337 0.382205
0.541093 0.731327 0.392374
0.506337 0.730350 0.410253
0.475764 0.731572 0.434697
0.449026 0.734234 0.464589
0.425778 0.737647 0.498849
0.405675 0.741195 0.536427
0.388374 0.744335 0.576306
0.373532 0.746594 0.617502
0.360808 0.747573 0.659063
0.349862 0.746943 0.700071
0.340356 0.744450 0.739640
0.331953 0.739908 0.776915
0.324316 0.733207 0.811076
0.317111 0.724307 0.841334
0.310004 0.713239 0.866934
0.302663 0.700109 0.887152
0.294756 0.685093 0.901297
0.285955 0.668439 0.908713
0.275930 0.650467 0.908772
0.264354 0.631571 0.900883
0.250901 0.612214 0.884485
0.235246 0.592934 0.859051
0.217066 0.574339 0.824086
0.196039 0.557109 0.779127
0.171842 0.541998 0.723745
0.144157 0.529830 0.657543
0.112665 0.521502 0.580156
0.077048 0.517983 0.491252
0.036990 0.520313 0.390533
0.000000 0.529606 0.277731
0.851163 0.866443 0.480378
0.793293 0.850744 0.469573
0.740760 0.839988 0.468985
0.693192 0.833166 0.477380
0.650217 0.829342 0.493553
0.611466 0.827652 0.516334
0.576568 0.827302 0.544585
0.545157 0.827574 0.577200
0.516866 0.827817 0.613106
0.491330 0.827456 0.651263
0.468185 0.825988 0.690663
0.447067 0.822978 0.730332
0.427616 0.818068 0.769327
0.409471 0.810969 0.806738
0.392274 0.801465 0.841687
0.375665 0.789412 0.873331
0.359290 0.774738 0.900857
0.342792 0.757442 0.923486
0.325819 0.737598 0.940471
0.308015 0.715348 0.951097
0.289032 0.690910 0.954684
0.268517 0.664571 0.950583
0.246122 0.636691 0.938176
0.221500 0.607703 0.916881
0.194303 0.578111 0.886146
0.164187 0.548492 0.845453
0.130807 0.519493 0.794316
0.093820 0.491834 0.732281
0.052886 0.466310 0.658928
0.007663 0.443783 0.573869
0.000000 0.425191 0.476749
0.000000 0.411541 0.367244
0.000000 0.403915 0.245065
1.000000 0.986091 0.597423
1.000000 0.967184 0.584347
0.940840 0.953229 0.581598
0.884081 0.943186 0.587916
0.831954 0.936085 0.602076
0.784065 0.931030 0.622882
0.740025 0.927197 0.649172
0.699444 0.923831 0.679819
0.661934 0.920253 0.713725
0.627107 0.915854 0.749826
0.594578 0.910098 0.787092
0.563963 0.902519 0.824523
0.534878 0.892726 0.861154
0.506941 0.880398 0.896052
0.479772 0.865286 0.928314
0.452992 0.847214 0.957075
0.426221 0.826078 0.981496
0.399083 0.801845 1.000000
0.371202 0.774555 1.000000
0.342204 0.744320 1.000000
0.311715 0.711323 1.000000
0.279364 0.675821 1.000000
0.244780 0.638141 0.994243
0.207592 0.598683 0.967641
0.167434 0.557920 0.931190
0.123937 0.516394 0.884349
0.076737 0.474723 0.826607
0.025468 0.433593 0.757489
0.000000 0.393766 0.676549
0.000000 0.356073 0.583377
0.000000 0.321419 0.477592
0.000000 0.290779 0.358850
0.000000 0.265203 0.226835
1.000000 1.000000 0.744594
1.000000 1.000000 0.728952
1.000000 1.000000 0.723742
1.000000 1.000000 0.727679
1.000000 1.000000 0.739515
0.998753 1.000000 0.758030
0.944571 1.000000 0.782040
0.893797 1.000000 0.810391
0.846019 1.000000 0.841965
0.800830 1.000000 0.875673
0.757823 0.999264 0.910461
0.716590 0.986530 0.945307
0.676727 0.971247 0.979221
0.637830 0.953061 1.000000
0.599497 0.931691 1.000000
0.561326 0.906929 1.000000
0.522918 0.878638 1.000000
0.483875 0.846753 1.000000
0.443797 0.811281 1.000000
0.402290 0.772303 1.000000
0.358958 0.729970 1.000000
0.313408 0.684504 1.000000
0.265246 0.636202 1.000000
0.214083 0.585431 1.000000
0.159528 0.532631 0.997812
0.101191 0.478313 0.944399
0.038687 0.423061 0.879624
0.000000 0.367532 0.802988
0.000000 0.312451 0.714021
0.000000 0.258620 0.612290
0.000000 0.206911 0.497391
0.000000 0.158266 0.368955
0.000000 0.113703 0.226645
1.000000 1.000000 0.925794
1.000000 1.000000 0.907289
1.000000 1.000000 0.899314
1.000000 1.000000 0.900563
1.000000 1.000000 0.909760
1.000000 1.000000 0.925665
1.000000 1.000000 0.947069
1.000000 1.000000 0.972796
1.000000 1.000000 1.000000
1.000000 1.000000 1.000000
0.963279 1.000000 1.000000
0.910293 1.000000 1.000000
0.858491 1.000000 1.000000
0.807450 1.000000 1.000000
0.756744 1.000000 1.000000
0.705951 0.968879 1.000000
0.654649 0.932735 1.000000
0.602418 0.892478 1.000000
0.548838 0.848085 1.000000
0.493492 0.799602 1.000000
0.435963 0.747147 1.000000
0.375835 0.690913 1.000000
0.312694 0.631162 1.000000
0.246128 0.568230 1.000000
0.175724 0.502524 1.000000
0.101073 0.434523 1.000000
0.021764 0.364779 0.957184
0.000000 0.293915 0.872592
0.000000 0.222626 0.775156
0.000000 0.151681 0.664418
0.000000 0.081917 0.539951
0.000000 0.014248 0.401363
0.000000 0.000000 0.248291
1.000000 1.000000 1.000000
1.000000 1.000000 1.000000
1.000000 1.000000 1.000000
1.000000 1.000000 1.000000
1.000000 1.000000 1.000000
1.000000 1.000000 1.000000
1.000000 1.000000 1.000000
1.000000 1.000000 1.000000
1.000000 1.000000 1.000000
1.000000 1.000000 1.000000
1.000000 1.000000 1.000000
1.000000 1.000000 1.000000
1.000000 1.000000 1.000000
1.000000 1.000000 1.000000
0.957062 1.000000 1.000000
0.892398 1.000000 1.000000
0.826929 0.988694 1.000000
0.760213 0.939343 1.000000
0.691810 0.885282 1.000000
0.621279 0.826527 1.000000
0.548182 0.763163 1.000000
0.472082 0.695350 1.000000
0.392544 0.623320 1.000000
0.309132 0.547374 1.000000
0.221413 0.467887 1.000000
0.128955 0.385308 1.000000
0.031327 0.300154 1.000000
0.000000 0.213017 0.970312
0.000000 0.124559 0.863960
0.000000 0.035517 0.743764
0.000000 0.000000 0.609272
0.000000 0.000000 0.460069
0.000000 0.000000 0.295769
1.000000 1.000000 1.000000
1.000000 1.000000 1.000000
1.000000 1.000000 1.000000
1.000000 1.000000 1.000000
1.000000 1.000000 1.000000
1.000000 1.000000 1.000000
1.000000 1.000000 1.000000
1.000000 1.000000 1.000000
1.000000 1.000000 1.000000
1.000000 1.000000 1.000000
1.000000 1.000000 1.000000
1.000000 1.000000 1.000000
1.000000 1.000000 1.000000
1.000000 1.000000 1.000000
1.000000 1.000000 1.000000
1.000000 1.000000 1.000000
1.000000 1.000000 1.000000
0.963012 0.987675 1.000000
0.878447 0.923196 1.000000
0.791370 0.853397 1.000000
0.701320 0.778331 1.000000
0.607838 0.698125 1.000000
0.510468 0.612978 1.000000
0.408751 0.523161 1.000000
0.302234 0.429015 1.000000
0.190463 0.330956 1.000000
0.072984 0.229470 1.000000
0.000000 0.125117 1.000000
0.000000 0.018526 0.984637
0.000000 0.000000 0.854527
0.000000 0.000000 0.709550
0.000000 0.000000 0.549267
0.000000 0.000000 0.373267
1.000000 1.000000 1.000000
1.000000 1.000000 1.000000
1.000000 1.000000 1.000000
1.000000 1.000000 1.000000
1.000000 1.000000 1.000000
1.000000 1.000000 1.000000
1.000000 1.000000 1.000000
1.000000 1.000000 1.000000
1.000000 1.000000 1.000000
1.000000 1.000000 1.000000
1.000000 1.000000 1.000000
1.000000 1.000000 1.000000
1.000000 1.000000 1.000000
1.000000 1.000000 1.000000
1.000000 1.000000 1.000000
1.000000 1.000000 1.000000
1.000000 1.000000 1.000000
1.000000 1.000000 1.000000
1.000000 0.962158 1.000000
1.000000 0.880538 1.000000
0.901330 0.792972 1.000000
0.789040 0.699554 1.000000
0.672387 0.600450 1.000000
0.550892 0.495899 1.000000
0.424079 0.386210 1.000000
0.291471 0.271766 1.000000
0.152594 0.153022 1.000000
0.006975 0.030504 1.000000
0.000000 0.000000 1.000000
0.000000 0.000000 1.000000
0.000000 0.000000 0.845178
0.000000 0.000000 0.673345
0.000000 0.000000 0.485172
1.000000 1.000000 1.000000
1.000000 1.000000 1.000000
1.000000 1.000000 1.000000
1.000000 1.000000 1.000000
1.000000 1.000000 1.000000
1.000000 1.000000 1.000000
1.000000 1.000000 1.000000
1.000000 1.000000 1.000000
1.000000 1.000000 1.000000
1.000000 1.000000 1.000000
1.000000 1.000000 1.000000
1.000000 1.000000 1.000000
1.000000 1.000000 1.000000
1.000000 1.000000 1.000000
1.000000 1.000000 1.000000
1.000000 1.000000 1.000000
1.000000 1.000000 1.000000
1.000000 1.000000 1.000000
1.000000 1.000000 1.000000
1.000000 0.908285 1.000000
1.000000 0.807416 1.000000
1.000000 0.699962 1.000000
0.884476 0.586055 1.000000
0.741712 0.465903 1.000000
0.593087 0.339782 1.000000
0.438104 0.208044 1.000000
0.276266 0.071110 1.000000
