public/luts/magic_spice.cube
# Generated from ColorChecker fit
LUT_3D_SIZE 9
DOMAIN_MIN 0.0 0.0 0.0
DOMAIN_MAX 1.0 1.0 1.0
0.063876 0.000000 0.221929
0.000000 0.000000 0.184608
0.000000 0.000000 0.225533
0.000000 0.000000 0.303641
0.000000 0.000000 0.386222
0.000000 0.000000 0.448912
0.000000 0.000000 0.475694
0.000000 0.000000 0.458904
0.000000 0.344749 0.399221
0.190459 0.000000 0.285044
0.147729 0.000000 0.289806
0.122214 0.000000 0.381320
0.111271 0.000000 0.512493
0.112572 0.000000 0.644582
0.124113 0.000000 0.747193
0.144204 0.102652 0.798279
0.171479 0.348286 0.784142
0.204888 0.809350 0.699434
0.201403 0.087508 0.260993
0.183447 0.091389 0.291829
0.204678 0.123596 0.416546
0.256891 0.163089 0.582018
0.332202 0.207270 0.743474
0.423042 0.271982 0.864486
0.522166 0.391512 0.916977
0.622644 0.618588 0.881218
0.717867 1.000000 0.745829
0.217605 0.269875 0.217875
0.178084 0.279561 0.257942
0.193513 0.325017 0.397639
0.250127 0.376927 0.577812
0.334481 0.424418 0.747655
0.433448 0.475057 0.864712
0.534220 0.554855 0.894874
0.624309 0.708261 0.812381
0.691546 0.998171 0.599821
0.424053 0.562057 0.273908
0.312577 0.554188 0.305525
0.265605 0.584038 0.441145
0.263814 0.614016 0.615582
0.288195 0.624971 0.771999
0.320063 0.616195 0.861909
0.341051 0.605422 0.845172
0.333109 0.628826 0.689997
0.278508 0.741025 0.372941
1.000000 0.986091 0.597423
0.831954 0.936085 0.602076
0.661934 0.920253 0.713725
0.534878 0.892726 0.861154
0.426221 0.826078 0.981496
0.311715 0.711323 1.000000
0.167434 0.557920 0.931190
0.000000 0.393766 0.676549
0.000000 0.265203 0.226835
1.000000 1.000000 1.000000
1.000000 1.000000 1.000000
1.000000 1.000000 1.000000
1.000000 1.000000 1.000000
1.000000 1.000000 1.000000
0.701320 0.778331 1.000000
0.302234 0.429015 1.000000
0.000000 0.018526 0.984637
0.000000 0.000000 0.373267
1.000000 1.000000 1.000000
1.000000 1.000000 1.000000
1.000000 1.000000 1.000000
1.000000 1.000000 1.000000
1.000000 1.000000 1.000000
1.000000 0.837070 1.000000
1.000000 0.237338 1.000000
0.230013 0.000000 1.000000
0.000000 0.000000 1.000000
1.000000 1.000000 1.000000
1.000000 1.000000 1.000000
1.000000 1.000000 1.000000
1.000000 1.000000 1.000000
1.000000 1.000000 1.000000
1.000000 0.909355 1.000000
1.000000 0.003482 1.000000
1.000000 0.000000 1.000000
0.054028 0.000000 1.000000
0.135745 0.248630 0.150952
0.001488 0.141433 0.072223
0.000000 0.055841 0.072102
0.000000 0.000000 0.112983
0.000000 0.000000 0.165603
0.000000 0.000000 0.209053
0.000000 0.000000 0.230768
0.000000 0.000000 0.226534
0.000000 0.210304 0.200486
0.264014 0.216208 0.257265
0.199608 0.156866 0.225360
0.162968 0.138285 0.281276
0.143499 0.132963 0.381374
0.130926 0.131841 0.490362
0.115292 0.144301 0.581299
0.086960 0.198168 0.635589
0.036612 0.339708 0.642988
0.000000 0.633629 0.601597
0.268174 0.257722 0.262192
0.232984 0.228189 0.259471
0.246797 0.253077 0.352406
0.293460 0.296609 0.491326
0.357137 0.341449 0.634909
0.422311 0.388703 0.750181
0.473785 0.457920 0.812517
0.496680 0.587088 0.805640
0.476437 0.832641 0.721622
0.271122 0.391199 0.228777
0.220462 0.372207 0.236766
0.233834 0.415801 0.346866
0.289526 0.477927 0.503377
0.366141 0.532974 0.658945
0.442602 0.573771 0.774565
0.498151 0.611590 0.819581
0.512351 0.676145 0.771686
0.465081 0.815591 0.616919
0.459847 0.636629 0.270183
0.344980 0.607688 0.269569
0.302967 0.644002 0.376146
0.306533 0.693242 0.528181
0.328723 0.721518 0.672289
0.342899 0.713385 0.763435
0.322744 0.671838 0.764931
0.242258 0.618314 0.648437
0.075764 0.592693 0.393964
1.000000 1.000000 0.549686
0.853568 0.955363 0.520324
0.697174 0.957190 0.601853
0.583411 0.960839 0.726510
0.479762 0.924145 0.834877
0.354030 0.823387 0.875890
0.174339 0.653282 0.806828
0.000000 0.426994 0.593322
0.000000 0.176123 0.209350
1.000000 1.000000 1.000000
1.000000 1.000000 1.000000
1.000000 1.000000 1.000000
1.000000 1.000000 1.000000
1.000000 1.000000 1.000000
0.770914 0.921581 1.000000
0.343805 0.572507 1.000000
0.000000 0.117545 0.813883
0.000000 0.000000 0.269785
1.000000 1.000000 1.000000
1.000000 1.000000 1.000000
1.000000 1.000000 1.000000
1.000000 1.000000 1.000000
1.000000 1.000000 1.000000
1.000000 1.000000 1.000000
1.000000 0.448058 1.000000
0.265118 0.000000 1.000000
0.000000 0.000000 0.832093
1.000000 1.000000 1.000000
1.000000 1.000000 1.000000
1.000000 1.000000 1.000000
1.000000 1.000000 1.000000
1.000000 1.000000 1.000000
1.000000 1.000000 1.000000
1.000000 0.300441 1.000000
1.000000 0.000000 1.000000
0.073754 0.000000 1.000000
0.214541 0.486963 0.110923
0.039759 0.319691 0.000000
0.000000 0.201214 0.000000
0.000000 0.097570 0.000000
0.000000 0.000000 0.000000
0.000000 0.000000 0.000000
0.000000 0.000000 0.000000
0.000000 0.000000 0.000000
0.000000 0.000000 0.000000
0.338241 0.396099 0.243654
0.239118 0.276838 0.169499
0.181234 0.226248 0.182920
0.146046 0.202091 0.243729
0.115326 0.180570 0.320086
0.071169 0.156329 0.388502
0.000000 0.142455 0.433834
0.000000 0.170476 0.449288
0.000000 0.290363 0.436420
0.324798 0.380824 0.262600
0.262352 0.294397 0.223796
0.261650 0.291022 0.281108
0.298588 0.320183 0.388318
0.349379 0.349809 0.507554
0.390557 0.366265 0.609296
0.398975 0.374364 0.672371
0.351804 0.397357 0.683953
0.226534 0.476938 0.639567
0.299112 0.459082 0.225752
0.230310 0.389090 0.202193
0.237549 0.411034 0.281912
0.291162 0.466124 0.412659
0.361805 0.514009 0.550535
0.420450 0.532781 0.659985
0.438390 0.518975 0.713805
0.387236 0.487566 0.693140
0.238920 0.471972 0.587483
0.450172 0.650777 0.241216
0.327932 0.579599 0.211959
0.289819 0.603747 0.291765
0.300607 0.656152 0.422353
0.325391 0.688188 0.553791
0.329585 0.669672 0.644495
0.278920 0.588861 0.661229
0.139447 0.452454 0.579107
0.000000 0.285594 0.381591
1.000000 0.977778 0.467216
0.804248 0.886571 0.410483
0.663441 0.888583 0.467220
0.567853 0.908468 0.573114
0.477018 0.889326 0.672203
0.350791 0.792695 0.716871
0.149342 0.598556 0.667851
0.000000 0.305335 0.494227
0.000000 0.000000 0.173427
1.000000 1.000000 1.000000
1.000000 1.000000 1.000000
1.000000 1.000000 1.000000
1.000000 1.000000 1.000000
1.000000 1.000000 1.000000
0.780987 0.919570 1.000000
0.342526 0.564560 0.936997
0.000000 0.061483 0.640987
0.000000 0.000000 0.164646
1.000000 1.000000 1.000000
1.000000 1.000000 1.000000
1.000000 1.000000 1.000000
1.000000 1.000000 1.000000
1.000000 1.000000 1.000000
1.000000 1.000000 1.000000
1.000000 0.505333 1.000000
0.264478 0.000000 1.000000
0.000000 0.000000 0.607016
1.000000 1.000000 1.000000
1.000000 1.000000 1.000000
1.000000 1.000000 1.000000
1.000000 1.000000 1.000000
1.000000 1.000000 1.000000
1.000000 1.000000 1.000000
1.000000 0.441297 1.000000
1.000000 0.000000 1.000000
0.069241 0.000000 1.000000
0.334591 0.711372 0.129594
0.103743 0.466614 0.000000
0.000000 0.300378 0.000000
0.000000 0.163965 0.000000
0.000000 0.027116 0.000000
0.000000 0.000000 0.000000
0.000000 0.000000 0.000000
0.000000 0.000000 0.000000
0.000000 0.000000 0.000000
0.452003 0.561792 0.274135
0.305643 0.366359 0.154836
0.216919 0.270043 0.121550
0.159337 0.215870 0.137542
0.106720 0.165303 0.174425
0.033213 0.098249 0.212160
0.000000 0.013058 0.239057
0.000000 0.000000 0.251775
0.000000 0.000000 0.255321
0.414678 0.488802 0.294316
0.315476 0.330385 0.219590
0.293681 0.286186 0.240125
0.317239 0.290952 0.313152
0.354414 0.297872 0.404255
0.373788 0.278577 0.487363
0.344265 0.223139 0.544757
0.235065 0.140072 0.567062
0.015730 0.056332 0.553255
0.349516 0.510259 0.243071
0.256093 0.375328 0.191182
0.253639 0.364220 0.242421
0.304540 0.403404 0.347990
0.371499 0.437794 0.467442
0.417540 0.430744 0.568674
0.406005 0.364050 0.627936
0.300555 0.237950 0.629822
0.065171 0.071124 0.567279
0.447510 0.645984 0.223453
0.314435 0.519788 0.171827
0.279684 0.521521 0.229819
0.300079 0.569380 0.342602
0.332766 0.600001 0.463694
0.335208 0.568460 0.554965
0.265187 0.448279 0.586632
0.080803 0.231419 0.537259
0.000000 0.000000 0.393759
0.963742 0.917761 0.388630
0.741535 0.784324 0.313857
0.618796 0.777430 0.353816
0.546788 0.806997 0.447646
0.477096 0.801386 0.542837
0.361622 0.707398 0.595226
0.152589 0.490277 0.568999
0.000000 0.133708 0.436688
0.000000 0.000000 0.179178
1.000000 1.000000 0.941885
1.000000 1.000000 0.819721
1.000000 1.000000 0.816024
1.000000 1.000000 0.863902
1.000000 1.000000 0.904812
0.795703 0.865193 0.888562
0.363083 0.506457 0.773306
0.000000 0.000000 0.525546
0.000000 0.000000 0.120135
1.000000 1.000000 1.000000
1.000000 1.000000 1.000000
1.000000 1.000000 1.000000
1.000000 1.000000 1.000000
1.000000 1.000000 1.000000
1.000000 1.000000 1.000000
1.000000 0.515194 1.000000
0.297840 0.000000 1.000000
0.000000 0.000000 0.463343
1.000000 1.000000 1.000000
1.000000 1.000000 1.000000
1.000000 1.000000 1.000000
1.000000 1.000000 1.000000
1.000000 1.000000 1.000000
1.000000 1.000000 1.000000
1.000000 0.536827 1.000000
1.000000 0.000000 1.000000
0.115297 0.000000 1.000000
0.508158 0.927800 0.213091
0.206228 0.596532 0.000000
0.000000 0.376048 0.000000
0.000000 0.202911 0.000000
0.000000 0.032124 0.000000
0.000000 0.000000 0.000000
0.000000 0.000000 0.000000
0.000000 0.000000 0.000000
0.000000 0.000000 0.000000
0.622105 0.723980 0.357009
0.416509 0.444506 0.192358
0.287870 0.297132 0.110841
0.201741 0.210144 0.079175
0.123998 0.130269 0.072426
0.020833 0.022675 0.074006
0.000000 0.000000 0.075679
0.000000 0.000000 0.077555
0.000000 0.000000 0.088092
0.559158 0.597095 0.367813
0.414221 0.359977 0.260014
0.365278 0.270778 0.245302
0.372323 0.249508 0.284363
0.395670 0.234617 0.346232
0.395953 0.182999 0.408289
0.334124 0.069989 0.456268
0.171455 0.000000 0.484246
0.000000 0.000000 0.494653
0.448220 0.564918 0.293382
0.324215 0.359494 0.219067
0.309033 0.312313 0.246414
0.357107 0.335108 0.330078
0.423192 0.358054 0.433061
0.462361 0.329768 0.526715
0.430006 0.217307 0.590741
0.281839 0.006172 0.613185
0.000000 0.000000 0.590446
0.482284 0.647186 0.231715
0.335435 0.461572 0.166679
0.304028 0.439030 0.210503
0.336936 0.483015 0.311808
0.383355 0.515427 0.427568
0.392797 0.476605 0.523102
0.315094 0.325333 0.572080
0.100398 0.038832 0.556518
0.000000 0.000000 0.466783
0.918434 0.865595 0.330923
0.700913 0.686687 0.250127
0.599244 0.670182 0.284009
0.556742 0.711261 0.375160
0.517041 0.723546 0.474522
0.424092 0.639101 0.541384
0.222170 0.408431 0.543384
0.000000 0.000485 0.456508
0.000000 0.000000 0.265090
1.000000 1.000000 0.789237
1.000000 1.000000 0.666804
1.000000 1.000000 0.663490
1.000000 1.000000 0.715856
1.000000 1.000000 0.768810
0.857170 0.834804 0.775613
0.448105 0.482931 0.697869
0.000000 0.000000 0.505534
0.000000 0.000000 0.176913
1.000000 1.000000 1.000000
1.000000 1.000000 1.000000
1.000000 1.000000 1.000000
1.000000 1.000000 1.000000
1.000000 1.000000 1.000000
1.000000 1.000000 1.000000
1.000000 0.567123 1.000000
0.412893 0.000000 0.946093
0.000000 0.000000 0.443909
1.000000 1.000000 1.000000
1.000000 1.000000 1.000000
1.000000 1.000000 1.000000
1.000000 1.000000 1.000000
1.000000 1.000000 1.000000
1.000000 1.000000 1.000000
1.000000 0.681261 1.000000
1.000000 0.000000 1.000000
0.264670 0.000000 1.000000
0.725452 1.000000 0.345921
0.337941 0.707226 0.042043
0.025116 0.434388 0.000000
0.000000 0.228957 0.000000
0.000000 0.031197 0.000000
0.000000 0.000000 0.000000
0.000000 0.000000 0.000000
0.000000 0.000000 0.000000
0.000000 0.000000 0.000000
0.843293 0.876808 0.478955
0.566985 0.513809 0.271429
0.389875 0.318428 0.142843
0.269568 0.204212 0.063365
0.163989 0.103150 0.011513
0.031381 0.000000 0.000000
0.000000 0.000000 0.000000
0.000000 0.000000 0.000000
0.000000 0.000000 0.000000
0.757524 0.704596 0.471943
0.558395 0.390449 0.336605
0.476768 0.260458 0.290865
0.464688 0.219895 0.298862
0.474519 0.192472 0.333082
0.458944 0.120345 0.374359
0.370967 0.000000 0.411876
0.163907 0.000000 0.443165
0.000000 0.000000 0.474106
0.599047 0.626700 0.367710
0.439024 0.353611 0.279561
0.408597 0.275722 0.290290
0.454252 0.290028 0.358006
0.522794 0.311965 0.449163
0.561344 0.275413 0.538565
0.517345 0.132691 0.609364
0.338559 0.000000 0.653060
0.000000 0.000000 0.669503
0.562858 0.662769 0.259199
0.399816 0.421725 0.192402
0.372257 0.381427 0.232388
0.421106 0.430596 0.331231
0.487606 0.476392 0.449356
0.513322 0.444416 0.555536
0.440133 0.278713 0.626891
0.210243 0.000000 0.648890
0.000000 0.000000 0.615353
0.908043 0.834417 0.289468
0.695808 0.615181 0.217352
0.618733 0.596743 0.258544
0.612183 0.659547 0.359087
0.611841 0.702476 0.473375
0.553711 0.642858 0.564149
0.374114 0.416459 0.602499
0.009692 0.000000 0.567863
0.000000 0.000000 0.448028
1.000000 1.000000 0.651690
1.000000 0.956333 0.546749
1.000000 0.942800 0.560262
1.000000 0.996789 0.632243
1.000000 1.000000 0.711053
0.985436 0.888203 0.753402
0.618161 0.562171 0.724350
0.031728 0.000000 0.597303
0.000000 0.000000 0.354017
1.000000 1.000000 1.000000
1.000000 1.000000 1.000000
1.000000 1.000000 1.000000
1.000000 1.000000 1.000000
1.000000 1.000000 1.000000
1.000000 1.000000 1.000000
1.000000 0.734056 1.000000
0.635266 0.000000 0.974650
0.000000 0.000000 0.569925
1.000000 1.000000 1.000000
1.000000 1.000000 1.000000
1.000000 1.000000 1.000000
1.000000 1.000000 1.000000
1.000000 1.000000 1.000000
1.000000 1.000000 1.000000
1.000000 0.952281 1.000000
1.000000 0.000000 1.000000
0.548050 0.000000 1.000000
0.954620 1.000000 0.490963
0.467554 0.779931 0.129353
0.081072 0.465018 0.000000
0.000000 0.240105 0.000000
0.000000 0.030722 0.000000
0.000000 0.000000 0.000000
0.000000 0.000000 0.000000
0.000000 0.000000 0.000000
0.000000 0.000000 0.000000
1.000000 0.997872 0.605027
0.730280 0.560250 0.359791
0.496666 0.328297 0.187984
0.337070 0.200822 0.063226
0.201468 0.095079 0.000000
0.040152 0.000000 0.000000
0.000000 0.000000 0.000000
0.000000 0.000000 0.000000
0.000000 0.000000 0.000000
0.987005 0.793650 0.573934
0.725746 0.412531 0.419278
0.606421 0.254340 0.349416
0.573124 0.209611 0.331938
0.570271 0.187318 0.342781
0.542594 0.114880 0.366232
0.435145 0.000000 0.394928
0.193296 0.000000 0.429851
0.000000 0.000000 0.480334
0.783767 0.682695 0.435457
0.582806 0.353156 0.344750
0.535141 0.258308 0.348824
0.579305 0.280409 0.409237
0.654154 0.320156 0.495897
0.698860 0.296692 0.587059
0.652915 0.147599 0.669328
0.456130 0.000000 0.737655
0.048636 0.000000 0.795343
0.675540 0.684573 0.277482
0.494407 0.400469 0.223257
0.471721 0.357323 0.272422
0.540458 0.429115 0.380505
0.633911 0.508270 0.511380
0.685693 0.505652 0.637274
0.629736 0.350566 0.738759
0.400292 0.000000 0.804757
0.000000 0.000000 0.832537
0.923412 0.820813 0.238012
0.717585 0.574775 0.191967
0.669149 0.570467 0.256543
0.705518 0.673594 0.381236
0.754427 0.768301 0.523891
0.743928 0.757177 0.650702
0.602393 0.561252 0.736211
0.258514 0.119999 0.763308
0.000000 0.000000 0.723232
1.000000 1.000000 0.505167
1.000000 0.898345 0.438164
1.000000 0.918789 0.487635
1.000000 1.000000 0.597044
1.000000 1.000000 0.718207
1.000000 1.000000 0.811285
0.871762 0.795816 0.844789
0.327622 0.231549 0.795580
0.000000 0.000000 0.648863
1.000000 1.000000 1.000000
1.000000 1.000000 1.000000
1.000000 1.000000 1.000000
1.000000 1.000000 1.000000
1.000000 1.000000 1.000000
1.000000 1.000000 1.000000
1.000000 1.000000 1.000000
0.968531 0.342312 1.000000
0.000000 0.000000 0.840980
1.000000 1.000000 1.000000
1.000000 1.000000 1.000000
1.000000 1.000000 1.000000
1.000000 1.000000 1.000000
1.000000 1.000000 1.000000
1.000000 1.000000 1.000000
1.000000 1.000000 1.000000
1.000000 0.471147 1.000000
0.974068 0.000000 1.000000
1.000000 1.000000 0.589477
0.541677 0.779332 0.174929
0.071006 0.441006 0.000000
0.000000 0.217811 0.000000
0.000000 0.020537 0.000000
0.000000 0.000000 0.000000
0.000000 0.000000 0.000000
0.000000 0.000000 0.000000
0.000000 0.000000 0.000000
1.000000 1.000000 0.678656
0.857545 0.553261 0.403562
0.559914 0.304555 0.195069
0.356440 0.186178 0.030251
0.189148 0.100643 0.000000
0.000380 0.000000 0.000000
0.000000 0.000000 0.000000
0.000000 0.000000 0.000000
0.000000 0.000000 0.000000
1.000000 0.830054 0.619392
0.871964 0.400404 0.456326
0.710448 0.234990 0.371933
0.654366 0.209606 0.337253
0.640181 0.218490 0.331679
0.604677 0.174322 0.342949
0.484956 0.008222 0.367149
0.218439 0.000000 0.408717
0.000000 0.000000 0.480435
0.962087 0.703449 0.444401
0.715793 0.337058 0.365101
0.649415 0.247384 0.375166
0.693538 0.301947 0.439609
0.779067 0.386709 0.531786
0.837223 0.406072 0.633408
0.799550 0.282881 0.734529
0.597909 0.000000 0.833555
0.164479 0.000000 0.937239
0.784578 0.687890 0.236515
0.583976 0.381481 0.211883
0.567710 0.358775 0.285931
0.660804 0.479018 0.417641
0.788601 0.619892 0.574339
0.876765 0.677526 0.731702
0.851277 0.566488 0.873757
0.638439 0.219788 0.992875
0.164871 0.000000 1.000000
0.933331 0.804822 0.128682
0.735554 0.553895 0.128784
0.720321 0.588163 0.235505
0.807099 0.758594 0.401792
0.915670 0.934595 0.588942
0.966137 1.000000 0.766602
0.878921 0.873155 0.912766
0.574765 0.466740 1.000000
0.000000 0.000000 1.000000
1.000000 1.000000 0.303966
1.000000 0.876485 0.298034
1.000000 0.956510 0.405279
1.000000 1.000000 0.572618
1.000000 1.000000 0.755318
1.000000 1.000000 0.916994
1.000000 1.000000 1.000000
0.705713 0.714131 1.000000
0.000000 0.000000 1.000000
1.000000 1.000000 0.995549
1.000000 1.000000 0.951978
1.000000 1.000000 1.000000
1.000000 1.000000 1.000000
1.000000 1.000000 1.000000
1.000000 1.000000 1.000000
1.000000 1.000000 1.000000
1.000000 0.978775 1.000000
0.266030 0.000000 1.000000
1.000000 1.000000 1.000000
1.000000 1.000000 1.000000
1.000000 1.000000 1.000000
1.000000 1.000000 1.000000
1.000000 1.000000 1.000000
1.000000 1.000000 1.000000
1.000000 1.000000 1.000000
1.000000 1.000000 1.000000
1.000000 0.000000 1.000000
1.000000 1.000000 0.561098
0.484865 0.653569 0.101093
0.000000 0.318877 0.000000
0.000000 0.126981 0.000000
0.000000 0.000000 0.000000
0.000000 0.000000 0.000000
0.000000 0.000000 0.000000
0.000000 0.000000 0.000000
0.000000 0.000000 0.000000
1.000000 0.972364 0.621652
0.877872 0.445730 0.327238
0.509233 0.208475 0.091281
0.257812 0.129933 0.000000
0.057684 0.097880 0.000000
0.000000 0.018535 0.000000
0.000000 0.000000 0.000000
0.000000 0.000000 0.000000
0.000000 0.000000 0.000000
1.000000 0.763057 0.532298
0.930683 0.311702 0.374416
0.723004 0.168424 0.287770
0.643086 0.194281 0.246852
0.619443 0.268773 0.234506
0.580909 0.289841 0.241922
0.456635 0.173869 0.268641
0.176093 0.000000 0.322549
0.000000 0.000000 0.419884
1.000000 0.642959 0.320697
0.776154 0.267697 0.269455
0.690111 0.213715 0.300847
0.736164 0.333793 0.383336
0.837266 0.499156 0.493733
0.916690 0.599469 0.617200
0.898028 0.542838 0.747243
0.705191 0.255813 0.885720
0.262410 0.000000 1.000000
0.832160 0.631466 0.064626
0.611234 0.331890 0.089294
0.603455 0.361299 0.206617
0.725895 0.564199 0.379028
0.895950 0.803538 0.577307
1.000000 0.960704 0.780582
1.000000 0.935528 0.976331
0.870522 0.646283 1.000000
0.411352 0.029683 1.000000
0.884527 0.749937 0.000000
0.696964 0.524416 0.000000
0.720022 0.630092 0.131304
0.865217 0.903192 0.359316
1.000000 1.000000 0.609776
1.000000 1.000000 0.855784
1.000000 1.000000 1.000000
0.908821 1.000000 1.000000
0.348585 0.339024 1.000000
1.000000 1.000000 0.000000
1.000000 0.867376 0.061721
1.000000 1.000000 0.251244
1.000000 1.000000 0.499701
1.000000 1.000000 0.765809
1.000000 1.000000 1.000000
1.000000 1.000000 1.000000
1.000000 1.000000 1.000000
0.370887 0.624953 1.000000
1.000000 1.000000 0.559106
1.000000 1.000000 0.618774
1.000000 1.000000 0.792893
1.000000 1.000000 1.000000
1.000000 1.000000 1.000000
1.000000 1.000000 1.000000
1.000000 1.000000 1.000000
1.000000 1.000000 1.000000
0.839125 0.902976 1.000000
1.000000 1.000000 1.000000
1.000000 1.000000 1.000000
1.000000 1.000000 1.000000
1.000000 1.000000 1.000000
1.000000 1.000000 1.000000
1.000000 1.000000 1.000000
1.000000 1.000000 1.000000
1.000000 1.000000 1.000000
1.000000 1.000000 1.000000
