public/luts/midred_infra.cube
# Generated from ColorChecker fit
LUT_3D_SIZE 5
DOMAIN_MIN 0.0 0.0 0.0
DOMAIN_MAX 1.0 1.0 1.0
0.188770 0.165743 0.512351
0.253888 0.303973 0.508929
0.313179 0.344656 0.473170
0.367995 0.373243 0.464549
0.427111 0.414948 0.459685
0.253888 0.303973 0.508929
0.316486 0.374167 0.472521
0.372471 0.385338 0.437411
0.425049 0.407878 0.442359
0.484853 0.451939 0.443270
0.313179 0.344656 0.473170
0.372471 0.385338 0.437411
0.425599 0.395481 0.422775
0.477627 0.430418 0.447306
0.541044 0.485240 0.446199
0.367995 0.373243 0.464549
0.425049 0.407878 0.442359
0.477627 0.430418 0.447306
0.532649 0.481136 0.476724
0.604461 0.540061 0.445092
0.427111 0.414948 0.459685
0.484853 0.451939 0.443270
0.541044 0.485240 0.446199
0.604461 0.540061 0.445092
0.691304 0.581374 0.333714
0.253888 0.303973 0.508929
0.316486 0.374167 0.472521
0.372471 0.385338 0.437411
0.425049 0.407878 0.442359
0.484853 0.451939 0.443270
0.316486 0.374167 0.472521
0.375862 0.398098 0.423398
0.428455 0.396509 0.402301
0.479330 0.424734 0.427278
0.540975 0.477863 0.433519
0.372471 0.385338 0.437411
0.428455 0.396509 0.402301
0.478726 0.405625 0.408138
0.530205 0.452958 0.452254
0.597235 0.518540 0.449128
0.425049 0.407878 0.442359
0.479330 0.424734 0.427278
0.530205 0.452958 0.452254
0.586449 0.517764 0.493907
0.664264 0.584122 0.446003
0.484853 0.451939 0.443270
0.540975 0.477863 0.433519
0.597235 0.518540 0.449128
0.664264 0.584122 0.446003
0.760122 0.624519 0.297195
0.313179 0.344656 0.473170
0.372471 0.385338 0.437411
0.425599 0.395481 0.422775
0.477627 0.430418 0.447306
0.541044 0.485240 0.446199
0.372471 0.385338 0.437411
0.428455 0.396509 0.402301
0.478726 0.405625 0.408138
0.530205 0.452958 0.452254
0.597235 0.518540 0.449128
0.425599 0.395481 0.422775
0.478726 0.405625 0.408138
0.527829 0.432158 0.440463
0.581683 0.500292 0.496370
0.656489 0.574998 0.469624
0.477627 0.430418 0.447306
0.530205 0.452958 0.452254
0.581683 0.500292 0.496370
0.642694 0.582570 0.535560
0.731294 0.649704 0.442877
0.541044 0.485240 0.446199
0.597235 0.518540 0.449128
0.656489 0.574998 0.469624
0.731294 0.649704 0.442877
0.841565 0.677508 0.221228
0.367995 0.373243 0.464549
0.425049 0.407878 0.442359
0.477627 0.430418 0.447306
0.532649 0.481135 0.476724
0.604461 0.540061 0.445092
0.425049 0.407878 0.442359
0.479330 0.424734 0.427278
0.530205 0.452958 0.452254
0.586449 0.517764 0.493907
0.664264 0.584122 0.446003
0.477627 0.430418 0.447306
0.530205 0.452958 0.452254
0.581683 0.500292 0.496370
0.642694 0.582570 0.535560
0.731294 0.649704 0.442877
0.532649 0.481135 0.476724
0.586449 0.517764 0.493907
0.642694 0.582570 0.535560
0.713871 0.670644 0.536877
0.819895 0.716837 0.350194
0.604461 0.540061 0.445092
0.664265 0.584122 0.446003
0.731294 0.649704 0.442877
0.819895 0.716837 0.350194
0.951836 0.705313 0.000000
0.427111 0.414948 0.459685
0.484853 0.451939 0.443270
0.541044 0.485240 0.446199
0.604461 0.540061 0.445092
0.691304 0.581374 0.333713
0.484853 0.451939 0.443270
0.540975 0.477863 0.433519
0.597235 0.518540 0.449128
0.664265 0.584122 0.446003
0.760122 0.624519 0.297195
0.541044 0.485240 0.446199
0.597235 0.518540 0.449128
0.656489 0.574998 0.469624
0.731294 0.649704 0.442877
0.841565 0.677508 0.221228
0.604461 0.540061 0.445092
0.664265 0.584122 0.446003
0.731294 0.649704 0.442877
0.819895 0.716837 0.350194
0.951836 0.705313 0.000000
0.691304 0.581374 0.333713
0.760122 0.624519 0.297195
0.841565 0.677508 0.221228
0.951836 0.705313 0.000000
1.000000 0.612662 0.000000
