public/luts/midred_infra.cube
# Generated from ColorChecker fit
LUT_3D_SIZE 33
DOMAIN_MIN 0.0 0.0 0.0
DOMAIN_MAX 1.0 1.0 1.0
0.188770 0.165743 0.512351
0.197092 0.192757 0.517760
0.205390 0.216384 0.520895
0.213648 0.236944 0.522084
0.221852 0.254745 0.521635
0.229987 0.270079 0.519838
0.238044 0.283222 0.516959
0.246014 0.294438 0.513247
0.253888 0.303973 0.508929
0.261662 0.312062 0.504211
0.269331 0.318921 0.499281
0.276894 0.324756 0.494306
0.284351 0.329755 0.489432
0.291704 0.334092 0.484786
0.298956 0.337927 0.480473
0.306112 0.341405 0.476579
0.313179 0.344656 0.473170
0.320167 0.347794 0.470291
0.327087 0.350922 0.467968
0.333950 0.354125 0.466205
0.340772 0.357474 0.464987
0.347568 0.361025 0.464278
0.354358 0.364822 0.464023
0.361159 0.368890 0.464145
0.367995 0.373243 0.464549
0.374889 0.377878 0.465117
0.381865 0.382778 0.465714
0.388952 0.387912 0.466182
0.396177 0.393233 0.466345
0.403572 0.398680 0.466004
0.411170 0.404178 0.464942
0.419004 0.409635 0.462922
0.427111 0.414948 0.459685
0.197092 0.192757 0.517760
0.205405 0.218023 0.521975
0.213689 0.240010 0.524029
0.221927 0.259038 0.524245
0.230105 0.275408 0.522927
0.238211 0.289410 0.520358
0.246235 0.301315 0.516799
0.254167 0.311385 0.512495
0.262002 0.319861 0.507667
0.269733 0.326975 0.502517
0.277358 0.332940 0.497228
0.284875 0.337956 0.491961
0.292284 0.342210 0.486857
0.299588 0.345870 0.482038
0.306791 0.349094 0.477604
0.313899 0.352023 0.473637
0.320918 0.354782 0.470197
0.327860 0.357484 0.467324
0.334734 0.360226 0.465039
0.341553 0.363090 0.463341
0.348334 0.366143 0.462209
0.355092 0.369439 0.461604
0.361846 0.373015 0.461464
0.368617 0.376896 0.461708
0.375426 0.381090 0.462235
0.382297 0.385592 0.462924
0.389256 0.390379 0.463632
0.396331 0.395418 0.464199
0.403551 0.400658 0.464441
0.410947 0.406035 0.464155
0.418552 0.411468 0.463121
0.426401 0.416865 0.461094
0.434531 0.422115 0.457811
0.205390 0.216384 0.520895
0.213689 0.240010 0.524029
0.221952 0.260466 0.525112
0.230164 0.278065 0.524462
0.238313 0.293107 0.522376
0.246385 0.305876 0.519134
0.254371 0.316642 0.514992
0.262263 0.325659 0.510188
0.270054 0.333170 0.504940
0.277739 0.339398 0.499444
0.285316 0.344556 0.493878
0.292784 0.348839 0.488398
0.300144 0.352429 0.483140
0.307397 0.355494 0.478220
0.314550 0.358185 0.473736
0.321607 0.360639 0.469761
0.328578 0.362980 0.466352
0.335471 0.365316 0.463544
0.342299 0.367739 0.461352
0.349075 0.370330 0.459771
0.355814 0.373150 0.458775
0.362535 0.376251 0.458318
0.369254 0.379666 0.458335
0.375994 0.383415 0.458740
0.382777 0.387503 0.459426
0.389627 0.391921 0.460267
0.396571 0.396645 0.461116
0.403636 0.401634 0.461805
0.410853 0.406837 0.462149
0.418253 0.412184 0.461938
0.425869 0.417592 0.460945
0.433736 0.422963 0.458924
0.441893 0.428185 0.455604
0.213648 0.236944 0.522084
0.221927 0.259038 0.524245
0.230164 0.278065 0.524462
0.238347 0.294337 0.523046
0.246461 0.308149 0.520291
0.254495 0.319781 0.516470
0.262440 0.329500 0.511835
0.270287 0.337558 0.506620
0.278032 0.344190 0.501036
0.285668 0.349620 0.495275
0.293195 0.354054 0.489509
0.300612 0.357686 0.483890
0.307919 0.360692 0.478548
0.315121 0.363237 0.473596
0.322221 0.365468 0.469124
0.329227 0.367520 0.465203
0.336148 0.369512 0.461882
0.342993 0.371548 0.459193
0.349774 0.373718 0.457145
0.356507 0.376096 0.455727
0.363206 0.378743 0.454911
0.369889 0.381706 0.454643
0.376575 0.385013 0.454855
0.383286 0.388682 0.455454
0.390045 0.392714 0.456329
0.396876 0.397096 0.457349
0.403806 0.401800 0.458362
0.410864 0.406783 0.459195
0.418081 0.411988 0.459656
0.425487 0.417342 0.459533
0.433117 0.422759 0.458593
0.441007 0.428138 0.456583
0.449194 0.433362 0.453229
0.221852 0.254745 0.521635
0.230105 0.275408 0.522927
0.238313 0.293107 0.522376
0.246461 0.308149 0.520291
0.254537 0.320825 0.516959
0.262530 0.331414 0.512649
0.270429 0.340176 0.507607
0.278229 0.347361 0.502063
0.285924 0.353201 0.496222
0.293510 0.357914 0.490271
0.300984 0.361705 0.484378
0.308347 0.364762 0.478689
0.315601 0.367260 0.473331
0.322750 0.369358 0.468408
0.329797 0.371200 0.464008
0.336752 0.372918 0.460195
0.343622 0.374626 0.457015
0.350418 0.376425 0.454493
0.357154 0.378401 0.452634
0.363843 0.380626 0.451423
0.370502 0.383156 0.450824
0.377149 0.386032 0.450782
0.383803 0.389283 0.451220
0.390487 0.392921 0.452042
0.397224 0.396943 0.453131
0.404038 0.401332 0.454352
0.410958 0.406057 0.455547
0.418012 0.411072 0.456538
0.425231 0.416314 0.457130
0.432648 0.421710 0.457103
0.440296 0.427168 0.456220
0.448212 0.432582 0.454223
0.456434 0.437834 0.450834
0.229987 0.270079 0.519838
0.238211 0.289410 0.520358
0.246385 0.305876 0.519134
0.254495 0.319781 0.516470
0.262530 0.331414 0.512649
0.270477 0.341046 0.507933
0.278329 0.348939 0.502566
0.286079 0.355335 0.496770
0.293722 0.360463 0.490746
0.301255 0.364540 0.484677
0.308675 0.367764 0.478724
0.315984 0.370321 0.473030
0.323183 0.372381 0.467714
0.330277 0.374101 0.462878
0.337271 0.375621 0.458603
0.344174 0.377068 0.454949
0.350994 0.378554 0.451957
0.357742 0.380176 0.449647
0.364433 0.382016 0.448018
0.371080 0.384141 0.447050
0.377700 0.386605 0.446703
0.384313 0.389446 0.446915
0.390937 0.392687 0.447606
0.397596 0.396338 0.448675
0.404313 0.400392 0.449999
0.411114 0.404828 0.451437
0.418026 0.409612 0.452828
0.425080 0.414692 0.453988
0.432305 0.420006 0.454716
0.439736 0.425472 0.454788
0.447407 0.430998 0.453963
0.455354 0.436473 0.451976
0.463616 0.441775 0.448545
0.238044 0.283222 0.516959
0.246235 0.301315 0.516799
0.254371 0.316642 0.514992
0.262440 0.329500 0.511835
0.270429 0.340176 0.507607
0.278329 0.348939 0.502566
0.286132 0.356043 0.496949
0.293830 0.361730 0.490973
0.301419 0.366226 0.484836
0.308896 0.369740 0.478714
0.316261 0.372470 0.472764
0.323514 0.374597 0.467122
0.330659 0.376288 0.461905
0.337698 0.377695 0.457208
0.344639 0.378956 0.453108
0.351490 0.380194 0.449658
0.358260 0.381516 0.446896
0.364962 0.383015 0.444836
0.371608 0.384772 0.443472
0.378215 0.386849 0.442779
0.384798 0.389296 0.442712
0.391378 0.392147 0.443205
0.397975 0.395422 0.444171
0.404612 0.399126 0.445505
0.411312 0.403250 0.447079
0.418103 0.407769 0.448746
0.425011 0.412645 0.450341
0.432068 0.417824 0.451675
0.439304 0.423236 0.452541
0.446754 0.428800 0.452711
0.454451 0.434417 0.451938
0.462435 0.439975 0.449953
0.470742 0.445346 0.446467
0.246014 0.294438 0.513247
0.254167 0.311385 0.512495
0.262263 0.325659 0.510188
0.270287 0.337558 0.506620
0.278229 0.347361 0.502063
0.286079 0.355335 0.496770
0.293830 0.361730 0.490973
0.301474 0.366785 0.484886
0.309008 0.370721 0.478699
0.316430 0.373745 0.472584
0.323739 0.376050 0.466694
0.330936 0.377814 0.461160
0.338024 0.379199 0.456091
0.345010 0.380356 0.451581
0.351898 0.381417 0.447698
0.358697 0.382502 0.444494
0.365419 0.383714 0.441999
0.372075 0.385144 0.440222
0.378679 0.386867 0.439154
0.385247 0.388942 0.438763
0.391796 0.391416 0.439000
0.398346 0.394319 0.439793
0.404918 0.397668 0.441051
0.411535 0.401463 0.442663
0.418223 0.405692 0.444496
0.425007 0.410327 0.446400
0.431916 0.415325 0.448202
0.438980 0.420628 0.449710
0.446232 0.426165 0.450711
0.453705 0.431848 0.450972
0.461435 0.437577 0.450241
0.469460 0.443235 0.448243
0.477819 0.448690 0.444687
0.253888 0.303973 0.508929
0.262002 0.319861 0.507667
0.270054 0.333170 0.504940
0.278032 0.344190 0.501036
0.285924 0.353201 0.496222
0.293722 0.360463 0.490746
0.301419 0.366226 0.484836
0.309008 0.370721 0.478699
0.316486 0.374167 0.472521
0.323851 0.376769 0.466470
0.331104 0.378714 0.460692
0.338245 0.380178 0.455313
0.345279 0.381319 0.450440
0.352210 0.382283 0.446157
0.359046 0.383200 0.442531
0.365796 0.384184 0.439608
0.372471 0.385338 0.437411
0.379082 0.386747 0.435947
0.385646 0.388481 0.435199
0.392177 0.390599 0.435133
0.398695 0.393141 0.435692
0.405218 0.396134 0.436800
0.411769 0.399593 0.438362
0.418371 0.403513 0.440260
0.425049 0.407878 0.442359
0.431830 0.412657 0.444500
0.438744 0.417803 0.446508
0.445820 0.423255 0.448184
0.453093 0.428937 0.449311
0.460595 0.434759 0.449652
0.468364 0.440616 0.448947
0.476436 0.446388 0.446919
0.484853 0.451939 0.443270
0.261662 0.312062 0.504211
0.269733 0.326975 0.502517
0.277739 0.339398 0.499444
0.285668 0.349620 0.495275
0.293510 0.357914 0.490271
0.301255 0.364540 0.484677
0.308896 0.369740 0.478714
0.316430 0.373745 0.472584
0.323851 0.376769 0.466470
0.331160 0.379012 0.460533
0.338356 0.380660 0.454914
0.345442 0.381882 0.449735
0.352421 0.382836 0.445096
0.359299 0.383662 0.441079
0.366085 0.384486 0.437744
0.372787 0.385420 0.435131
0.379416 0.386562 0.433260
0.385986 0.387994 0.432131
0.392512 0.389783 0.431725
0.399010 0.391982 0.431999
0.405499 0.394629 0.432894
0.411999 0.397748 0.434328
0.418532 0.401348 0.436200
0.425122 0.405423 0.438388
0.431795 0.409952 0.440751
0.438579 0.414900 0.443127
0.445502 0.420217 0.445334
0.452597 0.425837 0.447168
0.459895 0.431683 0.448408
0.467432 0.437659 0.448811
0.475245 0.443656 0.448113
0.483372 0.449552 0.446031
0.491853 0.455207 0.442261
0.269331 0.318921 0.499281
0.277358 0.332940 0.497228
0.285316 0.344556 0.493878
0.293195 0.354054 0.489509
0.300984 0.361705 0.484378
0.308675 0.367764 0.478724
0.316261 0.372470 0.472764
0.323739 0.376050 0.466694
0.331104 0.378714 0.460692
0.338356 0.380660 0.454914
0.345497 0.382068 0.449496
0.352527 0.383105 0.444556
0.359453 0.383924 0.440187
0.366281 0.384662 0.436467
0.373017 0.385442 0.433451
0.379673 0.386373 0.431174
0.386259 0.387546 0.429651
0.392791 0.389041 0.428877
0.399282 0.390923 0.428826
0.405749 0.393240 0.429453
0.412213 0.396026 0.430692
0.418693 0.399302 0.432456
0.425213 0.403072 0.434640
0.431796 0.407328 0.437117
0.438469 0.412044 0.439740
0.445260 0.417183 0.442342
0.452199 0.422689 0.444735
0.459317 0.428495 0.446713
0.466647 0.434518 0.448047
0.474226 0.440659 0.448489
0.482090 0.446806 0.447773
0.490277 0.452833 0.445608
0.498830 0.458596 0.441686
0.276894 0.324756 0.494306
0.284875 0.337956 0.491961
0.292784 0.348839 0.488398
0.300612 0.357686 0.483890
0.308347 0.364762 0.478689
0.315984 0.370321 0.473030
0.323514 0.374597 0.467122
0.330936 0.377814 0.461160
0.338245 0.380178 0.455313
0.345442 0.381882 0.449735
0.352527 0.383105 0.444556
0.359505 0.384009 0.439887
0.366379 0.384743 0.435819
0.373157 0.385441 0.432423
0.379847 0.386222 0.429750
0.386459 0.387189 0.427829
0.393006 0.388434 0.426670
0.399501 0.390031 0.426264
0.405961 0.392040 0.426579
0.412402 0.394506 0.427565
0.418845 0.397461 0.429151
0.425310 0.400921 0.431246
0.431821 0.404888 0.433739
0.438402 0.409347 0.436497
0.445080 0.414271 0.439369
0.451884 0.419617 0.442183
0.458843 0.425328 0.444747
0.465991 0.431332 0.446847
0.473360 0.437542 0.448252
0.480987 0.443856 0.448708
0.488909 0.450159 0.447942
0.497165 0.456319 0.445660
0.505797 0.462191 0.441549
0.284351 0.329755 0.489432
0.292284 0.342210 0.486857
0.300144 0.352429 0.483140
0.307919 0.360692 0.478548
0.315601 0.367260 0.473331
0.323183 0.372381 0.467714
0.330659 0.376288 0.461905
0.338024 0.379199 0.456091
0.345279 0.381319 0.450440
0.352421 0.382836 0.445096
0.359453 0.383924 0.440187
0.366379 0.384743 0.435819
0.373204 0.385438 0.432077
0.379935 0.386139 0.429027
0.386581 0.386961 0.426715
0.393152 0.388005 0.425165
0.399663 0.389357 0.424383
0.406125 0.391088 0.424353
0.412558 0.393256 0.425039
0.418977 0.395901 0.426386
0.425403 0.399051 0.428318
0.431858 0.402719 0.430738
0.438365 0.406902 0.433531
0.444950 0.411583 0.436559
0.451639 0.416731 0.439665
0.458461 0.422299 0.442673
0.465448 0.428227 0.445385
0.472632 0.434438 0.447583
0.480046 0.440842 0.449029
0.487728 0.447333 0.449466
0.495716 0.453793 0.448615
0.504048 0.460086 0.446178
0.512767 0.466063 0.441836
0.291704 0.334092 0.484786
0.299588 0.345870 0.482038
0.307397 0.355494 0.478220
0.315121 0.363237 0.473596
0.322750 0.369358 0.468408
0.330277 0.374101 0.462878
0.337698 0.377695 0.457208
0.345010 0.380356 0.451581
0.352210 0.382283 0.446157
0.359299 0.383662 0.441079
0.366281 0.384662 0.436467
0.373157 0.385441 0.432423
0.379935 0.386139 0.429027
0.386622 0.386882 0.426340
0.393227 0.387783 0.424403
0.399761 0.388938 0.423234
0.406238 0.390430 0.422835
0.412673 0.392326 0.423184
0.419082 0.394679 0.424241
0.425484 0.397528 0.425946
0.431898 0.400896 0.428217
0.438348 0.404792 0.430952
0.444857 0.409209 0.434031
0.451451 0.414128 0.437312
0.458157 0.419512 0.440632
0.465005 0.425313 0.443810
0.472026 0.431464 0.446643
0.479253 0.437888 0.448908
0.486720 0.444489 0.450363
0.494466 0.451158 0.450744
0.502526 0.457773 0.449768
0.510943 0.464194 0.447131
0.519759 0.470270 0.442510
0.298956 0.337927 0.480473
0.306791 0.349094 0.477604
0.314550 0.358185 0.473736
0.322221 0.365468 0.469124
0.329797 0.371200 0.464008
0.337271 0.375621 0.458603
0.344639 0.378956 0.453108
0.351898 0.381417 0.447698
0.359046 0.383200 0.442531
0.366085 0.384486 0.437744
0.373017 0.385442 0.433451
0.379847 0.386222 0.429750
0.386581 0.386961 0.426715
0.393227 0.387783 0.424403
0.399794 0.388796 0.422848
0.406296 0.390093 0.422066
0.412744 0.391753 0.422051
0.419155 0.393840 0.422778
0.425546 0.396403 0.424201
0.431935 0.399477 0.426254
0.438344 0.403081 0.428852
0.444794 0.407221 0.431888
0.451311 0.411887 0.435235
0.457920 0.417055 0.438746
0.464650 0.422685 0.442255
0.471530 0.428725 0.445574
0.478593 0.435105 0.448496
0.485870 0.441742 0.450793
0.493399 0.448539 0.452217
0.501215 0.455383 0.452500
0.509358 0.462147 0.451353
0.517868 0.468689 0.448468
0.526788 0.474852 0.443516
0.306112 0.341405 0.476579
0.313899 0.352023 0.473637
0.321607 0.360639 0.469761
0.329227 0.367520 0.465203
0.336752 0.372918 0.460195
0.344174 0.377068 0.454949
0.351490 0.380194 0.449658
0.358697 0.382502 0.444494
0.365796 0.384184 0.439608
0.372787 0.385420 0.435131
0.379673 0.386373 0.431174
0.386459 0.387189 0.427829
0.393152 0.388005 0.425165
0.399761 0.388938 0.423234
0.406296 0.390093 0.422066
0.412768 0.391560 0.421670
0.419193 0.393413 0.422036
0.425585 0.395714 0.423134
0.431963 0.398507 0.424913
0.438345 0.401823 0.427302
0.444753 0.405679 0.430210
0.451211 0.410076 0.433525
0.457742 0.415001 0.437116
0.464373 0.420425 0.440831
0.471134 0.426307 0.444499
0.478054 0.432588 0.447925
0.485165 0.439196 0.450899
0.492501 0.446046 0.453187
0.500099 0.453035 0.454536
0.507995 0.460047 0.454673
0.516228 0.466951 0.453305
0.524841 0.473601 0.450118
0.533876 0.479838 0.444778
0.313179 0.344656 0.473170
0.320918 0.354782 0.470197
0.328578 0.362980 0.466352
0.336148 0.369512 0.461882
0.343622 0.374626 0.457015
0.350994 0.378554 0.451957
0.358260 0.381516 0.446896
0.365419 0.383714 0.441999
0.372471 0.385338 0.437411
0.379416 0.386562 0.433260
0.386259 0.387546 0.429651
0.393006 0.388434 0.426670
0.399663 0.389357 0.424383
0.406238 0.390430 0.422835
0.412744 0.391753 0.422051
0.419193 0.393413 0.422036
0.425599 0.395481 0.422775
0.431977 0.398014 0.424232
0.438348 0.401054 0.426351
0.444729 0.404626 0.429057
0.451144 0.408746 0.432253
0.457614 0.413409 0.435823
0.464167 0.418599 0.439630
0.470828 0.424284 0.443516
0.477627 0.430418 0.447306
0.484594 0.436940 0.450802
0.491762 0.443775 0.453785
0.499166 0.450831 0.456019
0.506841 0.458003 0.457245
0.514826 0.465172 0.457184
0.523160 0.472203 0.455539
0.531884 0.478947 0.451990
0.541044 0.485240 0.446199
0.320167 0.347794 0.470291
0.327860 0.357484 0.467324
0.335471 0.365316 0.463544
0.342993 0.371548 0.459193
0.350418 0.376425 0.454493
0.357742 0.380176 0.449647
0.364962 0.383015 0.444836
0.372075 0.385144 0.440222
0.379082 0.386747 0.435947
0.385986 0.387994 0.432131
0.392791 0.389041 0.428877
0.399501 0.390031 0.426264
0.406125 0.391088 0.424353
0.412673 0.392326 0.423184
0.419155 0.393840 0.422778
0.425585 0.395714 0.423134
0.431977 0.398014 0.424232
0.438349 0.400795 0.426031
0.444718 0.404093 0.428471
0.451105 0.407933 0.431470
0.457532 0.412323 0.434927
0.464024 0.417257 0.438721
0.470605 0.422715 0.442709
0.477303 0.428662 0.446731
0.484148 0.435047 0.450603
0.491171 0.441806 0.454123
0.498405 0.448859 0.457069
0.505885 0.456112 0.459198
0.513647 0.463457 0.460246
0.521730 0.470769 0.459930
0.530174 0.477910 0.457947
0.539021 0.484728 0.453973
0.548315 0.491055 0.447664
0.327087 0.350922 0.467968
0.334734 0.360226 0.465039
0.342299 0.367739 0.461352
0.349774 0.373718 0.457145
0.357154 0.378401 0.452634
0.364433 0.382016 0.448018
0.371608 0.384772 0.443472
0.378679 0.386867 0.439154
0.385646 0.388481 0.435199
0.392512 0.389783 0.431725
0.399282 0.390923 0.428826
0.405961 0.392040 0.426579
0.412558 0.393256 0.425039
0.419082 0.394679 0.424241
0.425546 0.396403 0.424201
0.431963 0.398507 0.424913
0.438348 0.401054 0.426351
0.444718 0.404093 0.428471
0.451093 0.407659 0.431205
0.457492 0.411772 0.434469
0.463939 0.416438 0.438155
0.470459 0.421645 0.442137
0.477076 0.427371 0.446269
0.483820 0.433576 0.450383
0.490720 0.440206 0.454291
0.497807 0.447194 0.457788
0.505116 0.454455 0.460644
0.512681 0.461892 0.462612
0.520540 0.469393 0.463423
0.528731 0.476830 0.462790
0.537295 0.484062 0.460404
0.546275 0.490931 0.455935
0.555714 0.497266 0.449035
0.333950 0.354125 0.466205
0.341553 0.363090 0.463341
0.349075 0.370330 0.459771
0.356507 0.376096 0.455727
0.363843 0.380626 0.451423
0.371080 0.384141 0.447050
0.378215 0.386849 0.442779
0.385247 0.388942 0.438763
0.392177 0.390599 0.435133
0.399010 0.391982 0.431999
0.405749 0.393240 0.429453
0.412402 0.394506 0.427565
0.418977 0.395901 0.426386
0.425484 0.397528 0.425946
0.431935 0.399477 0.426254
0.438345 0.401823 0.427302
0.444729 0.404626 0.429057
0.451105 0.407933 0.431470
0.457492 0.411772 0.434469
0.463912 0.416162 0.437963
0.470387 0.421103 0.441841
0.476942 0.426582 0.445972
0.483604 0.432571 0.450202
0.490402 0.439027 0.454361
0.497365 0.445893 0.458256
0.504526 0.453097 0.461674
0.511919 0.460553 0.464383
0.519580 0.468157 0.466130
0.527545 0.475796 0.466640
0.535855 0.483336 0.465622
0.544550 0.490634 0.462761
0.553673 0.497527 0.457724
0.563270 0.503843 0.450155
0.340772 0.357474 0.464987
0.348334 0.366143 0.462209
0.355814 0.373150 0.458775
0.363206 0.378743 0.454911
0.370502 0.383156 0.450824
0.377700 0.386605 0.446703
0.384798 0.389296 0.442712
0.391796 0.391416 0.439000
0.398695 0.393141 0.435692
0.405499 0.394629 0.432894
0.412213 0.396026 0.430692
0.418845 0.397461 0.429151
0.425403 0.399051 0.428318
0.431898 0.400896 0.428217
0.438344 0.403081 0.428852
0.444753 0.405679 0.430210
0.451144 0.408746 0.432253
0.457532 0.412323 0.434927
0.463939 0.416438 0.438155
0.470387 0.421103 0.441841
0.476897 0.426316 0.445869
0.483497 0.432061 0.450102
0.490213 0.438305 0.454383
0.497074 0.445002 0.458534
0.504110 0.452091 0.462360
0.511354 0.459496 0.465641
0.518841 0.467128 0.468140
0.526607 0.474880 0.469599
0.534690 0.482632 0.469740
0.543129 0.490251 0.468265
0.551966 0.497587 0.464853
0.561245 0.504475 0.459167
0.571010 0.510738 0.450848
0.347568 0.361025 0.464278
0.355092 0.369439 0.461604
0.362535 0.376251 0.458318
0.369889 0.381706 0.454643
0.377149 0.386032 0.450782
0.384313 0.389446 0.446915
0.391378 0.392147 0.443205
0.398346 0.394319 0.439793
0.405218 0.396134 0.436800
0.411999 0.397748 0.434328
0.418693 0.399302 0.432456
0.425310 0.400921 0.431246
0.431858 0.402719 0.430738
0.438348 0.404792 0.430952
0.444794 0.407221 0.431888
0.451211 0.410076 0.433525
0.457614 0.413409 0.435823
0.464024 0.417257 0.438721
0.470459 0.421645 0.442137
0.476942 0.426582 0.445972
0.483497 0.432061 0.450102
0.490150 0.438061 0.454387
0.496929 0.444549 0.458664
0.503862 0.451472 0.462751
0.510981 0.458768 0.466446
0.518319 0.466355 0.469526
0.525910 0.474141 0.471748
0.533792 0.482016 0.472849
0.542003 0.489857 0.472546
0.550583 0.497525 0.470535
0.559574 0.504867 0.466492
0.569019 0.511716 0.460074
0.578966 0.517890 0.450916
0.354358 0.364822 0.464023
0.361846 0.373015 0.461464
0.369254 0.379666 0.458335
0.376575 0.385013 0.454855
0.383803 0.389283 0.451220
0.390937 0.392687 0.447606
0.397975 0.395422 0.444171
0.404918 0.397668 0.441051
0.411769 0.399593 0.438362
0.418532 0.401348 0.436200
0.425213 0.403072 0.434640
0.431821 0.404888 0.433739
0.438365 0.406902 0.433531
0.444857 0.409209 0.434031
0.451311 0.411887 0.435235
0.457742 0.415001 0.437116
0.464167 0.418599 0.439630
0.470605 0.422715 0.442709
0.477076 0.427371 0.446269
0.483604 0.432571 0.450202
0.490213 0.438305 0.454383
0.496929 0.444549 0.458664
0.503779 0.451264 0.462878
0.510795 0.458396 0.466838
0.518007 0.465877 0.470337
0.525449 0.473624 0.473146
0.533156 0.481539 0.475019
0.541165 0.489509 0.475686
0.549515 0.497408 0.474860
0.558248 0.505093 0.472231
0.567404 0.512407 0.467471
0.577030 0.519180 0.460231
0.587170 0.525224 0.450141
0.361159 0.368890 0.464145
0.368617 0.376896 0.461708
0.375994 0.383415 0.458740
0.383286 0.388682 0.455454
0.390487 0.392921 0.452042
0.397596 0.396338 0.448675
0.404612 0.399126 0.445505
0.411535 0.401463 0.442663
0.418371 0.403513 0.440260
0.425122 0.405423 0.438388
0.431796 0.407328 0.437117
0.438402 0.409347 0.436497
0.444950 0.411583 0.436559
0.451451 0.414128 0.437312
0.457920 0.417055 0.438746
0.464373 0.420425 0.440831
0.470828 0.424284 0.443516
0.477303 0.428662 0.446731
0.483820 0.433576 0.450383
0.490402 0.439027 0.454361
0.497074 0.445002 0.458534
0.503862 0.451472 0.462751
0.510795 0.458396 0.466838
0.517903 0.465715 0.470604
0.525219 0.473358 0.473836
0.532775 0.481238 0.476301
0.540609 0.489253 0.477746
0.548757 0.497288 0.477898
0.557259 0.505210 0.476464
0.566156 0.512876 0.473130
0.575491 0.520123 0.467561
0.585309 0.526778 0.459405
0.595656 0.532650 0.448286
0.367995 0.373243 0.464549
0.375426 0.381090 0.462235
0.382777 0.387503 0.459426
0.390045 0.392714 0.456329
0.397224 0.396943 0.453131
0.404313 0.400392 0.449999
0.411312 0.403250 0.447079
0.418223 0.405692 0.444496
0.425049 0.407878 0.442359
0.431795 0.409952 0.440751
0.438469 0.412044 0.439740
0.445080 0.414271 0.439369
0.451639 0.416731 0.439665
0.458157 0.419512 0.440632
0.464650 0.422685 0.442255
0.471134 0.426307 0.444499
0.477627 0.430418 0.447306
0.484148 0.435047 0.450603
0.490720 0.440206 0.454291
0.497365 0.445893 0.458256
0.504110 0.452091 0.462360
0.510981 0.458768 0.466446
0.518007 0.465877 0.470337
0.525219 0.473358 0.473836
0.532649 0.481136 0.476724
0.540332 0.489118 0.478766
0.548304 0.497201 0.479701
0.556604 0.505264 0.479252
0.565270 0.513173 0.477121
0.574344 0.520779 0.472988
0.583870 0.527917 0.466516
0.593893 0.534409 0.457343
0.604461 0.540061 0.445092
0.374889 0.377878 0.465117
0.382297 0.385592 0.462924
0.389627 0.391921 0.460267
0.396876 0.397096 0.457349
0.404038 0.401332 0.454352
0.411114 0.404828 0.451437
0.418103 0.407769 0.448746
0.425007 0.410327 0.446400
0.431830 0.412657 0.444500
0.438579 0.414900 0.443127
0.445260 0.417183 0.442342
0.451884 0.419617 0.442183
0.458461 0.422299 0.442673
0.465005 0.425313 0.443810
0.471530 0.428725 0.445574
0.478054 0.432588 0.447925
0.484594 0.436940 0.450802
0.491171 0.441806 0.454123
0.497807 0.447194 0.457788
0.504526 0.453097 0.461674
0.511354 0.459496 0.465641
0.518319 0.466355 0.469526
0.525449 0.473624 0.473146
0.532775 0.481238 0.476301
0.540332 0.489118 0.478766
0.548154 0.497170 0.480299
0.556277 0.505284 0.480636
0.564739 0.513337 0.479496
0.573582 0.521192 0.476573
0.582847 0.528694 0.471544
0.592578 0.535677 0.464066
0.602820 0.541957 0.453773
0.613622 0.547339 0.440281
0.381865 0.382778 0.465714
0.389256 0.390379 0.463632
0.396571 0.396645 0.461116
0.403806 0.401800 0.458362
0.410958 0.406057 0.455547
0.418026 0.409612 0.452828
0.425011 0.412645 0.450341
0.431916 0.415325 0.448202
0.438744 0.417803 0.446508
0.445502 0.420217 0.445334
0.452199 0.422689 0.444735
0.458843 0.425328 0.444747
0.465448 0.428227 0.445385
0.472026 0.431464 0.446643
0.478593 0.435105 0.448496
0.485165 0.439196 0.450899
0.491762 0.443775 0.453785
0.498405 0.448859 0.457069
0.505116 0.454455 0.460644
0.511919 0.460553 0.464383
0.518841 0.467128 0.468140
0.525910 0.474141 0.471748
0.533156 0.481539 0.475019
0.540609 0.489253 0.477746
0.548304 0.497201 0.479701
0.556277 0.505284 0.480636
0.564563 0.513390 0.480284
