public/luts/midred_infra.cube
# Generated from ColorChecker fit
LUT_3D_SIZE 9
DOMAIN_MIN 0.0 0.0 0.0
DOMAIN_MAX 1.0 1.0 1.0
0.188770 0.165743 0.512351
0.221852 0.254745 0.521635
0.253888 0.303973 0.508929
0.284351 0.329755 0.489432
0.313179 0.344656 0.473170
0.340772 0.357474 0.464987
0.367995 0.373243 0.464549
0.396177 0.393233 0.466345
0.427111 0.414948 0.459685
0.221852 0.254745 0.521635
0.254537 0.320825 0.516959
0.285924 0.353201 0.496222
0.315601 0.367260 0.473331
0.343622 0.374626 0.457015
0.370502 0.383156 0.450824
0.397224 0.396943 0.453131
0.425231 0.416314 0.457130
0.456434 0.437834 0.450834
0.253888 0.303973 0.508929
0.285924 0.353201 0.496222
0.316486 0.374167 0.472521
0.345279 0.381319 0.450440
0.372471 0.385338 0.437411
0.398695 0.393141 0.435692
0.425049 0.407878 0.442359
0.453093 0.428937 0.449311
0.484853 0.451939 0.443270
0.284351 0.329755 0.489432
0.315601 0.367260 0.473331
0.345279 0.381319 0.450440
0.373204 0.385438 0.432077
0.399663 0.389357 0.424383
0.425403 0.399051 0.428318
0.451639 0.416731 0.439665
0.480046 0.440842 0.449029
0.512767 0.466063 0.441836
0.313179 0.344656 0.473170
0.343622 0.374626 0.457015
0.372471 0.385338 0.437411
0.399663 0.389357 0.424383
0.425599 0.395481 0.422775
0.451144 0.408746 0.432253
0.477627 0.430418 0.447306
0.506841 0.458003 0.457245
0.541044 0.485240 0.446199
0.340772 0.357474 0.464987
0.370502 0.383156 0.450824
0.398695 0.393141 0.435692
0.425403 0.399051 0.428318
0.451144 0.408746 0.432253
0.476897 0.426316 0.445869
0.504110 0.452091 0.462360
0.534690 0.482632 0.469740
0.571010 0.510738 0.450848
0.367995 0.373243 0.464549
0.397224 0.396943 0.453131
0.425049 0.407878 0.442359
0.451639 0.416731 0.439665
0.477627 0.430418 0.447306
0.504110 0.452091 0.462360
0.532649 0.481136 0.476724
0.565270 0.513173 0.477121
0.604461 0.540061 0.445092
0.396177 0.393233 0.466345
0.425231 0.416314 0.457130
0.453093 0.428937 0.449311
0.480046 0.440842 0.449029
0.506841 0.458003 0.457245
0.534690 0.482632 0.469740
0.565270 0.513173 0.477121
0.600722 0.544307 0.464813
0.643651 0.566949 0.413063
0.427111 0.414948 0.459685
0.456434 0.437834 0.450834
0.484853 0.451939 0.443270
0.512767 0.466063 0.441836
0.541044 0.485240 0.446199
0.571010 0.510738 0.450848
0.604461 0.540061 0.445092
0.643651 0.566949 0.413063
0.691304 0.581374 0.333714
0.221852 0.254745 0.521635
0.254537 0.320825 0.516959
0.285924 0.353201 0.496222
0.315601 0.367260 0.473331
0.343622 0.374626 0.457015
0.370502 0.383156 0.450824
0.397224 0.396943 0.453131
0.425231 0.416314 0.457130
0.456434 0.437834 0.450834
0.254537 0.320825 0.516959
0.286681 0.367175 0.501503
0.317311 0.385576 0.475484
0.346133 0.390477 0.451517
0.373317 0.392559 0.437033
0.399493 0.398738 0.434291
0.425761 0.412166 0.440366
0.453680 0.432229 0.447158
0.485277 0.454549 0.441388
0.285924 0.353201 0.496222
0.317311 0.385576 0.475484
0.347048 0.395134 0.448821
0.374956 0.395378 0.427549
0.401319 0.396050 0.417808
0.426888 0.403126 0.420559
0.452874 0.418814 0.431586
0.480954 0.441560 0.441493
0.513271 0.466045 0.435705
0.315601 0.367260 0.473331
0.346133 0.390477 0.451517
0.374956 0.395378 0.427549
0.402005 0.394527 0.411450
0.427683 0.396723 0.408067
0.452853 0.406999 0.417065
0.478846 0.426625 0.432932
0.507454 0.453105 0.444979
0.540934 0.480178 0.437337
0.343622 0.374626 0.457015
0.373317 0.392559 0.437033
0.401319 0.396050 0.417808
0.427683 0.396723 0.408067
0.452924 0.402433 0.411361
0.478024 0.417276 0.426063
0.504428 0.441577 0.445365
0.534044 0.471900 0.457283
0.569247 0.501042 0.444654
0.370502 0.383156 0.450824
0.399493 0.398738 0.434291
0.426888 0.403126 0.420559
0.452853 0.406999 0.417065
0.478024 0.417276 0.426063
0.503496 0.437106 0.444630
0.530831 0.465878 0.464667
0.562054 0.499212 0.472893
0.599654 0.528964 0.450851
0.397224 0.396943 0.453131
0.425761 0.412166 0.440366
0.452874 0.418814 0.431586
0.478846 0.426625 0.432932
0.504428 0.441577 0.445365
0.530831 0.465878 0.464667
0.559734 0.497974 0.481443
0.593277 0.532545 0.481119
0.634066 0.560506 0.443943
0.425231 0.416314 0.457130
0.453680 0.432229 0.447158
0.480954 0.441560 0.441493
0.507454 0.453105 0.444979
0.534044 0.471900 0.457283
0.562054 0.499212 0.472893
0.593277 0.532545 0.481119
0.629970 0.565639 0.466093
0.674854 0.588468 0.406767
0.456434 0.437834 0.450834
0.485277 0.454549 0.441388
0.513271 0.466045 0.435705
0.540934 0.480178 0.437337
0.569247 0.501042 0.444654
0.599654 0.528964 0.450851
0.634066 0.560506 0.443943
0.674854 0.588468 0.406767
0.724857 0.601880 0.316982
0.253888 0.303973 0.508929
0.285924 0.353201 0.496222
0.316486 0.374167 0.472521
0.345279 0.381319 0.450440
0.372471 0.385338 0.437411
0.398695 0.393141 0.435692
0.425049 0.407878 0.442359
0.453093 0.428937 0.449311
0.484853 0.451939 0.443270
0.285924 0.353201 0.496222
0.317311 0.385576 0.475484
0.347048 0.395134 0.448821
0.374956 0.395378 0.427549
0.401319 0.396050 0.417808
0.426888 0.403126 0.420559
0.452874 0.418814 0.431586
0.480954 0.441560 0.441493
0.513271 0.466045 0.435705
0.316486 0.374167 0.472521
0.347048 0.395134 0.448821
0.375862 0.398098 0.423398
0.402864 0.395623 0.406277
0.428455 0.396509 0.402301
0.453501 0.405789 0.411139
0.479330 0.424734 0.427278
0.507736 0.450845 0.440027
0.540975 0.477863 0.433519
0.345279 0.381319 0.450440
0.374956 0.395378 0.427549
0.402864 0.395623 0.406277
0.429055 0.393676 0.395352
0.454046 0.397395 0.398326
0.478819 0.410873 0.413570
0.504819 0.434437 0.434278
0.533953 0.464651 0.448465
0.568597 0.494311 0.438968
0.372471 0.385338 0.437411
0.401319 0.396050 0.417808
0.428455 0.396509 0.402301
0.454046 0.397395 0.398326
0.478726 0.405625 0.408138
0.503592 0.424351 0.428814
0.530205 0.452958 0.452254
0.560589 0.487069 0.465178
0.597235 0.518540 0.449128
0.398695 0.393141 0.435692
0.426888 0.403126 0.420559
0.453501 0.405789 0.411139
0.478819 0.410873 0.413570
0.503592 0.424351 0.428814
0.529033 0.448433 0.452654
0.556817 0.481566 0.475694
0.589088 0.518429 0.483360
0.628449 0.549937 0.455900
0.425049 0.407878 0.442359
0.452874 0.418814 0.431586
0.479330 0.424734 0.427278
0.504819 0.434437 0.434278
0.530205 0.452958 0.452254
0.556817 0.481566 0.475694
0.586449 0.517764 0.493907
0.621358 0.555292 0.491026
0.664264 0.584122 0.446003
0.453093 0.428937 0.449311
0.480954 0.441560 0.441493
0.507736 0.450845 0.440027
0.533953 0.464651 0.448465
0.560589 0.487069 0.465178
0.589088 0.518429 0.483360
0.621358 0.555292 0.491026
0.659773 0.590455 0.471013
0.707171 0.612952 0.400980
0.484853 0.451939 0.443270
0.513271 0.466045 0.435705
0.540975 0.477863 0.433519
0.568597 0.494311 0.438968
0.597235 0.518540 0.449128
0.628449 0.549937 0.455900
0.664264 0.584122 0.446003
0.707171 0.612952 0.400980
0.760122 0.624519 0.297195
0.284351 0.329755 0.489432
0.315601 0.367260 0.473331
0.345279 0.381319 0.450440
0.373204 0.385438 0.432077
0.399663 0.389357 0.424383
0.425403 0.399051 0.428318
0.451639 0.416731 0.439665
0.480046 0.440842 0.449029
0.512767 0.466063 0.441836
0.315601 0.367260 0.473331
0.346133 0.390477 0.451517
0.374956 0.395378 0.427549
0.402005 0.394527 0.411450
0.427683 0.396723 0.408067
0.452853 0.406999 0.417065
0.478846 0.426625 0.432932
0.507454 0.453105 0.444979
0.540934 0.480178 0.437337
0.345279 0.381319 0.450440
0.374956 0.395378 0.427549
0.402864 0.395623 0.406277
0.429055 0.393676 0.395352
0.454046 0.397395 0.398326
0.478819 0.410873 0.413570
0.504819 0.434437 0.434278
0.533953 0.464651 0.448465
0.568597 0.494311 0.438968
0.373204 0.385438 0.432077
0.402005 0.394527 0.411450
0.429055 0.393676 0.395352
0.454521 0.393566 0.391217
0.479038 0.401114 0.401300
0.503702 0.419471 0.422679
0.530073 0.448024 0.447253
0.560178 0.482394 0.461743
0.596505 0.514438 0.447691
0.399663 0.389357 0.424383
0.427683 0.396723 0.408067
0.454046 0.397395 0.398326
0.479038 0.401114 0.401300
0.503407 0.413855 0.417950
0.528365 0.437828 0.444058
0.555591 0.471479 0.470230
0.587225 0.509488 0.481891
0.625872 0.542769 0.459289
0.425403 0.399051 0.428318
0.452853 0.406999 0.417065
0.478819 0.410873 0.413570
0.503702 0.419471 0.422679
0.528365 0.437828 0.444058
0.554139 0.467214 0.472196
0.582817 0.505130 0.496402
0.616655 0.545318 0.500807
0.658375 0.577749 0.464366
0.451639 0.416731 0.439665
0.478846 0.426625 0.432932
0.504819 0.434437 0.434278
0.530073 0.448024 0.447253
0.555591 0.471479 0.470230
0.582817 0.505130 0.496402
0.613660 0.545540 0.513784
0.650493 0.585505 0.505213
0.696154 0.614059 0.448348
0.480046 0.440842 0.449029
0.507454 0.453105 0.444979
0.533953 0.464651 0.448465
0.560178 0.482394 0.461743
0.587225 0.509488 0.481891
0.616655 0.545318 0.500807
0.650493 0.585505 0.505213
0.691228 0.621906 0.476650
0.741815 0.642613 0.391483
0.512767 0.466063 0.441836
0.540934 0.480178 0.437337
0.568597 0.494311 0.438968
0.596505 0.514438 0.447691
0.625872 0.542769 0.459289
0.658375 0.577749 0.464366
0.696154 0.614059 0.448348
0.741815 0.642613 0.391483
0.798426 0.650560 0.268840
0.313179 0.344656 0.473170
0.343622 0.374626 0.457015
0.372471 0.385338 0.437411
0.399663 0.389357 0.424383
0.425599 0.395481 0.422775
0.451144 0.408746 0.432253
0.477627 0.430418 0.447306
0.506841 0.458003 0.457245
0.541044 0.485240 0.446199
0.343622 0.374626 0.457015
0.373317 0.392559 0.437033
0.401319 0.396050 0.417808
0.427683 0.396723 0.408067
0.452924 0.402433 0.411361
0.478024 0.417276 0.426063
0.504428 0.441577 0.445365
0.534044 0.471900 0.457283
0.569247 0.501042 0.444654
0.372471 0.385338 0.437411
0.401319 0.396050 0.417808
0.428455 0.396509 0.402301
0.454046 0.397395 0.398326
0.478726 0.405625 0.408138
0.503592 0.424351 0.428814
0.530205 0.452958 0.452254
0.560589 0.487069 0.465178
0.597235 0.518540 0.449128
0.399663 0.389357 0.424383
0.427683 0.396723 0.408067
0.454046 0.397395 0.398326
0.479038 0.401114 0.401300
0.503407 0.413855 0.417950
0.528365 0.437828 0.444058
0.555591 0.471479 0.470230
0.587225 0.509488 0.481891
0.625872 0.542769 0.459289
0.425599 0.395481 0.422775
0.452924 0.402433 0.411361
0.478726 0.405625 0.408138
0.503407 0.413855 0.417950
0.527829 0.432158 0.440463
0.553324 0.461802 0.470167
0.581683 0.500292 0.496370
0.615164 0.541366 0.503205
0.656489 0.574998 0.469624
0.451144 0.408746 0.432253
0.478024 0.417276 0.426063
0.503592 0.424351 0.428814
0.528365 0.437828 0.444058
0.553324 0.461802 0.470167
0.579913 0.496599 0.500333
0.610042 0.538781 0.522573
0.646085 0.581148 0.519724
0.690877 0.612730 0.469443
0.477627 0.430418 0.447306
0.504428 0.441577 0.445365
0.530205 0.452958 0.452254
0.555591 0.471479 0.470230
0.581683 0.500292 0.496370
0.610042 0.538781 0.522573
0.642694 0.582570 0.535560
0.682127 0.623514 0.516874
0.731294 0.649704 0.442877
0.506841 0.458003 0.457245
0.534044 0.471900 0.457283
0.560589 0.487069 0.465178
0.587225 0.509488 0.481891
0.615164 0.541366 0.503205
0.646085 0.581148 0.519724
0.682127 0.623514 0.516874
0.725896 0.659379 0.474903
0.780462 0.675894 0.368881
0.541044 0.485240 0.446199
0.569247 0.501042 0.444654
0.597235 0.518540 0.449128
0.625872 0.542769 0.459289
0.656489 0.574998 0.469624
0.690877 0.612730 0.469443
0.731294 0.649704 0.442877
0.780462 0.675894 0.368881
0.841565 0.677508 0.221228
0.340772 0.357474 0.464987
0.370502 0.383156 0.450824
0.398695 0.393141 0.435692
0.425403 0.399051 0.428318
0.451144 0.408746 0.432253
0.476897 0.426316 0.445869
0.504110 0.452091 0.462360
0.534690 0.482632 0.469740
0.571010 0.510738 0.450848
0.370502 0.383156 0.450824
0.399493 0.398738 0.434291
0.426888 0.403126 0.420559
0.452853 0.406999 0.417065
0.478024 0.417276 0.426063
0.503496 0.437106 0.444630
0.530831 0.465878 0.464667
0.562054 0.499212 0.472893
0.599654 0.528964 0.450851
0.398695 0.393141 0.435692
0.426888 0.403126 0.420559
0.453501 0.405789 0.411139
0.478819 0.410873 0.413570
0.503592 0.424351 0.428814
0.529033 0.448433 0.452654
0.556817 0.481566 0.475694
0.589088 0.518429 0.483360
0.628449 0.549937 0.455900
0.425403 0.399051 0.428318
0.452853 0.406999 0.417065
0.478819 0.410873 0.413570
0.503702 0.419471 0.422679
0.528365 0.437828 0.444058
0.554139 0.467214 0.472196
0.582817 0.505130 0.496402
0.616655 0.545318 0.500807
0.658375 0.577749 0.464366
0.451144 0.408746 0.432253
0.478024 0.417276 0.426063
0.503592 0.424351 0.428814
0.528365 0.437828 0.444058
0.553324 0.461802 0.470167
0.579913 0.496599 0.500333
0.610042 0.538781 0.522573
0.646085 0.581148 0.519724
0.690877 0.612730 0.469443
0.476897 0.426316 0.445869
0.503496 0.437106 0.444630
0.529033 0.448433 0.452654
0.554139 0.467214 0.472196
0.579913 0.496599 0.500333
0.607916 0.535975 0.528966
0.640172 0.580964 0.544813
0.679170 0.623422 0.529419
0.727865 0.651440 0.459146
0.504110 0.452091 0.462360
0.530831 0.465878 0.464667
0.556817 0.481566 0.475694
0.582817 0.505130 0.496402
0.610042 0.538781 0.522573
0.640172 0.580964 0.544813
0.675345 0.626359 0.548548
0.718169 0.665880 0.514024
0.771712 0.686678 0.416312
0.534690 0.482632 0.469740
0.562054 0.499212 0.472893
0.589088 0.518429 0.483360
0.616655 0.545318 0.500807
0.646085 0.581148 0.519724
0.679170 0.623422 0.529419
0.718169 0.665880 0.514024
0.765802 0.698495 0.452493
0.825254 0.707476 0.318600
0.571010 0.510738 0.450848
0.599654 0.528964 0.450851
0.628449 0.549937 0.455900
0.658375 0.577749 0.464366
0.690877 0.612730 0.469443
0.727865 0.651440 0.459146
0.771712 0.686678 0.416312
0.825254 0.707476 0.318600
0.891794 0.699101 0.138490
0.367995 0.373243 0.464549
0.397224 0.396943 0.453131
0.425049 0.407878 0.442359
0.451639 0.416731 0.439665
0.477627 0.430418 0.447306
0.504110 0.452091 0.462360
0.532649 0.481135 0.476724
0.565270 0.513173 0.477121
0.604461 0.540061 0.445092
0.397224 0.396943 0.453131
0.425761 0.412166 0.440366
0.452874 0.418814 0.431586
0.478846 0.426625 0.432932
0.504428 0.441577 0.445365
0.530831 0.465878 0.464667
0.559734 0.497974 0.481443
0.593277 0.532545 0.481119
0.634066 0.560506 0.443943
0.425049 0.407878 0.442359
0.452874 0.418814 0.431586
0.479330 0.424734 0.427278
0.504819 0.434437 0.434278
0.530205 0.452958 0.452254
0.556817 0.481566 0.475694
0.586449 0.517764 0.493907
0.621358 0.555292 0.491026
0.664264 0.584122 0.446003
0.451639 0.416731 0.439665
0.478846 0.426625 0.432932
0.504819 0.434437 0.434278
0.530073 0.448024 0.447253
0.555591 0.471479 0.470230
0.582817 0.505130 0.496402
0.613660 0.545540 0.513784
0.650493 0.585505 0.505213
0.696154 0.614059 0.448348
0.477627 0.430418 0.447306
0.504428 0.441577 0.445365
0.530205 0.452958 0.452254
0.555591 0.471479 0.470230
0.581683 0.500292 0.496370
0.610042 0.538781 0.522573
0.642694 0.582570 0.535560
0.682127 0.623514 0.516874
0.731294 0.649704 0.442877
0.504110 0.452091 0.462360
0.530831 0.465878 0.464667
0.556817 0.481566 0.475694
0.582817 0.505130 0.496402
0.610042 0.538781 0.522573
0.640172 0.580964 0.544813
0.675345 0.626359 0.548548
0.718169 0.665880 0.514024
0.771712 0.686678 0.416312
0.532649 0.481135 0.476724
0.559734 0.497974 0.481443
0.586449 0.517764 0.493907
0.613660 0.545540 0.513784
0.642694 0.582570 0.535560
0.675345 0.626359 0.548548
0.713871 0.670644 0.536877
0.760993 0.705401 0.479501
0.819895 0.716837 0.350194
0.565270 0.513173 0.477121
0.593277 0.532545 0.481119
0.621358 0.555292 0.491026
0.650493 0.585505 0.505213
0.682127 0.623514 0.516874
0.718169 0.665880 0.514024
0.760993 0.705401 0.479501
0.813435 0.731110 0.390962
0.878797 0.728274 0.220888
0.604461 0.540061 0.445092
0.634066 0.560506 0.443943
0.664265 0.584122 0.446003
0.696154 0.614059 0.448348
0.731294 0.649704 0.442877
0.771712 0.686678 0.416312
0.819895 0.716837 0.350194
0.878797 0.728274 0.220888
0.951836 0.705313 0.000000
0.396177 0.393233 0.466345
0.425231 0.416314 0.457130
0.453093 0.428937 0.449311
0.480046 0.440842 0.449029
0.506841 0.458003 0.457245
0.534690 0.482632 0.469740
0.565270 0.513173 0.477121
0.600722 0.544307 0.464813
0.643651 0.566948 0.413063
0.425231 0.416314 0.457130
0.453680 0.432229 0.447158
0.480954 0.441560 0.441493
0.507454 0.453105 0.444979
0.534044 0.471900 0.457283
0.562054 0.499212 0.472893
0.593277 0.532545 0.481119
0.629970 0.565639 0.466093
0.674854 0.588468 0.406767
0.453093 0.428937 0.449311
0.480954 0.441560 0.441493
0.507736 0.450845 0.440027
0.533953 0.464651 0.448465
0.560589 0.487069 0.465178
0.589088 0.518429 0.483360
0.621358 0.555292 0.491026
0.659773 0.590455 0.471013
0.707171 0.612952 0.400980
0.480046 0.440842 0.449029
0.507454 0.453105 0.444979
0.533953 0.464651 0.448465
0.560178 0.482394 0.461743
0.587225 0.509488 0.481891
0.616655 0.545318 0.500807
0.650493 0.585505 0.505213
0.691228 0.621906 0.476650
0.741815 0.642613 0.391483
0.506841 0.458003 0.457245
0.534044 0.471900 0.457283
0.560589 0.487069 0.465178
0.587225 0.509488 0.481891
0.615164 0.541366 0.503205
0.646085 0.581148 0.519724
0.682127 0.623514 0.516874
0.725896 0.659379 0.474903
0.780462 0.675894 0.368881
0.534690 0.482632 0.469740
0.562054 0.499212 0.472893
0.589088 0.518429 0.483360
0.616655 0.545318 0.500807
0.646085 0.581148 0.519724
0.679170 0.623422 0.529419
0.718169 0.665880 0.514024
0.765802 0.698495 0.452493
0.825254 0.707476 0.318600
0.565270 0.513173 0.477121
0.593277 0.532545 0.481119
0.621358 0.555292 0.491026
0.650493 0.585505 0.505213
0.682127 0.623514 0.516874
0.718169 0.665880 0.514024
0.760993 0.705401 0.479501
0.813435 0.731110 0.390962
0.878797 0.728274 0.220888
0.600722 0.544307 0.464813
0.629970 0.565639 0.466093
0.659773 0.590455 0.471013
0.691228 0.621906 0.476650
0.725896 0.659379 0.474903
0.765802 0.698495 0.452493
0.813435 0.731110 0.390962
0.871748 0.745315 0.266674
0.944159 0.725437 0.050814
0.643651 0.566948 0.413063
0.674854 0.588468 0.406767
0.707171 0.612952 0.400980
0.741815 0.642613 0.391483
0.780462 0.675894 0.368881
0.825254 0.707476 0.318600
0.878797 0.728274 0.220888
0.944159 0.725437 0.050814
1.000000 0.682352 0.000000
0.427111 0.414948 0.459685
0.456434 0.437834 0.450834
0.484853 0.451939 0.443270
0.512767 0.466063 0.441836
0.541044 0.485240 0.446199
0.571010 0.510738 0.450848
0.604461 0.540061 0.445092
0.643651 0.566948 0.413063
0.691304 0.581374 0.333713
0.456434 0.437834 0.450834
0.485277 0.454549 0.441388
0.513271 0.466045 0.435705
0.540934 0.480178 0.437337
0.569247 0.501042 0.444654
0.599654 0.528964 0.450851
0.634066 0.560506 0.443943
0.674854 0.588468 0.406767
0.724857 0.601880 0.316982
0.484853 0.451939 0.443270
0.513271 0.466045 0.435705
0.540975 0.477863 0.433519
0.568597 0.494311 0.438968
0.597235 0.518540 0.449128
0.628449 0.549937 0.455900
0.664265 0.584122 0.446003
0.707171 0.612952 0.400980
0.760122 0.624519 0.297195
0.512767 0.466063 0.441836
0.540934 0.480178 0.437337
0.568597 0.494311 0.438968
0.596505 0.514438 0.447691
0.625872 0.542769 0.459289
0.658375 0.577749 0.464366
0.696154 0.614059 0.448348
0.741815 0.642613 0.391483
0.798426 0.650560 0.268840
0.541044 0.485240 0.446199
0.569247 0.501042 0.444654
0.597235 0.518540 0.449128
0.625872 0.542769 0.459289
0.656489 0.574998 0.469624
0.690877 0.612730 0.469443
0.731294 0.649704 0.442877
0.780462 0.675894 0.368881
0.841565 0.677508 0.221228
0.571010 0.510738 0.450848
0.599654 0.528964 0.450851
0.628449 0.549937 0.455900
0.658375 0.577749 0.464366
0.690877 0.612730 0.469443
0.727865 0.651440 0.459146
0.771712 0.686678 0.416312
0.825254 0.707476 0.318600
0.891794 0.699101 0.138490
0.604461 0.540061 0.445092
0.634066 0.560506 0.443943
0.664265 0.584122 0.446003
0.696154 0.614059 0.448348
0.731294 0.649704 0.442877
0.771712 0.686678 0.416312
0.819895 0.716837 0.350194
0.878797 0.728274 0.220888
0.951836 0.705313 0.000000
0.643651 0.566948 0.413063
0.674854 0.588468 0.406767
0.707171 0.612952 0.400980
0.741815 0.642613 0.391483
0.780462 0.675894 0.368881
0.825254 0.707476 0.318600
0.878797 0.728274 0.220888
0.944159 0.725437 0.050814
1.000000 0.682352 0.000000
0.691304 0.581374 0.333713
0.724857 0.601880 0.316982
0.760122 0.624519 0.297195
0.798426 0.650560 0.268840
0.841565 0.677508 0.221228
0.891794 0.699101 0.138490
0.951836 0.705313 0.000000
1.000000 0.682352 0.000000
1.000000 0.612662 0.000000
