public/luts/phenomena.cube
# Generated from ColorChecker fit
LUT_3D_SIZE 5
DOMAIN_MIN 0.0 0.0 0.0
DOMAIN_MAX 1.0 1.0 1.0
0.121830 0.000000 0.143224
0.101559 0.087613 0.350823
0.246652 0.257222 0.635120
0.261239 0.175199 0.560941
0.000000 0.000000 0.000000
0.000000 0.000000 0.085921
0.000000 0.000000 0.266220
0.000000 0.275252 0.589720
0.000000 0.188243 0.651488
0.000000 0.000000 0.000000
0.000000 0.000000 0.031684
0.000000 0.000000 0.225069
0.000000 0.286301 0.603933
0.000000 0.045363 0.793581
0.000000 0.000000 0.047856
0.000000 0.000000 0.433017
0.000000 0.000000 0.685752
0.000000 0.238880 1.000000
0.000000 0.000000 1.000000
0.000000 0.000000 0.915841
0.000000 0.000000 1.000000
0.529469 0.000000 1.000000
1.000000 0.158900 1.000000
0.141624 0.000000 1.000000
0.000000 0.000000 1.000000
0.458201 0.396015 0.197380
0.243867 0.148826 0.160160
0.373749 0.102847 0.350391
0.669456 0.041912 0.425799
0.773620 0.000000 0.000000
0.216741 0.241487 0.245586
0.206023 0.281055 0.243511
0.362788 0.388325 0.499679
0.414551 0.267546 0.702056
0.000000 0.000000 0.167144
0.000000 0.094193 0.258578
0.144530 0.476047 0.300397
0.299180 0.705872 0.607024
0.043286 0.408334 0.896664
0.000000 0.000000 0.516061
0.000000 0.000000 0.759322
0.410620 0.681910 0.859660
0.607332 1.000000 1.000000
0.053244 0.430657 1.000000
0.000000 0.000000 1.000000
0.768086 0.000000 1.000000
1.000000 0.924154 1.000000
1.000000 1.000000 1.000000
1.000000 0.378301 1.000000
0.000000 0.000000 1.000000
0.716031 0.530488 0.313929
0.321679 0.058166 0.180653
0.450058 0.000000 0.320860
1.000000 0.205631 0.485176
1.000000 0.252107 0.052764
0.603429 0.621887 0.326042
0.352047 0.294371 0.264212
0.449876 0.247242 0.470945
0.741911 0.272394 0.727107
0.894170 0.000000 0.442102
0.469772 0.653653 0.258489
0.351031 0.558499 0.245217
0.373265 0.531020 0.471360
0.287377 0.283524 0.748025
0.000000 0.000000 0.514857
0.563964 0.573489 0.704701
0.640711 0.807393 0.722971
0.615482 0.810034 0.927283
0.145086 0.214139 1.000000
0.000000 0.000000 0.887954
1.000000 0.406503 1.000000
1.000000 1.000000 1.000000
1.000000 1.000000 1.000000
1.000000 0.116757 1.000000
0.000000 0.000000 1.000000
0.840651 0.349626 0.245168
0.548711 0.109248 0.269120
0.957680 0.538050 0.507865
1.000000 1.000000 0.804932
1.000000 1.000000 0.632382
0.843714 0.652811 0.253910
0.590649 0.342231 0.359464
0.868185 0.581359 0.639181
1.000000 1.000000 0.966827
1.000000 1.000000 0.844707
0.808324 0.787631 0.132365
0.567759 0.526433 0.264996
0.652773 0.609247 0.506930
0.931750 0.836030 0.762174
1.000000 0.690468 0.563273
0.954232 0.710526 0.544426
0.772968 0.627431 0.655480
0.677545 0.596429 0.786750
0.442254 0.337893 0.872486
0.000000 0.000000 0.475470
1.000000 0.455338 1.000000
1.000000 0.688204 1.000000
1.000000 0.595023 1.000000
0.949288 0.000000 1.000000
0.000000 0.000000 1.000000
0.546208 0.000000 0.000000
0.907494 0.629226 0.476958
1.000000 1.000000 1.000000
1.000000 1.000000 1.000000
1.000000 1.000000 1.000000
0.784942 0.461970 0.150392
1.000000 0.869936 0.754990
1.000000 1.000000 1.000000
1.000000 1.000000 1.000000
1.000000 1.000000 1.000000
0.942113 0.741987 0.175731
1.000000 0.943297 0.759780
1.000000 1.000000 1.000000
1.000000 1.000000 1.000000
1.000000 1.000000 1.000000
1.000000 0.668219 0.748346
1.000000 0.823620 1.000000
1.000000 1.000000 1.000000
1.000000 1.000000 1.000000
1.000000 1.000000 0.916345
1.000000 0.283242 1.000000
1.000000 0.562620 1.000000
1.000000 0.862962 1.000000
1.000000 0.912699 1.000000
0.997254 0.123995 1.000000
