public/luts/phenomena.cube
# Generated from ColorChecker fit
LUT_3D_SIZE 9
DOMAIN_MIN 0.0 0.0 0.0
DOMAIN_MAX 1.0 1.0 1.0
0.121830 0.000000 0.143224
0.079523 0.015741 0.224748
0.101559 0.087613 0.350823
0.167732 0.177471 0.501877
0.246652 0.257222 0.635120
0.295742 0.279007 0.684549
0.261239 0.175199 0.560941
0.078194 0.000000 0.151859
0.000000 0.000000 0.000000
0.000000 0.000000 0.126245
0.000000 0.000000 0.195014
0.000000 0.000000 0.315513
0.062450 0.133053 0.470061
0.141038 0.260868 0.617759
0.156627 0.305898 0.694492
0.049571 0.195541 0.612929
0.000000 0.000000 0.262521
0.000000 0.000000 0.000000
0.000000 0.000000 0.085921
0.000000 0.000000 0.147372
0.000000 0.000000 0.266220
0.000000 0.110478 0.426672
0.000000 0.275252 0.589720
0.000000 0.327032 0.693139
0.000000 0.188243 0.651488
0.000000 0.000000 0.356108
0.000000 0.000000 0.000000
0.000000 0.000000 0.039873
0.000000 0.000000 0.099812
0.000000 0.000000 0.221299
0.000000 0.095484 0.390433
0.000000 0.286681 0.570094
0.000000 0.329288 0.699948
0.000000 0.140755 0.696443
0.000000 0.000000 0.452812
0.000000 0.000000 0.000000
0.000000 0.000000 0.031684
0.000000 0.000000 0.096284
0.000000 0.000000 0.225069
0.000000 0.078643 0.406029
0.000000 0.286301 0.603933
0.000000 0.304382 0.760337
0.000000 0.045363 0.793581
0.000000 0.000000 0.598785
0.000000 0.000000 0.047856
0.000000 0.000000 0.130897
0.000000 0.000000 0.206698
0.000000 0.000000 0.347807
0.000000 0.055368 0.544104
0.000000 0.270094 0.762248
0.000000 0.248868 0.945687
0.000000 0.000000 1.000000
0.000000 0.000000 0.866142
0.000000 0.000000 0.373966
0.000000 0.000000 0.433017
0.000000 0.000000 0.526926
0.000000 0.000000 0.685752
0.000000 0.025907 0.901264
0.000000 0.238880 1.000000
0.000000 0.164136 1.000000
0.000000 0.000000 1.000000
0.000000 0.000000 1.000000
0.000000 0.000000 0.915841
0.000000 0.000000 1.000000
0.000000 0.000000 1.000000
0.000000 0.000000 1.000000
0.116488 0.000000 1.000000
0.200336 0.198317 1.000000
0.000000 0.056417 1.000000
0.000000 0.000000 1.000000
0.000000 0.000000 1.000000
0.000000 0.000000 1.000000
0.000000 0.000000 1.000000
0.000000 0.000000 1.000000
0.529469 0.000000 1.000000
0.924408 0.000000 1.000000
1.000000 0.158900 1.000000
0.825702 0.000000 1.000000
0.141624 0.000000 1.000000
0.000000 0.000000 1.000000
0.000000 0.000000 1.000000
0.305447 0.216711 0.139420
0.214621 0.166631 0.145554
0.203162 0.154245 0.212548
0.258208 0.176704 0.326637
0.355710 0.211394 0.450839
0.460435 0.215932 0.524955
0.525960 0.128170 0.465571
0.494681 0.000000 0.166054
0.297803 0.000000 0.000000
0.139632 0.042871 0.167615
0.112309 0.077920 0.171720
0.149027 0.141204 0.241633
0.231041 0.224901 0.365480
0.328423 0.301422 0.508168
0.400058 0.323411 0.611388
0.393644 0.223744 0.593616
0.245694 0.000000 0.350109
0.000000 0.000000 0.000000
0.000000 0.000000 0.163468
0.000000 0.016736 0.169005
0.068348 0.157365 0.243785
0.171221 0.298585 0.377822
0.260203 0.407832 0.537914
0.288298 0.432778 0.667643
0.197325 0.301326 0.687372
0.000000 0.000000 0.494251
0.000000 0.000000 0.000000
0.000000 0.000000 0.149005
0.000000 0.000000 0.159803
0.000000 0.188437 0.241763
0.097200 0.384035 0.386790
0.174075 0.517478 0.563572
0.152755 0.531459 0.717580
0.000000 0.348910 0.771068
0.000000 0.000000 0.623076
0.000000 0.000000 0.149424
0.000000 0.000000 0.172212
0.000000 0.000000 0.192466
0.000000 0.224969 0.284288
0.048662 0.472374 0.441472
0.114297 0.622049 0.634596
0.042259 0.611715 0.811022
0.000000 0.359329 0.894894
0.000000 0.000000 0.787140
0.000000 0.000000 0.365473
0.000000 0.000000 0.307037
0.000000 0.000000 0.341310
0.000000 0.262348 0.446042
0.086522 0.559558 0.616917
0.146358 0.718074 0.826403
0.026871 0.670646 1.000000
0.000000 0.330255 1.000000
0.000000 0.000000 1.000000
0.000000 0.000000 0.687242
0.000000 0.000000 0.653389
0.000000 0.000000 0.706610
0.076258 0.300798 0.827666
0.292928 0.646381 1.000000
0.356977 0.806920 1.000000
0.197886 0.710189 1.000000
0.000000 0.264195 1.000000
0.000000 0.000000 1.000000
0.000000 0.000000 1.000000
0.000000 0.000000 1.000000
0.092587 0.000000 1.000000
0.495678 0.345380 1.000000
0.771255 0.738477 1.000000
0.854105 0.894790 1.000000
0.667828 0.737119 1.000000
0.124837 0.168496 1.000000
0.000000 0.000000 1.000000
0.000000 0.000000 1.000000
0.146849 0.000000 1.000000
0.770575 0.000000 1.000000
1.000000 0.405993 1.000000
1.000000 0.846317 1.000000
1.000000 0.992726 1.000000
1.000000 0.763048 1.000000
0.963227 0.055341 1.000000
0.000000 0.000000 1.000000
0.000000 0.000000 1.000000
0.458201 0.396015 0.197380
0.303849 0.246113 0.143457
0.243867 0.148826 0.160160
0.272735 0.106783 0.239530
0.373749 0.102847 0.350391
0.519015 0.100113 0.438350
0.669456 0.041912 0.425799
0.774808 0.000000 0.211912
0.773620 0.000000 0.000000
0.345251 0.311009 0.242345
0.251295 0.234121 0.195487
0.236584 0.200828 0.221971
0.289716 0.208785 0.315728
0.388105 0.235881 0.447472
0.497979 0.240238 0.564701
0.574378 0.160210 0.591695
0.561158 0.000000 0.429519
0.390987 0.000000 0.000000
0.216741 0.241487 0.245586
0.180408 0.246678 0.207277
0.206023 0.281055 0.243511
0.276306 0.337299 0.350111
0.362788 0.388325 0.499679
0.425816 0.387280 0.641603
0.414551 0.267546 0.702056
0.266967 0.000000 0.583990
0.000000 0.000000 0.167144
0.075581 0.172565 0.233534
0.098671 0.269470 0.205624
0.164243 0.375763 0.251945
0.249136 0.479152 0.370209
0.319001 0.547576 0.534910
0.328305 0.529210 0.697324
0.220327 0.352461 0.785514
0.000000 0.000000 0.704324
0.000000 0.000000 0.335381
0.000000 0.094193 0.258578
0.034798 0.293020 0.243285
0.144530 0.476047 0.300397
0.246067 0.626009 0.429516
0.299180 0.705872 0.607024
0.252454 0.658836 0.786089
0.043286 0.408334 0.896664
0.000000 0.000000 0.845482
0.000000 0.000000 0.516061
0.000000 0.001163 0.399070
0.038737 0.312689 0.398980
0.201406 0.577840 0.467953
0.326194 0.774375 0.607482
0.366991 0.860288 0.795841
0.266502 0.773803 0.988086
0.000000 0.433381 1.000000
0.000000 0.000000 1.000000
0.000000 0.000000 0.790472
0.000000 0.000000 0.759322
0.181664 0.328676 0.777386
0.410620 0.681910 0.859660
0.569840 0.925591 1.000000
0.607332 1.000000 1.000000
0.459921 0.876595 1.000000
0.053244 0.430657 1.000000
0.000000 0.000000 1.000000
0.000000 0.000000 1.000000
0.185746 0.000000 1.000000
0.555989 0.346018 1.000000
0.869156 0.793867 1.000000
1.000000 1.000000 1.000000
1.000000 1.000000 1.000000
0.943414 0.974533 1.000000
0.449562 0.408054 1.000000
0.000000 0.000000 1.000000
0.000000 0.000000 1.000000
0.768086 0.000000 1.000000
1.000000 0.374588 1.000000
1.000000 0.924154 1.000000
1.000000 1.000000 1.000000
1.000000 1.000000 1.000000
1.000000 1.000000 1.000000
1.000000 0.378301 1.000000
0.252414 0.000000 1.000000
0.000000 0.000000 1.000000
0.594932 0.501956 0.267897
0.378819 0.267898 0.175786
0.272059 0.104915 0.157521
0.276475 0.021115 0.210950
0.382702 0.004838 0.310702
0.570193 0.024658 0.408192
0.807210 0.029381 0.431617
1.000000 0.000000 0.285957
1.000000 0.000000 0.000000
0.517352 0.488056 0.312125
0.355813 0.310331 0.234538
0.288702 0.195100 0.231282
0.311961 0.145496 0.302093
0.410345 0.144886 0.423492
0.557424 0.156870 0.548782
0.715582 0.125280 0.608052
0.836015 0.000000 0.508171
0.858737 0.000000 0.132794
0.427875 0.482044 0.304862
0.317135 0.371718 0.241305
0.283727 0.309916 0.251049
0.317712 0.294797 0.335721
0.397967 0.304754 0.473730
0.492179 0.298411 0.620270
0.556851 0.214629 0.707320
0.537301 0.000000 0.643639
0.367659 0.000000 0.314772
0.327592 0.469580 0.276941
0.268446 0.438292 0.227289
0.267368 0.436167 0.248392
0.308537 0.456393 0.343769
0.364950 0.472386 0.493719
0.398413 0.437799 0.655326
0.359549 0.286517 0.762458
0.187793 0.000000 0.725765
0.000000 0.000000 0.432682
0.238821 0.441164 0.285158
0.236639 0.501121 0.249650
0.271091 0.565494 0.280839
0.320476 0.622494 0.384133
0.351907 0.640566 0.541722
0.321313 0.568387 0.712580
0.173433 0.334869 0.832463
0.000000 0.000000 0.813914
0.000000 0.000000 0.546256
0.205113 0.392131 0.412266
0.269839 0.556113 0.391511
0.347595 0.694373 0.431880
0.410799 0.790150 0.540670
0.420684 0.806913 0.701963
0.327296 0.688367 0.876622
0.069496 0.358447 1.000000
0.000000 0.000000 0.993411
0.000000 0.000000 0.741186
0.291250 0.322655 0.766983
0.437402 0.604012 0.761955
0.570809 0.824122 0.810963
0.658009 0.961248 0.923197
0.654355 0.973887 1.000000
0.504013 0.800767 1.000000
0.139961 0.360852 1.000000
0.000000 0.000000 1.000000
0.000000 0.000000 1.000000
0.583245 0.237746 1.000000
0.829913 0.650401 1.000000
1.000000 0.960894 1.000000
1.000000 1.000000 1.000000
1.000000 1.000000 1.000000
0.960342 0.913455 1.000000
0.498280 0.350522 1.000000
0.000000 0.000000 1.000000
0.000000 0.000000 1.000000
1.000000 0.147254 1.000000
1.000000 0.705700 1.000000
1.000000 1.000000 1.000000
1.000000 1.000000 1.000000
1.000000 1.000000 1.000000
1.000000 1.000000 1.000000
1.000000 0.340731 1.000000
0.323103 0.000000 1.000000
0.000000 0.000000 1.000000
0.716031 0.530488 0.313929
0.456698 0.247789 0.212030
0.321679 0.058166 0.180653
0.320139 0.000000 0.223450
0.450058 0.000000 0.320860
0.698229 0.084768 0.430100
1.000000 0.205631 0.485176
1.000000 0.289827 0.396874
1.000000 0.252107 0.052764
0.664649 0.577349 0.350807
0.451353 0.329737 0.269258
0.347647 0.167057 0.256483
0.356814 0.097921 0.318024
0.470954 0.111174 0.436209
0.670979 0.175893 0.570148
0.926615 0.241388 0.655734
1.000000 0.237204 0.605644
1.000000 0.073117 0.309339
0.603429 0.621887 0.326042
0.431391 0.422428 0.262371
0.352047 0.294371 0.264212
0.362803 0.241352 0.338998
0.449876 0.247242 0.470945
0.588296 0.276144 0.621053
0.741911 0.272394 0.727107
0.863377 0.160564 0.703673
0.894170 0.000000 0.442102
0.531638 0.650307 0.274870
0.400650 0.512641 0.226973
0.343294 0.427456 0.239812
0.351092 0.393415 0.322710
0.404382 0.389414 0.461773
0.472314 0.374582 0.619891
0.512852 0.288283 0.736737
0.472775 0.050112 0.728770
0.287675 0.000000 0.489230
0.469772 0.653653 0.258489
0.384203 0.591990 0.224631
0.351031 0.558499 0.245217
0.355900 0.546868 0.331461
0.373265 0.531020 0.471360
0.366396 0.465109 0.629693
0.287377 0.283524 0.748025
0.077105 0.000000 0.744703
0.000000 0.000000 0.514857
0.459561 0.627807 0.364060
0.428351 0.656929 0.342869
0.426135 0.684524 0.368319
0.432675 0.699307 0.453511
0.416547 0.670225 0.588334
0.335139 0.546460 0.739456
0.134655 0.257428 0.850333
0.000000 0.000000 0.841200
0.000000 0.000000 0.609079
0.563964 0.573489 0.704701
0.600627 0.708749 0.695176
0.640711 0.807393 0.722971
0.658098 0.853163 0.803081
0.615482 0.810034 0.927283
0.464370 0.622212 1.000000
0.145086 0.214139 1.000000
0.000000 0.000000 1.000000
0.000000 0.000000 0.887954
0.867174 0.496256 1.000000
0.989797 0.753576 1.000000
1.000000 0.933805 1.000000
1.000000 1.000000 1.000000
1.000000 0.958288 1.000000
0.861147 0.700777 1.000000
0.430303 0.162641 1.000000
0.000000 0.000000 1.000000
0.000000 0.000000 1.000000
1.000000 0.406503 1.000000
1.000000 0.802379 1.000000
1.000000 1.000000 1.000000
1.000000 1.000000 1.000000
1.000000 1.000000 1.000000
1.000000 0.795405 1.000000
1.000000 0.116757 1.000000
0.237074 0.000000 1.000000
0.000000 0.000000 1.000000
0.807440 0.479662 0.310593
0.540201 0.203687 0.233839
0.412216 0.046328 0.217737
0.439993 0.026648 0.271747
0.628854 0.143943 0.382111
0.972935 0.377741 0.511855
1.000000 0.687807 0.600789
1.000000 1.000000 0.565507
1.000000 1.000000 0.299386
0.781411 0.584326 0.344405
0.548956 0.317624 0.292192
0.441231 0.161834 0.296652
0.468864 0.131045 0.369132
0.631296 0.219578 0.497767
0.916781 0.401990 0.647473
1.000000 0.633068 0.759949
1.000000 0.847834 0.753679
1.000000 0.961544 0.523929
0.745995 0.673837 0.306035
0.542541 0.431478 0.273914
0.447124 0.286937 0.292972
0.464491 0.249331 0.376447
0.588202 0.308006 0.514362
0.800631 0.432543 0.673523
1.000000 0.572759 0.797522
1.000000 0.658699 0.806729
1.000000 0.600646 0.598304
0.698636 0.734948 0.235123
0.522974 0.532571 0.219013
0.436487 0.409532 0.247074
0.438039 0.369971 0.334433
0.515311 0.398261 0.473004
0.644795 0.459010 0.631484
0.791798 0.497059 0.755351
0.910441 0.437480 0.766871
0.943658 0.185582 0.565089
0.658009 0.759247 0.197272
0.513504 0.613066 0.193459
0.437140 0.522351 0.225294
0.421903 0.486269 0.309795
0.449591 0.484219 0.440765
0.490816 0.475836 0.588792
0.505004 0.400984 0.701244
0.440395 0.179765 0.702275
0.234044 0.000000 0.492822
0.664022 0.743163 0.284045
0.558611 0.669961 0.289182
0.498139 0.622964 0.319929
0.469711 0.596366 0.395197
0.449243 0.564593 0.510677
0.401468 0.482303 0.638846
0.279930 0.284391 0.728964
0.026990 0.000000 0.707075
0.000000 0.000000 0.476005
0.777811 0.687962 0.612965
0.724006 0.705092 0.624072
0.689768 0.713779 0.649238
0.656319 0.703241 0.709263
0.593699 0.642931 0.801730
0.460756 0.482535 0.901006
0.205155 0.151969 0.958239
0.000000 0.000000 0.901364
0.000000 0.000000 0.635098
1.000000 0.599747 1.000000
1.000000 0.725134 1.000000
1.000000 0.802040 1.000000
1.000000 0.814711 1.000000
0.983621 0.727623 1.000000
0.773916 0.485488 1.000000
0.390489 0.013250 1.000000
0.000000 0.000000 1.000000
0.000000 0.000000 1.000000
1.000000 0.489457 1.000000
1.000000 0.741599 1.000000
1.000000 0.899832 1.000000
1.000000 0.943428 1.000000
1.000000 0.831892 1.000000
1.000000 0.504959 1.000000
0.966971 0.000000 1.000000
0.164286 0.000000 1.000000
0.000000 0.000000 1.000000
0.840651 0.349626 0.245168
0.617594 0.155589 0.235025
0.548711 0.109248 0.269120
0.657851 0.235144 0.362716
0.957680 0.538050 0.507865
1.000000 1.000000 0.673398
1.000000 1.000000 0.804932
1.000000 1.000000 0.824865
1.000000 1.000000 0.632382
0.847454 0.516518 0.291093
0.645213 0.301375 0.308048
0.582822 0.226662 0.363029
0.678251 0.311947 0.473190
0.938284 0.557028 0.632471
1.000000 0.941939 0.811595
1.000000 1.000000 0.958067
1.000000 1.000000 0.996178
1.000000 1.000000 0.827000
0.843714 0.652811 0.253910
0.655503 0.433633 0.291538
0.590649 0.342231 0.359464
0.661243 0.393198 0.476736
0.868185 0.581359 0.639181
1.000000 0.881774 0.819413
1.000000 1.000000 0.966827
1.000000 1.000000 1.000000
1.000000 1.000000 0.844707
0.825053 0.745803 0.177665
0.648659 0.540233 0.229907
0.576961 0.444395 0.303207
0.616167 0.467908 0.418501
0.761299 0.600625 0.573509
0.996193 0.812630 0.742733
1.000000 1.000000 0.877460
1.000000 1.000000 0.905759
1.000000 1.000000 0.732483
0.808324 0.787631 0.132365
0.646109 0.613882 0.193528
0.567759 0.526433 0.264996
0.573600 0.529928 0.369593
0.652773 0.609247 0.506930
0.783234 0.729499 0.653398
0.931750 0.836030 0.762174
1.000000 0.854416 0.763218
1.000000 0.690468 0.563273
0.831612 0.775268 0.213976
0.690511 0.652125 0.278737
0.610273 0.586460 0.341533
0.585345 0.577945 0.427080
0.598985 0.606483 0.536878
0.623269 0.632212 0.649209
0.619084 0.595501 0.719139
0.536131 0.416955 0.678519
0.312927 0.000000 0.435981
0.954232 0.710526 0.544426
0.845754 0.657344 0.607826
0.772968 0.627431 0.655480
0.724438 0.615482 0.713991
0.677545 0.596429 0.786750
0.598481 0.525434 0.853930
0.442254 0.337893 0.872486
0.152685 0.000000 0.776158
0.000000 0.000000 0.475470
1.000000 0.600054 1.000000
1.000000 0.636760 1.000000
1.000000 0.657136 1.000000
1.000000 0.650903 1.000000
0.987293 0.588019 1.000000
0.812285 0.418671 1.000000
0.509249 0.073282 1.000000
0.016127 0.000000 1.000000
0.000000 0.000000 0.832567
1.000000 0.455338 1.000000
1.000000 0.602430 1.000000
1.000000 0.688204 1.000000
1.000000 0.697408 1.000000
1.000000 0.595023 1.000000
1.000000 0.326264 1.000000
0.949288 0.000000 1.000000
0.260249 0.000000 1.000000
0.000000 0.000000 1.000000
0.772709 0.142623 0.117095
0.662696 0.125588 0.221561
0.721756 0.288868 0.347304
0.981079 0.662482 0.515396
1.000000 1.000000 0.723693
1.000000 1.000000 0.946832
1.000000 1.000000 1.000000
1.000000 1.000000 1.000000
1.000000 1.000000 1.000000
0.828148 0.383551 0.201205
0.722267 0.310465 0.333693
0.771336 0.410867 0.479013
1.000000 0.709802 0.660129
1.000000 1.000000 0.876786
1.000000 1.000000 1.000000
1.000000 1.000000 1.000000
1.000000 1.000000 1.000000
1.000000 1.000000 1.000000
0.870282 0.575819 0.190898
0.760743 0.465754 0.343004
0.789863 0.516961 0.497985
0.977072 0.749513 0.680693
1.000000 1.000000 0.892763
1.000000 1.000000 1.000000
1.000000 1.000000 1.000000
1.000000 1.000000 1.000000
1.000000 1.000000 1.000000
0.892908 0.707270 0.134623
0.776498 0.579870 0.298311
0.780284 0.596139 0.453402
0.917818 0.771172 0.626637
1.000000 1.000000 0.821543
1.000000 1.000000 1.000000
1.000000 1.000000 1.000000
1.000000 1.000000 1.000000
1.000000 1.000000 1.000000
0.911060 0.770586 0.106791
0.789136 0.646067 0.274391
0.766778 0.642223 0.420409
0.851656 0.769175 0.573474
1.000000 1.000000 0.739004
1.000000 1.000000 0.899196
1.000000 1.000000 1.000000
1.000000 1.000000 1.000000
1.000000 1.000000 0.821491
0.961000 0.763287 0.207771
0.839495 0.662435 0.371983
0.794754 0.653875 0.500110
0.828568 0.742756 0.622676
0.931538 0.914458 0.746984
1.000000 1.000000 0.857125
1.000000 1.000000 0.913970
1.000000 1.000000 0.855176
1.000000 1.000000 0.595182
1.000000 0.687730 0.563895
0.989640 0.631903 0.717783
0.930853 0.634596 0.819573
0.919769 0.695984 0.901675
0.941109 0.796474 0.973285
0.968410 0.896707 1.000000
0.964020 0.937556 1.000000
0.879104 0.840131 0.868873
0.653638 0.505770 0.526141
1.000000 0.551111 1.000000
1.000000 0.562237 1.000000
1.000000 0.592723 1.000000
1.000000 0.637768 1.000000
1.000000 0.672807 1.000000
1.000000 0.653507 1.000000
0.902547 0.515766 1.000000
0.592581 0.175720 1.000000
0.079641 0.000000 0.769598
1.000000 0.365461 1.000000
1.000000 0.466040 1.000000
1.000000 0.541430 1.000000
1.000000 0.581855 1.000000
1.000000 0.557776 1.000000
1.000000 0.419886 1.000000
1.000000 0.099110 1.000000
0.666024 0.000000 1.000000
0.000000 0.000000 1.000000
0.546208 0.000000 0.000000
0.634877 0.137872 0.211580
0.907494 0.629226 0.476958
1.000000 1.000000 0.760985
1.000000 1.000000 1.000000
1.000000 1.000000 1.000000
1.000000 1.000000 1.000000
1.000000 1.000000 1.000000
1.000000 1.000000 1.000000
0.674413 0.197151 0.097240
0.747813 0.376467 0.398156
0.991241 0.765871 0.680168
1.000000 1.000000 0.972045
1.000000 1.000000 1.000000
1.000000 1.000000 1.000000
1.000000 1.000000 1.000000
1.000000 1.000000 1.000000
1.000000 1.000000 1.000000
0.784942 0.461970 0.150392
0.834282 0.566798 0.468238
1.000000 0.869936 0.754990
1.000000 1.000000 1.000000
1.000000 1.000000 1.000000
1.000000 1.000000 1.000000
1.000000 1.000000 1.000000
1.000000 1.000000 1.000000
1.000000 1.000000 1.000000
0.869772 0.645839 0.150284
0.890835 0.697825 0.475047
1.000000 0.930955 0.755012
1.000000 1.000000 1.000000
1.000000 1.000000 1.000000
1.000000 1.000000 1.000000
1.000000 1.000000 1.000000
1.000000 1.000000 1.000000
1.000000 1.000000 1.000000
0.942113 0.741987 0.175731
0.935254 0.763348 0.497764
1.000000 0.943297 0.759780
1.000000 1.000000 0.996219
1.000000 1.000000 1.000000
1.000000 1.000000 1.000000
1.000000 1.000000 1.000000
1.000000 1.000000 1.000000
1.000000 1.000000 1.000000
1.000000 0.748479 0.331506
1.000000 0.762003 0.641530
1.000000 0.906170 0.874805
1.000000 1.000000 1.000000
1.000000 1.000000 1.000000
1.000000 1.000000 1.000000
1.000000 1.000000 1.000000
1.000000 1.000000 1.000000
1.000000 1.000000 1.000000
1.000000 0.668219 0.748346
1.000000 0.697264 1.000000
1.000000 0.823620 1.000000
1.000000 1.000000 1.000000
1.000000 1.000000 1.000000
1.000000 1.000000 1.000000
1.000000 1.000000 1.000000
1.000000 1.000000 1.000000
1.000000 1.000000 0.916345
1.000000 0.508947 1.000000
1.000000 0.577444 1.000000
1.000000 0.704530 1.000000
1.000000 0.890883 1.000000
1.000000 1.000000 1.000000
1.000000 1.000000 1.000000
1.000000 1.000000 1.000000
1.000000 1.000000 1.000000
1.000000 1.000000 1.000000
1.000000 0.283242 1.000000
1.000000 0.415692 1.000000
1.000000 0.562620 1.000000
1.000000 0.719731 1.000000
1.000000 0.862962 1.000000
1.000000 0.948483 1.000000
1.000000 0.912699 1.000000
1.000000 0.672246 1.000000
0.997254 0.123995 1.000000
