public/luts/phenomena.cube
# Generated from ColorChecker fit
LUT_3D_SIZE 33
DOMAIN_MIN 0.0 0.0 0.0
DOMAIN_MAX 1.0 1.0 1.0
0.121830 0.000000 0.143224
0.104537 0.000000 0.159231
0.091808 0.000000 0.178101
0.083524 0.001994 0.199936
0.079523 0.015741 0.224748
0.079598 0.031230 0.252458
0.083499 0.048445 0.282896
0.090931 0.067296 0.315801
0.101559 0.087613 0.350823
0.114999 0.109151 0.387519
0.130828 0.131586 0.425358
0.148576 0.154518 0.463715
0.167732 0.177471 0.501877
0.187739 0.199888 0.539039
0.207997 0.221137 0.574306
0.227864 0.240511 0.606692
0.246652 0.257222 0.635120
0.263630 0.270406 0.658423
0.278023 0.279124 0.675344
0.289015 0.282356 0.684532
0.295742 0.279007 0.684549
0.297299 0.267905 0.673864
0.292737 0.247801 0.650858
0.281062 0.217367 0.613817
0.261239 0.175199 0.560941
0.232186 0.119816 0.490336
0.192780 0.049660 0.400019
0.141853 0.000000 0.287915
0.078194 0.000000 0.151859
0.000546 0.000000 0.000000
0.000000 0.000000 0.000000
0.000000 0.000000 0.000000
0.000000 0.000000 0.000000
0.062863 0.000000 0.141155
0.049908 0.000000 0.156087
0.041356 0.000000 0.173980
0.037066 0.000000 0.194945
0.036852 0.000000 0.219001
0.040483 0.000000 0.246075
0.047687 0.006732 0.276006
0.058148 0.030700 0.308540
0.071504 0.055954 0.343334
0.087352 0.082228 0.379953
0.105243 0.109179 0.417872
0.124686 0.136387 0.456475
0.145146 0.163356 0.495055
0.166043 0.189512 0.532816
0.186755 0.214202 0.568870
0.206616 0.236699 0.602237
0.224915 0.256196 0.631849
0.240899 0.271810 0.656545
0.253770 0.282582 0.675075
0.262687 0.287473 0.686098
0.266766 0.285370 0.688182
0.265077 0.275079 0.679803
0.256648 0.255332 0.659348
0.240463 0.224783 0.625114
0.215464 0.182008 0.575305
0.180545 0.125506 0.508036
0.134562 0.053699 0.421331
0.076321 0.000000 0.313123
0.004590 0.000000 0.181254
0.000000 0.000000 0.023476
0.000000 0.000000 0.000000
0.000000 0.000000 0.000000
0.000000 0.000000 0.000000
0.002624 0.000000 0.137740
0.000000 0.000000 0.151686
0.000000 0.000000 0.168686
0.000000 0.000000 0.188859
0.000000 0.000000 0.212230
0.000000 0.000000 0.238734
0.010160 0.000000 0.268218
0.023545 0.000000 0.300435
0.039518 0.026888 0.335049
0.057652 0.057833 0.371633
0.077476 0.089214 0.409668
0.098476 0.120592 0.448548
0.120094 0.151451 0.487571
0.141727 0.181196 0.525950
0.162730 0.209157 0.562802
0.182413 0.234586 0.597157
0.200044 0.256658 0.627953
0.214845 0.274470 0.654038
0.225996 0.287042 0.674167
0.232634 0.293318 0.687007
0.233850 0.292163 0.691134
0.228692 0.282366 0.685032
0.216166 0.262638 0.667095
0.195232 0.231615 0.635626
0.164808 0.187852 0.588838
0.123768 0.129829 0.524853
0.070941 0.055950 0.441702
0.005114 0.000000 0.337325
0.000000 0.000000 0.209573
0.000000 0.000000 0.056203
0.000000 0.000000 0.000000
0.000000 0.000000 0.000000
0.000000 0.000000 0.000000
0.000000 0.000000 0.132796
0.000000 0.000000 0.145847
0.000000 0.000000 0.162040
0.000000 0.000000 0.181499
0.000000 0.000000 0.204258
0.000000 0.000000 0.230261
0.000000 0.000000 0.259359
0.000000 0.000000 0.291314
0.005471 0.000098 0.325798
0.025789 0.035652 0.362390
0.047435 0.071380 0.400580
0.069873 0.106823 0.439768
0.092520 0.141446 0.479261
0.114752 0.174634 0.518276
0.135900 0.205699 0.555942
0.155252 0.233872 0.591293
0.172052 0.258308 0.623275
0.185500 0.278087 0.650744
0.194753 0.292208 0.672463
0.198923 0.299595 0.687106
0.197080 0.299096 0.693255
0.188250 0.289478 0.689402
0.171413 0.269434 0.673949
0.145508 0.237579 0.645207
0.109430 0.192450 0.601395
0.062030 0.132509 0.540642
0.002113 0.056137 0.460988
0.000000 0.000000 0.360380
0.000000 0.000000 0.236675
0.000000 0.000000 0.087640
0.000000 0.000000 0.000000
0.000000 0.000000 0.000000
0.000000 0.000000 0.000000
0.000000 0.000000 0.126245
0.000000 0.000000 0.138494
0.000000 0.000000 0.153965
0.000000 0.000000 0.172791
0.000000 0.000000 0.195014
0.000000 0.000000 0.220583
0.000000 0.000000 0.249358
0.000000 0.000000 0.281109
0.000000 0.000000 0.315513
0.000000 0.015389 0.352159
0.015111 0.055383 0.390543
0.038883 0.094789 0.430072
0.062450 0.133053 0.470061
0.085162 0.169540 0.509735
0.106328 0.203543 0.548229
0.125213 0.234273 0.584586
0.141038 0.260868 0.617759
0.152980 0.282385 0.646609
0.160173 0.297805 0.669910
0.161707 0.306034 0.686341
0.156627 0.305898 0.694492
0.143936 0.296146 0.692863
0.122594 0.275452 0.679862
0.091515 0.242411 0.653808
0.049571 0.195541 0.612929
0.000000 0.133283 0.555359
0.000000 0.054001 0.479147
0.000000 0.000000 0.382246
0.000000 0.000000 0.262521
0.000000 0.000000 0.117747
0.000000 0.000000 0.000000
0.000000 0.000000 0.000000
0.000000 0.000000 0.000000
0.000000 0.000000 0.118108
0.000000 0.000000 0.129648
0.000000 0.000000 0.144486
0.000000 0.000000 0.162761
0.000000 0.000000 0.184523
0.000000 0.000000 0.209729
0.000000 0.000000 0.238246
0.000000 0.000000 0.269850
0.000000 0.000000 0.304227
0.000000 0.000000 0.340973
0.000000 0.040948 0.379592
0.005600 0.084218 0.419496
0.029994 0.126001 0.460011
0.053085 0.165646 0.500367
0.074160 0.202424 0.539706
0.092460 0.235528 0.577080
0.107184 0.264075 0.611448
0.117485 0.287103 0.641680
0.122474 0.303576 0.666555
0.121219 0.312378 0.684761
0.112742 0.312316 0.694896
0.096023 0.302121 0.695466
0.069998 0.280445 0.684888
0.033559 0.245866 0.661486
0.000000 0.196881 0.623496
0.000000 0.131912 0.569062
0.000000 0.049304 0.496237
0.000000 0.000000 0.402984
0.000000 0.000000 0.287174
0.000000 0.000000 0.146589
0.000000 0.000000 0.000000
0.000000 0.000000 0.000000
0.000000 0.000000 0.000000
0.000000 0.000000 0.108508
0.000000 0.000000 0.119435
0.000000 0.000000 0.133729
0.000000 0.000000 0.151537
0.000000 0.000000 0.172916
0.000000 0.000000 0.197829
0.000000 0.000000 0.226153
0.000000 0.000000 0.257671
0.000000 0.000000 0.292075
0.000000 0.000000 0.328969
0.000000 0.027820 0.367864
0.000000 0.074855 0.408181
0.000000 0.120040 0.449251
0.018731 0.162702 0.490313
0.039623 0.202094 0.530516
0.057238 0.237390 0.568919
0.070751 0.267687 0.604489
0.079295 0.292004 0.636103
0.081955 0.309284 0.662548
0.077777 0.318392 0.682518
0.065761 0.318118 0.694620
0.044862 0.307170 0.697366
0.013995 0.284184 0.689181
0.000000 0.247716 0.668397
0.000000 0.196245 0.633256
0.000000 0.128173 0.581910
0.000000 0.041825 0.512420
0.000000 0.000000 0.422755
0.000000 0.000000 0.310795
0.000000 0.000000 0.174329
0.000000 0.000000 0.011055
0.000000 0.000000 0.000000
0.000000 0.000000 0.000000
0.000000 0.000000 0.097671
0.000000 0.000000 0.108080
0.000000 0.000000 0.121921
0.000000 0.000000 0.139347
0.000000 0.000000 0.160421
0.000000 0.000000 0.185117
0.000000 0.000000 0.213315
0.000000 0.000000 0.244807
0.000000 0.000000 0.279294
0.000000 0.000000 0.316385
0.000000 0.015762 0.355600
0.000000 0.066467 0.396367
0.000000 0.114937 0.438024
0.000000 0.160479 0.479817
0.003028 0.202327 0.520904
0.019876 0.239635 0.560350
0.032089 0.271481 0.597130
0.038775 0.296864 0.630128
0.038999 0.314709 0.658138
0.031782 0.323861 0.679863
0.016101 0.323088 0.693916
0.000000 0.311083 0.698816
0.000000 0.286459 0.692997
0.000000 0.247754 0.674797
0.000000 0.193428 0.642466
0.000000 0.121863 0.594164
0.000000 0.031364 0.527957
0.000000 0.000000 0.441824
0.000000 0.000000 0.333652
0.000000 0.000000 0.201235
0.000000 0.000000 0.042281
0.000000 0.000000 0.000000
0.000000 0.000000 0.000000
0.000000 0.000000 0.085921
0.000000 0.000000 0.095912
0.000000 0.000000 0.109392
0.000000 0.000000 0.126522
0.000000 0.000000 0.147372
0.000000 0.000000 0.171923
0.000000 0.000000 0.200064
0.000000 0.000000 0.231594
0.000000 0.000000 0.266220
0.000000 0.000000 0.303559
0.000000 0.004556 0.343139
0.000000 0.058838 0.384395
0.000000 0.110478 0.426672
0.000000 0.158766 0.469224
0.000000 0.202913 0.511216
0.000000 0.242056 0.551720
0.000000 0.275252 0.589720
0.000000 0.301482 0.624105
0.000000 0.319651 0.653679
0.000000 0.328584 0.677150
0.000000 0.327032 0.693139
0.000000 0.313665 0.700174
0.000000 0.287079 0.696694
0.000000 0.245792 0.681046
0.000000 0.188243 0.651488
0.000000 0.112797 0.606184
0.000000 0.017739 0.543212
0.000000 0.000000 0.460555
0.000000 0.000000 0.356108
0.000000 0.000000 0.227674
0.000000 0.000000 0.072966
0.000000 0.000000 0.000000
0.000000 0.000000 0.000000
0.000000 0.000000 0.073687
0.000000 0.000000 0.083359
0.000000 0.000000 0.096571
0.000000 0.000000 0.113493
0.000000 0.000000 0.134201
0.000000 0.000000 0.158684
0.000000 0.000000 0.186838
0.000000 0.000000 0.218469
0.000000 0.000000 0.253292
0.000000 0.000000 0.290932
0.000000 0.000000 0.330923
0.000000 0.051771 0.372708
0.000000 0.106470 0.415640
0.000000 0.157369 0.458980
0.000000 0.203662 0.501899
0.000000 0.244464 0.543479
0.000000 0.278815 0.582708
0.000000 0.305675 0.618487
0.000000 0.323930 0.649622
0.000000 0.332385 0.674833
0.000000 0.329772 0.692745
0.000000 0.314742 0.701896
0.000000 0.285871 0.700731
0.000000 0.241658 0.687605
0.000000 0.180523 0.660782
0.000000 0.100810 0.618436
0.000000 0.000786 0.558649
0.000000 0.000000 0.479414
0.000000 0.000000 0.378633
0.000000 0.000000 0.254115
0.000000 0.000000 0.103582
0.000000 0.000000 0.000000
0.000000 0.000000 0.000000
0.000000 0.000000 0.061497
0.000000 0.000000 0.070951
0.000000 0.000000 0.083991
0.000000 0.000000 0.100794
0.000000 0.000000 0.121444
0.000000 0.000000 0.145935
0.000000 0.000000 0.174174
0.000000 0.000000 0.205971
0.000000 0.000000 0.241052
0.000000 0.000000 0.279046
0.000000 0.000000 0.319496
0.000000 0.045089 0.361852
0.000000 0.102736 0.405474
0.000000 0.156116 0.449632
0.000000 0.204403 0.493503
0.000000 0.246692 0.536176
0.000000 0.282003 0.576648
0.000000 0.309278 0.613825
0.000000 0.327382 0.646523
0.000000 0.335103 0.673468
0.000000 0.331151 0.693293
0.000000 0.314159 0.704542
0.000000 0.282683 0.705669
0.000000 0.235202 0.695035
0.000000 0.170118 0.670913
0.000000 0.085755 0.631482
0.000000 0.000000 0.574835
0.000000 0.000000 0.498969
0.000000 0.000000 0.401794
0.000000 0.000000 0.281129
0.000000 0.000000 0.134700
0.000000 0.000000 0.000000
0.000000 0.000000 0.000000
0.000000 0.000000 0.049982
0.000000 0.000000 0.059321
0.000000 0.000000 0.072285
0.000000 0.000000 0.089059
0.000000 0.000000 0.109735
0.000000 0.000000 0.134314
0.000000 0.000000 0.162710
0.000000 0.000000 0.194742
0.000000 0.000000 0.230140
0.000000 0.000000 0.268543
0.000000 0.000000 0.309502
0.000000 0.038631 0.352472
0.000000 0.099120 0.396822
0.000000 0.154853 0.441829
0.000000 0.204983 0.486677
0.000000 0.248588 0.530464
0.000000 0.284668 0.572192
0.000000 0.312145 0.610776
0.000000 0.329865 0.645038
0.000000 0.336596 0.673713
0.000000 0.331029 0.695440
0.000000 0.311778 0.708772
0.000000 0.277379 0.712169
0.000000 0.226292 0.704000
0.000000 0.156899 0.682544
0.000000 0.067505 0.645991
0.000000 0.000000 0.592436
0.000000 0.000000 0.519888
0.000000 0.000000 0.426263
0.000000 0.000000 0.309386
0.000000 0.000000 0.166992
0.000000 0.000000 0.000000
0.000000 0.000000 0.000000
0.000000 0.000000 0.039873
0.000000 0.000000 0.049200
0.000000 0.000000 0.062187
0.000000 0.000000 0.079024
0.000000 0.000000 0.099812
0.000000 0.000000 0.124560
0.000000 0.000000 0.153187
0.000000 0.000000 0.185521
0.000000 0.000000 0.221299
0.000000 0.000000 0.260169
0.000000 0.000000 0.301686
0.000000 0.032259 0.345316
0.000000 0.095484 0.390433
0.000000 0.153443 0.436321
0.000000 0.205269 0.482174
0.000000 0.250022 0.527095
0.000000 0.286681 0.570094
0.000000 0.314150 0.610094
0.000000 0.331254 0.645925
0.000000 0.336743 0.676326
0.000000 0.329288 0.699948
0.000000 0.307483 0.715348
0.000000 0.269845 0.720994
0.000000 0.214815 0.715264
0.000000 0.140755 0.696443
0.000000 0.045950 0.662728
0.000000 0.000000 0.612223
0.000000 0.000000 0.542943
0.000000 0.000000 0.452812
0.000000 0.000000 0.339662
0.000000 0.000000 0.201235
0.000000 0.000000 0.035184
0.000000 0.000000 0.000000
0.000000 0.000000 0.032003
0.000000 0.000000 0.041424
0.000000 0.000000 0.054533
0.000000 0.000000 0.071527
0.000000 0.000000 0.092515
0.000000 0.000000 0.117513
0.000000 0.000000 0.146447
0.000000 0.000000 0.179153
0.000000 0.000000 0.215376
0.000000 0.000000 0.254769
0.000000 0.000000 0.296897
0.000000 0.025851 0.341232
0.000000 0.091709 0.387156
0.000000 0.151769 0.433961
0.000000 0.205148 0.480847
0.000000 0.250882 0.526924
0.000000 0.287933 0.571211
0.000000 0.315185 0.612638
0.000000 0.331444 0.650041
0.000000 0.335440 0.682169
0.000000 0.325825 0.707678
0.000000 0.301174 0.725133
0.000000 0.259984 0.733010
0.000000 0.200676 0.729693
0.000000 0.121593 0.713477
0.000000 0.021001 0.682563
0.000000 0.000000 0.635065
0.000000 0.000000 0.569005
0.000000 0.000000 0.482313
0.000000 0.000000 0.372829
0.000000 0.000000 0.238304
0.000000 0.000000 0.076397
0.000000 0.000000 0.000000
0.000000 0.000000 0.027308
0.000000 0.000000 0.036929
0.000000 0.000000 0.050261
0.000000 0.000000 0.067507
0.000000 0.000000 0.088783
0.000000 0.000000 0.114114
0.000000 0.000000 0.143432
0.000000 0.000000 0.176582
0.000000 0.000000 0.213314
0.000000 0.000000 0.253291
0.000000 0.000000 0.296084
0.000000 0.019304 0.341172
0.000000 0.087695 0.387945
0.000000 0.149735 0.435701
0.000000 0.204522 0.483650
0.000000 0.251074 0.530907
0.000000 0.288332 0.576501
0.000000 0.315161 0.619366
0.000000 0.330348 0.658348
0.000000 0.332603 0.692202
0.000000 0.320559 0.719592
0.000000 0.292771 0.739091
0.000000 0.247717 0.749182
0.000000 0.183799 0.748255
0.000000 0.099340 0.734613
0.000000 0.000000 0.706467
0.000000 0.000000 0.661935
0.000000 0.000000 0.599047
0.000000 0.000000 0.515741
0.000000 0.000000 0.409865
0.000000 0.000000 0.279177
0.000000 0.000000 0.121342
0.000000 0.000000 0.000000
0.000000 0.000000 0.026822
0.000000 0.000000 0.036752
0.000000 0.000000 0.050408
0.000000 0.000000 0.068003
0.000000 0.000000 0.089658
0.000000 0.000000 0.115406
0.000000 0.000000 0.145188
0.000000 0.000000 0.178854
0.000000 0.000000 0.216163
0.000000 0.000000 0.256784
0.000000 0.000000 0.300296
0.000000 0.012536 0.346186
0.000000 0.083360 0.393850
0.000000 0.147261 0.442596
0.000000 0.203316 0.491639
0.000000 0.250523 0.540102
0.000000 0.287806 0.587021
0.000000 0.314008 0.631339
0.000000 0.327898 0.671908
0.000000 0.328166 0.707490
0.000000 0.313426 0.736757
0.000000 0.282213 0.758289
0.000000 0.232987 0.770577
0.000000 0.164128 0.772019
0.000000 0.073942 0.760924
0.000000 0.000000 0.735510
0.000000 0.000000 0.693905
0.000000 0.000000 0.634143
0.000000 0.000000 0.554173
0.000000 0.000000 0.451847
0.000000 0.000000 0.324932
0.000000 0.000000 0.171100
0.000000 0.000000 0.000000
0.000000 0.000000 0.031684
0.000000 0.000000 0.042032
0.000000 0.000000 0.056117
0.000000 0.000000 0.074157
0.000000 0.000000 0.096284
0.000000 0.000000 0.122535
0.000000 0.000000 0.152860
0.000000 0.000000 0.187116
0.000000 0.000000 0.225069
0.000000 0.000000 0.266397
0.000000 0.000000 0.310685
0.000000 0.005482 0.357427
0.000000 0.078643 0.406029
0.000000 0.144288 0.455802
0.000000 0.201471 0.505971
0.000000 0.249175 0.555668
0.000000 0.286301 0.603933
0.000000 0.311675 0.649718
0.000000 0.324046 0.691882
0.000000 0.322083 0.729196
0.000000 0.304382 0.760337
0.000000 0.269458 0.783895
0.000000 0.215752 0.798365
0.000000 0.141625 0.802155
0.000000 0.045363 0.793581
0.000000 0.000000 0.770867
0.000000 0.000000 0.732150
0.000000 0.000000 0.675471
0.000000 0.000000 0.598785
0.000000 0.000000 0.499954
0.000000 0.000000 0.376750
0.000000 0.000000 0.226854
0.000000 0.000000 0.047856
0.000000 0.000000 0.043131
0.000000 0.000000 0.054009
0.000000 0.000000 0.068627
0.000000 0.000000 0.087213
0.000000 0.000000 0.109904
0.000000 0.000000 0.136746
0.000000 0.000000 0.167696
0.000000 0.000000 0.202617
0.000000 0.000000 0.241285
0.000000 0.000000 0.283383
0.000000 0.000000 0.328505
0.000000 0.000000 0.376151
0.000000 0.073501 0.425735
0.000000 0.140773 0.476577
0.000000 0.198950 0.527906
0.000000 0.246992 0.578864
0.000000 0.283784 0.628498
0.000000 0.308130 0.675766
0.000000 0.318760 0.719537
0.000000 0.314326 0.758587
0.000000 0.293401 0.791601
0.000000 0.254484 0.817176
0.000000 0.195993 0.833816
0.000000 0.116272 0.839935
0.000000 0.013587 0.833856
0.000000 0.000000 0.813812
0.000000 0.000000 0.777946
0.000000 0.000000 0.724307
0.000000 0.000000 0.650857
0.000000 0.000000 0.555466
0.000000 0.000000 0.435913
0.000000 0.000000 0.289886
0.000000 0.000000 0.114983
0.000000 0.000000 0.062504
0.000000 0.000000 0.074024
0.000000 0.000000 0.089283
0.000000 0.000000 0.108515
0.000000 0.000000 0.131865
0.000000 0.000000 0.159386
0.000000 0.000000 0.191043
0.000000 0.000000 0.226708
0.000000 0.000000 0.266161
0.000000 0.000000 0.309095
0.000000 0.000000 0.355109
0.000000 0.000000 0.403713
0.000000 0.067908 0.454327
0.000000 0.136695 0.506278
0.000000 0.195731 0.558804
0.000000 0.243957 0.611052
0.000000 0.280238 0.662079
0.000000 0.303360 0.710849
0.000000 0.312031 0.756238
0.000000 0.304886 0.797029
0.000000 0.280477 0.831917
0.000000 0.237284 0.859503
0.000000 0.173707 0.878301
0.000000 0.088069 0.886731
0.000000 0.000000 0.883125
0.000000 0.000000 0.865721
0.000000 0.000000 0.832670
0.000000 0.000000 0.782030
0.000000 0.000000 0.711769
0.000000 0.000000 0.619765
0.000000 0.000000 0.503803
0.000000 0.000000 0.361580
0.000000 0.000000 0.190701
0.000000 0.000000 0.091245
0.000000 0.000000 0.103521
0.000000 0.000000 0.119528
0.000000 0.000000 0.139508
0.000000 0.000000 0.163613
0.000000 0.000000 0.191905
0.000000 0.000000 0.224353
0.000000 0.000000 0.260839
0.000000 0.000000 0.301150
0.000000 0.000000 0.344986
0.000000 0.000000 0.391954
0.000000 0.000000 0.441571
0.000000 0.061859 0.493263
0.000000 0.132050 0.546367
0.000000 0.191814 0.600126
0.000000 0.240071 0.653696
0.000000 0.275667 0.706140
0.000000 0.297369 0.756431
0.000000 0.303867 0.803451
0.000000 0.293772 0.845992
0.000000 0.265622 0.882755
0.000000 0.217875 0.912349
0.000000 0.148910 0.933294
0.000000 0.057034 0.944019
0.000000 0.000000 0.942862
0.000000 0.000000 0.928071
0.000000 0.000000 0.897802
0.000000 0.000000 0.850121
0.000000 0.000000 0.783003
0.000000 0.000000 0.694333
0.000000 0.000000 0.581906
0.000000 0.000000 0.443424
0.000000 0.000000 0.276500
0.000000 0.000000 0.130897
0.000000 0.000000 0.144044
0.000000 0.000000 0.160908
0.000000 0.000000 0.181740
0.000000 0.000000 0.206698
0.000000 0.000000 0.235851
0.000000 0.000000 0.269178
0.000000 0.000000 0.306564
0.000000 0.000000 0.347807
0.000000 0.000000 0.392613
0.000000 0.000000 0.440597
0.000000 0.000000 0.491282
0.000000 0.055368 0.544104
0.000000 0.126855 0.598404
0.000000 0.187216 0.653436
0.000000 0.235354 0.708360
0.000000 0.270094 0.762248
0.000000 0.290183 0.814081
0.000000 0.294293 0.862747
0.000000 0.281015 0.907047
0.000000 0.248868 0.945687
0.000000 0.196288 0.977285
0.000000 0.121639 1.000000
0.000000 0.023205 1.000000
0.000000 0.000000 1.000000
0.000000 0.000000 1.000000
0.000000 0.000000 0.974921
0.000000 0.000000 0.930160
0.000000 0.000000 0.866142
0.000000 0.000000 0.780757
0.000000 0.000000 0.671807
0.000000 0.000000 0.537004
0.000000 0.000000 0.373966
0.000000 0.000000 0.183103
0.000000 0.000000 0.197238
0.000000 0.000000 0.215071
0.000000 0.000000 0.236859
0.000000 0.000000 0.262769
0.000000 0.000000 0.292877
0.000000 0.000000 0.327169
0.000000 0.000000 0.365538
0.000000 0.000000 0.407788
0.000000 0.000000 0.453634
0.000000 0.000000 0.502696
0.000000 0.000000 0.554508
0.000000 0.048467 0.608510
0.000000 0.121143 0.664053
0.000000 0.181975 0.720397
0.000000 0.229845 0.776710
0.000000 0.263559 0.832070
0.000000 0.281845 0.885467
0.000000 0.283355 0.935795
0.000000 0.266662 0.981863
0.000000 0.230263 1.000000
0.000000 0.172578 1.000000
0.000000 0.091948 1.000000
0.000000 0.000000 1.000000
0.000000 0.000000 1.000000
0.000000 0.000000 1.000000
0.000000 0.000000 1.000000
0.000000 0.000000 1.000000
0.000000 0.000000 0.962869
0.000000 0.000000 0.880720
0.000000 0.000000 0.775194
0.000000 0.000000 0.644009
0.000000 0.000000 0.484791
0.000000 0.000000 0.249610
0.000000 0.000000 0.264852
0.000000 0.000000 0.283765
0.000000 0.000000 0.306616
0.000000 0.000000 0.333579
0.000000 0.000000 0.364736
0.000000 0.000000 0.400081
0.000000 0.000000 0.439515
0.000000 0.000000 0.482850
0.000000 0.000000 0.529806
0.000000 0.000000 0.580013
0.000000 0.000000 0.633010
0.000000 0.041206 0.688246
0.000000 0.114968 0.745079
0.000000 0.176145 0.802775
0.000000 0.223601 0.860512
0.000000 0.256123 0.917375
0.000000 0.272418 0.972358
0.000000 0.271119 1.000000
0.000000 0.250780 1.000000
0.000000 0.209878 1.000000
0.000000 0.146814 1.000000
0.000000 0.059910 1.000000
0.000000 0.000000 1.000000
0.000000 0.000000 1.000000
0.000000 0.000000 1.000000
0.000000 0.000000 1.000000
0.000000 0.000000 1.000000
0.000000 0.000000 1.000000
0.000000 0.000000 0.996012
0.000000 0.000000 0.893856
0.000000 0.000000 0.766229
0.000000 0.000000 0.610766
0.000000 0.000000 0.332265
0.000000 0.000000 0.348732
0.000000 0.000000 0.368841
0.000000 0.000000 0.392863
0.000000 0.000000 0.420980
0.000000 0.000000 0.453282
0.000000 0.000000 0.489770
0.000000 0.000000 0.530354
0.000000 0.000000 0.574851
0.000000 0.000000 0.622990
0.000000 0.000000 0.674407
0.000000 0.000000 0.728651
0.000000 0.033657 0.785175
0.000000 0.108402 0.843347
0.000000 0.169802 0.902439
0.000000 0.216700 0.961636
0.000000 0.247864 1.000000
0.000000 0.261982 1.000000
0.000000 0.257667 1.000000
0.000000 0.233453 1.000000
0.000000 0.187800 1.000000
0.000000 0.119087 1.000000
0.000000 0.025618 1.000000
0.000000 0.000000 1.000000
0.000000 0.000000 1.000000
0.000000 0.000000 1.000000
0.000000 0.000000 1.000000
0.000000 0.000000 1.000000
0.000000 0.000000 1.000000
0.000000 0.000000 1.000000
0.000000 0.000000 1.000000
0.000000 0.000000 0.905556
0.000000 0.000000 0.753785
0.000000 0.000000 0.433017
0.000000 0.000000 0.450831
0.000000 0.000000 0.472249
0.000000 0.000000 0.497551
0.000000 0.000000 0.526926
0.000000 0.000000 0.560471
0.000000 0.000000 0.598194
0.000000 0.000000 0.640013
0.000000 0.000000 0.685752
0.000000 0.000000 0.735147
0.000000 0.000000 0.787843
0.000000 0.000000 0.843395
0.000000 0.025907 0.901264
0.000000 0.101536 0.960824
0.000000 0.163038 1.000000
0.000000 0.209237 1.000000
0.000000 0.238880 1.000000
0.000000 0.250637 1.000000
0.000000 0.243101 1.000000
0.000000 0.214788 1.000000
0.000000 0.164136 1.000000
0.000000 0.089507 1.000000
0.000000 0.000000 1.000000
0.000000 0.000000 1.000000
0.000000 0.000000 1.000000
0.000000 0.000000 1.000000
0.000000 0.000000 1.000000
0.000000 0.000000 1.000000
0.000000 0.000000 1.000000
0.000000 0.000000 1.000000
0.000000 0.000000 1.000000
0.000000 0.000000 1.000000
0.000000 0.000000 0.915841
0.000000 0.000000 0.553915
0.000000 0.000000 0.573198
0.000000 0.000000 0.596043
0.000000 0.000000 0.622735
0.000000 0.000000 0.653473
0.000000 0.000000 0.688359
0.000000 0.000000 0.727411
0.000000 0.000000 0.770551
0.000000 0.000000 0.817614
0.000000 0.000000 0.868341
0.000000 0.000000 0.922385
0.000000 0.000000 0.979307
0.000000 0.018065 1.000000
0.000000 0.094481 1.000000
0.000000 0.155967 1.000000
0.000000 0.201326 1.000000
0.000000 0.229288 1.000000
0.000000 0.238503 1.000000
0.000000 0.227544 1.000000
0.000000 0.194907 1.000000
0.000000 0.139012 1.000000
0.000000 0.058200 1.000000
0.000000 0.000000 1.000000
0.000000 0.000000 1.000000
0.000000 0.000000 1.000000
0.000000 0.000000 1.000000
0.000000 0.000000 1.000000
0.000000 0.000000 1.000000
0.000000 0.000000 1.000000
0.000000 0.000000 1.000000
0.000000 0.000000 1.000000
0.000000 0.000000 1.000000
0.000000 0.000000 1.000000
0.000000 0.000000 0.697111
0.000000 0.000000 0.717987
0.000000 0.000000 0.742376
0.000000 0.000000 0.770572
0.000000 0.000000 0.802778
0.000000 0.000000 0.839107
0.000000 0.000000 0.879581
0.000000 0.000000 0.924131
0.000000 0.000000 0.972599
0.000000 0.000000 1.000000
0.000000 0.000000 1.000000
0.000000 0.000000 1.000000
0.000000 0.010258 1.000000
0.000000 0.087365 1.000000
0.000000 0.148718 1.000000
0.000000 0.193102 1.000000
0.000000 0.219224 1.000000
0.000000 0.225717 1.000000
0.000000 0.211135 1.000000
0.000000 0.173953 1.000000
0.000000 0.112572 1.000000
0.000000 0.025314 1.000000
0.000000 0.000000 1.000000
0.000000 0.000000 1.000000
0.000000 0.000000 1.000000
0.000000 0.000000 1.000000
0.000000 0.000000 1.000000
