public/luts/phoenix_harman.cube
# Generated from ColorChecker fit
LUT_3D_SIZE 5
DOMAIN_MIN 0.0 0.0 0.0
DOMAIN_MAX 1.0 1.0 1.0
0.118880 0.008144 0.000000
0.000000 0.000000 0.159894
0.083717 0.056042 0.340370
0.132794 0.136207 0.187801
0.000000 0.000000 0.000000
0.101026 0.000000 0.000000
0.067857 0.000000 0.000000
0.163495 0.028148 0.000000
0.081548 0.204580 0.000000
0.000000 0.176778 0.000000
0.000000 0.052865 0.369243
0.000000 0.317596 0.628132
0.001270 0.715758 1.000000
0.000000 1.000000 1.000000
0.000000 1.000000 1.000000
0.238589 0.136151 1.000000
0.371279 1.000000 1.000000
0.318581 1.000000 1.000000
0.000000 1.000000 1.000000
0.000000 1.000000 1.000000
1.000000 0.076633 1.000000
1.000000 1.000000 1.000000
1.000000 1.000000 1.000000
1.000000 1.000000 1.000000
0.000000 1.000000 1.000000
0.282228 0.426169 0.440493
0.200075 0.278866 0.568801
0.422744 0.474099 0.807119
0.642232 0.689359 0.983152
0.414609 0.602396 0.606720
0.366768 0.571717 0.325627
0.297321 0.315173 0.292088
0.432423 0.356213 0.455838
0.400515 0.381476 0.752258
0.000000 0.077859 0.798841
0.435636 0.734668 0.243391
0.369668 0.611805 0.362694
0.354927 0.681959 0.771987
0.000000 0.640916 1.000000
0.000000 0.184722 1.000000
1.000000 0.000000 0.000000
1.000000 0.329058 0.000000
0.864974 0.850219 1.000000
0.002733 1.000000 1.000000
0.000000 0.799045 1.000000
1.000000 0.000000 0.000000
1.000000 0.000000 0.000000
1.000000 0.771103 1.000000
1.000000 1.000000 1.000000
0.000000 1.000000 1.000000
0.468842 0.308851 0.244615
0.461321 0.188776 0.350681
0.912893 0.651286 0.464397
1.000000 1.000000 0.553490
1.000000 1.000000 0.267804
0.500476 0.649615 0.522275
0.428765 0.274681 0.369909
0.693126 0.382253 0.317371
0.856833 0.539293 0.440061
0.347232 0.313017 0.495496
0.599915 0.779592 0.291039
0.454806 0.442052 0.247867
0.469697 0.427326 0.402121
0.144308 0.311520 0.936875
0.000000 0.000000 1.000000
1.000000 0.000000 0.000000
1.000000 0.000000 0.000000
0.870498 0.000000 0.000000
0.000000 0.000000 1.000000
0.000000 0.000000 1.000000
1.000000 0.000000 0.000000
1.000000 0.000000 0.000000
1.000000 0.000000 0.000000
1.000000 0.000000 0.573750
0.000000 0.000000 1.000000
0.665066 0.212610 0.219778
0.820146 0.556134 0.940438
1.000000 1.000000 1.000000
1.000000 1.000000 1.000000
1.000000 1.000000 1.000000
0.649795 0.582585 0.611725
0.661769 0.556025 0.940600
1.000000 1.000000 1.000000
1.000000 1.000000 1.000000
1.000000 1.000000 1.000000
0.714490 0.655933 0.402687
0.574164 0.600873 0.760338
0.758392 1.000000 0.989752
0.701724 1.000000 1.000000
0.000000 1.000000 1.000000
1.000000 0.000000 0.000000
1.000000 0.000000 0.000000
0.909266 0.000000 0.000000
0.142246 0.000000 1.000000
0.000000 0.000000 1.000000
1.000000 0.000000 0.000000
1.000000 0.000000 0.000000
1.000000 0.000000 0.000000
1.000000 0.000000 0.000000
0.000000 0.000000 1.000000
0.764524 0.451349 0.430946
1.000000 1.000000 1.000000
1.000000 1.000000 1.000000
1.000000 1.000000 1.000000
1.000000 1.000000 1.000000
0.869653 0.640469 0.179831
1.000000 1.000000 1.000000
1.000000 1.000000 1.000000
1.000000 1.000000 1.000000
1.000000 1.000000 1.000000
0.995589 0.589467 0.000000
0.995903 1.000000 1.000000
1.000000 1.000000 1.000000
1.000000 1.000000 1.000000
1.000000 1.000000 1.000000
1.000000 0.000000 0.000000
1.000000 0.000000 0.000000
1.000000 1.000000 0.803081
1.000000 1.000000 1.000000
0.000000 1.000000 1.000000
1.000000 0.000000 0.000000
1.000000 0.000000 0.000000
1.000000 0.000000 0.000000
1.000000 0.000000 0.000000
0.000000 0.000000 1.000000
