public/luts/phoenix_harman.cube
# Generated from ColorChecker fit
LUT_3D_SIZE 33
DOMAIN_MIN 0.0 0.0 0.0
DOMAIN_MAX 1.0 1.0 1.0
0.118880 0.008144 0.000000
0.087542 0.000000 0.000000
0.061180 0.000000 0.005806
0.039668 0.000000 0.029988
0.022847 0.000000 0.054781
0.010526 0.000000 0.080234
0.002477 0.000000 0.106321
0.000000 0.000000 0.132935
0.000000 0.000000 0.159894
0.001221 0.000000 0.186936
0.007348 0.000000 0.213723
0.016125 0.000000 0.239840
0.027125 0.000000 0.264792
0.039892 0.007323 0.288009
0.053935 0.023374 0.308841
0.068729 0.039745 0.326563
0.083717 0.056042 0.340370
0.098309 0.071867 0.349380
0.111881 0.086825 0.352635
0.123777 0.100521 0.349098
0.133306 0.112558 0.337653
0.139745 0.122540 0.317110
0.142338 0.130073 0.286198
0.140295 0.134761 0.243570
0.132794 0.136207 0.187801
0.118979 0.134017 0.117389
0.097960 0.127796 0.030754
0.068815 0.117147 0.000000
0.030589 0.101676 0.000000
0.000000 0.080988 0.000000
0.000000 0.054687 0.000000
0.000000 0.022379 0.000000
0.000000 0.000000 0.000000
0.137045 0.000000 0.000000
0.107318 0.000000 0.000000
0.082568 0.000000 0.000000
0.062656 0.000000 0.000000
0.047406 0.000000 0.000000
0.036612 0.000000 0.000000
0.030031 0.000000 0.000000
0.027390 0.000000 0.000000
0.028381 0.000000 0.019355
0.032665 0.000000 0.044591
0.039867 0.000000 0.069754
0.049580 0.000000 0.094456
0.061365 0.000000 0.118229
0.074749 0.000000 0.140528
0.089224 0.000000 0.160730
0.104251 0.000000 0.178135
0.119258 0.000000 0.191966
0.133639 0.016876 0.201367
0.146754 0.033607 0.205405
0.157932 0.049168 0.203070
0.166465 0.063165 0.193273
0.171617 0.075206 0.174850
0.172615 0.084898 0.146555
0.168654 0.091845 0.107069
0.158895 0.095656 0.054993
0.142468 0.095938 0.000000
0.118468 0.092296 0.000000
0.085956 0.084338 0.000000
0.043962 0.071672 0.000000
0.000000 0.053903 0.000000
0.000000 0.030640 0.000000
0.000000 0.001489 0.000000
0.000000 0.000000 0.000000
0.148975 0.000000 0.000000
0.120853 0.000000 0.000000
0.097699 0.000000 0.000000
0.079356 0.000000 0.000000
0.065635 0.000000 0.000000
0.056311 0.000000 0.000000
0.051129 0.000000 0.000000
0.049799 0.000000 0.000000
0.051997 0.000000 0.000000
0.057369 0.000000 0.000000
0.065524 0.000000 0.000000
0.076041 0.000000 0.000000
0.088464 0.000000 0.000099
0.102304 0.000000 0.021542
0.117039 0.000000 0.041177
0.132115 0.000000 0.058331
0.146942 0.000000 0.072252
0.160900 0.000000 0.082111
0.173334 0.000000 0.087001
0.183555 0.014812 0.085939
0.190844 0.030515 0.077862
0.194445 0.044345 0.061631
0.193572 0.055910 0.036029
0.187403 0.064819 0.000000
0.175085 0.070682 0.000000
0.155731 0.073106 0.000000
0.128421 0.071702 0.000000
0.092201 0.066078 0.000000
0.046086 0.055844 0.000000
0.000000 0.040609 0.000000
0.000000 0.019983 0.000000
0.000000 0.000000 0.000000
0.000000 0.000000 0.000000
0.154719 0.000000 0.000000
0.128204 0.000000 0.000000
0.106633 0.000000 0.000000
0.089834 0.000000 0.000000
0.077602 0.000000 0.000000
0.069698 0.000000 0.000000
0.065850 0.000000 0.000000
0.065752 0.000000 0.000000
0.069068 0.000000 0.000000
0.075424 0.000000 0.000000
0.084417 0.000000 0.000000
0.095608 0.000000 0.000000
0.108526 0.000000 0.000000
0.122668 0.000000 0.000000
0.137495 0.000000 0.000000
0.152438 0.000000 0.000000
0.166892 0.000000 0.000000
0.180220 0.000000 0.000000
0.191752 0.000000 0.000000
0.200785 0.000000 0.000000
0.206582 0.013445 0.000000
0.208374 0.028852 0.000000
0.205357 0.042064 0.000000
0.196696 0.052694 0.000000
0.181521 0.060353 0.000000
0.158930 0.064651 0.000000
0.127987 0.065200 0.000000
0.087723 0.061611 0.000000
0.037136 0.053496 0.000000
0.000000 0.040467 0.000000
0.000000 0.022134 0.000000
0.000000 0.000000 0.000000
0.000000 0.000000 0.000000
0.154453 0.000000 0.000000
0.129548 0.000000 0.000000
0.109551 0.000000 0.000000
0.094275 0.000000 0.000000
0.083499 0.000000 0.000000
0.076967 0.000000 0.000000
0.074393 0.000000 0.000000
0.075456 0.000000 0.000000
0.079802 0.000000 0.000000
0.087044 0.000000 0.000000
0.096763 0.000000 0.000000
0.108503 0.000000 0.000000
0.121780 0.000000 0.000000
0.136072 0.000000 0.000000
0.150828 0.000000 0.000000
0.165461 0.000000 0.000000
0.179352 0.000000 0.000000
0.191848 0.000000 0.000000
0.202263 0.000000 0.000000
0.209879 0.000000 0.000000
0.213944 0.010915 0.000000
0.213672 0.027746 0.000000
0.208245 0.042439 0.000000
0.196811 0.054607 0.000000
0.178486 0.063864 0.000000
0.152351 0.069824 0.000000
0.117456 0.072100 0.000000
0.072816 0.070306 0.000000
0.017413 0.064055 0.000000
0.000000 0.052962 0.000000
0.000000 0.036639 0.000000
0.000000 0.014701 0.000000
0.000000 0.000000 0.000000
0.148470 0.000000 0.000000
0.125185 0.000000 0.000000
0.106760 0.000000 0.000000
0.092990 0.000000 0.000000
0.083639 0.000000 0.000000
0.078438 0.000000 0.000000
0.077082 0.000000 0.000000
0.079237 0.000000 0.000000
0.084533 0.000000 0.000000
0.092567 0.000000 0.000000
0.102903 0.000000 0.000000
0.115073 0.000000 0.000000
0.128574 0.000000 0.000000
0.142871 0.000000 0.000000
0.157396 0.000000 0.000000
0.171548 0.000000 0.000000
0.184690 0.000000 0.000000
0.196156 0.000000 0.000000
0.205244 0.000000 0.000000
0.211219 0.002142 0.000000
0.213314 0.022013 0.000000
0.210729 0.040173 0.000000
0.202629 0.056236 0.000000
0.188147 0.069819 0.000000
0.166383 0.080536 0.000000
0.136404 0.088005 0.000000
0.097242 0.091840 0.000000
0.047898 0.091658 0.000000
0.000000 0.087074 0.000000
0.000000 0.077705 0.000000
0.000000 0.063166 0.000000
0.000000 0.043074 0.000000
0.000000 0.017045 0.000000
0.137190 0.000000 0.000000
0.115540 0.000000 0.000000
0.098686 0.000000 0.000000
0.086410 0.000000 0.000000
0.078460 0.000000 0.000000
0.074550 0.000000 0.000000
0.074363 0.000000 0.000000
0.077546 0.000000 0.000000
0.083714 0.000000 0.000000
0.092449 0.000000 0.000000
0.103301 0.000000 0.000000
0.115784 0.000000 0.000000
0.129381 0.000000 0.000000
0.143542 0.000000 0.000000
0.157682 0.000000 0.000000
0.171184 0.000000 0.000000
0.183398 0.000000 0.000000
0.193640 0.000000 0.000000
0.201194 0.002369 0.000000
0.205309 0.024812 0.000000
0.205203 0.045950 0.000000
0.200059 0.065402 0.000000
0.189028 0.082784 0.000000
0.171227 0.097715 0.000000
0.145740 0.109813 0.000000
0.111618 0.118695 0.000000
0.067880 0.123980 0.000000
0.013509 0.125286 0.000000
0.000000 0.122230 0.000000
0.000000 0.114432 0.000000
0.000000 0.101509 0.000000
0.000000 0.083081 0.000000
0.000000 0.058764 0.000000
0.121155 0.000000 0.000000
0.101156 0.000000 0.000000
0.085879 0.000000 0.000000
0.075090 0.000000 0.000000
0.068520 0.000000 0.000000
0.065869 0.000000 0.000000
0.066803 0.000000 0.000000
0.070954 0.000000 0.000000
0.077922 0.000000 0.000000
0.087274 0.000000 0.000000
0.098543 0.000000 0.000000
0.111228 0.000000 0.000000
0.124797 0.000000 0.000000
0.138684 0.000000 0.000000
0.152289 0.000000 0.000000
0.164979 0.000000 0.000000
0.176088 0.000000 0.000000
0.184918 0.011228 0.000000
0.190735 0.035883 0.000000
0.192775 0.059621 0.000000
0.190240 0.082062 0.000000
0.182296 0.102827 0.000000
0.168080 0.121535 0.000000
0.146693 0.137807 0.000000
0.117204 0.151263 0.000000
0.078648 0.161522 0.000000
0.030027 0.168205 0.000000
0.000000 0.170933 0.000000
0.000000 0.169326 0.000000
0.000000 0.163004 0.000000
0.000000 0.151587 0.000000
0.000000 0.134698 0.000000
0.000000 0.111955 0.000000
0.101026 0.000000 0.000000
0.082703 0.000000 0.000000
0.069013 0.000000 0.000000
0.059707 0.000000 0.000000
0.054501 0.000000 0.000000
0.053079 0.000000 0.000000
0.055092 0.000000 0.000000
0.060157 0.000000 0.000000
0.067857 0.000000 0.000000
0.077745 0.000000 0.000000
0.089337 0.000000 0.000000
0.102118 0.000000 0.000000
0.115539 0.000000 0.000000
0.129019 0.000000 0.000000
0.141943 0.000000 0.000000
0.153662 0.001364 0.000000
0.163495 0.028148 0.000000
0.170728 0.054763 0.000000
0.174612 0.080830 0.000000
0.174367 0.105972 0.000000
0.169179 0.129810 0.000000
0.158200 0.151968 0.000000
0.140550 0.172068 0.000000
0.115314 0.189731 0.000000
0.081548 0.204580 0.000000
0.038269 0.216238 0.000000
0.000000 0.224326 0.000000
0.000000 0.228469 0.000000
0.000000 0.228287 0.000000
0.000000 0.223405 0.000000
0.000000 0.213444 0.000000
0.000000 0.198027 0.000000
0.000000 0.176778 0.000000
0.077591 0.000000 0.000000
0.060970 0.000000 0.000000
0.048881 0.000000 0.000000
0.041059 0.000000 0.000000
0.037206 0.000000 0.000000
0.036989 0.000000 0.000000
0.040044 0.000000 0.000000
0.045972 0.000000 0.000000
0.054341 0.000000 0.000000
0.064688 0.000000 0.000000
0.076514 0.000000 0.000000
0.089288 0.000000 0.000000
0.102447 0.000000 0.000000
0.115392 0.000000 0.000000
0.127494 0.024100 0.000000
0.138088 0.052352 0.000000
0.146478 0.080783 0.000000
0.151934 0.109017 0.000000
0.153692 0.136679 0.011253
0.150956 0.163392 0.026590
0.142896 0.188781 0.038077
0.128649 0.212470 0.044758
0.107320 0.234084 0.045600
0.077979 0.253247 0.039492
0.039664 0.269584 0.025247
0.000000 0.282720 0.001598
0.000000 0.292279 0.000000
0.000000 0.297886 0.000000
0.000000 0.299167 0.000000
0.000000 0.295745 0.000000
0.000000 0.287246 0.000000
0.000000 0.273296 0.000000
0.000000 0.253518 0.000000
0.051757 0.000000 0.000000
0.036870 0.000000 0.000000
0.026402 0.000000 0.000000
0.020071 0.000000 0.000000
0.017563 0.000000 0.000000
0.018531 0.000000 0.000000
0.022594 0.000000 0.000000
0.029339 0.000000 0.000000
0.038319 0.000000 0.000000
0.049053 0.000000 0.000000
0.061028 0.000000 0.000000
0.073698 0.000000 0.000000
0.086483 0.024330 0.000000
0.098770 0.053153 0.000000
0.109913 0.082859 0.005968
0.119233 0.113072 0.031338
0.126017 0.143420 0.056257
0.129521 0.173529 0.080104
0.128964 0.203024 0.102184
0.123535 0.231533 0.121722
0.112390 0.258683 0.137868
0.094648 0.284099 0.149691
0.069400 0.307410 0.156186
0.035700 0.328240 0.156267
0.000000 0.346218 0.148773
0.000000 0.360970 0.132463
0.000000 0.372123 0.106022
0.000000 0.379304 0.068053
0.000000 0.382141 0.017085
0.000000 0.380260 0.000000
0.000000 0.373289 0.000000
0.000000 0.360854 0.000000
0.000000 0.342584 0.000000
0.024556 0.000000 0.000000
0.011440 0.000000 0.000000
0.002615 0.000000 0.000000
0.000000 0.000000 0.000000
0.000000 0.000000 0.000000
0.000000 0.000000 0.000000
0.003801 0.000000 0.000000
0.011321 0.000000 0.000000
0.020856 0.000000 0.000000
0.031910 0.002102 0.000000
0.043955 0.028670 0.000000
0.056427 0.057171 0.024139
0.068732 0.087233 0.050320
0.080241 0.118484 0.077713
0.090294 0.150554 0.105959
0.098194 0.183070 0.134621
0.103215 0.215662 0.163185
0.104595 0.247957 0.191057
0.101540 0.279585 0.217568
0.093222 0.310174 0.241970
0.078781 0.339353 0.263438
0.057322 0.366752 0.281068
0.027919 0.391998 0.293881
0.000000 0.414721 0.300818
0.000000 0.434550 0.300743
0.000000 0.451114 0.292444
0.000000 0.464043 0.274628
0.000000 0.472966 0.245929
0.000000 0.477511 0.204898
0.000000 0.477309 0.150014
0.000000 0.471988 0.079674
0.000000 0.461179 0.000000
0.000000 0.444511 0.000000
0.000000 0.000000 0.000000
0.000000 0.000000 0.000000
0.000000 0.000000 0.000000
0.000000 0.000000 0.000000
0.000000 0.000000 0.000000
0.000000 0.000000 0.000000
0.000000 0.000000 0.017473
0.000000 0.011323 0.037032
0.003144 0.036191 0.058582
0.014455 0.063646 0.082179
0.026492 0.093318 0.107799
0.038678 0.124839 0.135341
0.050402 0.157838 0.164629
0.061019 0.191947 0.195405
0.069853 0.226795 0.227336
0.076194 0.262014 0.260013
0.079298 0.297235 0.292945
0.078388 0.332088 0.325567
0.072655 0.366205 0.357236
0.061255 0.399216 0.387229
0.043313 0.430752 0.414747
0.017918 0.460445 0.438915
0.000000 0.487925 0.458778
0.000000 0.512824 0.473303
0.000000 0.534774 0.481383
0.000000 0.553405 0.481828
0.000000 0.568349 0.473376
0.000000 0.579238 0.454684
0.000000 0.585703 0.424331
0.000000 0.587376 0.380820
0.000000 0.583888 0.322577
0.000000 0.574872 0.247948
0.000000 0.559958 0.155203
0.000000 0.000000 0.026942
0.000000 0.000000 0.042622
0.000000 0.000000 0.058324
0.000000 0.000000 0.074595
0.000000 0.003509 0.091902
0.000000 0.022563 0.110639
0.000000 0.045203 0.131118
0.000000 0.071061 0.153576
0.000000 0.099769 0.178171
0.000000 0.130962 0.204985
0.009963 0.164270 0.234020
0.021778 0.199327 0.265203
0.032822 0.235765 0.298381
0.042438 0.273218 0.333326
0.049930 0.311318 0.369730
0.054575 0.349698 0.407208
0.055613 0.387992 0.445299
0.052251 0.425832 0.483462
0.043665 0.462852 0.521079
0.028996 0.498685 0.557457
0.007352 0.532963 0.591821
0.000000 0.565322 0.623322
0.000000 0.595393 0.651032
0.000000 0.622810 0.673945
0.000000 0.647207 0.690978
0.000000 0.668218 0.700971
0.000000 0.685476 0.702684
0.000000 0.698615 0.694803
0.000000 0.707269 0.675932
0.000000 0.711071 0.644602
0.000000 0.709656 0.599264
0.000000 0.702657 0.538290
0.000000 0.689709 0.459978
0.000000 0.000000 0.133679
0.000000 0.006026 0.152770
0.000000 0.017333 0.171873
0.000000 0.033198 0.191560
0.000000 0.053254 0.212326
0.000000 0.077136 0.234589
0.000000 0.104479 0.258689
0.000000 0.134917 0.284889
0.000000 0.168085 0.313374
0.000000 0.203618 0.344251
0.000000 0.241152 0.377549
0.007173 0.280320 0.413220
0.017446 0.320757 0.451140
0.025954 0.362100 0.491104
0.031986 0.403983 0.532833
0.034804 0.446041 0.575967
0.033631 0.487910 0.620071
0.027660 0.529224 0.664630
0.016050 0.569620 0.709055
0.000000 0.608733 0.752676
0.000000 0.646198 0.794747
0.000000 0.681651 0.834443
0.000000 0.714727 0.870863
0.000000 0.745063 0.903028
0.000000 0.772293 0.929881
0.000000 0.796055 0.950287
0.000000 0.815983 0.963034
0.000000 0.831714 0.966834
0.000000 0.842884 0.960317
0.000000 0.849128 0.942040
0.000000 0.850084 0.910480
0.000000 0.845387 0.864036
0.000000 0.834673 0.801032
0.000000 0.027329 0.248146
0.000000 0.039844 0.271550
0.000000 0.057132 0.294955
0.000000 0.078831 0.318962
0.000000 0.104578 0.344092
0.000000 0.134008 0.370788
0.000000 0.166760 0.399417
0.000000 0.202469 0.430269
0.000000 0.240774 0.463553
0.000000 0.281310 0.499404
0.000000 0.323716 0.537877
0.000000 0.367628 0.578952
0.005849 0.412684 0.622528
0.013147 0.458520 0.668429
0.017605 0.504775 0.716400
0.018468 0.551086 0.766110
0.014945 0.597090 0.817148
0.006212 0.642424 0.869027
0.000000 0.686728 0.921183
0.000000 0.729637 0.972972
0.000000 0.770790 1.000000
0.000000 0.809825 1.000000
0.000000 0.846379 1.000000
0.000000 0.880091 1.000000
0.000000 0.910599 1.000000
0.000000 0.937540 1.000000
0.000000 0.960553 1.000000
0.000000 0.979276 1.000000
0.000000 0.993348 1.000000
0.000000 1.000000 1.000000
0.000000 1.000000 1.000000
0.000000 1.000000 1.000000
0.000000 0.995883 1.000000
0.000000 0.052865 0.369243
0.000000 0.072345 0.397926
0.000000 0.096437 0.426603
0.000000 0.124778 0.455899
0.000000 0.157008 0.486362
0.000000 0.192765 0.518464
0.000000 0.231690 0.552595
0.000000 0.273420 0.589072
0.000000 0.317596 0.628132
0.000000 0.363856 0.669935
0.000000 0.411840 0.714563
0.000000 0.461187 0.762021
0.000000 0.511538 0.812235
0.005719 0.562530 0.865055
0.008494 0.613805 0.920253
0.007280 0.665001 0.977523
0.001270 0.715758 1.000000
0.000000 0.765717 1.000000
0.000000 0.814517 1.000000
0.000000 0.861797 1.000000
0.000000 0.907199 1.000000
0.000000 0.950362 1.000000
0.000000 0.990926 1.000000
0.000000 1.000000 1.000000
0.000000 1.000000 1.000000
0.000000 1.000000 1.000000
0.000000 1.000000 1.000000
0.000000 1.000000 1.000000
0.000000 1.000000 1.000000
0.000000 1.000000 1.000000
0.000000 1.000000 1.000000
0.000000 1.000000 1.000000
0.000000 1.000000 1.000000
0.000000 0.075666 0.495933
0.000000 0.103008 0.530927
0.000000 0.134783 0.565908
0.000000 0.170632 0.601529
0.000000 0.210197 0.638363
0.000000 0.253118 0.676907
0.000000 0.299038 0.717580
0.000000 0.347597 0.760723
0.000000 0.398437 0.806601
0.000000 0.451199 0.855399
0.000000 0.505525 0.907225
0.000000 0.561058 0.962111
0.000901 0.617437 1.000000
0.005495 0.674306 1.000000
0.006482 0.731306 1.000000
0.003072 0.788079 1.000000
0.000000 0.844267 1.000000
0.000000 0.899512 1.000000
0.000000 0.953456 1.000000
0.000000 1.000000 1.000000
0.000000 1.000000 1.000000
0.000000 1.000000 1.000000
0.000000 1.000000 1.000000
0.000000 1.000000 1.000000
0.000000 1.000000 1.000000
0.000000 1.000000 1.000000
0.000000 1.000000 1.000000
0.000000 1.000000 1.000000
0.000000 1.000000 1.000000
0.000000 1.000000 1.000000
0.000000 1.000000 1.000000
0.000000 1.000000 1.000000
0.000000 1.000000 1.000000
0.000000 0.095277 0.627239
0.000000 0.131433 0.669643
0.000000 0.171831 0.712029
0.000000 0.216112 0.755075
0.000000 0.263921 0.799381
0.000000 0.314902 0.845472
0.000000 0.368697 0.893791
0.000000 0.424950 0.944707
0.000000 0.483306 0.998509
0.000000 0.543408 1.000000
0.000000 0.604899 1.000000
0.004962 0.667424 1.000000
0.011313 0.730626 1.000000
0.014422 0.794150 1.000000
0.013519 0.857639 1.000000
0.007801 0.920738 1.000000
0.000000 0.983092 1.000000
0.000000 1.000000 1.000000
0.000000 1.000000 1.000000
0.000000 1.000000 1.000000
0.000000 1.000000 1.000000
0.000000 1.000000 1.000000
0.000000 1.000000 1.000000
0.000000 1.000000 1.000000
0.000000 1.000000 1.000000
0.000000 1.000000 1.000000
0.000000 1.000000 1.000000
0.000000 1.000000 1.000000
0.000000 1.000000 1.000000
0.000000 1.000000 1.000000
0.000000 1.000000 1.000000
0.000000 1.000000 1.000000
0.000000 1.000000 1.000000
0.000000 0.111367 0.762252
0.000000 0.157350 0.813229
0.000000 0.207366 0.864184
0.000000 0.261062 0.915822
0.000000 0.318084 0.968769
0.000000 0.378076 1.000000
0.000000 0.440686 1.000000
0.000000 0.505558 1.000000
0.000000 0.572339 1.000000
0.009526 0.640675 1.000000
0.019771 0.710211 1.000000
0.027845 0.780595 1.000000
0.033029 0.851471 1.000000
0.034569 0.922487 1.000000
0.031681 0.993288 1.000000
0.023545 1.000000 1.000000
0.009309 1.000000 1.000000
0.000000 1.000000 1.000000
0.000000 1.000000 1.000000
0.000000 1.000000 1.000000
0.000000 1.000000 1.000000
0.000000 1.000000 1.000000
0.000000 1.000000 1.000000
0.000000 1.000000 1.000000
0.000000 1.000000 1.000000
0.000000 1.000000 1.000000
0.000000 1.000000 1.000000
0.000000 1.000000 1.000000
0.000000 1.000000 1.000000
0.000000 1.000000 1.000000
0.000000 1.000000 1.000000
0.000000 1.000000 1.000000
0.000000 1.000000 1.000000
0.000000 0.123730 0.900121
0.000000 0.180608 0.960902
0.000000 0.241299 1.000000
0.000000 0.305451 1.000000
0.000000 0.372711 1.000000
0.000000 0.442727 1.000000
0.009393 0.515148 1.000000
0.022773 0.589622 1.000000
0.035604 0.665796 1.000000
0.047251 0.743319 1.000000
0.057045 0.821840 1.000000
0.064285 0.901006 1.000000
0.068236 0.980466 1.000000
0.068129 1.000000 1.000000
0.063163 1.000000 1.000000
0.052505 1.000000 1.000000
0.035286 1.000000 1.000000
0.010606 1.000000 1.000000
0.000000 1.000000 1.000000
0.000000 1.000000 1.000000
0.000000 1.000000 1.000000
0.000000 1.000000 1.000000
0.000000 1.000000 1.000000
0.000000 1.000000 1.000000
0.000000 1.000000 1.000000
0.000000 1.000000 1.000000
0.000000 1.000000 1.000000
0.000000 1.000000 1.000000
0.000000 1.000000 1.000000
0.000000 1.000000 1.000000
0.000000 1.000000 1.000000
0.000000 1.000000 1.000000
0.000000 1.000000 1.000000
0.000000 0.132284 1.000000
0.000000 0.201186 1.000000
0.009213 0.273665 1.000000
0.020953 0.349371 1.000000
0.034065 0.427954 1.000000
0.048031 0.509064 1.000000
0.062302 0.592351 1.000000
0.076291 0.677467 1.000000
0.089381 0.764060 1.000000
0.100922 0.851783 1.000000
0.110230 0.940284 1.000000
0.116587 1.000000 1.000000
0.119244 1.000000 1.000000
0.117415 1.000000 1.000000
0.110286 1.000000 1.000000
0.097005 1.000000 1.000000
0.076690 1.000000 1.000000
0.048425 1.000000 1.000000
0.011259 1.000000 1.000000
0.000000 1.000000 1.000000
0.000000 1.000000 1.000000
0.000000 1.000000 1.000000
0.000000 1.000000 1.000000
0.000000 1.000000 1.000000
0.000000 1.000000 1.000000
0.000000 1.000000 1.000000
0.000000 1.000000 1.000000
0.000000 1.000000 1.000000
0.000000 1.000000 1.000000
0.000000 1.000000 1.000000
0.000000 1.000000 1.000000
0.000000 1.000000 1.000000
0.000000 1.000000 1.000000
0.052601 0.137072 1.000000
0.062640 0.219185 1.000000
0.074719 0.304623 1.000000
0.088370 0.393041 1.000000
0.103093 0.484089 1.000000
0.118356 0.577421 1.000000
0.133590 0.672688 1.000000
0.148196 0.769545 1.000000
0.161541 0.867642 1.000000
0.172959 0.966634 1.000000
0.181749 1.000000 1.000000
0.187180 1.000000 1.000000
0.188485 1.000000 1.000000
0.184866 1.000000 1.000000
0.175490 1.000000 1.000000
0.159491 1.000000 1.000000
0.135972 1.000000 1.000000
0.104000 1.000000 1.000000
0.062610 1.000000 1.000000
0.010804 1.000000 1.000000
0.000000 1.000000 1.000000
0.000000 1.000000 1.000000
0.000000 1.000000 1.000000
0.000000 1.000000 1.000000
0.000000 1.000000 1.000000
0.000000 1.000000 1.000000
0.000000 1.000000 1.000000
0.000000 1.000000 1.000000
0.000000 1.000000 1.000000
0.000000 1.000000 1.000000
0.000000 1.000000 1.000000
0.000000 1.000000 1.000000
0.000000 1.000000 1.000000
0.134004 0.138264 1.000000
0.146599 0.234831 1.000000
0.160952 0.334459 1.000000
0.176579 0.436803 1.000000
0.192966 0.541518 1.000000
0.209562 0.648258 1.000000
0.225786 0.756677 1.000000
0.241021 0.866432 1.000000
0.254620 0.977175 1.000000
0.265901 1.000000 1.000000
0.274148 1.000000 1.000000
0.278613 1.000000 1.000000
0.278515 1.000000 1.000000
0.273040 1.000000 1.000000
0.261339 1.000000 1.000000
0.242532 1.000000 1.000000
0.215704 1.000000 1.000000
0.179908 1.000000 1.000000
0.134163 1.000000 1.000000
0.077457 1.000000 1.000000
0.008742 1.000000 1.000000
0.000000 1.000000 1.000000
0.000000 1.000000 1.000000
0.000000 1.000000 1.000000
0.000000 1.000000 1.000000
0.000000 1.000000 1.000000
0.000000 1.000000 1.000000
0.000000 1.000000 1.000000
0.000000 1.000000 1.000000
0.000000 1.000000 1.000000
0.000000 1.000000 1.000000
0.000000 1.000000 1.000000
0.000000 1.000000 1.000000
0.238589 0.136151 1.000000
0.253836 0.248475 1.000000
0.270545 0.363581 1.000000
0.288218 0.481126 1.000000
0.306323 0.600766 1.000000
0.324297 0.722158 1.000000
0.341540 0.844960 1.000000
0.357422 0.968828 1.000000
0.371279 1.000000 1.000000
0.382414 1.000000 1.000000
0.390096 1.000000 1.000000
0.393561 1.000000 1.000000
0.392012 1.000000 1.000000
0.384620 1.000000 1.000000
0.370520 1.000000 1.000000
0.348817 1.000000 1.000000
0.318581 1.000000 1.000000
0.278849 1.000000 1.000000
0.228626 1.000000 1.000000
0.166880 1.000000 1.000000
0.092552 1.000000 1.000000
0.004544 1.000000 1.000000
0.000000 1.000000 1.000000
0.000000 1.000000 1.000000
0.000000 1.000000 1.000000
0.000000 1.000000 1.000000
0.000000 1.000000 1.000000
0.000000 1.000000 1.000000
0.000000 1.000000 1.000000
0.000000 1.000000 1.000000
0.000000 1.000000 1.000000
0.000000 1.000000 1.000000
0.000000 1.000000 1.000000
0.369105 0.131151 1.000000
0.387103 0.260594 1.000000
0.406254 0.392524 1.000000
0.426046 0.526602 1.000000
0.445930 0.662484 1.000000
0.465328 0.799832 1.000000
0.483625 0.938304 1.000000
0.500176 1.000000 1.000000
0.514300 1.000000 1.000000
0.525284 1.000000 1.000000
0.532383 1.000000 1.000000
0.534818 1.000000 1.000000
0.531775 1.000000 1.000000
0.522410 1.000000 1.000000
0.505843 1.000000 1.000000
0.481163 1.000000 1.000000
0.447424 1.000000 1.000000
0.403647 1.000000 1.000000
0.348823 1.000000 1.000000
0.281905 1.000000 1.000000
0.201816 1.000000 1.000000
0.107444 1.000000 1.000000
0.000000 1.000000 1.000000
0.000000 1.000000 1.000000
0.000000 1.000000 1.000000
0.000000 1.000000 1.000000
0.000000 1.000000 1.000000
0.000000 1.000000 1.000000
0.000000 1.000000 1.000000
0.000000 1.000000 1.000000
0.000000 1.000000 1.000000
0.000000 1.000000 1.000000
0.000000 1.000000 1.000000
0.528420 0.123807 1.000000
0.549272 0.271788 1.000000
0.570956 0.421948 1.000000
0.592944 0.573947 1.000000
0.614673 0.727449 1.000000
0.635547 0.882113 1.000000
0.654937 1.000000 1.000000
0.672182 1.000000 1.000000
0.686586 1.000000 1.000000
0.697421 1.000000 1.000000
0.703924 1.000000 1.000000
0.705303 1.000000 1.000000
0.700727 1.000000 1.000000
0.689337 1.000000 1.000000
0.670238 1.000000 1.000000
0.642503 1.000000 1.000000
0.605170 1.000000 1.000000
0.557247 1.000000 1.000000
0.497705 1.000000 1.000000
0.425485 1.000000 1.000000
0.339493 1.000000 1.000000
0.238603 1.000000 1.000000
0.121655 1.000000 1.000000
0.000000 1.000000 1.000000
0.000000 1.000000 1.000000
0.000000 1.000000 1.000000
0.000000 1.000000 1.000000
