public/luts/phoenix_harman.cube
# Generated from ColorChecker fit
LUT_3D_SIZE 9
DOMAIN_MIN 0.0 0.0 0.0
DOMAIN_MAX 1.0 1.0 1.0
0.118880 0.008144 0.000000
0.022847 0.000000 0.054781
0.000000 0.000000 0.159894
0.027125 0.000000 0.264792
0.083717 0.056042 0.340370
0.133306 0.112558 0.337653
0.132794 0.136207 0.187801
0.030589 0.101676 0.000000
0.000000 0.000000 0.000000
0.154453 0.000000 0.000000
0.083499 0.000000 0.000000
0.079802 0.000000 0.000000
0.121780 0.000000 0.000000
0.179352 0.000000 0.000000
0.213944 0.010915 0.000000
0.178486 0.063864 0.000000
0.017413 0.064055 0.000000
0.000000 0.000000 0.000000
0.101026 0.000000 0.000000
0.054501 0.000000 0.000000
0.067857 0.000000 0.000000
0.115539 0.000000 0.000000
0.163495 0.028148 0.000000
0.169179 0.129810 0.000000
0.081548 0.204580 0.000000
0.000000 0.228287 0.000000
0.000000 0.176778 0.000000
0.000000 0.000000 0.000000
0.000000 0.000000 0.000000
0.003144 0.036191 0.058582
0.050402 0.157838 0.164629
0.079298 0.297235 0.292945
0.043313 0.430752 0.414747
0.000000 0.534774 0.481383
0.000000 0.585703 0.424331
0.000000 0.559958 0.155203
0.000000 0.052865 0.369243
0.000000 0.157008 0.486362
0.000000 0.317596 0.628132
0.000000 0.511538 0.812235
0.001270 0.715758 1.000000
0.000000 0.907199 1.000000
0.000000 1.000000 1.000000
0.000000 1.000000 1.000000
0.000000 1.000000 1.000000
0.000000 0.123730 0.900121
0.000000 0.372711 1.000000
0.035604 0.665796 1.000000
0.068236 0.980466 1.000000
0.035286 1.000000 1.000000
0.000000 1.000000 1.000000
0.000000 1.000000 1.000000
0.000000 1.000000 1.000000
0.000000 1.000000 1.000000
0.238589 0.136151 1.000000
0.306323 0.600766 1.000000
0.371279 1.000000 1.000000
0.392012 1.000000 1.000000
0.318581 1.000000 1.000000
0.092552 1.000000 1.000000
0.000000 1.000000 1.000000
0.000000 1.000000 1.000000
0.000000 1.000000 1.000000
0.945531 0.104883 1.000000
1.000000 0.870841 1.000000
1.000000 1.000000 1.000000
1.000000 1.000000 1.000000
1.000000 1.000000 1.000000
0.712535 1.000000 1.000000
0.145944 1.000000 1.000000
0.000000 1.000000 1.000000
0.000000 1.000000 1.000000
1.000000 0.076633 1.000000
1.000000 1.000000 1.000000
1.000000 1.000000 1.000000
1.000000 1.000000 1.000000
1.000000 1.000000 1.000000
1.000000 1.000000 1.000000
1.000000 1.000000 1.000000
0.161576 1.000000 1.000000
0.000000 1.000000 1.000000
0.200414 0.328324 0.367962
0.106080 0.231490 0.453544
0.097705 0.229721 0.563023
0.153605 0.290158 0.695914
0.243600 0.379959 0.831862
0.329015 0.466298 0.930645
0.362679 0.516367 0.932173
0.288926 0.497372 0.756489
0.043595 0.376536 0.303766
0.264080 0.234996 0.109705
0.186239 0.126160 0.151998
0.188875 0.111506 0.221894
0.246331 0.158747 0.325636
0.324455 0.235614 0.449599
0.380600 0.309852 0.560291
0.363624 0.349224 0.604351
0.213887 0.321508 0.508552
0.000000 0.194499 0.179798
0.263251 0.327782 0.102217
0.201255 0.221177 0.120252
0.210937 0.204145 0.169933
0.262670 0.244972 0.264234
0.318328 0.311960 0.396259
0.331293 0.373425 0.539246
0.246449 0.397704 0.646564
0.000186 0.353144 0.651713
0.000000 0.208115 0.468329
0.233543 0.458799 0.208670
0.187894 0.383570 0.238306
0.201811 0.389579 0.303970
0.241693 0.445685 0.425366
0.265442 0.520761 0.602328
0.222468 0.583696 0.814823
0.053683 0.603396 1.000000
0.000000 0.548783 1.000000
0.000000 0.388796 1.000000
0.241933 0.512118 0.308402
0.214287 0.512321 0.402323
0.230778 0.581702 0.536995
0.253833 0.689692 0.738849
0.237382 0.805734 1.000000
0.126862 0.899291 1.000000
0.000000 0.939840 1.000000
0.000000 0.896875 1.000000
0.000000 0.739905 1.000000
0.386759 0.403759 0.296905
0.379924 0.538362 0.524626
0.398481 0.726358 0.798158
0.400886 0.937748 1.000000
0.337095 1.000000 1.000000
0.148574 1.000000 1.000000
0.000000 1.000000 1.000000
0.000000 1.000000 1.000000
0.000000 1.000000 1.000000
0.797723 0.081695 0.085838
0.815658 0.424578 0.533700
0.836926 0.801343 1.000000
0.816007 1.000000 1.000000
0.698890 1.000000 1.000000
0.423066 1.000000 1.000000
0.000000 1.000000 1.000000
0.000000 1.000000 1.000000
0.000000 1.000000 1.000000
1.000000 0.000000 0.000000
1.000000 0.165806 0.374188
1.000000 0.816405 1.000000
1.000000 1.000000 1.000000
1.000000 1.000000 1.000000
1.000000 1.000000 1.000000
0.474903 1.000000 1.000000
0.000000 1.000000 1.000000
0.000000 1.000000 1.000000
1.000000 0.000000 0.000000
1.000000 0.000000 0.006894
1.000000 0.813242 1.000000
1.000000 1.000000 1.000000
1.000000 1.000000 1.000000
1.000000 1.000000 1.000000
1.000000 1.000000 1.000000
0.447460 1.000000 1.000000
0.000000 1.000000 1.000000
0.282228 0.426169 0.440493
0.189108 0.289533 0.492545
0.200075 0.278866 0.568801
0.289371 0.353828 0.677527
0.422744 0.474099 0.807119
0.557446 0.599372 0.926107
0.642232 0.689359 0.983152
0.617365 0.703786 0.907048
0.414609 0.602396 0.606720
0.346722 0.409405 0.296577
0.261383 0.239896 0.294907
0.273227 0.192028 0.321453
0.352524 0.226033 0.391209
0.461049 0.302163 0.499301
0.552081 0.380682 0.620989
0.570406 0.421874 0.711663
0.452312 0.386038 0.706848
0.125591 0.233487 0.522197
0.366768 0.571717 0.325627
0.288563 0.386652 0.292575
0.297321 0.315173 0.292088
0.359340 0.318086 0.345890
0.432423 0.356213 0.455838
0.465877 0.390392 0.603921
0.400515 0.381476 0.752258
0.168653 0.290336 0.843103
0.000000 0.077859 0.798841
0.375056 0.730392 0.358795
0.304489 0.561999 0.333527
0.307350 0.495412 0.345513
0.345964 0.492009 0.423206
0.374163 0.513184 0.575193
0.337281 0.520346 0.790192
0.172159 0.474920 1.000000
0.000000 0.338350 1.000000
0.000000 0.072094 1.000000
0.435636 0.734668 0.243391
0.374363 0.630086 0.281902
0.369668 0.611805 0.362694
0.379903 0.641774 0.520950
0.354927 0.681959 0.771987
0.236104 0.694340 1.000000
0.000000 0.640916 1.000000
0.000000 0.483700 1.000000
0.000000 0.184722 1.000000
0.643921 0.465734 0.000000
0.594751 0.487015 0.018000
0.581992 0.575365 0.240758
0.560025 0.693306 0.553078
0.474737 0.803375 0.977003
0.263518 0.868123 1.000000
0.000000 0.850122 1.000000
0.000000 0.711956 1.000000
0.000000 0.416228 1.000000
1.000000 0.000000 0.000000
1.000000 0.060838 0.000000
1.000000 0.329058 0.000000
1.000000 0.604482 0.449704
0.864974 0.850219 1.000000
0.552057 1.000000 1.000000
0.002733 1.000000 1.000000
0.000000 1.000000 1.000000
0.000000 0.799045 1.000000
1.000000 0.000000 0.000000
1.000000 0.000000 0.000000
1.000000 0.000000 0.000000
1.000000 0.365128 0.157106
1.000000 0.827232 1.000000
1.000000 1.000000 1.000000
0.563761 1.000000 1.000000
0.000000 1.000000 1.000000
0.000000 1.000000 1.000000
1.000000 0.000000 0.000000
1.000000 0.000000 0.000000
1.000000 0.000000 0.000000
1.000000 0.000000 0.000000
1.000000 0.771103 1.000000
1.000000 1.000000 1.000000
1.000000 1.000000 1.000000
0.453438 1.000000 1.000000
0.000000 1.000000 1.000000
0.371307 0.393968 0.355849
0.282163 0.229352 0.387988
0.318719 0.225997 0.430069
0.451146 0.336084 0.499108
0.641117 0.511811 0.592254
0.841812 0.705393 0.686789
0.997913 0.869061 0.740124
1.000000 0.955062 0.689804
0.912595 0.915658 0.453508
0.419445 0.434076 0.337339
0.329243 0.217616 0.303024
0.356417 0.154644 0.282969
0.467162 0.197912 0.300919
0.619182 0.300191 0.360753
0.761682 0.414267 0.446480
0.835375 0.492942 0.522244
0.772475 0.489035 0.532318
0.496705 0.355381 0.401110
0.438725 0.655120 0.442082
0.346820 0.407217 0.366962
0.360648 0.301301 0.310758
0.442435 0.290698 0.303944
0.545910 0.328750 0.357129
0.616308 0.368815 0.461052
0.590367 0.364268 0.586586
0.396332 0.268498 0.684735
0.000000 0.034912 0.686635
0.458911 0.839555 0.469207
0.365807 0.595519 0.395758
0.363481 0.478245 0.346218
0.410183 0.441631 0.357793
0.455672 0.439590 0.447821
0.441210 0.426053 0.613770
0.299564 0.354964 0.833244
0.000000 0.180287 1.000000
0.000000 0.000000 1.000000
0.541125 0.801788 0.234002
0.448481 0.611841 0.221525
0.428341 0.529706 0.238292
0.434985 0.509852 0.328237
0.414199 0.506764 0.515427
0.303273 0.474943 0.804061
0.031001 0.368907 1.000000
0.000000 0.143190 1.000000
0.000000 0.000000 1.000000
0.777854 0.388175 0.000000
0.688479 0.317453 0.000000
0.650020 0.331866 0.000000
0.612785 0.386455 0.097207
0.518587 0.436276 0.458706
0.300743 0.436403 0.947511
0.000000 0.341925 1.000000
0.000000 0.107948 1.000000
0.000000 0.000000 1.000000
1.000000 0.000000 0.000000
1.000000 0.000000 0.000000
1.000000 0.000000 0.000000
1.000000 0.000000 0.000000
0.897289 0.166083 0.192579
0.563228 0.263300 0.975869
0.000000 0.241797 1.000000
0.000000 0.057251 1.000000
0.000000 0.000000 1.000000
1.000000 0.000000 0.000000
1.000000 0.000000 0.000000
1.000000 0.000000 0.000000
1.000000 0.000000 0.000000
1.000000 0.000000 0.000000
1.000000 0.000000 0.837041
0.509546 0.068255 1.000000
0.000000 0.005742 1.000000
0.000000 0.000000 1.000000
1.000000 0.000000 0.000000
1.000000 0.000000 0.000000
1.000000 0.000000 0.000000
1.000000 0.000000 0.000000
1.000000 0.000000 0.000000
1.000000 0.000000 0.495096
1.000000 0.000000 1.000000
0.289868 0.000014 1.000000
0.000000 0.000000 1.000000
0.468842 0.308851 0.244615
0.389681 0.148343 0.307092
0.461321 0.188776 0.350681
0.649857 0.374851 0.401149
0.912893 0.651286 0.464397
1.000000 0.962818 0.526456
1.000000 1.000000 0.553490
1.000000 1.000000 0.491797
1.000000 1.000000 0.267804
0.493521 0.383387 0.332629
0.404338 0.153963 0.313624
0.456208 0.114262 0.280354
0.611256 0.209556 0.265316
0.823109 0.385136 0.281139
1.000000 0.586307 0.320586
1.000000 0.758393 0.356550
1.000000 0.846732 0.342058
1.000000 0.796680 0.210267
0.500476 0.649615 0.522275
0.400626 0.374759 0.450744
0.428765 0.274681 0.369909
0.543046 0.295225 0.318999
0.693126 0.382253 0.317371
0.820166 0.481645 0.364517
0.856833 0.539293 0.440061
0.727296 0.501108 0.503758
0.347232 0.313017 0.495496
0.516541 0.855159 0.580657
0.406530 0.573265 0.502383
0.408130 0.447478 0.420107
0.475521 0.424215 0.379785
0.554387 0.449910 0.407506
0.581918 0.471011 0.509491
0.486807 0.433987 0.672092
0.189254 0.285317 0.861796
0.000000 0.000000 1.000000
0.599915 0.779592 0.291039
0.481402 0.543967 0.268635
0.454806 0.442052 0.247867
0.470333 0.420837 0.281423
0.469697 0.427326 0.402121
0.386115 0.408541 0.622910
0.144308 0.311520 0.936875
0.000000 0.083317 1.000000
0.000000 0.000000 1.000000
0.840157 0.234443 0.000000
0.715952 0.113304 0.000000
0.660654 0.099753 0.000000
0.620498 0.141351 0.000000
0.533224 0.185674 0.167950
0.328078 0.180317 0.588339
0.000000 0.072889 1.000000
0.000000 0.000000 1.000000
0.000000 0.000000 1.000000
1.000000 0.000000 0.000000
1.000000 0.000000 0.000000
1.000000 0.000000 0.000000
1.000000 0.000000 0.000000
0.870498 0.000000 0.000000
0.534486 0.000000 0.305502
0.000000 0.000000 1.000000
0.000000 0.000000 1.000000
0.000000 0.000000 1.000000
1.000000 0.000000 0.000000
1.000000 0.000000 0.000000
1.000000 0.000000 0.000000
1.000000 0.000000 0.000000
1.000000 0.000000 0.000000
1.000000 0.000000 0.000000
0.403493 0.000000 1.000000
0.000000 0.000000 1.000000
0.000000 0.000000 1.000000
1.000000 0.000000 0.000000
1.000000 0.000000 0.000000
1.000000 0.000000 0.000000
1.000000 0.000000 0.000000
1.000000 0.000000 0.000000
1.000000 0.000000 0.000000
1.000000 0.000000 0.573750
0.061310 0.000000 1.000000
0.000000 0.000000 1.000000
0.570228 0.232793 0.188387
0.510304 0.128745 0.368092
0.629766 0.269706 0.485509
0.890638 0.592898 0.575158
1.000000 1.000000 0.651690
1.000000 1.000000 0.709888
1.000000 1.000000 0.724669
1.000000 1.000000 0.651079
1.000000 1.000000 0.424299
0.574428 0.316557 0.334101
0.495390 0.128422 0.414996
0.584570 0.170632 0.438533
0.800018 0.380980 0.445960
1.000000 0.697277 0.458659
1.000000 1.000000 0.478142
1.000000 1.000000 0.486055
1.000000 1.000000 0.444175
1.000000 1.000000 0.294412
0.567578 0.611667 0.587914
0.468783 0.366011 0.602264
0.523720 0.332309 0.564524
0.686469 0.448928 0.522672
0.902613 0.654249 0.504818
1.000000 0.886670 0.519206
1.000000 1.000000 0.554210
1.000000 1.000000 0.578337
0.915482 1.000000 0.540227
0.573588 0.830914 0.684908
0.455543 0.569214 0.681805
0.473430 0.497354 0.632219
0.577355 0.554269 0.590857
0.708931 0.678914 0.592560
0.801273 0.810259 0.652300
0.779003 0.887290 0.765181
0.558246 0.849009 0.906441
0.046632 0.634434 1.000000
0.647728 0.719041 0.376322
0.512093 0.497687 0.421687
0.491274 0.440331 0.426513
0.531405 0.486481 0.452239
0.570125 0.575662 0.540435
0.536579 0.647417 0.712802
0.351416 0.641302 0.971175
0.000000 0.496893 1.000000
0.000000 0.153778 1.000000
0.876632 0.052741 0.000000
0.726219 0.000000 0.000000
0.666189 0.000000 0.000000
0.638706 0.066993 0.000000
0.577436 0.180834 0.183156
0.407551 0.249395 0.552254
0.045728 0.212807 1.000000
0.000000 0.011215 1.000000
0.000000 0.000000 1.000000
1.000000 0.000000 0.000000
1.000000 0.000000 0.000000
1.000000 0.000000 0.000000
1.000000 0.000000 0.000000
0.853466 0.000000 0.000000
0.537944 0.000000 0.038355
0.000000 0.000000 0.857863
0.000000 0.000000 1.000000
0.000000 0.000000 1.000000
1.000000 0.000000 0.000000
1.000000 0.000000 0.000000
1.000000 0.000000 0.000000
1.000000 0.000000 0.000000
1.000000 0.000000 0.000000
1.000000 0.000000 0.000000
0.331041 0.000000 0.323774
0.000000 0.000000 1.000000
0.000000 0.000000 1.000000
1.000000 0.000000 0.000000
1.000000 0.000000 0.000000
1.000000 0.000000 0.000000
1.000000 0.000000 0.000000
1.000000 0.000000 0.000000
1.000000 0.000000 0.000000
1.000000 0.000000 0.000000
0.000000 0.000000 1.000000
0.000000 0.000000 1.000000
0.665066 0.212610 0.219778
0.636877 0.237639 0.640236
0.820146 0.556134 0.940438
1.000000 1.000000 1.000000
1.000000 1.000000 1.000000
1.000000 1.000000 1.000000
1.000000 1.000000 1.000000
1.000000 1.000000 1.000000
1.000000 1.000000 1.000000
0.661846 0.277650 0.344423
0.605327 0.205320 0.646446
0.747674 0.408346 0.833448
1.000000 0.817041 0.955431
1.000000 1.000000 1.000000
1.000000 1.000000 1.000000
1.000000 1.000000 1.000000
1.000000 1.000000 1.000000
1.000000 1.000000 0.949306
0.649795 0.582585 0.611725
0.564302 0.442545 0.830885
0.661769 0.556025 0.940600
0.892203 0.853912 0.997598
1.000000 1.000000 1.000000
1.000000 1.000000 1.000000
1.000000 1.000000 1.000000
1.000000 1.000000 1.000000
1.000000 1.000000 1.000000
0.649895 0.805376 0.724740
0.535936 0.642186 0.913439
0.585716 0.706956 0.998605
0.745268 0.931143 1.000000
0.952131 1.000000 1.000000
1.000000 1.000000 1.000000
1.000000 1.000000 1.000000
1.000000 1.000000 1.000000
0.706135 1.000000 1.000000
0.714490 0.655933 0.402687
0.573727 0.529067 0.630153
0.574164 0.600873 0.760338
0.657864 0.803380 0.863431
0.758392 1.000000 0.989752
0.800820 1.000000 1.000000
0.701724 1.000000 1.000000
0.369185 1.000000 1.000000
0.000000 1.000000 1.000000
0.927286 0.000000 0.000000
0.762531 0.000000 0.000000
0.713124 0.009462 0.000000
0.717152 0.257223 0.242657
0.704212 0.535861 0.533762
0.595401 0.778010 0.905329
0.303323 0.916318 1.000000
0.000000 0.883452 1.000000
0.000000 0.612095 1.000000
1.000000 0.000000 0.000000
1.000000 0.000000 0.000000
1.000000 0.000000 0.000000
1.000000 0.000000 0.000000
0.909266 0.000000 0.000000
0.639919 0.000000 0.210557
0.142246 0.000000 1.000000
0.000000 0.000000 1.000000
0.000000 0.000000 1.000000
1.000000 0.000000 0.000000
1.000000 0.000000 0.000000
1.000000 0.000000 0.000000
1.000000 0.000000 0.000000
1.000000 0.000000 0.000000
1.000000 0.000000 0.000000
0.371836 0.000000 0.187326
0.000000 0.000000 1.000000
0.000000 0.000000 1.000000
1.000000 0.000000 0.000000
1.000000 0.000000 0.000000
1.000000 0.000000 0.000000
1.000000 0.000000 0.000000
1.000000 0.000000 0.000000
1.000000 0.000000 0.000000
1.000000 0.000000 0.000000
0.000000 0.000000 0.850135
0.000000 0.000000 1.000000
0.737161 0.279961 0.322416
0.756452 0.526950 1.000000
1.000000 1.000000 1.000000
1.000000 1.000000 1.000000
1.000000 1.000000 1.000000
1.000000 1.000000 1.000000
1.000000 1.000000 1.000000
1.000000 1.000000 1.000000
1.000000 1.000000 1.000000
0.749664 0.295570 0.317279
0.731280 0.433827 0.998293
0.945900 0.896839 1.000000
1.000000 1.000000 1.000000
1.000000 1.000000 1.000000
1.000000 1.000000 1.000000
1.000000 1.000000 1.000000
1.000000 1.000000 1.000000
1.000000 1.000000 1.000000
0.751096 0.588522 0.517445
0.694395 0.650779 1.000000
0.853370 1.000000 1.000000
1.000000 1.000000 1.000000
1.000000 1.000000 1.000000
1.000000 1.000000 1.000000
1.000000 1.000000 1.000000
1.000000 1.000000 1.000000
1.000000 1.000000 1.000000
0.759512 0.801942 0.593949
0.665005 0.835844 1.000000
0.765529 1.000000 1.000000
1.000000 1.000000 1.000000
1.000000 1.000000 1.000000
1.000000 1.000000 1.000000
1.000000 1.000000 1.000000
1.000000 1.000000 1.000000
1.000000 1.000000 1.000000
0.824331 0.610913 0.233984
0.693679 0.679015 0.794521
0.734098 0.984853 1.000000
0.883577 1.000000 1.000000
1.000000 1.000000 1.000000
1.000000 1.000000 1.000000
1.000000 1.000000 1.000000
1.000000 1.000000 1.000000
0.501822 1.000000 1.000000
1.000000 0.000000 0.000000
0.862349 0.000000 0.000000
0.842161 0.283282 0.332550
0.899787 0.790727 0.771497
0.960746 1.000000 1.000000
0.942067 1.000000 1.000000
0.752278 1.000000 1.000000
0.291415 1.000000 1.000000
0.000000 1.000000 1.000000
1.000000 0.000000 0.000000
1.000000 0.000000 0.000000
1.000000 0.000000 0.000000
1.000000 0.000000 0.000000
1.000000 0.080192 0.053176
0.900933 0.662600 0.809253
0.489101 1.000000 1.000000
0.000000 1.000000 1.000000
0.000000 1.000000 1.000000
1.000000 0.000000 0.000000
1.000000 0.000000 0.000000
1.000000 0.000000 0.000000
1.000000 0.000000 0.000000
1.000000 0.000000 0.000000
1.000000 0.000000 0.000000
0.599726 0.000000 0.596939
0.000000 0.000000 1.000000
0.000000 0.000000 1.000000
1.000000 0.000000 0.000000
1.000000 0.000000 0.000000
1.000000 0.000000 0.000000
1.000000 0.000000 0.000000
1.000000 0.000000 0.000000
1.000000 0.000000 0.000000
1.000000 0.000000 0.000000
0.000000 0.000000 0.936914
0.000000 0.000000 1.000000
0.764524 0.451349 0.430946
0.850285 1.000000 1.000000
1.000000 1.000000 1.000000
1.000000 1.000000 1.000000
1.000000 1.000000 1.000000
1.000000 1.000000 1.000000
1.000000 1.000000 1.000000
1.000000 1.000000 1.000000
1.000000 1.000000 1.000000
0.825973 0.384067 0.157368
0.864588 0.847957 1.000000
1.000000 1.000000 1.000000
1.000000 1.000000 1.000000
1.000000 1.000000 1.000000
1.000000 1.000000 1.000000
1.000000 1.000000 1.000000
1.000000 1.000000 1.000000
1.000000 1.000000 1.000000
0.869653 0.640469 0.179831
0.860483 1.000000 1.000000
1.000000 1.000000 1.000000
1.000000 1.000000 1.000000
1.000000 1.000000 1.000000
1.000000 1.000000 1.000000
1.000000 1.000000 1.000000
1.000000 1.000000 1.000000
1.000000 1.000000 1.000000
0.910695 0.828854 0.137345
0.854249 1.000000 1.000000
1.000000 1.000000 1.000000
1.000000 1.000000 1.000000
1.000000 1.000000 1.000000
1.000000 1.000000 1.000000
1.000000 1.000000 1.000000
1.000000 1.000000 1.000000
1.000000 1.000000 1.000000
0.995589 0.589467 0.000000
0.893531 0.973283 0.766294
0.995903 1.000000 1.000000
1.000000 1.000000 1.000000
1.000000 1.000000 1.000000
1.000000 1.000000 1.000000
1.000000 1.000000 1.000000
1.000000 1.000000 1.000000
1.000000 1.000000 1.000000
1.000000 0.000000 0.000000
1.000000 0.092853 0.000000
1.000000 0.832480 0.619815
1.000000 1.000000 1.000000
1.000000 1.000000 1.000000
1.000000 1.000000 1.000000
1.000000 1.000000 1.000000
1.000000 1.000000 1.000000
0.446021 1.000000 1.000000
1.000000 0.000000 0.000000
1.000000 0.000000 0.000000
1.000000 0.000000 0.000000
1.000000 0.184307 0.000000
1.000000 1.000000 0.803081
1.000000 1.000000 1.000000
1.000000 1.000000 1.000000
0.483682 1.000000 1.000000
0.000000 1.000000 1.000000
1.000000 0.000000 0.000000
1.000000 0.000000 0.000000
1.000000 0.000000 0.000000
1.000000 0.000000 0.000000
1.000000 0.000000 0.000000
1.000000 0.020831 0.034603
1.000000 0.989024 1.000000
0.175796 1.000000 1.000000
0.000000 1.000000 1.000000
1.000000 0.000000 0.000000
1.000000 0.000000 0.000000
1.000000 0.000000 0.000000
1.000000 0.000000 0.000000
1.000000 0.000000 0.000000
1.000000 0.000000 0.000000
1.000000 0.000000 0.000000
0.385616 0.000000 1.000000
0.000000 0.000000 1.000000
