public/luts/pro_neg_std.cube
# Generated from ColorChecker fit
LUT_3D_SIZE 5
DOMAIN_MIN 0.0 0.0 0.0
DOMAIN_MAX 1.0 1.0 1.0
0.142133 0.026515 0.042013
0.000000 0.000000 0.400456
0.000000 0.000000 0.696956
0.000000 0.000000 0.000000
0.000000 0.000000 0.000000
0.000000 0.000000 0.232962
0.000000 0.230725 0.639564
0.000000 0.327927 0.785092
0.000000 0.000000 0.000000
0.000000 0.000000 0.000000
0.396397 0.000000 0.529953
0.668756 0.580308 0.977690
0.017385 0.566329 0.872075
0.000000 0.000000 0.000000
0.000000 0.000000 0.000000
1.000000 0.117889 1.000000
1.000000 1.000000 1.000000
1.000000 1.000000 1.000000
0.000000 0.000000 0.141904
0.000000 0.000000 0.000000
1.000000 1.000000 1.000000
1.000000 1.000000 1.000000
1.000000 1.000000 1.000000
1.000000 0.000000 1.000000
0.000000 0.000000 0.000000
0.928583 0.697896 0.252804
0.187769 0.000000 0.000000
0.280752 0.000000 0.222215
0.872357 0.000000 0.178743
1.000000 0.361439 0.000000
0.408425 0.524216 0.323286
0.279739 0.348361 0.316928
0.491270 0.325659 0.624684
0.451126 0.000000 0.427777
0.000000 0.000000 0.000000
0.405870 0.310220 0.284911
0.524737 0.823374 0.467378
0.314500 0.755517 0.684555
0.000000 0.000000 0.077627
0.000000 0.000000 0.000000
1.000000 0.981653 1.000000
1.000000 1.000000 1.000000
1.000000 1.000000 1.000000
0.000000 0.000000 0.928761
0.000000 0.000000 0.000000
1.000000 1.000000 1.000000
1.000000 1.000000 1.000000
1.000000 1.000000 1.000000
1.000000 0.844653 1.000000
0.000000 0.000000 0.656568
1.000000 1.000000 0.426332
0.241221 0.000000 0.000000
0.151493 0.000000 0.000000
1.000000 0.504754 0.311137
1.000000 1.000000 0.436892
1.000000 0.983233 0.530515
0.525024 0.227772 0.296352
0.767804 0.159990 0.578298
1.000000 0.521920 1.000000
1.000000 0.972716 0.867616
0.575386 0.741938 0.241510
0.451947 0.650480 0.255532
0.469699 0.548581 0.519130
0.236019 0.000000 0.616298
0.000000 0.000000 0.000000
1.000000 1.000000 1.000000
1.000000 1.000000 1.000000
1.000000 1.000000 1.000000
0.000000 0.000000 0.838455
0.000000 0.000000 0.000000
1.000000 1.000000 1.000000
1.000000 1.000000 1.000000
1.000000 1.000000 1.000000
1.000000 0.823428 1.000000
0.000000 0.000000 1.000000
1.000000 1.000000 0.000000
0.000000 0.000000 0.000000
0.000000 0.000000 0.000000
1.000000 1.000000 0.000000
1.000000 1.000000 0.902259
1.000000 1.000000 0.110213
0.713164 0.295486 0.127078
0.995798 0.652250 0.488851
1.000000 1.000000 1.000000
1.000000 1.000000 1.000000
0.914057 0.908358 0.115488
0.728292 0.573002 0.351563
1.000000 0.851697 0.678888
1.000000 1.000000 1.000000
1.000000 1.000000 1.000000
1.000000 1.000000 1.000000
1.000000 1.000000 1.000000
1.000000 1.000000 1.000000
0.701094 0.706501 0.927926
0.000000 0.000000 0.026353
1.000000 1.000000 1.000000
1.000000 1.000000 1.000000
1.000000 1.000000 1.000000
1.000000 1.000000 1.000000
0.000000 0.000000 0.822647
0.000000 0.188161 0.000000
0.000000 0.000000 0.000000
0.000000 1.000000 0.000000
0.000000 1.000000 0.000000
1.000000 1.000000 0.000000
0.738892 0.424641 0.000000
0.019229 0.151874 0.000000
0.619118 1.000000 0.000000
1.000000 1.000000 0.962905
1.000000 1.000000 1.000000
0.624460 0.099897 0.000000
0.825144 0.276156 0.377458
1.000000 1.000000 1.000000
1.000000 1.000000 1.000000
1.000000 1.000000 1.000000
1.000000 0.000000 0.911294
1.000000 0.459735 1.000000
1.000000 1.000000 1.000000
1.000000 1.000000 1.000000
1.000000 1.000000 1.000000
1.000000 0.731218 1.000000
1.000000 1.000000 1.000000
1.000000 1.000000 1.000000
1.000000 1.000000 1.000000
0.938496 0.561845 1.000000
