public/luts/pro_neg_std.cube
# Generated from ColorChecker fit
LUT_3D_SIZE 9
DOMAIN_MIN 0.0 0.0 0.0
DOMAIN_MAX 1.0 1.0 1.0
0.142133 0.026515 0.042013
0.000000 0.000000 0.165092
0.000000 0.000000 0.400456
0.000000 0.000000 0.625318
0.000000 0.000000 0.696956
0.000000 0.000000 0.452707
0.000000 0.000000 0.000000
0.000000 0.000000 0.000000
0.000000 0.000000 0.000000
0.016637 0.000000 0.203524
0.000000 0.000000 0.347740
0.000000 0.071579 0.584761
0.027419 0.162460 0.789301
0.000000 0.169095 0.816133
0.000000 0.000289 0.500092
0.000000 0.000000 0.000000
0.000000 0.000000 0.000000
0.000000 0.000000 0.000000
0.000000 0.000000 0.232962
0.000000 0.010424 0.402510
0.000000 0.230725 0.639564
0.045536 0.370458 0.816334
0.000000 0.327927 0.785092
0.000000 0.000000 0.378170
0.000000 0.000000 0.000000
0.000000 0.000000 0.000000
0.000000 0.000000 0.000000
0.000000 0.000000 0.269997
0.000000 0.014508 0.466910
0.119647 0.361157 0.700208
0.109980 0.535609 0.839598
0.000000 0.420485 0.734849
0.000000 0.000000 0.215792
0.000000 0.000000 0.000000
0.000000 0.000000 0.000000
0.000000 0.000000 0.000000
0.396397 0.000000 0.529953
0.574953 0.111087 0.754101
0.668756 0.580308 0.977690
0.535006 0.776409 1.000000
0.017385 0.566329 0.872075
0.000000 0.000000 0.217466
0.000000 0.000000 0.000000
0.000000 0.000000 0.000000
0.000000 0.000000 0.000000
1.000000 0.000000 1.000000
1.000000 0.440844 1.000000
1.000000 1.000000 1.000000
1.000000 1.000000 1.000000
0.890103 0.909335 1.000000
0.000000 0.000000 0.663351
0.000000 0.000000 0.000000
0.000000 0.000000 0.000000
0.000000 0.000000 0.000000
1.000000 0.117889 1.000000
1.000000 1.000000 1.000000
1.000000 1.000000 1.000000
1.000000 1.000000 1.000000
1.000000 1.000000 1.000000
0.860922 0.317987 1.000000
0.000000 0.000000 0.141904
0.000000 0.000000 0.000000
0.000000 0.000000 0.000000
1.000000 1.000000 1.000000
1.000000 1.000000 1.000000
1.000000 1.000000 1.000000
1.000000 1.000000 1.000000
1.000000 1.000000 1.000000
1.000000 1.000000 1.000000
0.045930 0.000000 1.000000
0.000000 0.000000 0.000000
0.000000 0.000000 0.000000
1.000000 1.000000 1.000000
1.000000 1.000000 1.000000
1.000000 1.000000 1.000000
1.000000 1.000000 1.000000
1.000000 1.000000 1.000000
1.000000 1.000000 1.000000
1.000000 0.000000 1.000000
0.000000 0.000000 1.000000
0.000000 0.000000 0.000000
0.545274 0.422100 0.091912
0.204270 0.063772 0.023957
0.059654 0.000000 0.122562
0.061302 0.000000 0.292618
0.145579 0.000000 0.419076
0.235329 0.000000 0.366950
0.239881 0.000000 0.000000
0.055048 0.000000 0.000000
0.000000 0.000000 0.000000
0.371938 0.378888 0.236620
0.204666 0.220865 0.220507
0.192401 0.183571 0.352280
0.268975 0.204182 0.534328
0.354708 0.214694 0.649100
0.356398 0.141923 0.559106
0.167330 0.000000 0.106919
0.000000 0.000000 0.000000
0.000000 0.000000 0.000000
0.125990 0.231790 0.232118
0.098134 0.276856 0.268088
0.172920 0.378251 0.427450
0.268137 0.457469 0.610088
0.288057 0.430823 0.695951
0.123435 0.209446 0.545046
0.000000 0.000000 0.000000
0.000000 0.000000 0.000000
0.000000 0.000000 0.000000
0.035457 0.065922 0.210520
0.108013 0.317925 0.296652
0.219863 0.552564 0.475859
0.272750 0.675649 0.645523
0.154902 0.587811 0.683090
0.000000 0.184502 0.446064
0.000000 0.000000 0.000000
0.000000 0.000000 0.000000
0.000000 0.000000 0.000000
0.413203 0.000000 0.379595
0.542479 0.454569 0.511804
0.636717 0.818069 0.700948
0.581616 0.971345 0.841910
0.249356 0.799346 0.809630
0.000000 0.181841 0.459113
0.000000 0.000000 0.000000
0.000000 0.000000 0.000000
0.000000 0.000000 0.000000
1.000000 0.139922 1.000000
1.000000 0.821599 1.000000
1.000000 1.000000 1.000000
1.000000 1.000000 1.000000
0.950369 1.000000 1.000000
0.000000 0.340530 0.856797
0.000000 0.000000 0.000000
0.000000 0.000000 0.000000
0.000000 0.000000 0.000000
1.000000 0.671605 1.000000
1.000000 1.000000 1.000000
1.000000 1.000000 1.000000
1.000000 1.000000 1.000000
1.000000 1.000000 1.000000
1.000000 0.823952 1.000000
0.000000 0.000000 0.726170
0.000000 0.000000 0.000000
0.000000 0.000000 0.000000
1.000000 1.000000 1.000000
1.000000 1.000000 1.000000
1.000000 1.000000 1.000000
1.000000 1.000000 1.000000
1.000000 1.000000 1.000000
1.000000 1.000000 1.000000
0.389205 0.000000 1.000000
0.000000 0.000000 0.359019
0.000000 0.000000 0.000000
1.000000 1.000000 1.000000
1.000000 1.000000 1.000000
1.000000 1.000000 1.000000
1.000000 1.000000 1.000000
1.000000 1.000000 1.000000
1.000000 1.000000 1.000000
1.000000 0.517728 1.000000
0.000000 0.000000 1.000000
0.000000 0.000000 0.000000
0.928583 0.697896 0.252804
0.441451 0.152303 0.021308
0.187769 0.000000 0.000000
0.145916 0.000000 0.083417
0.280752 0.000000 0.222215
0.543623 0.000000 0.296408
0.872357 0.000000 0.178743
1.000000 0.194529 0.000000
1.000000 0.361439 0.000000
0.720694 0.658757 0.373388
0.427117 0.315888 0.218919
0.326829 0.135245 0.244092
0.382163 0.072016 0.378972
0.541938 0.076205 0.533683
0.741452 0.092639 0.598411
0.902489 0.060966 0.443403
0.933315 0.000000 0.000000
0.728681 0.000000 0.000000
0.408425 0.524216 0.323286
0.273009 0.386249 0.242131
0.279739 0.348361 0.316928
0.374902 0.350056 0.475238
0.491270 0.325659 0.624684
0.548099 0.204311 0.652948
0.451126 0.000000 0.427777
0.092573 0.000000 0.000000
0.000000 0.000000 0.000000
0.204347 0.373517 0.227056
0.187013 0.443694 0.213339
0.249697 0.542508 0.326061
0.322641 0.593783 0.490282
0.322571 0.516158 0.611122
0.152699 0.223095 0.573760
0.000000 0.000000 0.243441
0.000000 0.000000 0.000000
0.000000 0.000000 0.000000
0.405870 0.310220 0.284911
0.461851 0.592846 0.330592
0.524737 0.823374 0.467378
0.508727 0.909945 0.617827
0.314500 0.755517 0.684555
0.000000 0.257868 0.550242
0.000000 0.000000 0.077627
0.000000 0.000000 0.000000
0.000000 0.000000 0.000000
1.000000 0.462202 0.772718
1.000000 0.962645 0.867594
1.000000 1.000000 1.000000
1.000000 1.000000 1.000000
0.830553 1.000000 1.000000
0.000000 0.441826 0.847443
0.000000 0.000000 0.193221
0.000000 0.000000 0.000000
0.000000 0.000000 0.000000
1.000000 0.981653 1.000000
1.000000 1.000000 1.000000
1.000000 1.000000 1.000000
1.000000 1.000000 1.000000
1.000000 1.000000 1.000000
0.918115 0.932479 1.000000
0.000000 0.000000 0.928761
0.000000 0.000000 0.000000
0.000000 0.000000 0.000000
1.000000 1.000000 1.000000
1.000000 1.000000 1.000000
1.000000 1.000000 1.000000
1.000000 1.000000 1.000000
1.000000 1.000000 1.000000
1.000000 1.000000 1.000000
0.396836 0.000000 1.000000
0.000000 0.000000 0.880449
0.000000 0.000000 0.000000
1.000000 1.000000 1.000000
1.000000 1.000000 1.000000
1.000000 1.000000 1.000000
1.000000 1.000000 1.000000
1.000000 1.000000 1.000000
1.000000 1.000000 1.000000
1.000000 0.844653 1.000000
0.000000 0.000000 1.000000
0.000000 0.000000 0.656568
1.000000 0.924715 0.410434
0.642498 0.199659 0.061245
0.253003 0.000000 0.000000
0.133128 0.000000 0.000000
0.276234 0.000000 0.065538
0.662166 0.000000 0.218599
1.000000 0.139677 0.298131
1.000000 0.690374 0.184621
1.000000 1.000000 0.000000
1.000000 0.891675 0.528335
0.648179 0.368324 0.275837
0.436061 0.052068 0.211414
0.438577 0.000000 0.292804
0.633044 0.000000 0.457807
0.983262 0.051929 0.624286
1.000000 0.244215 0.690162
1.000000 0.457777 0.533420
1.000000 0.639913 0.012103
0.727738 0.764769 0.449734
0.471666 0.444697 0.286260
0.389472 0.271824 0.287975
0.455943 0.203665 0.410114
0.632351 0.192553 0.587975
0.866451 0.185644 0.736919
1.000000 0.124910 0.752364
1.000000 0.000000 0.509792
1.000000 0.000000 0.000000
0.422770 0.617370 0.291634
0.305390 0.503211 0.207353
0.300980 0.467062 0.259553
0.368283 0.450757 0.400967
0.452524 0.390946 0.564391
0.485413 0.219101 0.662682
0.385143 0.000000 0.588757
0.056389 0.000000 0.215595
0.000000 0.000000 0.000000
0.451150 0.547165 0.246691
0.426619 0.642617 0.229609
0.443167 0.737598 0.314478
0.443489 0.758258 0.451530
0.356767 0.625565 0.571057
0.098666 0.255309 0.583415
0.000000 0.000000 0.379018
0.000000 0.000000 0.000000
0.000000 0.000000 0.000000
1.000000 0.676156 0.583218
1.000000 0.985983 0.619176
1.000000 1.000000 0.716735
1.000000 1.000000 0.823623
0.693124 1.000000 0.867631
0.049566 0.421587 0.756611
0.000000 0.000000 0.378476
0.000000 0.000000 0.000000
0.000000 0.000000 0.000000
1.000000 1.000000 1.000000
1.000000 1.000000 1.000000
1.000000 1.000000 1.000000
1.000000 1.000000 1.000000
1.000000 1.000000 1.000000
0.766304 0.869574 1.000000
0.000000 0.000000 0.918115
0.000000 0.000000 0.000000
0.000000 0.000000 0.000000
1.000000 1.000000 1.000000
1.000000 1.000000 1.000000
1.000000 1.000000 1.000000
1.000000 1.000000 1.000000
1.000000 1.000000 1.000000
1.000000 1.000000 1.000000
0.301928 0.000000 1.000000
0.000000 0.000000 1.000000
0.000000 0.000000 0.000000
1.000000 1.000000 1.000000
1.000000 1.000000 1.000000
1.000000 1.000000 1.000000
1.000000 1.000000 1.000000
1.000000 1.000000 1.000000
1.000000 1.000000 1.000000
1.000000 0.876669 1.000000
0.000000 0.000000 1.000000
0.000000 0.000000 1.000000
1.000000 1.000000 0.426332
0.776478 0.249692 0.023654
0.241221 0.000000 0.000000
0.025606 0.000000 0.000000
0.151493 0.000000 0.000000
0.627226 0.000000 0.086828
1.000000 0.504754 0.311137
1.000000 1.000000 0.465084
1.000000 1.000000 0.436892
1.000000 1.000000 0.591752
0.855440 0.427330 0.299908
0.524482 0.007869 0.181246
0.459401 0.000000 0.221179
0.666012 0.000000 0.385183
1.000000 0.167648 0.618797
1.000000 0.629783 0.847616
1.000000 1.000000 0.977301
1.000000 1.000000 0.893572
1.000000 0.983233 0.530515
0.700211 0.506657 0.337884
0.525024 0.227772 0.296352
0.550965 0.122102 0.388833
0.767804 0.159990 0.578298
1.000000 0.306601 0.807783
1.000000 0.521920 1.000000
1.000000 0.760751 1.000000
1.000000 0.972716 0.867616
0.698551 0.832567 0.352067
0.487768 0.556237 0.244863
0.415137 0.410662 0.260856
0.467900 0.355683 0.380455
0.619782 0.345963 0.564131
0.830993 0.330983 0.752416
1.000000 0.255045 0.865904
1.000000 0.057270 0.805247
1.000000 0.000000 0.451163
0.575386 0.741938 0.241510
0.479927 0.668947 0.203785
0.451947 0.650480 0.255532
0.462645 0.630699 0.374657
0.469699 0.548581 0.519130
0.417275 0.337926 0.626980
0.236019 0.000000 0.616298
0.000000 0.000000 0.385235
0.000000 0.000000 0.000000
1.000000 0.827479 0.459599
1.000000 0.961981 0.473240
0.977420 1.000000 0.536806
0.872476 1.000000 0.625703
0.650144 0.888228 0.695395
0.238541 0.448880 0.681411
0.000000 0.000000 0.499339
0.000000 0.000000 0.044828
0.000000 0.000000 0.000000
1.000000 1.000000 1.000000
1.000000 1.000000 1.000000
1.000000 1.000000 1.000000
1.000000 1.000000 1.000000
1.000000 1.000000 1.000000
0.707529 0.809608 1.000000
0.000000 0.000000 0.838455
0.000000 0.000000 0.105290
0.000000 0.000000 0.000000
1.000000 1.000000 1.000000
1.000000 1.000000 1.000000
1.000000 1.000000 1.000000
1.000000 1.000000 1.000000
1.000000 1.000000 1.000000
1.000000 1.000000 1.000000
0.287181 0.000000 1.000000
0.000000 0.000000 0.963541
0.000000 0.000000 0.000000
1.000000 1.000000 1.000000
1.000000 1.000000 1.000000
1.000000 1.000000 1.000000
1.000000 1.000000 1.000000
1.000000 1.000000 1.000000
1.000000 1.000000 1.000000
1.000000 0.823428 1.000000
0.000000 0.000000 1.000000
0.000000 0.000000 1.000000
1.000000 1.000000 0.137817
0.762049 0.294620 0.000000
0.087882 0.000000 0.000000
0.000000 0.000000 0.000000
0.000000 0.000000 0.000000
0.424658 0.200544 0.000000
1.000000 1.000000 0.165207
1.000000 1.000000 0.529221
1.000000 1.000000 0.838126
1.000000 1.000000 0.429717
0.986076 0.490425 0.175564
0.546071 0.024845 0.056375
0.415414 0.000000 0.085239
0.628418 0.046193 0.255308
1.000000 0.536016 0.539794
1.000000 1.000000 0.891971
1.000000 1.000000 1.000000
1.000000 1.000000 1.000000
1.000000 1.000000 0.460466
0.914339 0.574955 0.310194
0.658893 0.243705 0.273609
0.649264 0.157541 0.361297
0.903724 0.304818 0.563909
1.000000 0.668709 0.852153
1.000000 1.000000 1.000000
1.000000 1.000000 1.000000
1.000000 1.000000 1.000000
0.989106 1.000000 0.331954
0.708363 0.610900 0.267824
0.583182 0.406109 0.290280
0.629307 0.366038 0.407410
0.848961 0.463360 0.607360
1.000000 0.665567 0.858336
1.000000 0.934970 1.000000
1.000000 1.000000 1.000000
1.000000 1.000000 1.000000
0.754513 0.883296 0.221727
0.614508 0.685265 0.223834
0.560614 0.600125 0.279608
0.592528 0.590046 0.394633
0.696430 0.612018 0.554552
0.844983 0.617851 0.725070
0.997334 0.554173 0.851955
1.000000 0.362434 0.861032
1.000000 0.000000 0.658190
1.000000 0.910227 0.382984
0.963973 0.909372 0.429261
0.917698 0.938139 0.490464
0.860750 0.943014 0.569673
0.763264 0.865304 0.650030
0.581857 0.641136 0.694738
0.259632 0.201458 0.647059
0.000000 0.000000 0.430320
0.000000 0.000000 0.000000
1.000000 1.000000 1.000000
1.000000 1.000000 1.000000
1.000000 1.000000 1.000000
1.000000 1.000000 1.000000
1.000000 1.000000 1.000000
0.838763 0.875316 1.000000
0.000000 0.017781 0.809794
0.000000 0.000000 0.308078
0.000000 0.000000 0.000000
1.000000 1.000000 1.000000
1.000000 1.000000 1.000000
1.000000 1.000000 1.000000
1.000000 1.000000 1.000000
1.000000 1.000000 1.000000
1.000000 1.000000 1.000000
0.484883 0.168414 1.000000
0.000000 0.000000 0.883669
0.000000 0.000000 0.000000
1.000000 1.000000 1.000000
1.000000 1.000000 1.000000
1.000000 1.000000 1.000000
1.000000 1.000000 1.000000
1.000000 1.000000 1.000000
1.000000 1.000000 1.000000
1.000000 0.842946 1.000000
0.000000 0.000000 1.000000
0.000000 0.000000 0.902432
1.000000 1.000000 0.000000
0.467463 0.275026 0.000000
0.000000 0.000000 0.000000
0.000000 0.000000 0.000000
0.000000 0.000000 0.000000
0.000000 0.856266 0.000000
1.000000 1.000000 0.000000
1.000000 1.000000 0.318616
1.000000 1.000000 0.902259
1.000000 1.000000 0.000000
0.926857 0.503495 0.000000
0.404396 0.073555 0.000000
0.226983 0.032761 0.000000
0.457431 0.403159 0.000000
1.000000 1.000000 0.320916
1.000000 1.000000 0.775219
1.000000 1.000000 1.000000
1.000000 1.000000 1.000000
1.000000 1.000000 0.110213
1.000000 0.600778 0.092171
0.713164 0.295486 0.127078
0.689727 0.310522 0.253196
0.995798 0.652250 0.488851
1.000000 1.000000 0.832427
1.000000 1.000000 1.000000
1.000000 1.000000 1.000000
1.000000 1.000000 1.000000
1.000000 1.000000 0.130681
0.890981 0.623690 0.193973
0.745723 0.434570 0.283920
0.809910 0.487664 0.436282
1.000000 0.773654 0.666881
1.000000 1.000000 0.971600
1.000000 1.000000 1.000000
1.000000 1.000000 1.000000
1.000000 1.000000 1.000000
0.914057 0.908358 0.115488
0.772688 0.653366 0.236256
0.728292 0.573002 0.351563
0.809064 0.647446 0.494667
1.000000 0.851697 0.678888
1.000000 1.000000 0.897606
1.000000 1.000000 1.000000
1.000000 1.000000 1.000000
1.000000 1.000000 1.000000
1.000000 0.866822 0.310278
0.980207 0.795253 0.462500
0.971928 0.817295 0.571324
0.993557 0.897444 0.667506
1.000000 0.995018 0.761862
1.000000 1.000000 0.845271
1.000000 1.000000 0.888672
1.000000 0.907763 0.843065
1.000000 0.564608 0.639512
1.000000 1.000000 1.000000
1.000000 1.000000 1.000000
1.000000 1.000000 1.000000
1.000000 1.000000 1.000000
1.000000 1.000000 1.000000
1.000000 1.000000 1.000000
0.701094 0.706501 0.927926
0.000000 0.000000 0.585499
0.000000 0.000000 0.026353
1.000000 1.000000 1.000000
1.000000 1.000000 1.000000
1.000000 1.000000 1.000000
1.000000 1.000000 1.000000
1.000000 1.000000 1.000000
1.000000 1.000000 1.000000
0.976916 0.641194 1.000000
0.000000 0.000000 0.921471
0.000000 0.000000 0.000000
1.000000 1.000000 1.000000
1.000000 1.000000 1.000000
1.000000 1.000000 1.000000
1.000000 1.000000 1.000000
1.000000 1.000000 1.000000
1.000000 1.000000 1.000000
1.000000 1.000000 1.000000
0.000000 0.000000 1.000000
0.000000 0.000000 0.822647
0.877003 0.951257 0.000000
0.000000 0.079857 0.000000
0.000000 0.000000 0.000000
0.000000 0.000000 0.000000
0.000000 0.475295 0.000000
0.000000 1.000000 0.000000
0.626210 1.000000 0.000000
1.000000 1.000000 0.000000
1.000000 1.000000 0.565017
1.000000 1.000000 0.000000
0.514145 0.360792 0.000000
0.000000 0.072926 0.000000
0.000000 0.250565 0.000000
0.039810 0.933766 0.000000
0.857641 1.000000 0.000000
1.000000 1.000000 0.425136
1.000000 1.000000 1.000000
1.000000 1.000000 1.000000
1.000000 1.000000 0.000000
0.870093 0.483680 0.000000
0.559519 0.307345 0.000000
0.560834 0.529948 0.000000
0.949306 1.000000 0.272953
1.000000 1.000000 0.686788
1.000000 1.000000 1.000000
1.000000 1.000000 1.000000
1.000000 1.000000 1.000000
1.000000 0.882561 0.000000
0.909022 0.499466 0.000000
0.792957 0.425577 0.153654
0.916708 0.674766 0.397304
1.000000 1.000000 0.691284
1.000000 1.000000 1.000000
1.000000 1.000000 1.000000
1.000000 1.000000 1.000000
1.000000 1.000000 1.000000
0.929136 0.702608 0.000000
0.846386 0.483410 0.163339
0.863699 0.503946 0.412038
1.000000 0.762406 0.633756
1.000000 1.000000 0.869489
1.000000 1.000000 1.000000
1.000000 1.000000 1.000000
1.000000 1.000000 1.000000
1.000000 1.000000 1.000000
0.919673 0.588054 0.174174
0.982477 0.535088 0.524005
1.000000 0.643091 0.748789
1.000000 0.894572 0.906957
1.000000 1.000000 1.000000
1.000000 1.000000 1.000000
1.000000 1.000000 1.000000
1.000000 1.000000 1.000000
1.000000 1.000000 1.000000
1.000000 0.661726 0.979507
1.000000 0.778392 1.000000
1.000000 0.967970 1.000000
1.000000 1.000000 1.000000
1.000000 1.000000 1.000000
1.000000 1.000000 1.000000
1.000000 1.000000 1.000000
1.000000 1.000000 1.000000
1.000000 1.000000 0.659037
1.000000 1.000000 1.000000
1.000000 1.000000 1.000000
1.000000 1.000000 1.000000
1.000000 1.000000 1.000000
1.000000 1.000000 1.000000
1.000000 1.000000 1.000000
1.000000 1.000000 1.000000
0.822215 0.701528 1.000000
0.000000 0.000000 0.379985
1.000000 1.000000 1.000000
1.000000 1.000000 1.000000
1.000000 1.000000 1.000000
1.000000 1.000000 1.000000
1.000000 1.000000 1.000000
1.000000 1.000000 1.000000
1.000000 1.000000 1.000000
1.000000 0.086309 1.000000
0.000000 0.000000 0.958525
0.000000 0.188161 0.000000
0.000000 0.000000 0.000000
0.000000 0.000000 0.000000
0.000000 0.000000 0.000000
0.000000 1.000000 0.000000
0.000000 1.000000 0.000000
0.000000 1.000000 0.000000
1.000000 1.000000 0.000000
1.000000 1.000000 0.000000
0.334098 0.401597 0.000000
0.000000 0.000000 0.000000
0.000000 0.000000 0.000000
0.000000 0.420801 0.000000
0.000000 1.000000 0.000000
0.196840 1.000000 0.000000
1.000000 1.000000 0.000000
1.000000 1.000000 0.575122
1.000000 1.000000 1.000000
0.738892 0.424641 0.000000
0.271070 0.071580 0.000000
0.019229 0.151874 0.000000
0.100655 0.713089 0.000000
0.619118 1.000000 0.000000
1.000000 1.000000 0.329206
1.000000 1.000000 0.962905
1.000000 1.000000 1.000000
1.000000 1.000000 1.000000
0.767450 0.301299 0.000000
0.585476 0.091448 0.000000
0.564676 0.257026 0.000000
0.806291 0.829918 0.196498
1.000000 1.000000 0.604944
1.000000 1.000000 1.000000
1.000000 1.000000 1.000000
1.000000 1.000000 1.000000
1.000000 1.000000 1.000000
0.624460 0.099897 0.000000
0.677111 0.033921 0.000000
0.825144 0.276156 0.377458
1.000000 0.842804 0.746681
1.000000 1.000000 1.000000
1.000000 1.000000 1.000000
1.000000 1.000000 1.000000
1.000000 1.000000 1.000000
1.000000 1.000000 1.000000
0.599449 0.000000 0.000000
0.830813 0.000000 0.540608
1.000000 0.304032 0.968045
1.000000 0.847577 1.000000
1.000000 1.000000 1.000000
1.000000 1.000000 1.000000
1.000000 1.000000 1.000000
1.000000 1.000000 1.000000
1.000000 1.000000 1.000000
1.000000 0.000000 0.911294
1.000000 0.085814 1.000000
1.000000 0.459735 1.000000
1.000000 0.964386 1.000000
1.000000 1.000000 1.000000
1.000000 1.000000 1.000000
1.000000 1.000000 1.000000
1.000000 1.000000 1.000000
1.000000 1.000000 1.000000
1.000000 0.075304 1.000000
1.000000 0.455589 1.000000
1.000000 0.886667 1.000000
1.000000 1.000000 1.000000
1.000000 1.000000 1.000000
1.000000 1.000000 1.000000
1.000000 1.000000 1.000000
1.000000 1.000000 1.000000
1.000000 1.000000 1.000000
1.000000 0.731218 1.000000
1.000000 1.000000 1.000000
1.000000 1.000000 1.000000
1.000000 1.000000 1.000000
1.000000 1.000000 1.000000
1.000000 1.000000 1.000000
1.000000 1.000000 1.000000
1.000000 1.000000 1.000000
0.938496 0.561845 1.000000
