public/luts/pro_neg_std.cube
# Generated from ColorChecker fit
LUT_3D_SIZE 33
DOMAIN_MIN 0.0 0.0 0.0
DOMAIN_MAX 1.0 1.0 1.0
0.142133 0.026515 0.042013
0.066471 0.000000 0.056291
0.003477 0.000000 0.082622
0.000000 0.000000 0.119437
0.000000 0.000000 0.165092
0.000000 0.000000 0.217862
0.000000 0.000000 0.275945
0.000000 0.000000 0.337462
0.000000 0.000000 0.400456
0.000000 0.000000 0.462890
0.000000 0.000000 0.522652
0.000000 0.000000 0.577551
0.000000 0.000000 0.625318
0.000000 0.000000 0.663606
0.000000 0.000000 0.689989
0.000000 0.000000 0.701966
0.000000 0.000000 0.696956
0.000000 0.000000 0.672300
0.000000 0.000000 0.625263
0.000000 0.000000 0.553029
0.000000 0.000000 0.452707
0.000000 0.000000 0.321327
0.000000 0.000000 0.155841
0.000000 0.000000 0.000000
0.000000 0.000000 0.000000
0.000000 0.000000 0.000000
0.000000 0.000000 0.000000
0.000000 0.000000 0.000000
0.000000 0.000000 0.000000
0.000000 0.000000 0.000000
0.000000 0.000000 0.000000
0.000000 0.000000 0.000000
0.000000 0.000000 0.000000
0.125612 0.029123 0.099566
0.061150 0.000000 0.115408
0.008943 0.000000 0.143063
0.000000 0.000000 0.180951
0.000000 0.000000 0.227418
0.000000 0.000000 0.280730
0.000000 0.000000 0.339075
0.000000 0.000000 0.400564
0.000000 0.000000 0.463230
0.000000 0.000000 0.525028
0.000000 0.000000 0.583834
0.000000 0.000000 0.637448
0.000000 0.000000 0.683592
0.000000 0.000000 0.719907
0.000000 0.000000 0.743961
0.000000 0.000000 0.753240
0.000000 0.000000 0.745154
0.000000 0.000000 0.717035
0.000000 0.000000 0.666136
0.000000 0.000000 0.589635
0.000000 0.000000 0.484628
0.000000 0.000000 0.348137
0.000000 0.000000 0.177103
0.000000 0.000000 0.000000
0.000000 0.000000 0.000000
0.000000 0.000000 0.000000
0.000000 0.000000 0.000000
0.000000 0.000000 0.000000
0.000000 0.000000 0.000000
0.000000 0.000000 0.000000
0.000000 0.000000 0.000000
0.000000 0.000000 0.000000
0.000000 0.000000 0.000000
0.097591 0.020886 0.145052
0.043929 0.000000 0.162583
0.002067 0.000000 0.191663
0.000000 0.000000 0.230704
0.000000 0.000000 0.278039
0.000000 0.000000 0.331927
0.000000 0.000000 0.390545
0.000000 0.000000 0.451995
0.000000 0.000000 0.514300
0.000000 0.000000 0.575404
0.000000 0.000000 0.633175
0.000000 0.000000 0.685402
0.000000 0.012012 0.729797
0.000000 0.024335 0.763993
0.000000 0.032991 0.785545
0.000000 0.036687 0.791933
0.000000 0.034112 0.780555
0.000000 0.023933 0.748734
0.000000 0.004796 0.693713
0.000000 0.000000 0.612659
0.000000 0.000000 0.502661
0.000000 0.000000 0.360729
0.000000 0.000000 0.183795
0.000000 0.000000 0.000000
0.000000 0.000000 0.000000
0.000000 0.000000 0.000000
0.000000 0.000000 0.000000
0.000000 0.000000 0.000000
0.000000 0.000000 0.000000
0.000000 0.000000 0.000000
0.000000 0.000000 0.000000
0.000000 0.000000 0.000000
0.000000 0.000000 0.000000
0.060384 0.002800 0.179321
0.017105 0.000000 0.198659
0.000000 0.000000 0.229258
0.000000 0.000000 0.269522
0.000000 0.000000 0.317775
0.000000 0.000000 0.372264
0.000000 0.000000 0.431159
0.000000 0.000000 0.492550
0.000000 0.015860 0.554450
0.000000 0.036102 0.614795
0.000000 0.056424 0.671442
0.000000 0.075553 0.722171
0.001380 0.092195 0.764684
0.004286 0.105038 0.796604
0.000861 0.112748 0.815477
0.000000 0.113972 0.818771
0.000000 0.107336 0.803877
0.000000 0.091446 0.768106
0.000000 0.064888 0.708693
0.000000 0.026227 0.622795
0.000000 0.000000 0.507490
0.000000 0.000000 0.359778
0.000000 0.000000 0.176582
0.000000 0.000000 0.000000
0.000000 0.000000 0.000000
0.000000 0.000000 0.000000
0.000000 0.000000 0.000000
0.000000 0.000000 0.000000
0.000000 0.000000 0.000000
0.000000 0.000000 0.000000
0.000000 0.000000 0.000000
0.000000 0.000000 0.000000
0.000000 0.000000 0.000000
0.016637 0.000000 0.203524
0.000000 0.000000 0.224775
0.000000 0.000000 0.256979
0.000000 0.000000 0.298529
0.000000 0.000000 0.347740
0.000000 0.000069 0.402848
0.000000 0.021628 0.462013
0.000000 0.045889 0.523316
0.000000 0.071579 0.584761
0.000000 0.097405 0.644273
0.007360 0.122053 0.699700
0.019406 0.144190 0.748812
0.027419 0.162460 0.789301
0.029630 0.175491 0.818780
0.024216 0.181887 0.834786
0.009302 0.180233 0.834777
0.000000 0.169095 0.816133
0.000000 0.147017 0.776157
0.000000 0.112524 0.712073
0.000000 0.064120 0.621029
0.000000 0.000289 0.500092
0.000000 0.000000 0.346255
0.000000 0.000000 0.156429
0.000000 0.000000 0.000000
0.000000 0.000000 0.000000
0.000000 0.000000 0.000000
0.000000 0.000000 0.000000
0.000000 0.000000 0.000000
0.000000 0.000000 0.000000
0.000000 0.000000 0.000000
0.000000 0.000000 0.000000
0.000000 0.000000 0.000000
0.000000 0.000000 0.000000
0.000000 0.000000 0.219102
0.000000 0.000000 0.242367
0.000000 0.000000 0.276253
0.000000 0.000000 0.319143
0.000000 0.000000 0.369342
0.000000 0.024708 0.425078
0.000000 0.055179 0.484499
0.000000 0.087243 0.545678
0.000000 0.119565 0.606609
0.004778 0.150792 0.665206
0.021111 0.179547 0.719308
0.033978 0.204436 0.766675
0.041601 0.224043 0.804989
0.042148 0.236933 0.831854
0.033732 0.241650 0.844796
0.014417 0.236718 0.841265
0.000000 0.220640 0.818631
0.000000 0.191901 0.774185
0.000000 0.148963 0.705144
0.000000 0.090270 0.608644
0.000000 0.014243 0.481744
0.000000 0.000000 0.321425
0.000000 0.000000 0.124591
0.000000 0.000000 0.000000
0.000000 0.000000 0.000000
0.000000 0.000000 0.000000
0.000000 0.000000 0.000000
0.000000 0.000000 0.000000
0.000000 0.000000 0.000000
0.000000 0.000000 0.000000
0.000000 0.000000 0.000000
0.000000 0.000000 0.000000
0.000000 0.000000 0.000000
0.000000 0.000000 0.227796
0.000000 0.000000 0.253166
0.000000 0.000000 0.288802
0.000000 0.000000 0.333078
0.000000 0.005752 0.384288
0.000000 0.043244 0.440652
0.000000 0.082558 0.500307
0.000000 0.122319 0.561317
0.000000 0.161131 0.621664
0.010496 0.197579 0.679256
0.027940 0.230226 0.731919
0.040726 0.257615 0.777405
0.047014 0.278271 0.813385
0.044907 0.290697 0.837455
0.032459 0.293375 0.847130
0.007669 0.284768 0.839850
0.000000 0.263318 0.812974
0.000000 0.227448 0.763787
0.000000 0.175560 0.689493
0.000000 0.106035 0.587219
0.000000 0.017235 0.454014
0.000000 0.000000 0.286851
0.000000 0.000000 0.082622
0.000000 0.000000 0.000000
0.000000 0.000000 0.000000
0.000000 0.000000 0.000000
0.000000 0.000000 0.000000
0.000000 0.000000 0.000000
0.000000 0.000000 0.000000
0.000000 0.000000 0.000000
0.000000 0.000000 0.000000
0.000000 0.000000 0.000000
0.000000 0.000000 0.000000
0.000000 0.000000 0.231639
0.000000 0.000000 0.259196
0.000000 0.000000 0.296643
0.000000 0.000000 0.342342
0.000000 0.009684 0.394579
0.000000 0.057074 0.451562
0.000000 0.105164 0.511420
0.000000 0.152520 0.572207
0.000000 0.197684 0.631895
0.013626 0.239178 0.688382
0.031302 0.275506 0.739485
0.043087 0.305149 0.782945
0.047075 0.326570 0.816424
0.041309 0.338211 0.837508
0.023779 0.338494 0.843703
0.000000 0.325819 0.832437
0.000000 0.298568 0.801063
0.000000 0.255103 0.746853
0.000000 0.193763 0.667002
0.000000 0.112869 0.558627
0.000000 0.010722 0.418769
0.000000 0.000000 0.244389
0.000000 0.000000 0.032370
0.000000 0.000000 0.000000
0.000000 0.000000 0.000000
0.000000 0.000000 0.000000
0.000000 0.000000 0.000000
0.000000 0.000000 0.000000
0.000000 0.000000 0.000000
0.000000 0.000000 0.000000
0.000000 0.000000 0.000000
0.000000 0.000000 0.000000
0.000000 0.000000 0.000000
0.000000 0.000000 0.232962
0.000000 0.000000 0.262781
0.000000 0.000000 0.302090
0.000000 0.000000 0.349241
0.000000 0.010424 0.402510
0.000000 0.067686 0.460096
0.000000 0.124492 0.520118
0.000000 0.179345 0.580619
0.000000 0.230725 0.639564
0.017972 0.277096 0.694838
0.034985 0.316897 0.744250
0.044829 0.348551 0.785531
0.045536 0.370458 0.816334
0.035086 0.380999 0.834233
0.011406 0.378534 0.836726
0.000000 0.361404 0.821232
0.000000 0.327927 0.785092
0.000000 0.276405 0.725569
0.000000 0.205116 0.639849
0.000000 0.112320 0.525039
0.000000 0.000000 0.378170
0.000000 0.000000 0.196192
0.000000 0.000000 0.000000
0.000000 0.000000 0.000000
0.000000 0.000000 0.000000
0.000000 0.000000 0.000000
0.000000 0.000000 0.000000
0.000000 0.000000 0.000000
0.000000 0.000000 0.000000
0.000000 0.000000 0.000000
0.000000 0.000000 0.000000
0.000000 0.000000 0.000000
0.000000 0.000000 0.000000
0.000000 0.000000 0.234390
0.000000 0.000000 0.266538
0.000000 0.000000 0.307751
0.000000 0.000000 0.356374
0.000000 0.009554 0.410674
0.000000 0.076666 0.468837
0.000000 0.142130 0.528976
0.000000 0.204386 0.589121
0.005722 0.261854 0.647228
0.027671 0.312934 0.701174
0.043106 0.356007 0.748756
0.050052 0.389432 0.787697
0.046478 0.411550 0.815639
0.030301 0.420679 0.830147
0.000000 0.415119 0.828708
0.000000 0.393148 0.808732
0.000000 0.353025 0.767551
0.000000 0.292989 0.702418
0.000000 0.211258 0.610508
0.000000 0.106030 0.488919
0.000000 0.000000 0.334672
0.000000 0.000000 0.144709
0.000000 0.000000 0.000000
0.000000 0.000000 0.000000
0.000000 0.000000 0.000000
0.000000 0.000000 0.000000
0.000000 0.000000 0.000000
0.000000 0.000000 0.000000
0.000000 0.000000 0.000000
0.000000 0.000000 0.000000
0.000000 0.000000 0.000000
0.000000 0.000000 0.000000
0.000000 0.000000 0.000000
0.000000 0.000000 0.238845
0.000000 0.000000 0.273378
0.000000 0.000000 0.316531
0.000000 0.000000 0.366638
0.000000 0.008748 0.421957
0.000000 0.085695 0.480665
0.000000 0.159763 0.540863
0.000000 0.229332 0.600573
0.026452 0.292761 0.657742
0.047191 0.348389 0.710234
0.060117 0.394534 0.755840
0.063189 0.429497 0.792270
0.054315 0.451554 0.817158
0.031349 0.458963 0.828059
0.000000 0.449964 0.822451
0.000000 0.422773 0.797733
0.000000 0.375588 0.751227
0.000000 0.306586 0.680176
0.000000 0.213924 0.581748
0.000000 0.095738 0.453029
0.000000 0.000000 0.291029
0.000000 0.000000 0.092682
0.000000 0.000000 0.000000
0.000000 0.000000 0.000000
0.000000 0.000000 0.000000
0.000000 0.000000 0.000000
0.000000 0.000000 0.000000
0.000000 0.000000 0.000000
0.000000 0.000000 0.000000
0.000000 0.000000 0.000000
0.000000 0.000000 0.000000
0.000000 0.000000 0.000000
0.000000 0.000000 0.000000
0.000000 0.000000 0.249543
0.000000 0.000000 0.286510
0.000000 0.000000 0.331629
0.000000 0.000000 0.383225
0.000000 0.009777 0.439543
0.000000 0.096546 0.498753
0.006143 0.179169 0.558946
0.036982 0.255966 0.618134
0.062710 0.325235 0.674253
0.081332 0.385252 0.725160
0.090796 0.434276 0.768633
0.089001 0.470544 0.802374
0.073790 0.492274 0.824008
0.042955 0.497661 0.831078
0.000000 0.484883 0.821053
0.000000 0.452096 0.791324
0.000000 0.397436 0.739201
0.000000 0.319019 0.661918
0.000000 0.214941 0.556633
0.000000 0.083278 0.420423
0.000000 0.000000 0.250288
0.000000 0.000000 0.043151
0.000000 0.000000 0.000000
0.000000 0.000000 0.000000
0.000000 0.000000 0.000000
0.000000 0.000000 0.000000
0.000000 0.000000 0.000000
0.000000 0.000000 0.000000
0.000000 0.000000 0.000000
0.000000 0.000000 0.000000
0.000000 0.000000 0.000000
0.000000 0.000000 0.000000
0.000000 0.000000 0.000000
0.000000 0.000000 0.269997
0.000000 0.000000 0.309439
0.000000 0.000000 0.356541
0.000000 0.000000 0.409619
0.000000 0.014508 0.466910
0.030514 0.111090 0.526572
0.065258 0.202224 0.586687
0.095638 0.286167 0.645257
0.119647 0.361157 0.700208
0.135225 0.425410 0.749387
0.140258 0.477123 0.790563
0.132583 0.514470 0.821429
0.109980 0.535609 0.839598
0.070179 0.538675 0.842605
0.010856 0.521783 0.827909
0.000000 0.483028 0.792890
0.000000 0.420485 0.734849
0.000000 0.332210 0.651012
0.000000 0.216235 0.538524
0.000000 0.070576 0.394453
0.000000 0.000000 0.215792
0.000000 0.000000 0.000000
0.000000 0.000000 0.000000
0.000000 0.000000 0.000000
0.000000 0.000000 0.000000
0.000000 0.000000 0.000000
0.000000 0.000000 0.000000
0.000000 0.000000 0.000000
0.000000 0.000000 0.000000
0.000000 0.000000 0.000000
0.000000 0.000000 0.000000
0.000000 0.000000 0.000000
0.000000 0.000000 0.000000
0.000000 0.000000 0.304014
0.000000 0.000000 0.345962
0.000000 0.000000 0.395058
0.039484 0.000000 0.449605
0.079367 0.024902 0.507832
0.117625 0.131291 0.567887
0.152293 0.230894 0.627842
0.181356 0.321908 0.685689
0.202742 0.402506 0.739345
0.214331 0.470845 0.786647
0.213946 0.525059 0.825354
0.199360 0.563264 0.853149
0.168292 0.583554 0.867635
0.118408 0.584003 0.866338
0.047322 0.562666 0.846707
0.000000 0.517575 0.806112
0.000000 0.446746 0.741845
0.000000 0.348171 0.651121
0.000000 0.219824 0.531075
0.000000 0.059657 0.378768
0.000000 0.000000 0.191180
0.000000 0.000000 0.000000
0.000000 0.000000 0.000000
0.000000 0.000000 0.000000
0.000000 0.000000 0.000000
0.000000 0.000000 0.000000
0.000000 0.000000 0.000000
0.000000 0.000000 0.000000
0.000000 0.000000 0.000000
0.000000 0.000000 0.000000
0.000000 0.000000 0.000000
0.000000 0.000000 0.000000
0.000000 0.000000 0.000000
0.038127 0.000000 0.355697
0.076201 0.000000 0.400176
0.117253 0.000000 0.451265
0.159416 0.000000 0.507261
0.200769 0.043013 0.566379
0.239338 0.159210 0.626760
0.273096 0.267246 0.686464
0.299963 0.365256 0.743476
0.317808 0.451353 0.795701
0.324445 0.523632 0.840968
0.317636 0.580167 0.877024
0.295091 0.619011 0.901544
0.254465 0.638197 0.912121
0.193364 0.635739 0.906271
0.109337 0.609629 0.881433
0.000000 0.557840 0.834967
0.000000 0.478324 0.764156
0.000000 0.369014 0.666205
0.000000 0.227821 0.538239
0.000000 0.052637 0.377309
0.000000 0.000000 0.180385
0.000000 0.000000 0.000000
0.000000 0.000000 0.000000
0.000000 0.000000 0.000000
0.000000 0.000000 0.000000
0.000000 0.000000 0.000000
0.000000 0.000000 0.000000
0.000000 0.000000 0.000000
0.000000 0.000000 0.000000
0.000000 0.000000 0.000000
0.000000 0.000000 0.000000
0.000000 0.000000 0.000000
0.000000 0.000000 0.000000
0.191741 0.000000 0.429446
0.233748 0.000000 0.476470
0.277720 0.000000 0.529546
0.321725 0.000000 0.586958
0.363782 0.070993 0.646915
0.401852 0.197001 0.707546
0.433847 0.313438 0.766902
0.457623 0.418375 0.822957
0.470988 0.509866 0.873607
0.471691 0.585944 0.916671
0.457434 0.644621 0.949888
0.425862 0.683890 0.970921
0.374569 0.701722 0.977354
0.301097 0.696070 0.966693
0.202933 0.664865 0.936367
0.077514 0.606018 0.883728
0.000000 0.517420 0.806047
0.000000 0.396943 0.700519
0.000000 0.242436 0.564262
0.000000 0.051731 0.394315
0.000000 0.000000 0.187639
0.000000 0.000000 0.000000
0.000000 0.000000 0.000000
0.000000 0.000000 0.000000
0.000000 0.000000 0.000000
0.000000 0.000000 0.000000
0.000000 0.000000 0.000000
0.000000 0.000000 0.000000
0.000000 0.000000 0.000000
0.000000 0.000000 0.000000
0.000000 0.000000 0.000000
0.000000 0.000000 0.000000
0.000000 0.000000 0.000000
0.396397 0.000000 0.529953
0.441680 0.000000 0.579530
0.487872 0.000000 0.634576
0.532978 0.000000 0.693367
0.574953 0.111087 0.754101
0.611696 0.246915 0.814897
0.641057 0.371723 0.873797
0.660829 0.483523 0.928766
0.668756 0.580308 0.977690
0.662527 0.660047 1.000000
0.639778 0.720693 1.000000
0.598094 0.760177 1.000000
0.535006 0.776409 1.000000
0.447992 0.767280 1.000000
0.334477 0.730660 1.000000
0.191835 0.664400 0.956960
0.017385 0.566329 0.872075
0.000000 0.434257 0.758614
0.000000 0.265973 0.613686
0.000000 0.059247 0.434319
0.000000 0.000000 0.217466
0.000000 0.000000 0.000000
0.000000 0.000000 0.000000
0.000000 0.000000 0.000000
0.000000 0.000000 0.000000
0.000000 0.000000 0.000000
0.000000 0.000000 0.000000
0.000000 0.000000 0.000000
0.000000 0.000000 0.000000
0.000000 0.000000 0.000000
0.000000 0.000000 0.000000
0.000000 0.000000 0.000000
0.000000 0.000000 0.000000
0.659047 0.000000 0.662211
0.706932 0.000000 0.714338
0.754626 0.000000 0.771330
0.800072 0.009501 0.831452
0.841161 0.165636 0.892893
0.875732 0.311295 0.953762
0.901569 0.444451 1.000000
0.916404 0.563054 1.000000
0.917919 0.665034 1.000000
0.903739 0.748302 1.000000
0.871438 0.810748 1.000000
0.818538 0.850241 1.000000
0.742508 0.864631 1.000000
0.640762 0.851747 1.000000
0.510664 0.809398 1.000000
0.349524 0.735374 1.000000
0.154598 0.627442 0.967096
0.000000 0.483352 0.845337
0.000000 0.300830 0.691348
0.000000 0.077586 0.502151
0.000000 0.000000 0.274686
0.000000 0.000000 0.005817
0.000000 0.000000 0.000000
0.000000 0.000000 0.000000
0.000000 0.000000 0.000000
0.000000 0.000000 0.000000
0.000000 0.000000 0.000000
0.000000 0.000000 0.000000
0.000000 0.000000 0.000000
0.000000 0.000000 0.000000
0.000000 0.000000 0.000000
0.000000 0.000000 0.000000
0.000000 0.000000 0.000000
0.986975 0.000000 0.831503
1.000000 0.000000 0.886170
1.000000 0.000000 0.945075
1.000000 0.069634 1.000000
1.000000 0.237075 1.000000
1.000000 0.392583 1.000000
1.000000 0.534066 1.000000
1.000000 0.659415 1.000000
1.000000 0.766499 1.000000
1.000000 0.853166 1.000000
1.000000 0.917246 1.000000
1.000000 0.956546 1.000000
1.000000 0.968856 1.000000
0.886454 0.951943 1.000000
0.738521 0.903555 1.000000
0.557589 0.821420 1.000000
0.340852 0.703245 1.000000
0.085452 0.546716 0.965828
0.000000 0.349502 0.802383
0.000000 0.109248 0.602935
0.000000 0.000000 0.364416
0.000000 0.000000 0.083681
0.000000 0.000000 0.000000
0.000000 0.000000 0.000000
0.000000 0.000000 0.000000
0.000000 0.000000 0.000000
0.000000 0.000000 0.000000
0.000000 0.000000 0.000000
0.000000 0.000000 0.000000
0.000000 0.000000 0.000000
0.000000 0.000000 0.000000
0.000000 0.000000 0.000000
0.000000 0.000000 0.000000
1.000000 0.000000 1.000000
1.000000 0.000000 1.000000
1.000000 0.000000 1.000000
1.000000 0.149132 1.000000
1.000000 0.327936 1.000000
1.000000 0.493312 1.000000
1.000000 0.643107 1.000000
1.000000 0.775150 1.000000
1.000000 0.887248 1.000000
1.000000 0.977190 1.000000
1.000000 1.000000 1.000000
1.000000 1.000000 1.000000
1.000000 1.000000 1.000000
1.000000 1.000000 1.000000
1.000000 1.000000 1.000000
0.823373 0.925115 1.000000
0.583469 0.796317 1.000000
0.302777 0.626936 1.000000
0.000000 0.414577 0.952218
0.000000 0.156825 0.742092
0.000000 0.000000 0.492069
0.000000 0.000000 0.198993
0.000000 0.000000 0.000000
0.000000 0.000000 0.000000
0.000000 0.000000 0.000000
0.000000 0.000000 0.000000
0.000000 0.000000 0.000000
0.000000 0.000000 0.000000
0.000000 0.000000 0.000000
0.000000 0.000000 0.000000
0.000000 0.000000 0.000000
0.000000 0.000000 0.000000
0.000000 0.000000 0.000000
1.000000 0.000000 1.000000
1.000000 0.000000 1.000000
1.000000 0.047619 1.000000
1.000000 0.250615 1.000000
1.000000 0.440844 1.000000
1.000000 0.616112 1.000000
1.000000 0.774208 1.000000
1.000000 0.912896 1.000000
1.000000 1.000000 1.000000
1.000000 1.000000 1.000000
1.000000 1.000000 1.000000
1.000000 1.000000 1.000000
1.000000 1.000000 1.000000
1.000000 1.000000 1.000000
1.000000 1.000000 1.000000
1.000000 1.000000 1.000000
0.890103 0.909335 1.000000
0.582701 0.726689 1.000000
0.229306 0.498738 1.000000
0.000000 0.223005 0.925338
0.000000 0.000000 0.663351
0.000000 0.000000 0.357453
0.000000 0.000000 0.004399
0.000000 0.000000 0.000000
0.000000 0.000000 0.000000
0.000000 0.000000 0.000000
0.000000 0.000000 0.000000
0.000000 0.000000 0.000000
0.000000 0.000000 0.000000
0.000000 0.000000 0.000000
0.000000 0.000000 0.000000
0.000000 0.000000 0.000000
0.000000 0.000000 0.000000
1.000000 0.000000 1.000000
1.000000 0.000000 1.000000
1.000000 0.160809 1.000000
1.000000 0.376801 1.000000
1.000000 0.578519 1.000000
1.000000 0.763709 1.000000
1.000000 0.930097 1.000000
1.000000 1.000000 1.000000
1.000000 1.000000 1.000000
1.000000 1.000000 1.000000
1.000000 1.000000 1.000000
1.000000 1.000000 1.000000
1.000000 1.000000 1.000000
1.000000 1.000000 1.000000
1.000000 1.000000 1.000000
1.000000 1.000000 1.000000
1.000000 1.000000 1.000000
0.933194 0.848752 1.000000
0.549381 0.604765 1.000000
0.114148 0.310572 1.000000
0.000000 0.000000 0.884265
0.000000 0.000000 0.565054
0.000000 0.000000 0.197797
0.000000 0.000000 0.000000
0.000000 0.000000 0.000000
0.000000 0.000000 0.000000
0.000000 0.000000 0.000000
0.000000 0.000000 0.000000
0.000000 0.000000 0.000000
0.000000 0.000000 0.000000
0.000000 0.000000 0.000000
0.000000 0.000000 0.000000
0.000000 0.000000 0.000000
1.000000 0.000000 1.000000
1.000000 0.058791 1.000000
1.000000 0.301408 1.000000
1.000000 0.530501 1.000000
1.000000 0.743778 1.000000
1.000000 0.938922 1.000000
1.000000 1.000000 1.000000
1.000000 1.000000 1.000000
1.000000 1.000000 1.000000
1.000000 1.000000 1.000000
1.000000 1.000000 1.000000
1.000000 1.000000 1.000000
1.000000 1.000000 1.000000
1.000000 1.000000 1.000000
1.000000 1.000000 1.000000
1.000000 1.000000 1.000000
1.000000 1.000000 1.000000
1.000000 0.995993 1.000000
0.946826 0.735532 1.000000
0.477300 0.422402 1.000000
0.000000 0.053985 1.000000
0.000000 0.000000 0.828088
0.000000 0.000000 0.446105
0.000000 0.000000 0.011821
0.000000 0.000000 0.000000
0.000000 0.000000 0.000000
0.000000 0.000000 0.000000
0.000000 0.000000 0.000000
0.000000 0.000000 0.000000
0.000000 0.000000 0.000000
0.000000 0.000000 0.000000
0.000000 0.000000 0.000000
0.000000 0.000000 0.000000
1.000000 0.000000 1.000000
1.000000 0.214972 1.000000
1.000000 0.472317 1.000000
1.000000 0.714622 1.000000
1.000000 0.939530 1.000000
1.000000 1.000000 1.000000
1.000000 1.000000 1.000000
1.000000 1.000000 1.000000
1.000000 1.000000 1.000000
1.000000 1.000000 1.000000
1.000000 1.000000 1.000000
1.000000 1.000000 1.000000
1.000000 1.000000 1.000000
1.000000 1.000000 1.000000
1.000000 1.000000 1.000000
1.000000 1.000000 1.000000
1.000000 1.000000 1.000000
1.000000 1.000000 1.000000
1.000000 0.894007 1.000000
0.924877 0.561470 1.000000
0.359949 0.171085 1.000000
0.000000 0.000000 1.000000
0.000000 0.000000 0.755900
0.000000 0.000000 0.305415
0.000000 0.000000 0.000000
0.000000 0.000000 0.000000
0.000000 0.000000 0.000000
0.000000 0.000000 0.000000
0.000000 0.000000 0.000000
0.000000 0.000000 0.000000
0.000000 0.000000 0.000000
0.000000 0.000000 0.000000
0.000000 0.000000 0.000000
1.000000 0.117889 1.000000
1.000000 0.404311 1.000000
1.000000 0.676535 1.000000
1.000000 0.932164 1.000000
1.000000 1.000000 1.000000
1.000000 1.000000 1.000000
1.000000 1.000000 1.000000
1.000000 1.000000 1.000000
1.000000 1.000000 1.000000
1.000000 1.000000 1.000000
1.000000 1.000000 1.000000
1.000000 1.000000 1.000000
1.000000 1.000000 1.000000
1.000000 1.000000 1.000000
1.000000 1.000000 1.000000
1.000000 1.000000 1.000000
1.000000 1.000000 1.000000
1.000000 1.000000 1.000000
1.000000 1.000000 1.000000
1.000000 0.730842 1.000000
0.860922 0.317987 1.000000
0.190514 0.000000 1.000000
0.000000 0.000000 1.000000
0.000000 0.000000 0.666807
0.000000 0.000000 0.141904
0.000000 0.000000 0.000000
0.000000 0.000000 0.000000
0.000000 0.000000 0.000000
0.000000 0.000000 0.000000
0.000000 0.000000 0.000000
0.000000 0.000000 0.000000
0.000000 0.000000 0.000000
0.000000 0.000000 0.000000
1.000000 0.326911 1.000000
1.000000 0.629895 1.000000
1.000000 0.917153 1.000000
1.000000 1.000000 1.000000
1.000000 1.000000 1.000000
1.000000 1.000000 1.000000
1.000000 1.000000 1.000000
1.000000 1.000000 1.000000
1.000000 1.000000 1.000000
1.000000 1.000000 1.000000
1.000000 1.000000 1.000000
1.000000 1.000000 1.000000
1.000000 1.000000 1.000000
1.000000 1.000000 1.000000
1.000000 1.000000 1.000000
1.000000 1.000000 1.000000
1.000000 1.000000 1.000000
1.000000 1.000000 1.000000
1.000000 1.000000 1.000000
1.000000 0.933682 1.000000
1.000000 0.497858 1.000000
0.748232 0.000000 1.000000
0.000000 0.000000 1.000000
0.000000 0.000000 1.000000
0.000000 0.000000 0.559920
0.000000 0.000000 0.000000
0.000000 0.000000 0.000000
0.000000 0.000000 0.000000
0.000000 0.000000 0.000000
0.000000 0.000000 0.000000
0.000000 0.000000 0.000000
0.000000 0.000000 0.000000
0.000000 0.000000 0.000000
1.000000 0.575168 1.000000
1.000000 0.894909 1.000000
1.000000 1.000000 1.000000
1.000000 1.000000 1.000000
1.000000 1.000000 1.000000
1.000000 1.000000 1.000000
1.000000 1.000000 1.000000
1.000000 1.000000 1.000000
1.000000 1.000000 1.000000
1.000000 1.000000 1.000000
1.000000 1.000000 1.000000
1.000000 1.000000 1.000000
1.000000 1.000000 1.000000
1.000000 1.000000 1.000000
1.000000 1.000000 1.000000
1.000000 1.000000 1.000000
1.000000 1.000000 1.000000
1.000000 1.000000 1.000000
1.000000 1.000000 1.000000
1.000000 1.000000 1.000000
1.000000 0.713959 1.000000
1.000000 0.186044 1.000000
0.579776 0.000000 1.000000
0.000000 0.000000 1.000000
0.000000 0.000000 1.000000
0.000000 0.000000 0.434359
0.000000 0.000000 0.000000
