public/luts/provia_rx_cc.cube
# Generated from ColorChecker fit
LUT_3D_SIZE 9
DOMAIN_MIN 0.0 0.0 0.0
DOMAIN_MAX 1.0 1.0 1.0
0.188862 0.047187 0.242559
0.073380 0.029420 0.269940
0.070148 0.080743 0.398204
0.149348 0.173770 0.565610
0.234592 0.240962 0.670234
0.202923 0.174624 0.569970
0.000000 0.000000 0.082529
0.000000 0.000000 0.000000
0.000000 0.000000 0.000000
0.124846 0.000000 0.262423
0.061658 0.031164 0.270571
0.088183 0.151191 0.383521
0.165586 0.282478 0.538011
0.208464 0.348253 0.630595
0.084841 0.231590 0.517642
0.000000 0.000000 0.015342
0.000000 0.000000 0.000000
0.000000 0.000000 0.000000
0.019470 0.000000 0.268803
0.000000 0.057521 0.265741
0.041625 0.242944 0.370562
0.099127 0.403491 0.518481
0.077209 0.453160 0.604528
0.000000 0.265792 0.483551
0.000000 0.000000 0.000000
0.000000 0.000000 0.000000
0.000000 0.000000 0.000000
0.064373 0.000000 0.376919
0.078135 0.167972 0.370808
0.123561 0.414750 0.474822
0.143783 0.594829 0.622651
0.035362 0.612972 0.707805
0.000000 0.333791 0.583609
0.000000 0.000000 0.063204
0.000000 0.000000 0.000000
0.000000 0.000000 0.000000
0.530936 0.096229 0.771569
0.570804 0.449497 0.770710
0.606823 0.752861 0.881378
0.573108 0.942011 1.000000
0.357205 0.912480 1.000000
0.000000 0.519647 1.000000
0.000000 0.000000 0.479935
0.000000 0.000000 0.000000
0.000000 0.000000 0.000000
1.000000 0.568254 1.000000
1.000000 1.000000 1.000000
1.000000 1.000000 1.000000
1.000000 1.000000 1.000000
1.000000 1.000000 1.000000
0.645017 0.934923 1.000000
0.000000 0.000000 1.000000
0.000000 0.000000 0.317012
0.000000 0.000000 0.000000
1.000000 1.000000 1.000000
1.000000 1.000000 1.000000
1.000000 1.000000 1.000000
1.000000 1.000000 1.000000
1.000000 1.000000 1.000000
1.000000 1.000000 1.000000
0.944400 0.314540 1.000000
0.000000 0.000000 1.000000
0.000000 0.000000 0.137170
1.000000 1.000000 1.000000
1.000000 1.000000 1.000000
1.000000 1.000000 1.000000
1.000000 1.000000 1.000000
1.000000 1.000000 1.000000
1.000000 1.000000 1.000000
1.000000 1.000000 1.000000
1.000000 0.000000 1.000000
0.000000 0.000000 1.000000
1.000000 1.000000 1.000000
1.000000 1.000000 1.000000
1.000000 1.000000 1.000000
1.000000 1.000000 1.000000
1.000000 1.000000 1.000000
1.000000 1.000000 1.000000
1.000000 1.000000 1.000000
1.000000 0.000000 1.000000
1.000000 0.000000 1.000000
0.324432 0.306181 0.172712
0.151466 0.153982 0.138514
0.118067 0.102250 0.230668
0.209765 0.133129 0.403805
0.365520 0.188610 0.572372
0.477721 0.170524 0.610633
0.392188 0.000000 0.352670
0.000000 0.000000 0.000000
0.000000 0.000000 0.000000
0.299125 0.257405 0.255337
0.189381 0.201076 0.215201
0.195174 0.223783 0.302755
0.293014 0.298440 0.471110
0.412846 0.357804 0.633188
0.438042 0.294477 0.661733
0.205406 0.000000 0.389302
0.000000 0.000000 0.000000
0.000000 0.000000 0.000000
0.186156 0.209033 0.270916
0.128640 0.249811 0.229625
0.158304 0.342506 0.316526
0.242642 0.450799 0.483204
0.302581 0.498215 0.641061
0.212476 0.368125 0.661316
0.000000 0.000000 0.375005
0.000000 0.000000 0.000000
0.000000 0.000000 0.000000
0.171591 0.220366 0.329653
0.156033 0.358759 0.292132
0.194972 0.516260 0.382464
0.246886 0.647317 0.550710
0.223686 0.666224 0.706751
0.000000 0.447120 0.720282
0.000000 0.000000 0.420817
0.000000 0.000000 0.000000
0.000000 0.000000 0.000000
0.521241 0.378206 0.611336
0.538095 0.613993 0.582648
0.572438 0.830387 0.680633
0.573732 0.972606 0.853831
0.444869 0.945712 1.000000
0.042172 0.614613 1.000000
0.000000 0.000000 0.707355
0.000000 0.000000 0.000000
0.000000 0.000000 0.000000
1.000000 0.796860 1.000000
1.000000 1.000000 1.000000
1.000000 1.000000 1.000000
1.000000 1.000000 1.000000
1.000000 1.000000 1.000000
0.716044 0.981260 1.000000
0.000000 0.000000 1.000000
0.000000 0.000000 0.619689
0.000000 0.000000 0.000000
1.000000 1.000000 1.000000
1.000000 1.000000 1.000000
1.000000 1.000000 1.000000
1.000000 1.000000 1.000000
1.000000 1.000000 1.000000
1.000000 1.000000 1.000000
0.998260 0.410886 1.000000
0.000000 0.000000 1.000000
0.000000 0.000000 0.493516
1.000000 1.000000 1.000000
1.000000 1.000000 1.000000
1.000000 1.000000 1.000000
1.000000 1.000000 1.000000
1.000000 1.000000 1.000000
1.000000 1.000000 1.000000
1.000000 1.000000 1.000000
1.000000 0.000000 1.000000
0.000000 0.000000 1.000000
1.000000 1.000000 1.000000
1.000000 1.000000 1.000000
1.000000 1.000000 1.000000
1.000000 1.000000 1.000000
1.000000 1.000000 1.000000
1.000000 1.000000 1.000000
1.000000 1.000000 1.000000
1.000000 0.000000 1.000000
1.000000 0.000000 1.000000
0.481848 0.496433 0.173878
0.236272 0.207080 0.074039
0.152967 0.049660 0.113770
0.232809 0.015845 0.264072
0.430104 0.057156 0.455763
0.652591 0.084953 0.579479
0.761436 0.000000 0.485672
0.571238 0.000000 0.000000
0.000000 0.000000 0.000000
0.483229 0.474102 0.294632
0.313417 0.285412 0.203258
0.280348 0.207007 0.250213
0.375882 0.221330 0.404974
0.545310 0.270667 0.596839
0.687352 0.257148 0.714919
0.654160 0.042751 0.608145
0.251312 0.000000 0.085262
0.000000 0.000000 0.000000
0.347540 0.429749 0.295881
0.240956 0.341818 0.214519
0.241262 0.336835 0.269404
0.331303 0.388010 0.428494
0.447352 0.428400 0.619560
0.479113 0.350902 0.730194
0.269719 0.008261 0.607803
0.000000 0.000000 0.059609
0.000000 0.000000 0.000000
0.255275 0.421768 0.282817
0.200106 0.433960 0.213152
0.217651 0.496074 0.276815
0.281737 0.572089 0.440239
0.319619 0.585827 0.629675
0.211986 0.420956 0.731191
0.000000 0.000000 0.590670
0.000000 0.000000 0.013813
0.000000 0.000000 0.000000
0.466670 0.536052 0.430215
0.451831 0.647004 0.374071
0.471202 0.769161 0.447496
0.489595 0.857270 0.615401
0.425248 0.825923 0.802512
0.149832 0.549556 0.893375
0.000000 0.000000 0.732351
0.000000 0.000000 0.123619
0.000000 0.000000 0.000000
1.000000 0.886000 0.982431
1.000000 1.000000 0.941772
1.000000 1.000000 1.000000
1.000000 1.000000 1.000000
1.000000 1.000000 1.000000
0.636254 0.846448 1.000000
0.000000 0.000000 1.000000
0.000000 0.000000 0.634353
0.000000 0.000000 0.000000
1.000000 1.000000 1.000000
1.000000 1.000000 1.000000
1.000000 1.000000 1.000000
1.000000 1.000000 1.000000
1.000000 1.000000 1.000000
1.000000 1.000000 1.000000
0.853270 0.295133 1.000000
0.000000 0.000000 1.000000
0.000000 0.000000 0.467331
1.000000 1.000000 1.000000
1.000000 1.000000 1.000000
1.000000 1.000000 1.000000
1.000000 1.000000 1.000000
1.000000 1.000000 1.000000
1.000000 1.000000 1.000000
1.000000 1.000000 1.000000
0.988862 0.000000 1.000000
0.000000 0.000000 1.000000
1.000000 1.000000 1.000000
1.000000 1.000000 1.000000
1.000000 1.000000 1.000000
1.000000 1.000000 1.000000
1.000000 1.000000 1.000000
1.000000 1.000000 1.000000
1.000000 1.000000 1.000000
1.000000 0.000000 1.000000
0.929651 0.000000 1.000000
0.653832 0.625264 0.213041
0.329075 0.211554 0.055170
0.184676 0.000000 0.037834
0.236859 0.000000 0.148405
0.455278 0.000000 0.334073
0.763019 0.002831 0.501843
1.000000 0.017026 0.518540
1.000000 0.000000 0.210803
0.754468 0.000000 0.000000
0.690889 0.627853 0.371340
0.456047 0.318441 0.237446
0.374540 0.150652 0.240265
0.453578 0.116457 0.365647
0.653796 0.167671 0.559259
0.889263 0.215954 0.726584
1.000000 0.132810 0.732923
0.889368 0.000000 0.403393
0.249293 0.000000 0.000000
0.538361 0.585401 0.358780
0.379356 0.379240 0.247172
0.342341 0.287149 0.267616
0.425505 0.291865 0.404439
0.580470 0.335974 0.601786
0.712286 0.321903 0.763617
0.679435 0.111925 0.753710
0.293829 0.000000 0.395660
0.000000 0.000000 0.000000
0.371167 0.555391 0.275540
0.274648 0.450705 0.184666
0.264446 0.426844 0.220343
0.329734 0.457316 0.365376
0.413117 0.475474 0.562387
0.410628 0.374513 0.713814
0.171733 0.007474 0.681911
0.000000 0.000000 0.288752
0.000000 0.000000 0.000000
0.443973 0.622811 0.291383
0.397312 0.617092 0.219828
0.396970 0.653266 0.268485
0.423103 0.695607 0.418636
0.409300 0.668237 0.611379
0.242577 0.455120 0.747630
0.000000 0.000000 0.688120
0.000000 0.000000 0.253400
0.000000 0.000000 0.000000
1.000000 0.900149 0.645651
1.000000 0.990160 0.592141
1.000000 1.000000 0.651664
1.000000 1.000000 0.803978
0.906327 1.000000 0.988659
0.546165 0.672562 1.000000
0.000000 0.000000 1.000000
0.000000 0.000000 0.529919
0.000000 0.000000 0.000000
1.000000 1.000000 1.000000
1.000000 1.000000 1.000000
1.000000 1.000000 1.000000
1.000000 1.000000 1.000000
1.000000 1.000000 1.000000
1.000000 1.000000 1.000000
0.679510 0.136306 1.000000
0.000000 0.000000 1.000000
0.000000 0.000000 0.263249
1.000000 1.000000 1.000000
1.000000 1.000000 1.000000
1.000000 1.000000 1.000000
1.000000 1.000000 1.000000
1.000000 1.000000 1.000000
1.000000 1.000000 1.000000
1.000000 0.778677 1.000000
0.722567 0.000000 1.000000
0.000000 0.000000 1.000000
1.000000 1.000000 1.000000
1.000000 1.000000 1.000000
1.000000 1.000000 1.000000
1.000000 1.000000 1.000000
1.000000 1.000000 1.000000
1.000000 1.000000 1.000000
1.000000 1.000000 1.000000
1.000000 0.000000 1.000000
0.562624 0.000000 1.000000
0.794249 0.681405 0.218208
0.392290 0.171656 0.021584
0.184162 0.000000 0.000000
0.201436 0.000000 0.019822
0.429114 0.000000 0.181988
0.805629 0.000000 0.364083
1.000000 0.162149 0.449301
1.000000 0.181038 0.280653
1.000000 0.000000 0.000000
0.896975 0.718822 0.437517
0.600694 0.315849 0.281490
0.469726 0.085923 0.248309
0.526627 0.030546 0.340195
0.747382 0.111061 0.519185
1.000000 0.248658 0.707134
1.000000 0.324369 0.785713
1.000000 0.179073 0.596411
1.000000 0.000000 0.000000
0.754493 0.687582 0.435716
0.548271 0.389195 0.315358
0.474521 0.236085 0.310605
0.546781 0.220520 0.422155
0.732019 0.294614 0.610521
0.950634 0.370324 0.796037
1.000000 0.319451 0.858851
0.936738 0.000000 0.638929
0.312177 0.000000 0.000000
0.536150 0.644262 0.307974
0.405095 0.447541 0.218495
0.369344 0.362637 0.236540
0.433418 0.372587 0.361284
0.555270 0.420271 0.551719
0.646280 0.408416 0.726653
0.571261 0.199591 0.764715
0.148456 0.000000 0.504345
0.000000 0.000000 0.000000
0.491038 0.672939 0.219039
0.420981 0.574236 0.155788
0.404735 0.548199 0.191140
0.437805 0.568634 0.322747
0.469125 0.569190 0.508080
0.401061 0.443361 0.664424
0.089407 0.044486 0.668883
0.000000 0.000000 0.358377
0.000000 0.000000 0.000000
0.947997 0.885194 0.403243
0.925493 0.880129 0.361706
0.910982 0.902890 0.409012
0.890952 0.918052 0.541291
0.805319 0.850031 0.714490
0.547434 0.583091 0.844373
0.000000 0.000000 0.806519
0.000000 0.000000 0.436327
0.000000 0.000000 0.000000
1.000000 1.000000 1.000000
1.000000 1.000000 1.000000
1.000000 1.000000 1.000000
1.000000 1.000000 1.000000
1.000000 1.000000 1.000000
1.000000 0.963035 1.000000
0.608194 0.084845 1.000000
0.000000 0.000000 1.000000
0.000000 0.000000 0.046926
1.000000 1.000000 1.000000
1.000000 1.000000 1.000000
1.000000 1.000000 1.000000
1.000000 1.000000 1.000000
1.000000 1.000000 1.000000
1.000000 1.000000 1.000000
1.000000 0.577214 1.000000
0.565303 0.000000 1.000000
0.000000 0.000000 1.000000
1.000000 1.000000 1.000000
1.000000 1.000000 1.000000
1.000000 1.000000 1.000000
1.000000 1.000000 1.000000
1.000000 1.000000 1.000000
1.000000 1.000000 1.000000
1.000000 1.000000 1.000000
1.000000 0.000000 1.000000
0.306717 0.000000 1.000000
0.818101 0.635006 0.078411
0.349472 0.073057 0.000000
0.083532 0.000000 0.000000
0.067200 0.000000 0.000000
0.300826 0.000000 0.000000
0.738187 0.095682 0.113580
1.000000 0.469081 0.237007
1.000000 0.769088 0.164885
1.000000 0.815185 0.000000
1.000000 0.728589 0.406240
0.691919 0.274734 0.260138
0.519018 0.025440 0.210763
0.556697 0.000000 0.276706
0.796288 0.144498 0.436376
1.000000 0.414440 0.627997
1.000000 0.692127 0.749613
1.000000 0.827966 0.659083
1.000000 0.632208 0.174084
0.952953 0.729305 0.463815
0.713268 0.380212 0.367875
0.611924 0.207693 0.358840
0.677804 0.213546 0.453777
0.893225 0.359411 0.629574
1.000000 0.566776 0.822933
1.000000 0.716971 0.930374
1.000000 0.651172 0.808233
1.000000 0.170398 0.272664
0.728246 0.692822 0.341292
0.578020 0.444430 0.287486
0.527471 0.338934 0.309922
0.596468 0.368901 0.424147
0.758310 0.486741 0.605525
0.939726 0.604707 0.789235
1.000000 0.594900 0.870275
0.835347 0.289263 0.703458
0.170162 0.000000 0.103415
0.606895 0.702310 0.198407
0.530419 0.549827 0.178844
0.510631 0.500873 0.224023
0.558384 0.538784 0.347968
0.637960 0.606736 0.524518
0.667072 0.607754 0.687332
0.516862 0.404704 0.729883
0.011903 0.000000 0.505463
0.000000 0.000000 0.000000
0.912168 0.868440 0.264478
0.894454 0.806345 0.271407
0.886117 0.802722 0.330739
0.888989 0.831675 0.454972
0.858338 0.827149 0.616426
0.702859 0.682937 0.747234
0.284678 0.252675 0.739349
0.000000 0.000000 0.444538
0.000000 0.000000 0.000000
1.000000 1.000000 0.838404
1.000000 1.000000 0.864214
1.000000 1.000000 0.929246
1.000000 1.000000 1.000000
1.000000 1.000000 1.000000
1.000000 0.964781 1.000000
0.731679 0.272605 1.000000
0.000000 0.000000 0.820551
0.000000 0.000000 0.000000
1.000000 1.000000 1.000000
1.000000 1.000000 1.000000
1.000000 1.000000 1.000000
1.000000 1.000000 1.000000
1.000000 1.000000 1.000000
1.000000 1.000000 1.000000
1.000000 0.625790 1.000000
0.638986 0.000000 1.000000
0.000000 0.000000 1.000000
1.000000 1.000000 1.000000
1.000000 1.000000 1.000000
1.000000 1.000000 1.000000
1.000000 1.000000 1.000000
1.000000 1.000000 1.000000
1.000000 1.000000 1.000000
1.000000 1.000000 1.000000
1.000000 0.000000 1.000000
0.313402 0.000000 1.000000
0.601530 0.437631 0.000000
0.085316 0.000000 0.000000
0.000000 0.000000 0.000000
0.000000 0.000000 0.000000
0.000000 0.000000 0.000000
0.479597 0.347569 0.000000
1.000000 0.982508 0.000000
1.000000 1.000000 0.000000
1.000000 1.000000 0.000000
1.000000 0.620149 0.151612
0.635423 0.173612 0.059163
0.436671 0.000000 0.025070
0.466594 0.009585 0.084293
0.731871 0.293055 0.231613
1.000000 0.753897 0.421626
1.000000 1.000000 0.568746
1.000000 1.000000 0.547203
1.000000 1.000000 0.191045
1.000000 0.684995 0.341229
0.801055 0.342238 0.314543
0.689808 0.207440 0.333809
0.762386 0.291927 0.432468
1.000000 0.566871 0.603775
1.000000 0.963285 0.800805
1.000000 1.000000 0.936448
1.000000 1.000000 0.883412
1.000000 1.000000 0.474222
0.886616 0.686928 0.297695
0.741138 0.442748 0.325505
0.695095 0.372633 0.386026
0.783703 0.478677 0.511175
0.995609 0.722820 0.692685
1.000000 1.000000 0.882107
1.000000 1.000000 0.990810
1.000000 1.000000 0.889979
1.000000 0.913717 0.410614
0.751712 0.708210 0.175733
0.694345 0.556673 0.246913
0.691930 0.539617 0.336722
0.770667 0.649904 0.475554
0.910184 0.840243 0.653620
1.000000 1.000000 0.820950
1.000000 1.000000 0.887387
0.791170 0.816310 0.722595
0.038712 0.050820 0.156053
0.964875 0.858605 0.199650
0.979093 0.793047 0.303210
0.999455 0.816696 0.410478
1.000000 0.913183 0.550325
1.000000 1.000000 0.711441
1.000000 1.000000 0.842330
0.787439 0.873658 0.851316
0.164861 0.294703 0.606537
0.000000 0.000000 0.000000
1.000000 1.000000 0.663332
1.000000 1.000000 0.788422
1.000000 1.000000 0.901459
1.000000 1.000000 1.000000
1.000000 1.000000 1.000000
1.000000 1.000000 1.000000
1.000000 0.812855 1.000000
0.082610 0.000000 0.836661
0.000000 0.000000 0.045304
1.000000 1.000000 1.000000
1.000000 1.000000 1.000000
1.000000 1.000000 1.000000
1.000000 1.000000 1.000000
1.000000 1.000000 1.000000
1.000000 1.000000 1.000000
1.000000 1.000000 1.000000
1.000000 0.000000 1.000000
0.000000 0.000000 0.848689
1.000000 1.000000 1.000000
1.000000 1.000000 1.000000
1.000000 1.000000 1.000000
1.000000 1.000000 1.000000
1.000000 1.000000 1.000000
1.000000 1.000000 1.000000
1.000000 1.000000 1.000000
1.000000 0.000000 1.000000
0.695294 0.000000 1.000000
0.000000 0.022258 0.000000
0.000000 0.000000 0.000000
0.000000 0.000000 0.000000
0.000000 0.000000 0.000000
0.000000 0.000000 0.000000
0.000000 0.756731 0.000000
0.716983 1.000000 0.000000
1.000000 1.000000 0.000000
1.000000 1.000000 0.000000
0.671576 0.337911 0.000000
0.298047 0.000000 0.000000
0.098076 0.000000 0.000000
0.140261 0.075059 0.000000
0.446629 0.563224 0.000000
0.992637 1.000000 0.000000
1.000000 1.000000 0.148258
1.000000 1.000000 0.177587
1.000000 1.000000 0.000000
0.930614 0.510492 0.000000
0.699478 0.246633 0.026204
0.604572 0.222206 0.118027
0.705478 0.458067 0.252408
1.000000 0.934914 0.438976
1.000000 1.000000 0.647176
1.000000 1.000000 0.806268
1.000000 1.000000 0.805331
1.000000 1.000000 0.493262
0.911562 0.593852 0.060402
0.803302 0.425287 0.227446
0.789621 0.462044 0.371415
0.921081 0.715745 0.540598
1.000000 1.000000 0.743099
1.000000 1.000000 0.946841
1.000000 1.000000 1.000000
1.000000 1.000000 1.000000
1.000000 1.000000 0.641985
0.846795 0.669343 0.058287
0.842620 0.588998 0.278935
0.887045 0.674172 0.459845
1.000000 0.927259 0.647785
1.000000 1.000000 0.849336
1.000000 1.000000 1.000000
1.000000 1.000000 1.000000
1.000000 1.000000 0.998733
1.000000 1.000000 0.516890
1.000000 0.845823 0.140078
1.000000 0.845889 0.400102
1.000000 0.965985 0.602888
1.000000 1.000000 0.793678
1.000000 1.000000 0.977533
1.000000 1.000000 1.000000
1.000000 1.000000 1.000000
1.000000 1.000000 0.935333
0.217269 1.000000 0.338379
1.000000 1.000000 0.594648
1.000000 1.000000 0.879960
1.000000 1.000000 1.000000
1.000000 1.000000 1.000000
1.000000 1.000000 1.000000
1.000000 1.000000 1.000000
1.000000 1.000000 1.000000
0.971997 1.000000 1.000000
0.000000 0.052088 0.396433
1.000000 1.000000 1.000000
1.000000 1.000000 1.000000
1.000000 1.000000 1.000000
1.000000 1.000000 1.000000
1.000000 1.000000 1.000000
1.000000 1.000000 1.000000
1.000000 1.000000 1.000000
1.000000 0.977054 1.000000
0.000000 0.000000 1.000000
1.000000 1.000000 1.000000
1.000000 1.000000 1.000000
1.000000 1.000000 1.000000
1.000000 1.000000 1.000000
1.000000 1.000000 1.000000
1.000000 1.000000 1.000000
1.000000 1.000000 1.000000
1.000000 1.000000 1.000000
1.000000 0.000000 1.000000
0.000000 0.000000 0.000000
0.000000 0.000000 0.000000
0.000000 0.000000 0.000000
0.000000 0.000000 0.000000
0.000000 0.192701 0.000000
0.000000 1.000000 0.000000
0.000000 1.000000 0.000000
0.974694 1.000000 0.000000
1.000000 1.000000 0.000000
0.000000 0.000000 0.000000
0.000000 0.000000 0.000000
0.000000 0.000000 0.000000
0.000000 0.160545 0.000000
0.000000 0.942909 0.000000
0.444814 1.000000 0.000000
1.000000 1.000000 0.000000
1.000000 1.000000 0.000000
1.000000 1.000000 0.000000
0.429544 0.143052 0.000000
0.257523 0.046173 0.000000
0.213757 0.220288 0.000000
0.373172 0.695779 0.000000
0.764128 1.000000 0.002056
1.000000 1.000000 0.240593
1.000000 1.000000 0.430049
1.000000 1.000000 0.475876
1.000000 1.000000 0.243339
0.664524 0.362279 0.000000
0.634505 0.356255 0.000000
0.689593 0.586895 0.133673
0.895698 1.000000 0.391672
1.000000 1.000000 0.647694
1.000000 1.000000 0.886033
1.000000 1.000000 1.000000
1.000000 1.000000 1.000000
1.000000 1.000000 0.735131
0.774592 0.545827 0.000000
0.866243 0.622438 0.154871
0.995527 0.895697 0.485027
1.000000 1.000000 0.767965
1.000000 1.000000 1.000000
1.000000 1.000000 1.000000
1.000000 1.000000 1.000000
1.000000 1.000000 1.000000
1.000000 1.000000 0.871346
1.000000 0.801642 0.000000
1.000000 0.951940 0.466093
1.000000 1.000000 0.823649
1.000000 1.000000 1.000000
1.000000 1.000000 1.000000
1.000000 1.000000 1.000000
1.000000 1.000000 1.000000
1.000000 1.000000 1.000000
1.000000 1.000000 0.867373
1.000000 1.000000 0.548741
1.000000 1.000000 1.000000
1.000000 1.000000 1.000000
1.000000 1.000000 1.000000
1.000000 1.000000 1.000000
1.000000 1.000000 1.000000
1.000000 1.000000 1.000000
1.000000 1.000000 1.000000
1.000000 1.000000 1.000000
1.000000 1.000000 1.000000
1.000000 1.000000 1.000000
1.000000 1.000000 1.000000
1.000000 1.000000 1.000000
1.000000 1.000000 1.000000
1.000000 1.000000 1.000000
1.000000 1.000000 1.000000
1.000000 1.000000 1.000000
1.000000 1.000000 1.000000
1.000000 1.000000 1.000000
1.000000 1.000000 1.000000
1.000000 1.000000 1.000000
1.000000 1.000000 1.000000
1.000000 1.000000 1.000000
1.000000 1.000000 1.000000
1.000000 1.000000 1.000000
1.000000 1.000000 1.000000
1.000000 1.000000 1.000000
