public/luts/provia_rx_cc.cube
# Generated from ColorChecker fit
LUT_3D_SIZE 5
DOMAIN_MIN 0.0 0.0 0.0
DOMAIN_MAX 1.0 1.0 1.0
0.188862 0.047187 0.242559
0.070148 0.080743 0.398204
0.234592 0.240962 0.670234
0.000000 0.000000 0.082529
0.000000 0.000000 0.000000
0.019470 0.000000 0.268803
0.041625 0.242944 0.370562
0.077209 0.453160 0.604528
0.000000 0.000000 0.000000
0.000000 0.000000 0.000000
0.530936 0.096229 0.771569
0.606823 0.752861 0.881378
0.357205 0.912480 1.000000
0.000000 0.000000 0.479935
0.000000 0.000000 0.000000
1.000000 1.000000 1.000000
1.000000 1.000000 1.000000
1.000000 1.000000 1.000000
0.944400 0.314540 1.000000
0.000000 0.000000 0.137170
1.000000 1.000000 1.000000
1.000000 1.000000 1.000000
1.000000 1.000000 1.000000
1.000000 1.000000 1.000000
1.000000 0.000000 1.000000
0.481848 0.496433 0.173878
0.152967 0.049660 0.113770
0.430104 0.057156 0.455763
0.761436 0.000000 0.485672
0.000000 0.000000 0.000000
0.347540 0.429749 0.295881
0.241262 0.336835 0.269404
0.447352 0.428400 0.619560
0.269719 0.008261 0.607803
0.000000 0.000000 0.000000
0.466670 0.536052 0.430215
0.471202 0.769161 0.447496
0.425248 0.825923 0.802512
0.000000 0.000000 0.732351
0.000000 0.000000 0.000000
1.000000 1.000000 1.000000
1.000000 1.000000 1.000000
1.000000 1.000000 1.000000
0.853270 0.295133 1.000000
0.000000 0.000000 0.467331
1.000000 1.000000 1.000000
1.000000 1.000000 1.000000
1.000000 1.000000 1.000000
1.000000 1.000000 1.000000
0.929651 0.000000 1.000000
0.794249 0.681405 0.218208
0.184162 0.000000 0.000000
0.429114 0.000000 0.181988
1.000000 0.162149 0.449301
1.000000 0.000000 0.000000
0.754493 0.687582 0.435716
0.474521 0.236085 0.310605
0.732019 0.294614 0.610521
1.000000 0.319451 0.858851
0.312177 0.000000 0.000000
0.491038 0.672939 0.219039
0.404735 0.548199 0.191140
0.469125 0.569190 0.508080
0.089407 0.044486 0.668883
0.000000 0.000000 0.000000
1.000000 1.000000 1.000000
1.000000 1.000000 1.000000
1.000000 1.000000 1.000000
0.608194 0.084845 1.000000
0.000000 0.000000 0.046926
1.000000 1.000000 1.000000
1.000000 1.000000 1.000000
1.000000 1.000000 1.000000
1.000000 1.000000 1.000000
0.306717 0.000000 1.000000
0.601530 0.437631 0.000000
0.000000 0.000000 0.000000
0.000000 0.000000 0.000000
1.000000 0.982508 0.000000
1.000000 1.000000 0.000000
1.000000 0.684995 0.341229
0.689808 0.207440 0.333809
1.000000 0.566871 0.603775
1.000000 1.000000 0.936448
1.000000 1.000000 0.474222
0.751712 0.708210 0.175733
0.691930 0.539617 0.336722
0.910184 0.840243 0.653620
1.000000 1.000000 0.887387
0.038712 0.050820 0.156053
1.000000 1.000000 0.663332
1.000000 1.000000 0.901459
1.000000 1.000000 1.000000
1.000000 0.812855 1.000000
0.000000 0.000000 0.045304
1.000000 1.000000 1.000000
1.000000 1.000000 1.000000
1.000000 1.000000 1.000000
1.000000 1.000000 1.000000
0.695294 0.000000 1.000000
0.000000 0.000000 0.000000
0.000000 0.000000 0.000000
0.000000 0.192701 0.000000
0.000000 1.000000 0.000000
1.000000 1.000000 0.000000
0.429544 0.143052 0.000000
0.213757 0.220288 0.000000
0.764128 1.000000 0.002056
1.000000 1.000000 0.430049
1.000000 1.000000 0.243339
0.774592 0.545827 0.000000
0.995527 0.895697 0.485027
1.000000 1.000000 1.000000
1.000000 1.000000 1.000000
1.000000 1.000000 0.871346
1.000000 1.000000 0.548741
1.000000 1.000000 1.000000
1.000000 1.000000 1.000000
1.000000 1.000000 1.000000
1.000000 1.000000 1.000000
1.000000 1.000000 1.000000
1.000000 1.000000 1.000000
1.000000 1.000000 1.000000
1.000000 1.000000 1.000000
1.000000 1.000000 1.000000
