public/luts/provia_rx_cc.cube
# Generated from ColorChecker fit
LUT_3D_SIZE 33
DOMAIN_MIN 0.0 0.0 0.0
DOMAIN_MAX 1.0 1.0 1.0
0.188862 0.047187 0.242559
0.149589 0.036280 0.238081
0.117046 0.029525 0.241350
0.091586 0.027197 0.252108
0.073380 0.029420 0.269940
0.062418 0.036157 0.294273
0.058505 0.047216 0.324379
0.061268 0.062246 0.359370
0.070148 0.080743 0.398204
0.084408 0.102042 0.439680
0.103127 0.125323 0.482443
0.125202 0.149611 0.524976
0.149348 0.173770 0.565610
0.174100 0.196511 0.602516
0.197808 0.216385 0.633709
0.218643 0.231790 0.657048
0.234592 0.240962 0.670234
0.243462 0.241985 0.670810
0.242876 0.232784 0.656164
0.230276 0.211127 0.623527
0.202923 0.174624 0.569970
0.157894 0.120732 0.492412
0.092087 0.046747 0.387610
0.002216 0.000000 0.252167
0.000000 0.000000 0.082529
0.000000 0.000000 0.000000
0.000000 0.000000 0.000000
0.000000 0.000000 0.000000
0.000000 0.000000 0.000000
0.000000 0.000000 0.000000
0.000000 0.000000 0.000000
0.000000 0.000000 0.000000
0.000000 0.000000 0.000000
0.184218 0.025318 0.252473
0.148811 0.020286 0.246487
0.119913 0.019215 0.248332
0.097843 0.022347 0.257744
0.082735 0.029767 0.274302
0.074543 0.041403 0.297427
0.073040 0.057027 0.326385
0.077814 0.076252 0.360283
0.088274 0.098536 0.398072
0.103645 0.123181 0.438546
0.122973 0.149330 0.480341
0.145118 0.175971 0.521939
0.168761 0.201932 0.561661
0.192402 0.225889 0.597675
0.214355 0.246357 0.627988
0.232755 0.261695 0.650454
0.245556 0.270108 0.662767
0.250528 0.269640 0.662465
0.245259 0.258180 0.646931
0.227157 0.233461 0.613387
0.193446 0.193059 0.558901
0.141170 0.134391 0.480384
0.067189 0.054719 0.374590
0.000000 0.000000 0.238113
0.000000 0.000000 0.067394
0.000000 0.000000 0.000000
0.000000 0.000000 0.000000
0.000000 0.000000 0.000000
0.000000 0.000000 0.000000
0.000000 0.000000 0.000000
0.000000 0.000000 0.000000
0.000000 0.000000 0.000000
0.000000 0.000000 0.000000
0.170887 0.003009 0.258659
0.139216 0.003932 0.251293
0.113816 0.008603 0.251839
0.094970 0.017229 0.260027
0.082778 0.029858 0.275430
0.077159 0.046384 0.297463
0.077849 0.066540 0.325385
0.084403 0.089905 0.358298
0.096193 0.115901 0.395148
0.112410 0.143793 0.434721
0.132063 0.172689 0.475650
0.153979 0.201539 0.516407
0.176803 0.229138 0.555311
0.198998 0.254123 0.590521
0.218845 0.274974 0.620041
0.234444 0.290015 0.641716
0.243712 0.297412 0.653236
0.244385 0.295176 0.652132
0.234015 0.281160 0.635782
0.209976 0.253059 0.601401
0.169456 0.208413 0.546053
0.109463 0.144605 0.466641
0.026823 0.058859 0.359913
0.000000 0.000000 0.222459
0.000000 0.000000 0.050713
0.000000 0.000000 0.000000
0.000000 0.000000 0.000000
0.000000 0.000000 0.000000
0.000000 0.000000 0.000000
0.000000 0.000000 0.000000
0.000000 0.000000 0.000000
0.000000 0.000000 0.000000
0.000000 0.000000 0.000000
0.150461 0.000000 0.261692
0.122398 0.000000 0.253076
0.100352 0.000000 0.252449
0.084568 0.012291 0.259536
0.075114 0.030139 0.273902
0.071872 0.051541 0.294959
0.074543 0.076195 0.321958
0.082646 0.103644 0.353997
0.095520 0.133272 0.390013
0.112319 0.164310 0.428789
0.132018 0.195828 0.468950
0.153408 0.226742 0.508964
0.175098 0.255810 0.547143
0.195517 0.281632 0.581639
0.212912 0.302654 0.610451
0.225344 0.317162 0.631419
0.230698 0.323288 0.642226
0.226673 0.319005 0.640398
0.210788 0.302130 0.623304
0.180379 0.270323 0.588158
0.132600 0.221088 0.532013
0.064425 0.151770 0.451770
0.000000 0.059560 0.344169
0.000000 0.000000 0.205794
0.000000 0.000000 0.033074
0.000000 0.000000 0.000000
0.000000 0.000000 0.000000
0.000000 0.000000 0.000000
0.000000 0.000000 0.000000
0.000000 0.000000 0.000000
0.000000 0.000000 0.000000
0.000000 0.000000 0.000000
0.000000 0.000000 0.000000
0.124846 0.000000 0.262423
0.100266 0.000000 0.252685
0.081430 0.000000 0.251012
0.068551 0.008090 0.257120
0.061658 0.031164 0.270571
0.060600 0.057426 0.290768
0.065042 0.086540 0.316958
0.074469 0.118012 0.348231
0.088183 0.151191 0.383521
0.105304 0.185270 0.421604
0.124771 0.219284 0.461098
0.145340 0.252113 0.500465
0.165586 0.282478 0.538011
0.183902 0.308945 0.571885
0.198498 0.329922 0.600076
0.207403 0.343660 0.620421
0.208464 0.348253 0.630595
0.199346 0.341641 0.628119
0.177532 0.321603 0.610357
0.140324 0.285764 0.574515
0.084841 0.231590 0.517642
0.008020 0.156392 0.436632
0.000000 0.057324 0.328218
0.000000 0.000000 0.188981
0.000000 0.000000 0.015342
0.000000 0.000000 0.000000
0.000000 0.000000 0.000000
0.000000 0.000000 0.000000
0.000000 0.000000 0.000000
0.000000 0.000000 0.000000
0.000000 0.000000 0.000000
0.000000 0.000000 0.000000
0.000000 0.000000 0.000000
0.096257 0.000000 0.261970
0.075036 0.000000 0.251243
0.059272 0.000000 0.248650
0.049141 0.005288 0.253903
0.044636 0.033592 0.266558
0.045572 0.064697 0.286013
0.051579 0.098231 0.311507
0.062106 0.133663 0.342127
0.076419 0.170307 0.376798
0.093605 0.207320 0.414290
0.112566 0.243701 0.453218
0.132023 0.278293 0.492036
0.150517 0.309781 0.529045
0.166403 0.336696 0.562386
0.177859 0.357410 0.590045
0.182877 0.370137 0.609850
0.179269 0.372936 0.619472
0.164666 0.363709 0.616427
0.136514 0.340201 0.598071
0.092081 0.299999 0.561604
0.028449 0.240535 0.504071
0.000000 0.159083 0.422358
0.000000 0.052761 0.313194
0.000000 0.000000 0.173152
0.000000 0.000000 0.000000
0.000000 0.000000 0.000000
0.000000 0.000000 0.000000
0.000000 0.000000 0.000000
0.000000 0.000000 0.000000
0.000000 0.000000 0.000000
0.000000 0.000000 0.000000
0.000000 0.000000 0.000000
0.000000 0.000000 0.000000
0.067220 0.000000 0.261728
0.049240 0.000000 0.250141
0.036411 0.000000 0.246756
0.028874 0.004658 0.251279
0.026588 0.038193 0.263259
0.029331 0.074119 0.282089
0.036698 0.112029 0.307003
0.048103 0.151356 0.337079
0.062779 0.191377 0.371239
0.079774 0.231214 0.408246
0.097957 0.269829 0.446708
0.116015 0.306029 0.485076
0.132450 0.338465 0.521641
0.145585 0.365629 0.554542
0.153562 0.385858 0.581756
0.154337 0.397330 0.601107
0.145688 0.398069 0.610260
0.125209 0.385940 0.606723
0.090312 0.358651 0.587848
0.038230 0.313755 0.550829
0.000000 0.248646 0.492704
0.000000 0.160563 0.410353
0.000000 0.046588 0.300500
0.000000 0.000000 0.159712
0.000000 0.000000 0.000000
0.000000 0.000000 0.000000
0.000000 0.000000 0.000000
0.000000 0.000000 0.000000
0.000000 0.000000 0.000000
0.000000 0.000000 0.000000
0.000000 0.000000 0.000000
0.000000 0.000000 0.000000
0.000000 0.000000 0.000000
0.040574 0.000000 0.263360
0.025719 0.000000 0.251045
0.015691 0.000000 0.246996
0.010598 0.007078 0.250914
0.010363 0.045841 0.262341
0.014728 0.086565 0.280664
0.023255 0.128805 0.305112
0.035321 0.171958 0.334756
0.050123 0.215265 0.368513
0.066676 0.257813 0.405141
0.083813 0.298527 0.443240
0.100184 0.336178 0.481254
0.114259 0.369381 0.517472
0.124324 0.396593 0.550024
0.128484 0.416113 0.576883
0.124663 0.426084 0.595865
0.110602 0.424494 0.604630
0.083861 0.409172 0.600680
0.041816 0.377790 0.581362
0.000000 0.327864 0.543863
0.000000 0.256753 0.485215
0.000000 0.161659 0.402292
0.000000 0.039628 0.291814
0.000000 0.000000 0.150339
0.000000 0.000000 0.000000
0.000000 0.000000 0.000000
0.000000 0.000000 0.000000
0.000000 0.000000 0.000000
0.000000 0.000000 0.000000
0.000000 0.000000 0.000000
0.000000 0.000000 0.000000
0.000000 0.000000 0.000000
0.000000 0.000000 0.000000
0.019470 0.000000 0.268803
0.007625 0.000000 0.255891
0.000268 0.000000 0.251307
0.000000 0.013534 0.254745
0.000000 0.057521 0.265741
0.004929 0.103015 0.283676
0.014416 0.149535 0.307774
0.026928 0.196443 0.337099
0.041625 0.242944 0.370562
0.057487 0.288086 0.406915
0.073311 0.330761 0.444753
0.087713 0.369703 0.482514
0.099127 0.403491 0.518481
0.105805 0.430545 0.550776
0.105816 0.449129 0.577368
0.097049 0.457351 0.596068
0.077209 0.453160 0.604528
0.043820 0.434351 0.600245
0.000000 0.398560 0.580559
0.000000 0.343266 0.542653
0.000000 0.265792 0.483551
0.000000 0.163306 0.400124
0.000000 0.032815 0.289082
0.000000 0.000000 0.146980
0.000000 0.000000 0.000000
0.000000 0.000000 0.000000
0.000000 0.000000 0.000000
0.000000 0.000000 0.000000
0.000000 0.000000 0.000000
0.000000 0.000000 0.000000
0.000000 0.000000 0.000000
0.000000 0.000000 0.000000
0.000000 0.000000 0.000000
0.007369 0.000000 0.280265
0.000000 0.000000 0.266889
0.000000 0.000000 0.261899
0.000000 0.025118 0.264982
0.000000 0.074322 0.275670
0.003408 0.124557 0.293337
0.013661 0.175306 0.317200
0.026405 0.225894 0.346319
0.040768 0.275491 0.379597
0.055692 0.323110 0.415782
0.069941 0.367605 0.453462
0.082095 0.407675 0.491070
0.090551 0.441862 0.526881
0.093528 0.468551 0.559013
0.089059 0.485970 0.585428
0.074997 0.492189 0.603932
0.049014 0.485124 0.612170
0.008597 0.462531 0.607634
0.000000 0.422012 0.587658
0.000000 0.361009 0.549417
0.000000 0.276810 0.489933
0.000000 0.166545 0.406067
0.000000 0.027186 0.294525
0.000000 0.000000 0.151857
0.000000 0.000000 0.000000
0.000000 0.000000 0.000000
0.000000 0.000000 0.000000
0.000000 0.000000 0.000000
0.000000 0.000000 0.000000
0.000000 0.000000 0.000000
0.000000 0.000000 0.000000
0.000000 0.000000 0.000000
0.000000 0.000000 0.000000
0.008044 0.000000 0.300225
0.001889 0.000000 0.286518
0.000000 0.000000 0.281252
0.000856 0.043033 0.284107
0.005797 0.097443 0.294610
0.013953 0.152386 0.312128
0.024779 0.207308 0.335873
0.037547 0.261500 0.364899
0.051348 0.314094 0.398103
0.065092 0.364067 0.434226
0.077505 0.410239 0.471852
0.087132 0.451271 0.509406
0.092338 0.485669 0.545158
0.091302 0.511782 0.577221
0.082025 0.527803 0.603550
0.062325 0.531765 0.621944
0.029836 0.521548 0.630045
0.000000 0.494873 0.625336
0.000000 0.449304 0.605146
0.000000 0.382249 0.566646
0.000000 0.290958 0.506849
0.000000 0.172526 0.422612
0.000000 0.023890 0.310635
0.000000 0.000000 0.167461
0.000000 0.000000 0.000000
0.000000 0.000000 0.000000
0.000000 0.000000 0.000000
0.000000 0.000000 0.000000
0.000000 0.000000 0.000000
0.000000 0.000000 0.000000
0.000000 0.000000 0.000000
0.000000 0.000000 0.000000
0.000000 0.000000 0.000000
0.025580 0.000000 0.331435
0.022110 0.000000 0.317531
0.022009 0.009428 0.312118
0.025242 0.068586 0.314873
0.031593 0.128188 0.325314
0.040663 0.187804 0.342804
0.051872 0.246842 0.366548
0.064456 0.304557 0.395595
0.077473 0.360047 0.428835
0.089795 0.412250 0.465004
0.100115 0.459951 0.502679
0.106942 0.501776 0.540281
0.108605 0.536194 0.576072
0.103249 0.561519 0.608160
0.088839 0.575906 0.634493
0.063158 0.577354 0.652866
0.023805 0.563705 0.660912
0.000000 0.532645 0.656112
0.000000 0.481702 0.635787
0.000000 0.408247 0.597101
0.000000 0.309496 0.537063
0.000000 0.182506 0.452523
0.000000 0.024178 0.340175
0.000000 0.000000 0.196556
0.000000 0.000000 0.018047
0.000000 0.000000 0.000000
0.000000 0.000000 0.000000
0.000000 0.000000 0.000000
0.000000 0.000000 0.000000
0.000000 0.000000 0.000000
0.000000 0.000000 0.000000
0.000000 0.000000 0.000000
0.000000 0.000000 0.000000
0.064373 0.000000 0.376919
0.063485 0.000000 0.362951
0.065560 0.038351 0.357523
0.070527 0.103192 0.360304
0.078135 0.167972 0.370808
0.087948 0.232221 0.388391
0.099352 0.295315 0.412252
0.111550 0.356471 0.441434
0.123561 0.414750 0.474822
0.134224 0.469057 0.511145
0.142196 0.518138 0.548974
0.145951 0.560584 0.586723
0.143783 0.594829 0.622651
0.133802 0.619148 0.654859
0.113937 0.631663 0.681288
0.081935 0.630336 0.699727
0.035362 0.612972 0.707805
0.000000 0.577222 0.702995
0.000000 0.520578 0.682613
0.000000 0.440374 0.643817
0.000000 0.333791 0.583609
0.000000 0.197849 0.498834
0.000000 0.029414 0.386181
0.000000 0.000000 0.242179
0.000000 0.000000 0.063204
0.000000 0.000000 0.000000
0.000000 0.000000 0.000000
0.000000 0.000000 0.000000
0.000000 0.000000 0.000000
0.000000 0.000000 0.000000
0.000000 0.000000 0.000000
0.000000 0.000000 0.000000
0.000000 0.000000 0.000000
0.129130 0.000000 0.439971
0.130726 0.007077 0.426075
0.134860 0.077848 0.420763
0.141427 0.148376 0.423698
0.150140 0.218313 0.434390
0.160530 0.287155 0.452187
0.171946 0.354241 0.476283
0.183555 0.418752 0.505715
0.194342 0.479713 0.539362
0.203111 0.535993 0.575947
0.208483 0.586302 0.614035
0.208898 0.629195 0.652035
0.202613 0.663069 0.688199
0.187704 0.686165 0.720620
0.162065 0.696566 0.747238
0.123407 0.692200 0.765832
0.069261 0.670836 0.774027
0.000000 0.630089 0.769289
0.000000 0.567413 0.748928
0.000000 0.480108 0.710097
0.000000 0.365318 0.649792
0.000000 0.220027 0.564852
0.000000 0.041066 0.451959
0.000000 0.000000 0.307637
0.000000 0.000000 0.128256
0.000000 0.000000 0.000000
0.000000 0.000000 0.000000
0.000000 0.000000 0.000000
0.000000 0.000000 0.000000
0.000000 0.000000 0.000000
0.000000 0.000000 0.000000
0.000000 0.000000 0.000000
0.000000 0.000000 0.000000
0.224870 0.000000 0.524159
0.228853 0.052579 0.510469
0.234932 0.129551 0.505405
0.242969 0.205766 0.508624
0.252640 0.280839 0.519628
0.263442 0.354231 0.537761
0.274688 0.425242 0.562211
0.285510 0.493020 0.592009
0.294859 0.556553 0.626027
0.301502 0.614672 0.662983
0.304025 0.666054 0.701436
0.300834 0.709216 0.739789
0.290149 0.742520 0.776287
0.270013 0.764170 0.809019
0.238282 0.772214 0.835917
0.192635 0.764543 0.854756
0.130565 0.738891 0.863154
0.049385 0.692834 0.858570
0.000000 0.623794 0.838311
0.000000 0.529033 0.799521
0.000000 0.405659 0.739192
0.000000 0.250620 0.654155
0.000000 0.060710 0.541089
0.000000 0.000000 0.396510
0.000000 0.000000 0.216782
0.000000 0.000000 0.000000
0.000000 0.000000 0.000000
0.000000 0.000000 0.000000
0.000000 0.000000 0.000000
0.000000 0.000000 0.000000
0.000000 0.000000 0.000000
0.000000 0.000000 0.000000
0.000000 0.000000 0.000000
0.356925 0.027783 0.633321
0.363200 0.112009 0.619974
0.371114 0.195203 0.615290
0.380492 0.277102 0.618921
0.390977 0.357287 0.630364
0.402029 0.435180 0.648956
0.412927 0.510048 0.673879
0.422767 0.581001 0.704159
0.430464 0.646992 0.738661
0.434752 0.706816 0.776097
0.434180 0.759112 0.815021
0.427119 0.802363 0.853829
0.411756 0.834894 0.890761
0.386094 0.854874 0.923901
0.347959 0.860314 0.951172
0.294991 0.849068 0.970346
0.224650 0.818836 0.979032
0.134214 0.767157 0.974687
0.020777 0.691417 0.954608
0.000000 0.588842 0.915936
0.000000 0.456503 0.855656
0.000000 0.291313 0.770594
0.000000 0.090030 0.657420
0.000000 0.000000 0.512648
0.000000 0.000000 0.332634
0.000000 0.000000 0.113576
0.000000 0.000000 0.000000
0.000000 0.000000 0.000000
0.000000 0.000000 0.000000
0.000000 0.000000 0.000000
0.000000 0.000000 0.000000
0.000000 0.000000 0.000000
0.000000 0.000000 0.000000
0.530936 0.096229 0.771569
0.539412 0.187218 0.758700
0.549052 0.276650 0.754529
0.559647 0.364229 0.758703
0.570804 0.449497 0.770710
0.581947 0.531842 0.789885
0.592321 0.610495 0.815401
0.600986 0.684529 0.846278
0.606823 0.752861 0.881378
0.608528 0.814251 0.919404
0.604619 0.867301 0.958906
0.593428 0.910458 0.998273
0.573108 0.942011 1.000000
0.541628 0.960093 1.000000
0.496777 0.962679 1.000000
0.436161 0.947587 1.000000
0.357205 0.912480 1.000000
0.257149 0.854863 1.000000
0.133056 0.772084 1.000000
0.000000 0.661334 1.000000
0.000000 0.519647 1.000000
0.000000 0.343901 0.918290
0.000000 0.130817 0.805077
0.000000 0.000000 0.660175
0.000000 0.000000 0.479935
0.000000 0.000000 0.260550
0.000000 0.000000 0.000000
0.000000 0.000000 0.000000
0.000000 0.000000 0.000000
0.000000 0.000000 0.000000
0.000000 0.000000 0.000000
0.000000 0.000000 0.000000
0.000000 0.000000 0.000000
0.752857 0.182378 0.943284
0.763445 0.280164 0.931030
0.774707 0.375849 0.927506
0.786396 0.469099 0.932352
0.798085 0.559421 0.945052
0.809164 0.646166 0.964931
0.818841 0.728528 0.991161
0.826141 0.805547 1.000000
0.829911 0.876101 1.000000
0.828811 0.938914 1.000000
0.821323 0.992555 1.000000
0.805745 1.000000 1.000000
0.780194 1.000000 1.000000
0.742605 1.000000 1.000000
0.690730 1.000000 1.000000
0.622141 1.000000 1.000000
0.534227 1.000000 1.000000
0.424194 0.957865 1.000000
0.289069 0.867705 1.000000
0.125693 0.748416 1.000000
0.000000 0.596995 1.000000
0.000000 0.410285 1.000000
0.000000 0.184970 0.988453
0.000000 0.000000 0.843486
0.000000 0.000000 0.663082
0.000000 0.000000 0.443427
0.000000 0.000000 0.180553
0.000000 0.000000 0.000000
0.000000 0.000000 0.000000
0.000000 0.000000 0.000000
0.000000 0.000000 0.000000
0.000000 0.000000 0.000000
0.000000 0.000000 0.000000
1.000000 0.288296 1.000000
1.000000 0.392914 1.000000
1.000000 0.494863 1.000000
1.000000 0.593773 1.000000
1.000000 0.689114 1.000000
1.000000 0.780204 1.000000
1.000000 0.866199 1.000000
1.000000 0.946101 1.000000
1.000000 1.000000 1.000000
1.000000 1.000000 1.000000
1.000000 1.000000 1.000000
1.000000 1.000000 1.000000
1.000000 1.000000 1.000000
0.995326 1.000000 1.000000
0.936123 1.000000 1.000000
0.859238 1.000000 1.000000
0.762027 1.000000 1.000000
0.641661 1.000000 1.000000
0.495130 0.980298 1.000000
0.319243 0.852103 1.000000
0.110624 0.690560 1.000000
0.000000 0.492475 1.000000
0.000000 0.254495 1.000000
0.000000 0.000000 1.000000
0.000000 0.000000 0.886741
0.000000 0.000000 0.666875
0.000000 0.000000 0.403676
0.000000 0.000000 0.093009
0.000000 0.000000 0.000000
0.000000 0.000000 0.000000
0.000000 0.000000 0.000000
0.000000 0.000000 0.000000
0.000000 0.000000 0.000000
1.000000 0.416160 1.000000
1.000000 0.527640 1.000000
1.000000 0.635862 1.000000
1.000000 0.740418 1.000000
1.000000 0.840744 1.000000
1.000000 0.936119 1.000000
1.000000 1.000000 1.000000
1.000000 1.000000 1.000000
1.000000 1.000000 1.000000
1.000000 1.000000 1.000000
1.000000 1.000000 1.000000
1.000000 1.000000 1.000000
1.000000 1.000000 1.000000
1.000000 1.000000 1.000000
1.000000 1.000000 1.000000
1.000000 1.000000 1.000000
1.000000 1.000000 1.000000
0.916175 1.000000 1.000000
0.757869 1.000000 1.000000
0.569082 0.974518 1.000000
0.346405 0.802461 1.000000
0.086248 0.592586 1.000000
0.000000 0.341505 1.000000
0.000000 0.045676 1.000000
0.000000 0.000000 1.000000
0.000000 0.000000 0.935834
0.000000 0.000000 0.672365
0.000000 0.000000 0.361304
0.000000 0.000000 0.000000
0.000000 0.000000 0.000000
0.000000 0.000000 0.000000
0.000000 0.000000 0.000000
0.000000 0.000000 0.000000
1.000000 0.568254 1.000000
1.000000 0.686624 1.000000
1.000000 0.801124 1.000000
1.000000 0.911309 1.000000
1.000000 1.000000 1.000000
1.000000 1.000000 1.000000
1.000000 1.000000 1.000000
1.000000 1.000000 1.000000
1.000000 1.000000 1.000000
1.000000 1.000000 1.000000
1.000000 1.000000 1.000000
1.000000 1.000000 1.000000
1.000000 1.000000 1.000000
1.000000 1.000000 1.000000
1.000000 1.000000 1.000000
1.000000 1.000000 1.000000
1.000000 1.000000 1.000000
1.000000 1.000000 1.000000
1.000000 1.000000 1.000000
0.882154 1.000000 1.000000
0.645017 0.934923 1.000000
0.369189 0.712842 1.000000
0.050860 0.448222 1.000000
0.000000 0.137483 1.000000
0.000000 0.000000 1.000000
0.000000 0.000000 1.000000
0.000000 0.000000 0.991832
0.000000 0.000000 0.680432
0.000000 0.000000 0.317012
0.000000 0.000000 0.000000
0.000000 0.000000 0.000000
0.000000 0.000000 0.000000
0.000000 0.000000 0.000000
1.000000 0.746969 1.000000
1.000000 0.872254 1.000000
1.000000 0.993034 1.000000
1.000000 1.000000 1.000000
1.000000 1.000000 1.000000
1.000000 1.000000 1.000000
1.000000 1.000000 1.000000
1.000000 1.000000 1.000000
1.000000 1.000000 1.000000
1.000000 1.000000 1.000000
1.000000 1.000000 1.000000
1.000000 1.000000 1.000000
1.000000 1.000000 1.000000
1.000000 1.000000 1.000000
1.000000 1.000000 1.000000
1.000000 1.000000 1.000000
1.000000 1.000000 1.000000
1.000000 1.000000 1.000000
1.000000 1.000000 1.000000
1.000000 1.000000 1.000000
1.000000 1.000000 1.000000
0.721802 0.855574 1.000000
0.386124 0.576973 1.000000
0.002657 0.250861 1.000000
0.000000 0.000000 1.000000
0.000000 0.000000 1.000000
0.000000 0.000000 1.000000
0.000000 0.000000 1.000000
0.000000 0.000000 0.692033
0.000000 0.000000 0.271571
0.000000 0.000000 0.000000
0.000000 0.000000 0.000000
0.000000 0.000000 0.000000
1.000000 0.954803 1.000000
1.000000 1.000000 1.000000
1.000000 1.000000 1.000000
1.000000 1.000000 1.000000
1.000000 1.000000 1.000000
1.000000 1.000000 1.000000
1.000000 1.000000 1.000000
1.000000 1.000000 1.000000
1.000000 1.000000 1.000000
1.000000 1.000000 1.000000
1.000000 1.000000 1.000000
1.000000 1.000000 1.000000
1.000000 1.000000 1.000000
1.000000 1.000000 1.000000
1.000000 1.000000 1.000000
1.000000 1.000000 1.000000
1.000000 1.000000 1.000000
1.000000 1.000000 1.000000
1.000000 1.000000 1.000000
1.000000 1.000000 1.000000
1.000000 1.000000 1.000000
1.000000 1.000000 1.000000
0.798202 0.730195 1.000000
0.395641 0.388243 1.000000
0.000000 0.000000 1.000000
0.000000 0.000000 1.000000
0.000000 0.000000 1.000000
0.000000 0.000000 1.000000
0.000000 0.000000 1.000000
0.000000 0.000000 0.708197
0.000000 0.000000 0.225825
0.000000 0.000000 0.000000
0.000000 0.000000 0.000000
1.000000 1.000000 1.000000
1.000000 1.000000 1.000000
1.000000 1.000000 1.000000
1.000000 1.000000 1.000000
1.000000 1.000000 1.000000
1.000000 1.000000 1.000000
1.000000 1.000000 1.000000
1.000000 1.000000 1.000000
1.000000 1.000000 1.000000
1.000000 1.000000 1.000000
1.000000 1.000000 1.000000
1.000000 1.000000 1.000000
1.000000 1.000000 1.000000
1.000000 1.000000 1.000000
1.000000 1.000000 1.000000
1.000000 1.000000 1.000000
1.000000 1.000000 1.000000
1.000000 1.000000 1.000000
1.000000 1.000000 1.000000
1.000000 1.000000 1.000000
1.000000 1.000000 1.000000
1.000000 1.000000 1.000000
1.000000 0.910430 1.000000
0.872881 0.552168 1.000000
0.396068 0.139700 1.000000
0.000000 0.000000 1.000000
0.000000 0.000000 1.000000
0.000000 0.000000 1.000000
0.000000 0.000000 1.000000
0.000000 0.000000 1.000000
0.000000 0.000000 0.730027
0.000000 0.000000 0.180694
0.000000 0.000000 0.000000
1.000000 1.000000 1.000000
1.000000 1.000000 1.000000
1.000000 1.000000 1.000000
1.000000 1.000000 1.000000
1.000000 1.000000 1.000000
1.000000 1.000000 1.000000
1.000000 1.000000 1.000000
1.000000 1.000000 1.000000
1.000000 1.000000 1.000000
1.000000 1.000000 1.000000
1.000000 1.000000 1.000000
1.000000 1.000000 1.000000
1.000000 1.000000 1.000000
1.000000 1.000000 1.000000
1.000000 1.000000 1.000000
1.000000 1.000000 1.000000
1.000000 1.000000 1.000000
1.000000 1.000000 1.000000
1.000000 1.000000 1.000000
1.000000 1.000000 1.000000
1.000000 1.000000 1.000000
1.000000 1.000000 1.000000
1.000000 1.000000 1.000000
1.000000 0.745285 1.000000
0.944400 0.314540 1.000000
0.385632 0.000000 1.000000
0.000000 0.000000 1.000000
0.000000 0.000000 1.000000
0.000000 0.000000 1.000000
0.000000 0.000000 1.000000
0.000000 0.000000 1.000000
0.000000 0.000000 0.758699
0.000000 0.000000 0.137170
1.000000 1.000000 1.000000
1.000000 1.000000 1.000000
1.000000 1.000000 1.000000
1.000000 1.000000 1.000000
1.000000 1.000000 1.000000
1.000000 1.000000 1.000000
1.000000 1.000000 1.000000
1.000000 1.000000 1.000000
1.000000 1.000000 1.000000
1.000000 1.000000 1.000000
1.000000 1.000000 1.000000
1.000000 1.000000 1.000000
1.000000 1.000000 1.000000
1.000000 1.000000 1.000000
1.000000 1.000000 1.000000
1.000000 1.000000 1.000000
1.000000 1.000000 1.000000
1.000000 1.000000 1.000000
1.000000 1.000000 1.000000
1.000000 1.000000 1.000000
1.000000 1.000000 1.000000
1.000000 1.000000 1.000000
1.000000 1.000000 1.000000
1.000000 0.970348 1.000000
1.000000 0.520828 1.000000
1.000000 0.010017 1.000000
0.362457 0.000000 1.000000
0.000000 0.000000 1.000000
0.000000 0.000000 1.000000
0.000000 0.000000 1.000000
0.000000 0.000000 1.000000
0.000000 0.000000 1.000000
0.000000 0.000000 0.795464
1.000000 1.000000 1.000000
1.000000 1.000000 1.000000
1.000000 1.000000 1.000000
1.000000 1.000000 1.000000
1.000000 1.000000 1.000000
1.000000 1.000000 1.000000
1.000000 1.000000 1.000000
1.000000 1.000000 1.000000
1.000000 1.000000 1.000000
1.000000 1.000000 1.000000
1.000000 1.000000 1.000000
1.000000 1.000000 1.000000
1.000000 1.000000 1.000000
1.000000 1.000000 1.000000
1.000000 1.000000 1.000000
1.000000 1.000000 1.000000
1.000000 1.000000 1.000000
1.000000 1.000000 1.000000
1.000000 1.000000 1.000000
1.000000 1.000000 1.000000
1.000000 1.000000 1.000000
1.000000 1.000000 1.000000
1.000000 1.000000 1.000000
1.000000 1.000000 1.000000
1.000000 0.761426 1.000000
1.000000 0.229764 1.000000
1.000000 0.000000 1.000000
