public/luts/rose_spectra.cube
# Generated from ColorChecker fit
LUT_3D_SIZE 5
DOMAIN_MIN 0.0 0.0 0.0
DOMAIN_MAX 1.0 1.0 1.0
0.142965 0.162754 0.218669
0.000000 0.000000 0.363910
0.000000 0.000000 0.461734
0.000000 0.000000 0.469031
0.030468 0.628771 0.480811
0.050745 0.000000 0.449319
0.000000 0.103159 0.717139
0.000000 0.273082 0.899164
0.000000 0.386946 0.808517
0.000000 0.568532 0.396438
0.000000 0.000000 0.485027
0.000000 0.295471 0.732527
0.000000 0.593978 0.811148
0.000000 0.347794 0.390244
0.000000 0.000000 0.000000
0.200661 0.000000 1.000000
0.371015 0.623864 1.000000
0.159529 0.880077 1.000000
0.000000 0.014488 0.360663
0.000000 0.000000 0.000000
1.000000 0.419890 1.000000
1.000000 1.000000 1.000000
1.000000 1.000000 1.000000
0.000000 0.000682 1.000000
0.000000 0.000000 0.000000
0.503143 0.534515 0.085129
0.092794 0.000000 0.000000
0.116242 0.000000 0.036281
0.499838 0.000000 0.166552
1.000000 0.773577 0.412395
0.354599 0.353967 0.267787
0.213857 0.276991 0.330371
0.318835 0.335842 0.547377
0.464520 0.391260 0.680784
0.432787 0.506428 0.630683
0.125482 0.172890 0.327794
0.187122 0.488680 0.422622
0.247069 0.643669 0.615624
0.000000 0.310917 0.525007
0.000000 0.000000 0.000000
0.308835 0.222108 0.857678
0.504367 0.876300 0.964263
0.391465 0.984584 1.000000
0.000000 0.032340 0.643523
0.000000 0.000000 0.000000
1.000000 1.000000 1.000000
1.000000 1.000000 1.000000
1.000000 1.000000 1.000000
0.000000 0.151216 1.000000
0.000000 0.000000 0.762628
0.822114 0.897340 0.416415
0.289359 0.064530 0.073978
0.371038 0.000000 0.068246
0.984748 0.181557 0.253818
1.000000 1.000000 0.623409
0.625392 0.692630 0.401647
0.360647 0.281777 0.261226
0.514396 0.265376 0.472801
0.872876 0.443570 0.747204
1.000000 0.818948 0.933382
0.290048 0.495647 0.316300
0.250910 0.449299 0.245301
0.374993 0.505101 0.496883
0.317176 0.275516 0.638111
0.000000 0.000000 0.374162
0.337539 0.519246 0.550753
0.480342 0.811075 0.533840
0.471765 0.824272 0.765388
0.000000 0.000000 0.668691
0.000000 0.000000 0.000000
1.000000 1.000000 1.000000
1.000000 1.000000 1.000000
1.000000 1.000000 1.000000
0.277312 0.145600 1.000000
0.000000 0.000000 0.967874
1.000000 1.000000 0.749688
0.418288 0.103030 0.261701
0.488923 0.000000 0.238514
1.000000 0.807349 0.483581
1.000000 1.000000 0.938470
1.000000 0.972674 0.564381
0.498496 0.238426 0.295049
0.664846 0.302659 0.532643
1.000000 0.904920 0.936849
1.000000 1.000000 1.000000
0.570180 0.728349 0.340347
0.343551 0.338858 0.162228
0.528705 0.459869 0.488456
0.771768 0.643252 0.834947
0.705753 0.643318 0.855735
0.465600 0.673363 0.265815
0.502064 0.630336 0.168726
0.627848 0.721353 0.528698
0.357717 0.310603 0.717878
0.000000 0.000000 0.246532
1.000000 1.000000 1.000000
1.000000 1.000000 1.000000
1.000000 1.000000 1.000000
0.919862 0.466728 1.000000
0.000000 0.000000 1.000000
1.000000 1.000000 0.668396
0.623633 0.173054 0.196204
0.638247 0.454145 0.274263
1.000000 1.000000 0.654880
1.000000 1.000000 1.000000
1.000000 1.000000 0.515759
0.788900 0.265821 0.263473
0.955979 0.686641 0.630399
1.000000 1.000000 1.000000
1.000000 1.000000 1.000000
1.000000 0.910428 0.336024
0.643987 0.316854 0.181356
0.911441 0.787541 0.670156
1.000000 1.000000 1.000000
1.000000 1.000000 1.000000
0.865109 0.764512 0.115274
0.765920 0.534199 0.053194
1.000000 0.996012 0.614131
1.000000 1.000000 1.000000
0.961309 1.000000 1.000000
1.000000 1.000000 0.721681
1.000000 1.000000 0.864417
1.000000 1.000000 1.000000
1.000000 1.000000 1.000000
0.542273 0.034008 1.000000
