public/luts/rose_spectra.cube
# Generated from ColorChecker fit
LUT_3D_SIZE 33
DOMAIN_MIN 0.0 0.0 0.0
DOMAIN_MAX 1.0 1.0 1.0
0.142965 0.162754 0.218669
0.064504 0.099183 0.234551
0.000000 0.040131 0.251874
0.000000 0.000000 0.270201
0.000000 0.000000 0.289127
0.000000 0.000000 0.308281
0.000000 0.000000 0.327327
0.000000 0.000000 0.345959
0.000000 0.000000 0.363910
0.000000 0.000000 0.380943
0.000000 0.000000 0.396856
0.000000 0.000000 0.411480
0.000000 0.000000 0.424680
0.000000 0.000000 0.436357
0.000000 0.000000 0.446441
0.000000 0.000000 0.454900
0.000000 0.000000 0.461734
0.000000 0.000000 0.466976
0.000000 0.000000 0.470694
0.000000 0.000000 0.472990
0.000000 0.000000 0.473997
0.000000 0.000000 0.473886
0.000000 0.000000 0.472858
0.000000 0.000000 0.471150
0.000000 0.000000 0.469031
0.000000 0.000000 0.466806
0.000000 0.000000 0.464810
0.000000 0.004398 0.463416
0.000000 0.099961 0.463028
0.000000 0.209126 0.464084
0.000000 0.332923 0.467058
0.000000 0.472429 0.472453
0.030468 0.628771 0.480811
0.141529 0.140381 0.263653
0.068940 0.086591 0.282442
0.002273 0.037300 0.302882
0.000000 0.000000 0.324500
0.000000 0.000000 0.346855
0.000000 0.000000 0.369541
0.000000 0.000000 0.392188
0.000000 0.000000 0.414455
0.000000 0.000000 0.436039
0.000000 0.000000 0.456668
0.000000 0.000000 0.476105
0.000000 0.000000 0.494147
0.000000 0.000000 0.510623
0.000000 0.000000 0.525397
0.000000 0.000000 0.538368
0.000000 0.000000 0.549465
0.000000 0.000000 0.558655
0.000000 0.000000 0.565936
0.000000 0.000000 0.571340
0.000000 0.000000 0.574934
0.000000 0.000000 0.576817
0.000000 0.000000 0.577123
0.000000 0.000000 0.576020
0.000000 0.000000 0.573708
0.000000 0.000000 0.570422
0.000000 0.000000 0.566431
0.000000 0.028183 0.562037
0.000000 0.105526 0.557575
0.000000 0.194282 0.553416
0.000000 0.295386 0.549963
0.000000 0.409819 0.547652
0.000000 0.538614 0.546956
0.019774 0.682853 0.548377
0.136895 0.117265 0.304902
0.070052 0.073056 0.326157
0.009039 0.033306 0.349261
0.000000 0.000000 0.373706
0.000000 0.000000 0.399016
0.000000 0.000000 0.424751
0.000000 0.000000 0.450502
0.000000 0.000000 0.475898
0.000000 0.000000 0.500597
0.000000 0.000000 0.524294
0.000000 0.000000 0.546716
0.000000 0.000000 0.567624
0.000000 0.000000 0.586814
0.000000 0.000000 0.604115
0.000000 0.000000 0.619388
0.000000 0.000000 0.632530
0.000000 0.000000 0.643471
0.000000 0.000000 0.652175
0.000000 0.000000 0.658638
0.000000 0.000000 0.662892
0.000000 0.000000 0.665002
0.000000 0.000000 0.665066
0.000000 0.000000 0.663217
0.000000 0.000000 0.659620
0.000000 0.007235 0.654475
0.000000 0.060320 0.648015
0.000000 0.121961 0.640507
0.000000 0.192946 0.632254
0.000000 0.274114 0.623587
0.000000 0.366352 0.614877
0.000000 0.470596 0.606526
0.000000 0.587834 0.598967
0.000000 0.719099 0.592672
0.129120 0.093196 0.341706
0.067895 0.058376 0.365015
0.012394 0.027953 0.390360
0.000000 0.001484 0.417197
0.000000 0.000000 0.445017
0.000000 0.000000 0.473343
0.000000 0.000000 0.501733
0.000000 0.000000 0.529778
0.000000 0.000000 0.557103
0.000000 0.000000 0.583368
0.000000 0.000000 0.608264
0.000000 0.000000 0.631518
0.000000 0.000000 0.652889
0.000000 0.000000 0.672172
0.000000 0.000000 0.689193
0.000000 0.000000 0.703815
0.000000 0.000000 0.715930
0.000000 0.000000 0.725469
0.000000 0.000000 0.732394
0.000000 0.000000 0.736699
0.000000 0.000000 0.738416
0.000000 0.000000 0.737607
0.000000 0.021471 0.734369
0.000000 0.057056 0.728834
0.000000 0.098699 0.721166
0.000000 0.147042 0.711563
0.000000 0.202780 0.700257
0.000000 0.266656 0.687515
0.000000 0.339460 0.673634
0.000000 0.422036 0.658949
0.000000 0.515273 0.643827
0.000000 0.620112 0.628667
0.000000 0.737544 0.613905
0.118341 0.068031 0.373572
0.062605 0.042415 0.398551
0.012474 0.021114 0.425742
0.000000 0.003637 0.454566
0.000000 0.000000 0.484478
0.000000 0.000000 0.514968
0.000000 0.000000 0.545557
0.000000 0.000000 0.575803
0.000000 0.000000 0.605294
0.000000 0.000000 0.633655
0.000000 0.000000 0.660543
0.000000 0.000000 0.685648
0.000000 0.000000 0.708697
0.000000 0.000000 0.729447
0.000000 0.000000 0.747691
0.000000 0.000000 0.763255
0.000000 0.000000 0.775997
0.000000 0.004147 0.785813
0.000000 0.018928 0.792629
0.000000 0.036426 0.796405
0.000000 0.056992 0.797137
0.000000 0.081027 0.794853
0.000000 0.108979 0.789614
0.000000 0.141349 0.781517
0.000000 0.178685 0.770690
0.000000 0.221585 0.757298
0.000000 0.270696 0.741537
0.000000 0.326715 0.723637
0.000000 0.390389 0.703864
0.000000 0.462513 0.682514
0.000000 0.543932 0.659921
0.000000 0.635542 0.636448
0.000000 0.738285 0.612496
0.104773 0.041690 0.400222
0.054400 0.025104 0.426515
0.009497 0.012726 0.455185
0.000000 0.004022 0.485619
0.000000 0.000000 0.517236
0.000000 0.000000 0.549490
0.000000 0.000000 0.581869
0.000000 0.000000 0.613894
0.000000 0.000336 0.645119
0.000000 0.005203 0.675134
0.000000 0.011383 0.703560
0.000000 0.018734 0.730053
0.000000 0.027166 0.754303
0.000000 0.036639 0.776034
0.000000 0.047161 0.795003
0.000000 0.058790 0.811001
0.000000 0.071634 0.823852
0.000000 0.085849 0.833414
0.000000 0.101641 0.839580
0.000000 0.119266 0.842275
0.000000 0.139030 0.841460
0.000000 0.161286 0.837126
0.000000 0.186440 0.829302
0.000000 0.214943 0.818047
0.000000 0.247298 0.803456
0.000000 0.284059 0.785657
0.000000 0.325827 0.764812
0.000000 0.373252 0.741117
0.000000 0.427035 0.714800
0.000000 0.487927 0.686125
0.000000 0.556726 0.655388
0.000000 0.634280 0.622920
0.000000 0.721490 0.589085
0.088718 0.014164 0.421592
0.043579 0.006437 0.448873
0.003761 0.002793 0.478685
0.000000 0.002649 0.510379
0.000000 0.005475 0.543342
0.000000 0.010789 0.576990
0.000000 0.018157 0.610777
0.000000 0.027198 0.644189
0.000000 0.037575 0.676745
0.000000 0.049007 0.707999
0.000000 0.061256 0.737538
0.000000 0.074138 0.764983
0.000000 0.087517 0.789988
0.000000 0.101306 0.812242
0.000000 0.115467 0.831468
0.000000 0.130013 0.847420
0.000000 0.145006 0.859888
0.000000 0.160556 0.868696
0.000000 0.176823 0.873700
0.000000 0.194018 0.874791
0.000000 0.212400 0.871893
0.000000 0.232277 0.864966
0.000000 0.254008 0.853999
0.000000 0.278000 0.839020
0.000000 0.304711 0.820087
0.000000 0.334645 0.797293
0.000000 0.368360 0.770764
0.000000 0.406461 0.740663
0.000000 0.449601 0.707181
0.000000 0.498486 0.670548
0.000000 0.553869 0.631025
0.000000 0.616553 0.588907
0.000000 0.687389 0.544523
0.070555 0.000000 0.437836
0.030522 0.000000 0.465805
0.000000 0.000000 0.496449
0.000000 0.000000 0.529085
0.000000 0.010539 0.563062
0.000000 0.023684 0.597763
0.000000 0.038551 0.632605
0.000000 0.054713 0.667040
0.000000 0.071789 0.700553
0.000000 0.089449 0.732661
0.000000 0.107414 0.762916
0.000000 0.125450 0.790906
0.000000 0.143376 0.816248
0.000000 0.161060 0.838596
0.000000 0.178419 0.857638
0.000000 0.195418 0.873093
0.000000 0.212074 0.884717
0.000000 0.228452 0.892297
0.000000 0.244666 0.895655
0.000000 0.260881 0.894648
0.000000 0.277309 0.889163
0.000000 0.294214 0.879125
0.000000 0.311908 0.864489
0.000000 0.330752 0.845247
0.000000 0.351159 0.821422
0.000000 0.373587 0.793073
0.000000 0.398548 0.760290
0.000000 0.426601 0.723200
0.000000 0.458355 0.681961
0.000000 0.494467 0.636766
0.000000 0.535646 0.587842
0.000000 0.582649 0.535448
0.000000 0.636282 0.479879
0.050745 0.000000 0.449319
0.015689 0.000000 0.477708
0.000000 0.000000 0.508905
0.000000 0.000000 0.542190
0.000000 0.013850 0.576879
0.000000 0.034584 0.612319
0.000000 0.056689 0.647893
0.000000 0.079689 0.683016
0.000000 0.103159 0.717139
0.000000 0.126722 0.749744
0.000000 0.150053 0.780349
0.000000 0.172873 0.808504
0.000000 0.194956 0.833793
0.000000 0.216122 0.855835
0.000000 0.236243 0.874281
0.000000 0.255240 0.888818
0.000000 0.273082 0.899164
0.000000 0.289788 0.905072
0.000000 0.305428 0.906330
0.000000 0.320119 0.902758
0.000000 0.334030 0.894209
0.000000 0.347377 0.880572
0.000000 0.360426 0.861769
0.000000 0.373494 0.837754
0.000000 0.386946 0.808517
0.000000 0.401197 0.774081
0.000000 0.416710 0.734501
0.000000 0.434000 0.689869
0.000000 0.453630 0.640309
0.000000 0.476211 0.585977
0.000000 0.502406 0.527065
0.000000 0.532926 0.463799
0.000000 0.568532 0.396438
0.029830 0.000000 0.456626
0.000000 0.000000 0.485194
0.000000 0.000000 0.516691
0.000000 0.000000 0.550363
0.000000 0.015625 0.585490
0.000000 0.043717 0.621385
0.000000 0.072805 0.657395
0.000000 0.102367 0.692900
0.000000 0.131933 0.727316
0.000000 0.161081 0.760090
0.000000 0.189437 0.790705
0.000000 0.216680 0.818675
0.000000 0.242535 0.843550
0.000000 0.266778 0.864914
0.000000 0.289235 0.882383
0.000000 0.309780 0.895607
0.000000 0.328338 0.904270
0.000000 0.344881 0.908092
0.000000 0.359433 0.906822
0.000000 0.372067 0.900248
0.000000 0.382903 0.888186
0.000000 0.392113 0.870492
0.000000 0.399919 0.847050
0.000000 0.406589 0.817782
0.000000 0.412444 0.782641
0.000000 0.417852 0.741615
0.000000 0.423231 0.694725
0.000000 0.429050 0.642027
0.000000 0.435826 0.583609
0.000000 0.444125 0.519594
0.000000 0.454564 0.450138
0.000000 0.467807 0.375431
0.000000 0.484570 0.295697
0.008435 0.000000 0.460555
0.000000 0.000000 0.489089
0.000000 0.000000 0.520663
0.000000 0.000000 0.554488
0.000000 0.016148 0.589809
0.000000 0.051373 0.625902
0.000000 0.087198 0.662081
0.000000 0.123054 0.697691
0.000000 0.158427 0.732111
0.000000 0.192847 0.764755
0.000000 0.225897 0.795068
0.000000 0.257207 0.822533
0.000000 0.286458 0.846662
0.000000 0.313381 0.867004
0.000000 0.337754 0.883141
0.000000 0.359407 0.894687
0.000000 0.378218 0.901293
0.000000 0.394114 0.902640
0.000000 0.407073 0.898445
0.000000 0.417120 0.888460
0.000000 0.424334 0.872467
0.000000 0.428837 0.850284
0.000000 0.430806 0.821763
0.000000 0.430465 0.786789
0.000000 0.428087 0.745280
0.000000 0.423995 0.697190
0.000000 0.418563 0.642505
0.000000 0.412211 0.581244
0.000000 0.405411 0.513462
0.000000 0.398685 0.439245
0.000000 0.392602 0.358716
0.000000 0.387782 0.272028
0.000000 0.384894 0.179372
0.000000 0.000000 0.462119
0.000000 0.000000 0.490436
0.000000 0.000000 0.521893
0.000000 0.000000 0.555665
0.000000 0.015771 0.590963
0.000000 0.057911 0.627028
0.000000 0.100233 0.663137
0.000000 0.142124 0.698602
0.000000 0.183021 0.732767
0.000000 0.222410 0.765009
0.000000 0.259827 0.794740
0.000000 0.294858 0.821406
0.000000 0.327137 0.844485
0.000000 0.356349 0.863491
0.000000 0.382227 0.877970
0.000000 0.404554 0.887502
0.000000 0.423163 0.891702
0.000000 0.437936 0.890217
0.000000 0.448803 0.882728
0.000000 0.455746 0.868952
0.000000 0.458794 0.848635
0.000000 0.458028 0.821563
0.000000 0.453576 0.787549
0.000000 0.445617 0.746445
0.000000 0.434379 0.698135
0.000000 0.420138 0.642535
0.000000 0.403222 0.579598
0.000000 0.384007 0.509307
0.000000 0.362918 0.431682
0.000000 0.340430 0.346775
0.000000 0.317069 0.254672
0.000000 0.293406 0.155493
0.000000 0.270067 0.049391
0.000000 0.000000 0.462547
0.000000 0.000000 0.490492
0.000000 0.000000 0.521666
0.000000 0.000000 0.555209
0.000000 0.014909 0.590296
0.000000 0.063756 0.626133
0.000000 0.112344 0.661964
0.000000 0.160016 0.697064
0.000000 0.206163 0.730742
0.000000 0.250224 0.762340
0.000000 0.291692 0.791235
0.000000 0.330104 0.816838
0.000000 0.365050 0.838592
0.000000 0.396169 0.855976
0.000000 0.423147 0.868500
0.000000 0.445723 0.875711
0.000000 0.463683 0.877186
0.000000 0.476862 0.872539
0.000000 0.485147 0.861416
0.000000 0.488473 0.843497
0.000000 0.486823 0.818495
0.000000 0.480232 0.786158
0.000000 0.468782 0.746268
0.000000 0.452607 0.698640
0.000000 0.431888 0.643121
0.000000 0.406856 0.579595
0.000000 0.377794 0.507978
0.000000 0.345030 0.428218
0.000000 0.308945 0.340301
0.000000 0.269968 0.244243
0.000000 0.228578 0.140095
0.000000 0.185302 0.027942
0.000000 0.140718 0.000000
0.000000 0.000000 0.463285
0.000000 0.000000 0.490732
0.000000 0.000000 0.521485
0.000000 0.000000 0.554650
0.000000 0.014048 0.589366
0.000000 0.069398 0.624807
0.000000 0.124029 0.660178
0.000000 0.177236 0.694721
0.000000 0.228366 0.727708
0.000000 0.276812 0.758449
0.000000 0.322019 0.786284
0.000000 0.363481 0.810588
0.000000 0.400740 0.830771
0.000000 0.433390 0.846275
0.000000 0.461073 0.856577
0.000000 0.483479 0.861187
0.000000 0.500350 0.859647
0.000000 0.511475 0.851537
0.000000 0.516696 0.836467
0.000000 0.515899 0.814083
0.000000 0.509025 0.784062
0.000000 0.496061 0.746117
0.000000 0.477044 0.699995
0.000000 0.452061 0.645475
0.000000 0.421249 0.582371
0.000000 0.384793 0.510530
0.000000 0.342928 0.429833
0.000000 0.295939 0.340195
0.000000 0.244159 0.241564
0.000000 0.187972 0.133923
0.000000 0.127811 0.017287
0.000000 0.064157 0.000000
0.000000 0.000000 0.000000
0.000000 0.000000 0.465992
0.000000 0.000000 0.492842
0.000000 0.000000 0.523066
0.000000 0.000000 0.555734
0.000000 0.013734 0.589950
0.000000 0.075394 0.624852
0.000000 0.135851 0.659611
0.000000 0.194357 0.693433
0.000000 0.250210 0.725556
0.000000 0.302759 0.755254
0.000000 0.351403 0.781833
0.000000 0.395591 0.804632
0.000000 0.434818 0.823026
0.000000 0.468633 0.836422
0.000000 0.496630 0.844261
0.000000 0.518456 0.846019
0.000000 0.533806 0.841203
0.000000 0.542424 0.829358
0.000000 0.544103 0.810058
0.000000 0.538688 0.782914
0.000000 0.526071 0.747568
0.000000 0.506194 0.703700
0.000000 0.479048 0.651018
0.000000 0.444675 0.589269
0.000000 0.403165 0.518231
0.000000 0.354657 0.437715
0.000000 0.299342 0.347568
0.000000 0.237457 0.247670
0.000000 0.169291 0.137933
0.000000 0.095181 0.018305
0.000000 0.015514 0.000000
0.000000 0.000000 0.000000
0.000000 0.000000 0.000000
0.000000 0.000000 0.472542
0.000000 0.000000 0.498727
0.000000 0.000000 0.528341
0.000000 0.000000 0.560421
0.000000 0.014586 0.594035
0.000000 0.082368 0.628285
0.000000 0.148443 0.662309
0.000000 0.212016 0.695276
0.000000 0.272341 0.726390
0.000000 0.328720 0.754888
0.000000 0.380507 0.780043
0.000000 0.427103 0.801158
0.000000 0.467960 0.817574
0.000000 0.502579 0.828661
0.000000 0.530510 0.833827
0.000000 0.551353 0.832512
0.000000 0.564758 0.824188
0.000000 0.570421 0.808363
0.000000 0.568093 0.784578
0.000000 0.557570 0.752409
0.000000 0.538699 0.711462
0.000000 0.511376 0.661382
0.000000 0.475547 0.601843
0.000000 0.431207 0.532556
0.000000 0.378402 0.453263
0.000000 0.317224 0.363741
0.000000 0.247817 0.263803
0.000000 0.170374 0.153291
0.000000 0.085138 0.032085
0.000000 0.000000 0.000000
0.000000 0.000000 0.000000
0.000000 0.000000 0.000000
0.000000 0.000000 0.000000
0.000000 0.000000 0.485027
0.000000 0.000000 0.510506
0.000000 0.000000 0.539460
0.000000 0.000000 0.570889
0.000000 0.017284 0.603827
0.000000 0.091008 0.637342
0.000000 0.162501 0.670534
0.000000 0.230919 0.702540
0.000000 0.295471 0.732527
0.000000 0.355415 0.759699
0.000000 0.410057 0.783291
0.000000 0.458753 0.802574
0.000000 0.500909 0.816850
0.000000 0.535981 0.825458
0.000000 0.563472 0.827768
0.000000 0.582937 0.823185
0.000000 0.593978 0.811148
0.000000 0.596249 0.791129
0.000000 0.589453 0.762634
0.000000 0.573340 0.725202
0.000000 0.547711 0.678407
0.000000 0.512418 0.621856
0.000000 0.467359 0.555190
0.000000 0.412485 0.478083
0.000000 0.347794 0.390244
0.000000 0.273335 0.291415
0.000000 0.189204 0.181371
0.000000 0.095549 0.059922
0.000000 0.000000 0.000000
0.000000 0.000000 0.000000
0.000000 0.000000 0.000000
0.000000 0.000000 0.000000
0.000000 0.000000 0.000000
0.000000 0.000000 0.505752
0.000000 0.000000 0.530513
0.000000 0.000000 0.558783
0.000000 0.000000 0.589528
0.000000 0.022576 0.621746
0.000000 0.102072 0.654470
0.000000 0.178788 0.686765
0.000000 0.251837 0.717732
0.000000 0.320380 0.746505
0.000000 0.383630 0.772251
0.000000 0.440847 0.794170
0.000803 0.491342 0.811498
0.000000 0.534475 0.823504
0.000000 0.569654 0.829489
0.000000 0.596339 0.828789
0.000000 0.614037 0.820775
0.000000 0.622307 0.804849
0.000000 0.620755 0.780449
0.000000 0.609037 0.747046
0.000000 0.586860 0.704143
0.000000 0.553978 0.651280
0.000000 0.510197 0.588029
0.000000 0.455370 0.513995
0.000000 0.389401 0.428817
0.000000 0.312243 0.332169
0.000000 0.223897 0.223758
0.000000 0.124417 0.103323
0.000000 0.013903 0.000000
0.000000 0.000000 0.000000
0.000000 0.000000 0.000000
0.000000 0.000000 0.000000
0.000000 0.000000 0.000000
0.000000 0.000000 0.000000
0.000000 0.000000 0.537238
0.000000 0.000000 0.561298
0.000000 0.000000 0.588891
0.000000 0.000000 0.618946
0.000000 0.031278 0.650428
0.000000 0.116381 0.682334
0.000000 0.198135 0.713694
0.001320 0.275607 0.743574
0.011493 0.347912 0.771072
0.019306 0.414218 0.795321
0.024066 0.473738 0.815486
0.025078 0.525738 0.830768
0.021641 0.569531 0.840399
0.013054 0.604481 0.843647
0.000000 0.630002 0.839813
0.000000 0.645554 0.828231
0.000000 0.650650 0.808270
0.000000 0.644851 0.779331
0.000000 0.627768 0.740851
0.000000 0.599060 0.692298
0.000000 0.558437 0.633176
0.000000 0.505658 0.563023
0.000000 0.440531 0.481408
0.000000 0.362914 0.387935
0.000000 0.272714 0.282244
0.000000 0.169887 0.164006
0.000000 0.054439 0.032926
0.000000 0.000000 0.000000
0.000000 0.000000 0.000000
0.000000 0.000000 0.000000
0.000000 0.000000 0.000000
0.000000 0.000000 0.000000
0.000000 0.000000 0.000000
0.000000 0.000000 0.582223
0.000000 0.000000 0.605627
0.000000 0.000000 0.632577
0.000000 0.000000 0.661966
0.000000 0.044271 0.692724
0.006374 0.134824 0.723813
0.020733 0.221438 0.754229
0.033610 0.303133 0.783002
0.044287 0.378979 0.809195
0.052042 0.448097 0.831905
0.056151 0.509656 0.850264
0.055884 0.562875 0.863435
0.050510 0.607021 0.870617
0.039296 0.641413 0.871043
0.021504 0.665417 0.863977
0.000000 0.678451 0.848720
0.000000 0.679979 0.824605
0.000000 0.669517 0.790998
0.000000 0.646631 0.747300
0.000000 0.610934 0.692946
0.000000 0.562089 0.627404
0.000000 0.499810 0.550175
0.000000 0.423859 0.460796
0.000000 0.334049 0.358834
0.000000 0.230240 0.243894
0.000000 0.112343 0.115612
0.000000 0.000000 0.000000
0.000000 0.000000 0.000000
0.000000 0.000000 0.000000
0.000000 0.000000 0.000000
0.000000 0.000000 0.000000
0.000000 0.000000 0.000000
0.000000 0.000000 0.000000
0.000000 0.000000 0.643657
0.000000 0.000000 0.666480
0.000000 0.000000 0.692849
0.011140 0.000000 0.721625
0.028575 0.062500 0.751701
0.045508 0.158356 0.782004
0.061194 0.249658 0.811495
0.074886 0.335384 0.839169
0.085833 0.414558 0.864054
0.093282 0.486253 0.885212
0.096475 0.549594 0.901739
0.094652 0.603752 0.912765
0.087050 0.647952 0.917452
0.072903 0.681463 0.914998
0.051440 0.703609 0.904634
0.021889 0.713758 0.885623
0.000000 0.711332 0.857264
0.000000 0.695800 0.818888
0.000000 0.666681 0.769862
0.000000 0.623542 0.709584
0.000000 0.566003 0.637488
0.000000 0.493730 0.553040
0.000000 0.406439 0.455740
0.000000 0.303898 0.345124
0.000000 0.185920 0.220758
0.000000 0.052372 0.082244
0.000000 0.000000 0.000000
0.000000 0.000000 0.000000
0.000000 0.000000 0.000000
0.000000 0.000000 0.000000
0.000000 0.000000 0.000000
0.000000 0.000000 0.000000
0.000000 0.000000 0.000000
0.000880 0.000000 0.724709
0.018666 0.000000 0.747052
0.037795 0.000000 0.772933
0.057503 0.000000 0.801176
0.077017 0.086981 0.830640
0.095567 0.187996 0.860216
0.112374 0.283826 0.888830
0.126661 0.373398 0.915442
0.137644 0.455693 0.939046
0.144537 0.529737 0.958667
0.146552 0.594610 0.973368
0.142896 0.649438 0.982241
0.132774 0.693398 0.984416
0.115386 0.725715 0.979054
0.089933 0.745666 0.965351
0.055607 0.752574 0.942536
0.011601 0.745815 0.909872
0.000000 0.724811 0.866656
0.000000 0.689037 0.812218
0.000000 0.638014 0.745923
0.000000 0.571314 0.667168
0.000000 0.488560 0.575385
0.000000 0.389421 0.470039
0.000000 0.273618 0.350629
0.000000 0.140920 0.216689
0.000000 0.000000 0.067784
0.000000 0.000000 0.000000
0.000000 0.000000 0.000000
0.000000 0.000000 0.000000
0.000000 0.000000 0.000000
0.000000 0.000000 0.000000
0.000000 0.000000 0.000000
0.000000 0.000000 0.000000
0.051880 0.000000 0.828760
0.072807 0.000000 0.850756
0.094697 0.000000 0.876269
0.116752 0.008074 0.904088
0.138169 0.118792 0.933038
0.158144 0.224834 0.961974
0.175868 0.325034 0.989789
0.190529 0.418276 1.000000
0.201314 0.503493 1.000000
0.207403 0.579667 1.000000
0.207976 0.645831 1.000000
0.202208 0.701065 1.000000
0.189273 0.744500 1.000000
0.168339 0.775316 1.000000
0.138573 0.792744 1.000000
0.099137 0.796061 1.000000
0.049190 0.784597 0.986271
0.000000 0.757730 0.938171
0.000000 0.714886 0.878267
0.000000 0.655542 0.805889
0.000000 0.579224 0.720399
0.000000 0.485509 0.621194
0.000000 0.374021 0.507704
0.000000 0.244434 0.379392
0.000000 0.096472 0.235758
0.000000 0.000000 0.076331
0.000000 0.000000 0.000000
0.000000 0.000000 0.000000
0.000000 0.000000 0.000000
0.000000 0.000000 0.000000
0.000000 0.000000 0.000000
0.000000 0.000000 0.000000
0.000000 0.000000 0.000000
0.117887 0.000000 0.959409
0.141822 0.000000 0.981217
0.166326 0.000000 1.000000
0.190566 0.042830 1.000000
0.213709 0.159080 1.000000
0.234918 0.270022 1.000000
0.253352 0.374446 1.000000
0.268167 0.471188 1.000000
0.278518 0.559136 1.000000
0.283554 0.637227 1.000000
0.282422 0.704447 1.000000
0.274265 0.759831 1.000000
0.258224 0.802464 1.000000
0.233436 0.831481 1.000000
0.199035 0.846065 1.000000
0.154152 0.845449 1.000000
0.097915 0.828917 1.000000
0.029448 0.795800 1.000000
0.000000 0.745479 0.972122
0.000000 0.677386 0.893624
0.000000 0.591000 0.801352
0.000000 0.485853 0.694666
0.000000 0.361521 0.572962
0.000000 0.217636 0.435669
0.000000 0.053873 0.282249
0.000000 0.000000 0.112199
0.000000 0.000000 0.000000
0.000000 0.000000 0.000000
0.000000 0.000000 0.000000
0.000000 0.000000 0.000000
0.000000 0.000000 0.000000
0.000000 0.000000 0.000000
0.000000 0.000000 0.000000
0.200661 0.000000 1.000000
0.227471 0.000000 1.000000
0.254439 0.000000 1.000000
0.280702 0.087372 1.000000
0.305394 0.209056 1.000000
0.327645 0.324780 1.000000
0.346583 0.433287 1.000000
0.361333 0.533368 1.000000
0.371015 0.623864 1.000000
0.374748 0.703667 1.000000
0.371646 0.771717 1.000000
0.360821 0.827003 1.000000
0.341381 0.868564 1.000000
0.312432 0.895490 1.000000
0.273075 0.906917 1.000000
0.222409 0.902034 1.000000
0.159529 0.880077 1.000000
0.083529 0.840333 1.000000
0.000000 0.782136 1.000000
0.000000 0.704872 1.000000
0.000000 0.607976 0.914412
0.000000 0.490932 0.800216
0.000000 0.353272 0.670258
0.000000 0.194580 0.523931
0.000000 0.014488 0.360663
0.000000 0.000000 0.179916
0.000000 0.000000 0.000000
0.000000 0.000000 0.000000
0.000000 0.000000 0.000000
0.000000 0.000000 0.000000
0.000000 0.000000 0.000000
0.000000 0.000000 0.000000
0.000000 0.000000 0.000000
0.302043 0.000000 1.000000
0.331594 0.000000 1.000000
0.360878 0.010658 1.000000
0.389001 0.142970 1.000000
0.415063 0.270000 1.000000
0.438165 0.390395 1.000000
0.457401 0.502852 1.000000
0.471863 0.606118 1.000000
0.480642 0.698986 1.000000
0.482822 0.780304 1.000000
0.477486 0.848964 1.000000
0.463714 0.903912 1.000000
0.440582 0.944140 1.000000
0.407163 0.968690 1.000000
0.362528 0.976656 1.000000
0.305741 0.967178 1.000000
0.235869 0.939448 1.000000
0.151969 0.892706 1.000000
0.053100 0.826241 1.000000
0.000000 0.739394 1.000000
0.000000 0.631552 1.000000
0.000000 0.502155 0.942473
0.000000 0.350688 0.804249
0.000000 0.176690 0.648866
0.000000 0.000000 0.475716
0.000000 0.000000 0.284227
0.000000 0.000000 0.073857
0.000000 0.000000 0.000000
0.000000 0.000000 0.000000
0.000000 0.000000 0.000000
0.000000 0.000000 0.000000
0.000000 0.000000 0.000000
0.000000 0.000000 0.000000
0.423954 0.000000 1.000000
0.456112 0.000000 1.000000
0.487563 0.072737 1.000000
0.517382 0.210963 1.000000
0.544638 0.343256 1.000000
0.568398 0.468219 1.000000
0.587725 0.584502 1.000000
0.601679 0.690805 1.000000
0.609318 0.785878 1.000000
0.609695 0.868520 1.000000
0.601860 0.937580 1.000000
0.584862 0.991956 1.000000
0.557744 1.000000 1.000000
0.519548 1.000000 1.000000
0.469311 1.000000 1.000000
0.406068 1.000000 1.000000
0.328850 1.000000 1.000000
0.236686 0.954363 1.000000
0.128600 0.879246 1.000000
0.003614 0.782410 1.000000
0.000000 0.663195 1.000000
0.000000 0.520995 1.000000
0.000000 0.355251 0.979809
0.000000 0.165455 0.815375
0.000000 0.000000 0.632339
0.000000 0.000000 0.430091
0.000000 0.000000 0.208056
