public/luts/rose_spectra.cube
# Generated from ColorChecker fit
LUT_3D_SIZE 9
DOMAIN_MIN 0.0 0.0 0.0
DOMAIN_MAX 1.0 1.0 1.0
0.142965 0.162754 0.218669
0.000000 0.000000 0.289127
0.000000 0.000000 0.363910
0.000000 0.000000 0.424680
0.000000 0.000000 0.461734
0.000000 0.000000 0.473997
0.000000 0.000000 0.469031
0.000000 0.099961 0.463028
0.030468 0.628771 0.480811
0.118341 0.068031 0.373572
0.000000 0.000000 0.484478
0.000000 0.000000 0.605294
0.000000 0.000000 0.708697
0.000000 0.000000 0.775997
0.000000 0.056992 0.797137
0.000000 0.178685 0.770690
0.000000 0.390389 0.703864
0.000000 0.738285 0.612496
0.050745 0.000000 0.449319
0.000000 0.013850 0.576879
0.000000 0.103159 0.717139
0.000000 0.194956 0.833793
0.000000 0.273082 0.899164
0.000000 0.334030 0.894209
0.000000 0.386946 0.808517
0.000000 0.453630 0.640309
0.000000 0.568532 0.396438
0.000000 0.000000 0.462547
0.000000 0.014909 0.590296
0.000000 0.206163 0.730742
0.000000 0.365050 0.838592
0.000000 0.463683 0.877186
0.000000 0.486823 0.818495
0.000000 0.431888 0.643121
0.000000 0.308945 0.340301
0.000000 0.140718 0.000000
0.000000 0.000000 0.485027
0.000000 0.017284 0.603827
0.000000 0.295471 0.732527
0.000000 0.500909 0.816850
0.000000 0.593978 0.811148
0.000000 0.547711 0.678407
0.000000 0.347794 0.390244
0.000000 0.000000 0.000000
0.000000 0.000000 0.000000
0.000000 0.000000 0.643657
0.028575 0.062500 0.751701
0.085833 0.414558 0.864054
0.087050 0.647952 0.917452
0.000000 0.711332 0.857264
0.000000 0.566003 0.637488
0.000000 0.185920 0.220758
0.000000 0.000000 0.000000
0.000000 0.000000 0.000000
0.200661 0.000000 1.000000
0.305394 0.209056 1.000000
0.371015 0.623864 1.000000
0.341381 0.868564 1.000000
0.159529 0.880077 1.000000
0.000000 0.607976 0.914412
0.000000 0.014488 0.360663
0.000000 0.000000 0.000000
0.000000 0.000000 0.000000
0.737457 0.000000 1.000000
0.871590 0.532417 1.000000
0.931900 1.000000 1.000000
0.854031 1.000000 1.000000
0.572811 1.000000 1.000000
0.022248 0.756877 1.000000
0.000000 0.000000 1.000000
0.000000 0.000000 0.064095
0.000000 0.000000 0.000000
1.000000 0.419890 1.000000
1.000000 1.000000 1.000000
1.000000 1.000000 1.000000
1.000000 1.000000 1.000000
1.000000 1.000000 1.000000
0.619628 1.000000 1.000000
0.000000 0.000682 1.000000
0.000000 0.000000 1.000000
0.000000 0.000000 0.000000
0.336374 0.347345 0.063060
0.078658 0.083829 0.055900
0.000000 0.000000 0.084267
0.000000 0.000000 0.126627
0.000000 0.000000 0.170078
0.000000 0.000000 0.210352
0.149389 0.000000 0.251812
0.371913 0.175796 0.307454
0.638909 0.679896 0.398904
0.300588 0.260880 0.209664
0.124992 0.137851 0.248359
0.037789 0.076841 0.329843
0.023339 0.056983 0.423598
0.065181 0.070059 0.507735
0.146037 0.120504 0.569002
0.247808 0.225409 0.602775
0.351575 0.414514 0.613064
0.437600 0.730214 0.612512
0.216064 0.162469 0.299413
0.114566 0.168307 0.360492
0.084799 0.218842 0.468828
0.102912 0.281473 0.584917
0.144235 0.336256 0.677887
0.183279 0.375894 0.725497
0.193734 0.405748 0.714140
0.148472 0.443829 0.638840
0.019546 0.520801 0.503254
0.111501 0.056633 0.336313
0.076001 0.181666 0.403632
0.091861 0.328542 0.519882
0.127020 0.452931 0.636574
0.148598 0.523157 0.713850
0.122895 0.520195 0.720484
0.015393 0.437676 0.633883
0.000000 0.281879 0.440086
0.000000 0.071740 0.133764
0.036368 0.000000 0.379498
0.058687 0.201364 0.444242
0.108286 0.431324 0.556798
0.144895 0.598683 0.659690
0.127423 0.660035 0.704075
0.013961 0.584625 0.649742
0.000000 0.354354 0.465112
0.000000 0.000000 0.127238
0.000000 0.000000 0.000000
0.060905 0.000000 0.543233
0.132784 0.267807 0.603917
0.204155 0.569538 0.708498
0.226539 0.763024 0.790516
0.150635 0.793129 0.792142
0.000000 0.617370 0.664179
0.000000 0.205915 0.366063
0.000000 0.000000 0.000000
0.000000 0.000000 0.000000
0.276122 0.000000 0.996915
0.389223 0.438369 1.000000
0.470322 0.802503 1.000000
0.462727 1.000000 1.000000
0.308928 0.985650 1.000000
0.000000 0.683583 0.969834
0.000000 0.059457 0.550103
0.000000 0.000000 0.000000
0.000000 0.000000 0.000000
0.793797 0.243403 1.000000
0.939705 0.787391 1.000000
1.000000 1.000000 1.000000
0.965001 1.000000 1.000000
0.713768 1.000000 1.000000
0.198168 0.865389 1.000000
0.000000 0.000000 1.000000
0.000000 0.000000 0.435437
0.000000 0.000000 0.000000
1.000000 0.762188 1.000000
1.000000 1.000000 1.000000
1.000000 1.000000 1.000000
1.000000 1.000000 1.000000
1.000000 1.000000 1.000000
0.801192 1.000000 1.000000
0.000000 0.125728 1.000000
0.000000 0.000000 1.000000
0.000000 0.000000 0.434138
0.503143 0.534515 0.085129
0.239653 0.209023 0.000000
0.092794 0.000000 0.000000
0.054589 0.000000 0.000000
0.116242 0.000000 0.036281
0.268137 0.000000 0.092948
0.499838 0.000000 0.166552
0.800090 0.257383 0.266890
1.000000 0.773577 0.412395
0.456776 0.448128 0.194366
0.271573 0.254276 0.158932
0.189555 0.144658 0.196501
0.194536 0.094616 0.273358
0.269510 0.092148 0.364419
0.396649 0.137902 0.453233
0.557307 0.245179 0.531981
0.732021 0.439933 0.601476
0.900505 0.760773 0.671164
0.354599 0.353967 0.267787
0.241212 0.281889 0.259505
0.213857 0.276991 0.330371
0.248137 0.302887 0.437685
0.318835 0.335842 0.547377
0.399914 0.364776 0.634012
0.464520 0.391260 0.680784
0.484976 0.429518 0.679521
0.432787 0.506428 0.630683
0.227086 0.255431 0.296763
0.178967 0.297207 0.299811
0.196017 0.383579 0.385359
0.245630 0.466431 0.501720
0.294378 0.510299 0.605840
0.308016 0.492373 0.663298
0.251477 0.402493 0.648302
0.088876 0.243154 0.543695
0.000000 0.029504 0.340952
0.125482 0.172890 0.327794
0.136002 0.322543 0.333680
0.187122 0.488680 0.422622
0.238023 0.611453 0.533950
0.247069 0.643669 0.615624
0.171804 0.550786 0.624234
0.000000 0.310917 0.525007
0.000000 0.000000 0.291799
0.000000 0.000000 0.000000
0.121804 0.143680 0.462512
0.184256 0.397181 0.470071
0.259029 0.633521 0.558451
0.297095 0.781125 0.657993
0.248608 0.781068 0.707673
0.062900 0.587079 0.655096
0.000000 0.165540 0.456503
0.000000 0.000000 0.076764
0.000000 0.000000 0.000000
0.308835 0.222108 0.857678
0.416434 0.577371 0.873076
0.504367 0.876300 0.964263
0.515396 1.000000 1.000000
0.391465 0.984584 1.000000
0.073696 0.665283 0.949289
0.000000 0.032340 0.643523
0.000000 0.000000 0.106653
0.000000 0.000000 0.000000
0.800133 0.479446 1.000000
0.946014 0.936331 1.000000
1.000000 1.000000 1.000000
1.000000 1.000000 1.000000
0.788881 1.000000 1.000000
0.317354 0.866399 1.000000
0.000000 0.000000 1.000000
0.000000 0.000000 0.644658
0.000000 0.000000 0.000000
1.000000 1.000000 1.000000
1.000000 1.000000 1.000000
1.000000 1.000000 1.000000
1.000000 1.000000 1.000000
1.000000 1.000000 1.000000
0.927805 1.000000 1.000000
0.000000 0.151216 1.000000
0.000000 0.000000 1.000000
0.000000 0.000000 0.762628
0.659716 0.719483 0.222682
0.365685 0.312709 0.061906
0.208798 0.032722 0.000000
0.180530 0.000000 0.000000
0.271539 0.000000 0.016116
0.471661 0.000000 0.082049
0.769914 0.036170 0.178004
1.000000 0.392469 0.310583
1.000000 0.965065 0.495020
0.604440 0.627530 0.276504
0.386931 0.344082 0.169514
0.292630 0.176168 0.163076
0.304801 0.095346 0.220278
0.405892 0.085823 0.312839
0.577528 0.144462 0.421113
0.800518 0.280776 0.534083
1.000000 0.516933 0.649366
1.000000 0.887752 0.773210
0.484974 0.530631 0.314286
0.339069 0.362395 0.238254
0.298727 0.292910 0.270596
0.339001 0.282004 0.365416
0.434130 0.302154 0.485447
0.557529 0.338492 0.602056
0.681796 0.388803 0.695242
0.778709 0.463523 0.753637
0.819225 0.585743 0.774503
0.333570 0.431062 0.314763
0.254271 0.371870 0.254190
0.259181 0.389116 0.307020
0.315145 0.430896 0.418370
0.388188 0.457961 0.541989
0.443519 0.443710 0.640258
0.445524 0.374199 0.684190
0.357771 0.248134 0.653432
0.143008 0.076876 0.536261
0.203248 0.348069 0.311802
0.185479 0.393697 0.258517
0.226856 0.487920 0.320870
0.286016 0.567105 0.434991
0.320773 0.580270 0.545645
0.288126 0.489087 0.606227
0.144252 0.267881 0.578764
0.000000 0.000000 0.433918
0.000000 0.000000 0.150980
0.167800 0.317866 0.394400
0.206404 0.466036 0.347561
0.275386 0.629429 0.415800
0.325169 0.732679 0.526263
0.305361 0.713077 0.614727
0.164748 0.520563 0.625603
0.000000 0.117733 0.511933
0.000000 0.000000 0.235392
0.000000 0.000000 0.000000
0.321786 0.393636 0.706685
0.411531 0.644015 0.672779
0.499174 0.870714 0.750597
0.526931 0.986637 0.858299
0.436198 0.917344 0.922678
0.167551 0.601047 0.879158
0.000000 0.000000 0.671796
0.000000 0.000000 0.253282
0.000000 0.000000 0.000000
0.780540 0.645531 1.000000
0.916111 0.999731 1.000000
1.000000 1.000000 1.000000
1.000000 1.000000 1.000000
0.828300 1.000000 1.000000
0.411474 0.810417 1.000000
0.000000 0.000000 1.000000
0.000000 0.000000 0.738146
0.000000 0.000000 0.000000
1.000000 1.000000 1.000000
1.000000 1.000000 1.000000
1.000000 1.000000 1.000000
1.000000 1.000000 1.000000
1.000000 1.000000 1.000000
1.000000 1.000000 1.000000
0.067077 0.137698 1.000000
0.000000 0.000000 1.000000
0.000000 0.000000 0.918943
0.822114 0.897340 0.416415
0.474295 0.397481 0.188626
0.289359 0.064530 0.073978
0.258237 0.000000 0.041348
0.371038 0.000000 0.068246
0.617051 0.000000 0.140811
0.984748 0.181557 0.253818
1.000000 0.628675 0.410671
1.000000 1.000000 0.623409
0.760690 0.796717 0.407796
0.489698 0.412403 0.236315
0.367162 0.184012 0.190269
0.375801 0.079314 0.229550
0.497514 0.078731 0.322681
0.713382 0.175335 0.446818
1.000000 0.374856 0.587748
1.000000 0.695671 0.739892
1.000000 1.000000 0.906301
0.625392 0.692630 0.401647
0.427860 0.417498 0.263969
0.360647 0.281777 0.261226
0.398263 0.241506 0.344324
0.514396 0.265376 0.472801
0.681917 0.334732 0.614827
0.872876 0.443570 0.747204
1.000000 0.598541 0.855367
1.000000 0.818948 0.933382
0.450245 0.586232 0.364072
0.322727 0.415866 0.245018
0.303683 0.362868 0.267607
0.359413 0.371547 0.373756
0.455395 0.398865 0.514019
0.556291 0.414435 0.647581
0.625939 0.400526 0.742257
0.627361 0.352056 0.774497
0.522758 0.276599 0.729382
0.290048 0.495647 0.316300
0.229018 0.427576 0.208024
0.250910 0.449299 0.245301
0.313812 0.493397 0.361065
0.374993 0.505101 0.496883
0.390905 0.442295 0.602955
0.317176 0.275516 0.638111
0.108617 0.000000 0.569815
0.000000 0.000000 0.374162
0.220367 0.455965 0.334696
0.222221 0.489662 0.236677
0.277736 0.580052 0.285329
0.336790 0.647983 0.404599
0.348442 0.626957 0.527070
0.260933 0.463128 0.593956
0.021681 0.115303 0.555101
0.000000 0.000000 0.368983
0.000000 0.000000 0.002714
0.337539 0.519246 0.550753
0.398595 0.656131 0.469800
0.480342 0.811075 0.533840
0.524449 0.893199 0.657838
0.471765 0.824272 0.765388
0.262318 0.538719 0.788719
0.000000 0.000000 0.668691
0.000000 0.000000 0.354796
0.000000 0.000000 0.000000
0.758673 0.754518 1.000000
0.875169 0.997955 1.000000
0.975679 1.000000 1.000000
0.993660 1.000000 1.000000
0.861753 1.000000 1.000000
0.511776 0.747824 1.000000
0.000000 0.000000 1.000000
0.000000 0.000000 0.765178
0.000000 0.000000 0.026752
1.000000 1.000000 1.000000
1.000000 1.000000 1.000000
1.000000 1.000000 1.000000
1.000000 1.000000 1.000000
1.000000 1.000000 1.000000
1.000000 1.000000 1.000000
0.277312 0.145600 1.000000
0.000000 0.000000 1.000000
0.000000 0.000000 0.967874
1.000000 1.000000 0.609922
0.582602 0.465810 0.327637
0.353117 0.084683 0.179034
0.307867 0.000000 0.129794
0.436415 0.000000 0.154228
0.727502 0.058360 0.235282
1.000000 0.425329 0.364532
1.000000 1.000000 0.542187
1.000000 1.000000 0.777087
0.942219 0.953192 0.542854
0.598084 0.464246 0.318438
0.432881 0.180701 0.241675
0.428783 0.066537 0.269261
0.567143 0.098390 0.366522
0.828493 0.265547 0.507418
1.000000 0.569946 0.674538
1.000000 1.000000 0.859107
1.000000 1.000000 1.000000
0.793634 0.840006 0.495504
0.526883 0.454745 0.306774
0.420438 0.258641 0.276874
0.448259 0.203947 0.353514
0.583490 0.255567 0.493036
0.798454 0.391057 0.660412
1.000000 0.600629 0.829248
1.000000 0.887144 0.981782
1.000000 1.000000 1.000000
0.595985 0.723523 0.421341
0.404724 0.439282 0.253440
0.351433 0.322426 0.252754
0.401862 0.313477 0.358006
0.520945 0.365609 0.516550
0.672795 0.444650 0.684375
0.820704 0.529079 0.826102
0.927146 0.610029 0.914981
0.953776 0.691286 0.932899
0.405845 0.620743 0.328960
0.288101 0.436802 0.174364
0.282282 0.392945 0.192571
0.345929 0.417962 0.313319
0.435765 0.453298 0.474977
0.507694 0.453049 0.624548
0.516797 0.383967 0.717667
0.417339 0.225453 0.718601
0.162765 0.000000 0.600248
0.300558 0.565633 0.282092
0.254278 0.483220 0.140602
0.290170 0.508057 0.174710
0.357566 0.557207 0.305168
0.404979 0.560382 0.461359
0.380100 0.459951 0.581302
0.229804 0.210933 0.611646
0.000000 0.000000 0.507671
0.000000 0.000000 0.233290
0.378236 0.609131 0.399595
0.401289 0.631417 0.278342
0.473053 0.722590 0.332688
0.534650 0.787983 0.474398
0.526383 0.745579 0.623871
0.387734 0.526016 0.710140
0.057366 0.072584 0.670867
0.000000 0.000000 0.452349
0.000000 0.000000 0.009513
0.757764 0.819143 0.855459
0.847940 0.951244 0.768903
0.949657 1.000000 0.855150
0.995829 1.000000 1.000000
0.918547 1.000000 1.000000
0.649084 0.728878 1.000000
0.117894 0.048498 1.000000
0.000000 0.000000 0.777926
0.000000 0.000000 0.161534
1.000000 1.000000 1.000000
1.000000 1.000000 1.000000
1.000000 1.000000 1.000000
1.000000 1.000000 1.000000
1.000000 1.000000 1.000000
1.000000 1.000000 1.000000
0.550569 0.235219 1.000000
0.000000 0.000000 1.000000
0.000000 0.000000 0.977104
1.000000 1.000000 0.749688
0.707305 0.520037 0.429915
0.418288 0.103030 0.261701
0.349156 0.000000 0.207529
0.488923 0.000000 0.238514
0.825786 0.280957 0.334405
1.000000 0.807349 0.483581
1.000000 1.000000 0.683054
1.000000 1.000000 0.938470
1.000000 1.000000 0.639183
0.729876 0.504493 0.377879
0.509093 0.178619 0.283782
0.484572 0.076904 0.310390
0.637121 0.172196 0.419833
0.946724 0.449993 0.582873
1.000000 0.908450 0.778904
1.000000 1.000000 0.995955
1.000000 1.000000 1.000000
1.000000 0.972674 0.564381
0.655019 0.481554 0.339684
0.498496 0.238426 0.295049
0.510906 0.191755 0.374987
0.664846 0.302659 0.532643
0.932092 0.544906 0.729794
1.000000 0.904920 0.936849
1.000000 1.000000 1.000000
1.000000 1.000000 1.000000
0.789239 0.845388 0.466115
0.520233 0.452074 0.263492
0.423918 0.285250 0.250990
0.465499 0.281651 0.364137
0.609363 0.390664 0.547091
0.819075 0.574329 0.752644
1.000000 0.807338 0.942218
1.000000 1.000000 1.000000
1.000000 1.000000 1.000000
0.570180 0.728349 0.340347
0.383788 0.433874 0.152594
0.343551 0.338858 0.162228
0.406465 0.368304 0.295791
0.528705 0.459869 0.488456
0.665627 0.563864 0.684028
0.771768 0.643252 0.834947
0.800844 0.673647 0.902282
0.705753 0.643318 0.855735
0.429004 0.654403 0.238172
0.324724 0.461746 0.065413
0.336356 0.435985 0.094513
0.412684 0.490394 0.243027
0.501675 0.550901 0.437145
0.550474 0.556085 0.611686
0.505408 0.457179 0.710102
0.311983 0.218068 0.684478
0.000000 0.000000 0.495531
0.465600 0.673363 0.265815
0.442852 0.587448 0.115502
0.502064 0.630336 0.168726
0.583811 0.703572 0.334058
0.627848 0.721353 0.528698
0.573112 0.610529 0.678483
0.357717 0.310603 0.717878
0.000000 0.000000 0.589984
0.000000 0.000000 0.246532
0.800627 0.852014 0.584631
0.858753 0.879708 0.471546
0.961179 0.992584 0.560882
1.000000 1.000000 0.752223
1.000000 1.000000 0.953785
0.853805 0.803706 1.000000
0.448883 0.281979 1.000000
0.000000 0.000000 0.831456
0.000000 0.000000 0.328720
1.000000 1.000000 1.000000
1.000000 1.000000 1.000000
1.000000 1.000000 1.000000
1.000000 1.000000 1.000000
1.000000 1.000000 1.000000
1.000000 1.000000 1.000000
0.919862 0.466728 1.000000
0.000000 0.000000 1.000000
0.000000 0.000000 1.000000
1.000000 1.000000 0.785089
0.864681 0.562379 0.449329
0.502668 0.129289 0.280339
0.401417 0.006126 0.237406
0.549397 0.173678 0.288447
0.934255 0.625389 0.410014
1.000000 1.000000 0.587290
1.000000 1.000000 0.814092
1.000000 1.000000 1.000000
1.000000 1.000000 0.657181
0.902443 0.537897 0.379528
0.614684 0.190025 0.285970
0.563575 0.130178 0.326808
0.729373 0.327414 0.460976
1.000000 0.763447 0.656039
1.000000 1.000000 0.888195
1.000000 1.000000 1.000000
1.000000 1.000000 1.000000
1.000000 1.000000 0.579696
0.830725 0.505219 0.338610
0.614798 0.235929 0.296150
0.607699 0.227232 0.393633
0.781478 0.436457 0.581005
1.000000 0.833587 0.816847
1.000000 1.000000 1.000000
1.000000 1.000000 1.000000
1.000000 1.000000 1.000000
1.000000 0.954154 0.480832
0.688800 0.464074 0.262102
0.542205 0.268677 0.253735
0.572910 0.300910 0.388063
0.744753 0.506374 0.606046
1.000000 0.843320 0.857281
1.000000 1.000000 1.000000
1.000000 1.000000 1.000000
1.000000 1.000000 1.000000
0.802174 0.823331 0.343918
0.536716 0.431161 0.140661
0.456874 0.306912 0.156712
0.519094 0.371801 0.315413
0.679005 0.559698 0.548743
0.891418 0.817127 0.797311
1.000000 1.000000 1.000000
1.000000 1.000000 1.000000
1.000000 1.000000 1.000000
0.625917 0.729678 0.207414
0.455289 0.440148 0.020077
0.439541 0.386247 0.058197
0.526911 0.477462 0.236130
0.664817 0.635934 0.476870
0.799858 0.796455 0.712040
0.877814 0.906470 0.881895
0.843644 0.926078 0.935324
0.641490 0.828030 0.829846
0.620931 0.721885 0.164911
0.546104 0.541671 0.001269
0.591715 0.559264 0.066437
0.697789 0.672421 0.265790
0.803536 0.791553 0.513332
0.847345 0.839722 0.731703
0.766785 0.752643 0.852171
0.498606 0.478685 0.814640
0.000000 0.000000 0.567645
0.909652 0.865613 0.365130
0.931520 0.803335 0.240286
1.000000 0.895513 0.344813
1.000000 1.000000 0.575099
1.000000 1.000000 0.836165
1.000000 1.000000 1.000000
0.899198 0.719111 1.000000
0.375653 0.127028 0.983725
0.000000 0.000000 0.590756
1.000000 1.000000 1.000000
1.000000 1.000000 0.948308
1.000000 1.000000 1.000000
1.000000 1.000000 1.000000
1.000000 1.000000 1.000000
1.000000 1.000000 1.000000
1.000000 0.900173 1.000000
0.617438 0.000000 1.000000
0.000000 0.000000 1.000000
1.000000 1.000000 0.668396
1.000000 0.594923 0.342642
0.623633 0.173054 0.196204
0.483546 0.133794 0.185170
0.638247 0.454145 0.274263
1.000000 1.000000 0.436837
1.000000 1.000000 0.654880
1.000000 1.000000 0.919010
1.000000 1.000000 1.000000
1.000000 1.000000 0.560138
1.000000 0.569087 0.291167
0.768121 0.227052 0.220513
0.685773 0.245994 0.295282
0.865400 0.591185 0.471209
1.000000 1.000000 0.712664
1.000000 1.000000 0.992648
1.000000 1.000000 1.000000
1.000000 1.000000 1.000000
1.000000 1.000000 0.515759
1.000000 0.532905 0.282352
0.788900 0.265821 0.263473
0.759713 0.332552 0.397238
0.955979 0.686641 0.630399
1.000000 1.000000 0.918341
1.000000 1.000000 1.000000
1.000000 1.000000 1.000000
1.000000 1.000000 1.000000
1.000000 1.000000 0.450822
0.929555 0.484986 0.239092
0.726941 0.289915 0.255303
0.746257 0.395967 0.428588
0.950797 0.744956 0.696712
1.000000 1.000000 1.000000
1.000000 1.000000 1.000000
1.000000 1.000000 1.000000
1.000000 1.000000 1.000000
1.000000 0.910428 0.336024
0.767105 0.440905 0.139410
0.643987 0.316854 0.181356
0.707072 0.455705 0.382012
0.911441 0.787541 0.670156
1.000000 1.000000 0.983203
1.000000 1.000000 1.000000
1.000000 1.000000 1.000000
1.000000 1.000000 1.000000
0.911085 0.798736 0.197189
0.667281 0.433208 0.016459
0.622552 0.381130 0.082116
0.724590 0.548202 0.305322
0.920267 0.852777 0.605872
1.000000 1.000000 0.912194
1.000000 1.000000 1.000000
1.000000 1.000000 1.000000
1.000000 1.000000 1.000000
0.865109 0.764512 0.115274
0.733444 0.511406 0.000000
0.765920 0.534199 0.053194
0.902018 0.726860 0.301460
1.000000 0.996012 0.614131
1.000000 1.000000 0.910648
1.000000 1.000000 1.000000
1.000000 1.000000 1.000000
0.961309 1.000000 1.000000
1.000000 0.872294 0.226365
1.000000 0.741983 0.109023
1.000000 0.844489 0.245336
1.000000 1.000000 0.528499
1.000000 1.000000 0.860332
1.000000 1.000000 1.000000
1.000000 1.000000 1.000000
1.000000 1.000000 1.000000
0.577915 0.639814 1.000000
1.000000 1.000000 0.721681
1.000000 1.000000 0.666499
1.000000 1.000000 0.864417
1.000000 1.000000 1.000000
1.000000 1.000000 1.000000
1.000000 1.000000 1.000000
1.000000 1.000000 1.000000
1.000000 1.000000 1.000000
0.542273 0.034008 1.000000
