public/luts/sony_standard_cl.cube
# Generated from ColorChecker fit
LUT_3D_SIZE 5
DOMAIN_MIN 0.0 0.0 0.0
DOMAIN_MAX 1.0 1.0 1.0
0.111161 0.000000 0.180422
0.000000 0.000000 0.000000
0.000000 0.000000 0.000000
0.000000 0.000000 0.000000
0.000000 0.000000 0.000000
0.521255 0.000000 0.770553
0.211376 0.000000 0.629046
0.180518 0.000000 0.761393
0.000000 0.000000 0.593265
0.000000 0.000000 0.000000
0.000000 0.000000 0.671632
0.000000 0.000000 0.632378
0.296367 0.000000 0.807093
0.075221 0.129627 0.539274
0.000000 0.000000 0.000000
0.000000 0.000000 0.769992
0.000000 0.000000 0.816879
0.404251 0.000000 1.000000
0.000000 0.000000 0.606182
0.000000 0.000000 0.000000
1.000000 0.000000 1.000000
1.000000 0.000000 1.000000
1.000000 0.000000 1.000000
1.000000 0.000000 1.000000
0.000000 0.000000 0.578486
0.273549 0.501418 0.000000
0.000000 0.000000 0.000000
0.000000 0.000000 0.000000
0.000000 0.000000 0.000000
0.000000 0.000000 0.000000
0.780507 0.461740 0.580428
0.230472 0.175257 0.249758
0.198542 0.222348 0.401180
0.210364 0.212727 0.577407
0.000000 0.000000 0.077967
0.184830 0.000000 0.506169
0.129374 0.000000 0.344830
0.411690 0.475292 0.614789
0.475703 0.665805 0.776586
0.000000 0.000000 0.047572
0.000000 0.000000 0.545955
0.198993 0.000000 0.507795
0.593506 0.470819 0.840791
0.384617 0.737039 0.923306
0.000000 0.000000 0.000000
1.000000 0.000000 1.000000
1.000000 0.000000 1.000000
1.000000 1.000000 1.000000
1.000000 1.000000 1.000000
0.000000 0.000000 1.000000
0.764493 1.000000 0.209774
0.000000 0.000000 0.000000
0.000000 0.000000 0.000000
0.000000 0.000000 0.000000
0.000000 0.000000 0.000000
1.000000 1.000000 0.747422
0.294130 0.301093 0.136358
0.051668 0.004623 0.097161
0.179351 0.000000 0.289590
0.000000 0.000000 0.130217
0.645517 0.672472 0.558838
0.220348 0.368797 0.180110
0.304010 0.385438 0.331547
0.451303 0.365206 0.590733
0.000000 0.000000 0.292064
0.219586 0.000000 0.406768
0.268972 0.347062 0.184184
0.479358 0.767943 0.440713
0.323816 0.670079 0.671764
0.000000 0.000000 0.129559
1.000000 0.000000 1.000000
1.000000 1.000000 1.000000
1.000000 1.000000 1.000000
1.000000 1.000000 1.000000
0.000000 0.000000 1.000000
1.000000 1.000000 0.614915
0.000000 0.000000 0.000000
0.000000 0.000000 0.000000
0.000000 0.000000 0.000000
0.000000 0.000000 0.000000
1.000000 1.000000 1.000000
0.621034 0.295759 0.319022
0.180994 0.000000 0.118401
0.413923 0.176301 0.237767
0.561482 0.362937 0.210734
1.000000 1.000000 0.774469
0.562913 0.493104 0.321935
0.492020 0.277320 0.379971
0.743124 0.327979 0.643207
0.476161 0.000000 0.563082
0.719124 0.751487 0.450799
0.556592 0.785631 0.183300
0.658094 0.867097 0.384411
0.607577 0.671789 0.666585
0.000000 0.000000 0.399088
1.000000 0.795821 1.000000
1.000000 1.000000 1.000000
1.000000 1.000000 1.000000
1.000000 1.000000 1.000000
0.526129 0.253514 1.000000
1.000000 0.981618 0.084120
0.000000 0.000000 0.000000
0.000000 0.000000 0.000000
0.000000 1.000000 0.000000
0.000000 1.000000 0.000000
1.000000 1.000000 0.604681
0.828293 0.216776 0.114682
0.426037 0.377926 0.020720
0.976008 1.000000 0.216644
1.000000 1.000000 0.353111
1.000000 1.000000 0.384644
0.851774 0.394353 0.240773
0.892835 0.552806 0.469418
1.000000 1.000000 0.882252
1.000000 1.000000 1.000000
0.887383 0.747031 0.063171
0.834153 0.820661 0.129154
1.000000 1.000000 0.534782
1.000000 1.000000 1.000000
1.000000 1.000000 1.000000
1.000000 1.000000 1.000000
1.000000 1.000000 1.000000
1.000000 1.000000 1.000000
1.000000 1.000000 1.000000
1.000000 1.000000 1.000000
