public/luts/sony_nostalgic_neg.cube
# Generated from ColorChecker fit
LUT_3D_SIZE 5
DOMAIN_MIN 0.0 0.0 0.0
DOMAIN_MAX 1.0 1.0 1.0
0.405560 0.404699 0.000000
0.096189 0.337166 0.073562
0.000000 0.000000 0.000000
0.000000 0.000000 0.000000
0.000000 0.000000 0.000000
0.000000 0.000000 0.131945
0.000000 0.000000 0.400791
0.000000 0.000000 0.565145
0.000000 0.000000 0.377030
0.000000 0.000000 0.000000
0.000000 0.000000 0.000000
0.000000 0.000000 0.349352
0.000000 0.000000 0.669684
0.000000 0.000000 0.664335
0.000000 0.000000 0.064070
0.000000 0.000000 0.000000
0.000000 0.000000 0.284725
0.000000 0.000000 0.648844
0.000000 0.000000 0.642427
0.000000 0.000000 0.000000
1.000000 0.000000 0.601309
1.000000 0.000000 1.000000
0.330016 0.000000 1.000000
0.000000 0.000000 1.000000
0.000000 0.000000 0.347001
0.729193 0.881318 0.026040
0.571854 1.000000 0.000000
0.169130 0.851141 0.000000
0.000000 0.000000 0.000000
0.000000 0.000000 0.000000
0.157530 0.147034 0.203661
0.129469 0.139413 0.309642
0.138185 0.183786 0.460532
0.000000 0.000000 0.497539
0.000000 0.000000 0.262432
0.120375 0.420457 0.123233
0.067327 0.314568 0.344126
0.191828 0.445798 0.629694
0.120281 0.314464 0.799325
0.000000 0.131577 0.672970
0.613517 0.265618 0.087038
0.404604 0.297113 0.399075
0.372628 0.539030 0.723909
0.143970 0.434735 0.859109
0.000000 0.138284 0.602810
1.000000 0.000000 0.936392
1.000000 0.000000 1.000000
1.000000 0.000000 1.000000
0.388723 0.000000 1.000000
0.000000 0.000000 1.000000
0.897519 1.000000 0.142948
0.690464 1.000000 0.000000
0.450959 1.000000 0.000000
0.000000 0.786911 0.000000
0.000000 0.069797 0.000000
0.462996 0.459228 0.303440
0.322074 0.265397 0.246386
0.377508 0.344932 0.287824
0.220037 0.187997 0.358146
0.000000 0.000000 0.388309
0.451420 0.823791 0.244393
0.290099 0.510102 0.311409
0.412553 0.602120 0.467840
0.409503 0.533053 0.622259
0.357458 0.446803 0.683805
0.778144 0.489534 0.245697
0.533280 0.442097 0.429794
0.518225 0.720887 0.622586
0.323679 0.702158 0.710828
0.026134 0.472857 0.581840
1.000000 0.000000 1.000000
1.000000 0.000000 1.000000
1.000000 0.000000 1.000000
0.389688 0.000000 1.000000
0.000000 0.000000 1.000000
0.818429 0.683939 0.254012
0.596711 0.962720 0.025692
0.450276 1.000000 0.000000
0.000000 1.000000 0.000000
0.000000 0.538110 0.000000
0.537898 0.278561 0.370615
0.352081 0.057145 0.308149
0.416999 0.145159 0.301937
0.287709 0.000000 0.371559
0.005058 0.000000 0.537155
0.554658 0.725450 0.305435
0.385942 0.371498 0.377812
0.502028 0.406529 0.468524
0.457953 0.196644 0.575331
0.294547 0.000000 0.696556
0.703622 0.207271 0.315968
0.556600 0.257352 0.532979
0.587057 0.564150 0.658763
0.350015 0.436812 0.669262
0.000000 0.000000 0.540980
1.000000 0.000000 1.000000
1.000000 0.000000 1.000000
0.995385 0.000000 1.000000
0.310581 0.000000 1.000000
0.000000 0.000000 1.000000
0.745588 0.232556 0.121896
0.781056 1.000000 0.207968
0.894339 1.000000 0.207358
0.604830 1.000000 0.250649
0.000000 1.000000 0.468984
0.756744 0.127327 0.197336
0.830794 0.425753 0.444870
1.000000 0.884361 0.610603
1.000000 0.859093 0.803298
0.815720 0.416586 1.000000
0.925435 0.803113 0.127993
1.000000 0.965234 0.522759
1.000000 1.000000 0.768962
1.000000 1.000000 0.953547
1.000000 0.479947 1.000000
1.000000 0.251897 0.148971
1.000000 0.964742 0.717539
1.000000 1.000000 0.999140
1.000000 1.000000 1.000000
0.974630 0.793502 0.962512
1.000000 0.000000 1.000000
1.000000 0.000000 1.000000
1.000000 0.137869 1.000000
1.000000 0.652512 1.000000
0.373213 0.000000 1.000000
