public/luts/sony_eterna.cube
# Generated from ColorChecker fit
LUT_3D_SIZE 5
DOMAIN_MIN 0.0 0.0 0.0
DOMAIN_MAX 1.0 1.0 1.0
0.188432 0.129789 0.330250
0.000000 0.000000 0.307370
0.137747 0.000000 0.436053
0.622684 0.000000 0.201845
0.604878 0.000000 0.000000
0.000000 0.000000 0.234177
0.000000 0.211185 0.472676
0.000000 0.385585 0.638440
0.000000 0.000000 0.000000
0.000000 0.000000 0.000000
0.000000 0.000000 0.000000
0.000000 0.205528 0.420186
0.000000 0.487496 0.617006
0.000000 0.000000 0.000000
0.000000 0.000000 0.000000
1.000000 0.000000 1.000000
1.000000 1.000000 1.000000
1.000000 1.000000 1.000000
0.000000 0.000000 1.000000
0.000000 0.000000 0.000000
1.000000 1.000000 1.000000
1.000000 1.000000 1.000000
1.000000 1.000000 1.000000
1.000000 1.000000 1.000000
0.000000 0.000000 1.000000
0.394439 0.403806 0.000000
0.000000 0.000000 0.000000
0.102046 0.000000 0.000000
1.000000 0.000000 0.000000
1.000000 0.000000 0.000000
0.433596 0.448177 0.331635
0.243679 0.314164 0.273723
0.483838 0.315016 0.549608
0.727016 0.069594 0.637550
0.153152 0.000000 0.000000
0.000000 0.000000 0.000000
0.138293 0.569304 0.337282
0.290398 0.754481 0.752877
0.000000 0.000000 0.484689
0.000000 0.000000 0.000000
1.000000 0.660103 1.000000
1.000000 1.000000 1.000000
1.000000 1.000000 1.000000
0.627635 0.611002 1.000000
0.000000 0.000000 0.000000
1.000000 1.000000 1.000000
1.000000 1.000000 1.000000
1.000000 1.000000 1.000000
1.000000 1.000000 1.000000
1.000000 0.000000 1.000000
0.749462 0.702761 0.143865
0.000000 0.000000 0.000000
0.000000 0.000000 0.000000
1.000000 0.000000 0.000000
1.000000 0.584853 0.105523
0.980120 0.982855 0.707811
0.483722 0.284503 0.287472
0.653380 0.124060 0.415893
1.000000 0.279842 0.801844
1.000000 0.169747 0.774831
0.253525 0.507012 0.160553
0.294592 0.538404 0.192733
0.478146 0.577559 0.531845
0.287521 0.110962 0.648862
0.000000 0.000000 0.000000
1.000000 0.969167 1.000000
1.000000 1.000000 1.000000
1.000000 1.000000 1.000000
0.972868 0.664342 1.000000
0.000000 0.000000 0.000000
1.000000 1.000000 1.000000
1.000000 1.000000 1.000000
1.000000 1.000000 1.000000
1.000000 1.000000 1.000000
1.000000 0.000000 1.000000
0.760268 0.678463 0.000000
0.000000 0.000000 0.000000
0.000000 0.000000 0.000000
0.793441 0.000000 0.000000
1.000000 1.000000 0.003287
1.000000 1.000000 0.876791
0.743350 0.305590 0.349313
0.802142 0.269982 0.393985
1.000000 1.000000 0.950093
1.000000 1.000000 1.000000
0.778483 0.924107 0.335794
0.631275 0.553917 0.277929
0.765265 0.671696 0.566600
0.866534 0.923386 0.903296
0.228155 0.594510 0.610235
1.000000 1.000000 0.874875
1.000000 1.000000 1.000000
1.000000 1.000000 1.000000
1.000000 1.000000 1.000000
0.000000 0.000000 0.000000
1.000000 1.000000 1.000000
1.000000 1.000000 1.000000
1.000000 1.000000 1.000000
1.000000 1.000000 1.000000
1.000000 0.000000 1.000000
0.000000 0.000000 0.000000
0.000000 0.000000 0.000000
0.000000 0.000000 0.000000
0.000000 1.000000 0.000000
1.000000 1.000000 0.000000
0.977267 0.844128 0.000000
0.333959 0.000000 0.000000
0.478820 0.633092 0.025002
1.000000 1.000000 0.944715
1.000000 1.000000 1.000000
0.892586 0.808392 0.000000
0.830007 0.479974 0.268679
1.000000 1.000000 0.854258
1.000000 1.000000 1.000000
1.000000 1.000000 1.000000
1.000000 0.979828 0.567680
1.000000 1.000000 1.000000
1.000000 1.000000 1.000000
1.000000 1.000000 1.000000
0.107234 1.000000 0.905808
1.000000 1.000000 1.000000
1.000000 1.000000 1.000000
1.000000 1.000000 1.000000
1.000000 1.000000 1.000000
1.000000 1.000000 1.000000
