public/luts/sony_standard_cl.cube
# Generated from ColorChecker fit
LUT_3D_SIZE 33
DOMAIN_MIN 0.0 0.0 0.0
DOMAIN_MAX 1.0 1.0 1.0
0.111161 0.000000 0.180422
0.000000 0.000000 0.110949
0.000000 0.000000 0.050468
0.000000 0.000000 0.000000
0.000000 0.000000 0.000000
0.000000 0.000000 0.000000
0.000000 0.000000 0.000000
0.000000 0.000000 0.000000
0.000000 0.000000 0.000000
0.000000 0.000000 0.000000
0.000000 0.000000 0.000000
0.000000 0.000000 0.000000
0.000000 0.000000 0.000000
0.000000 0.000000 0.000000
0.000000 0.000000 0.000000
0.000000 0.000000 0.000000
0.000000 0.000000 0.000000
0.000000 0.000000 0.000000
0.000000 0.000000 0.000000
0.000000 0.000000 0.000000
0.000000 0.000000 0.000000
0.000000 0.000000 0.000000
0.000000 0.000000 0.000000
0.000000 0.000000 0.000000
0.000000 0.000000 0.000000
0.000000 0.000000 0.000000
0.000000 0.000000 0.000000
0.000000 0.000000 0.000000
0.000000 0.000000 0.000000
0.000000 0.000000 0.000000
0.000000 0.000000 0.000000
0.000000 0.000000 0.000000
0.000000 0.000000 0.000000
0.236675 0.000000 0.297115
0.109391 0.000000 0.231365
0.000000 0.000000 0.174656
0.000000 0.000000 0.126632
0.000000 0.000000 0.086874
0.000000 0.000000 0.054905
0.000000 0.000000 0.030191
0.000000 0.000000 0.012135
0.000000 0.000000 0.000083
0.000000 0.000000 0.000000
0.000000 0.000000 0.000000
0.000000 0.000000 0.000000
0.000000 0.000000 0.000000
0.000000 0.000000 0.002804
0.000000 0.000000 0.009700
0.000000 0.000000 0.016353
0.000000 0.000000 0.021634
0.000000 0.000000 0.024355
0.000000 0.000000 0.023266
0.000000 0.000000 0.017060
0.000000 0.000000 0.004370
0.000000 0.000000 0.000000
0.000000 0.000000 0.000000
0.000000 0.000000 0.000000
0.000000 0.000000 0.000000
0.000000 0.000000 0.000000
0.000000 0.000000 0.000000
0.000000 0.000000 0.000000
0.000000 0.000000 0.000000
0.000000 0.000000 0.000000
0.000000 0.000000 0.000000
0.000000 0.000000 0.000000
0.000000 0.000000 0.000000
0.341624 0.000000 0.402687
0.224577 0.000000 0.340390
0.113549 0.000000 0.287182
0.008813 0.000000 0.242685
0.000000 0.000000 0.206463
0.000000 0.000000 0.178017
0.000000 0.000000 0.156792
0.000000 0.000000 0.142173
0.000000 0.000000 0.133485
0.000000 0.000000 0.129993
0.000000 0.000000 0.130904
0.000000 0.000000 0.135366
0.000000 0.000000 0.142465
0.000000 0.000000 0.151230
0.000000 0.000000 0.160630
0.000000 0.000000 0.169575
0.000000 0.000000 0.176915
0.000000 0.000000 0.181440
0.000000 0.000000 0.181883
0.000000 0.000000 0.176914
0.000000 0.000000 0.165148
0.000000 0.000000 0.145137
0.000000 0.000000 0.115375
0.000000 0.000000 0.074297
0.000000 0.000000 0.020278
0.000000 0.000000 0.000000
0.000000 0.000000 0.000000
0.000000 0.000000 0.000000
0.000000 0.000000 0.000000
0.000000 0.000000 0.000000
0.000000 0.000000 0.000000
0.000000 0.000000 0.000000
0.000000 0.000000 0.000000
0.425277 0.000000 0.496254
0.318152 0.000000 0.437157
0.217206 0.000000 0.387194
0.122692 0.000000 0.345968
0.034741 0.000000 0.313020
0.000000 0.000000 0.287835
0.000000 0.000000 0.269835
0.000000 0.000000 0.258386
0.000000 0.000000 0.252793
0.000000 0.000000 0.252301
0.000000 0.000000 0.256096
0.000000 0.000000 0.263306
0.000000 0.000000 0.272998
0.000000 0.000000 0.284181
0.000000 0.000000 0.295804
0.000000 0.000000 0.306755
0.000000 0.000000 0.315866
0.000000 0.000000 0.321906
0.000000 0.000000 0.323588
0.000000 0.000000 0.319563
0.000000 0.000000 0.308424
0.000000 0.000000 0.288704
0.000000 0.000000 0.258877
0.000000 0.000000 0.217358
0.000000 0.000000 0.162502
0.000000 0.000000 0.092604
0.000000 0.000000 0.005902
0.000000 0.000000 0.000000
0.000000 0.000000 0.000000
0.000000 0.000000 0.000000
0.000000 0.000000 0.000000
0.000000 0.000000 0.000000
0.000000 0.000000 0.000000
0.487227 0.000000 0.577183
0.389729 0.000000 0.521049
0.298539 0.000000 0.474093
0.213892 0.000000 0.435895
0.135896 0.000000 0.405979
0.064539 0.000000 0.383808
0.000000 0.000000 0.368786
0.000000 0.000000 0.360256
0.000000 0.000000 0.357504
0.000000 0.000000 0.359756
0.000000 0.000000 0.366179
0.000000 0.000000 0.375878
0.000000 0.000000 0.387902
0.000000 0.000000 0.401238
0.000000 0.000000 0.414816
0.000000 0.000000 0.427506
0.000000 0.000000 0.438116
0.000000 0.000000 0.445398
0.000000 0.000000 0.448043
0.000000 0.000000 0.444684
0.000000 0.000000 0.433892
0.000000 0.000000 0.414181
0.000000 0.000000 0.384004
0.000000 0.000000 0.341757
0.000000 0.000000 0.285775
0.000000 0.000000 0.214332
0.000000 0.000000 0.125646
0.000000 0.000000 0.017874
0.000000 0.000000 0.000000
0.000000 0.000000 0.000000
0.000000 0.000000 0.000000
0.000000 0.000000 0.000000
0.000000 0.000000 0.000000
0.527392 0.000000 0.645089
0.439244 0.000000 0.591698
0.357504 0.000000 0.547525
0.282387 0.000000 0.512131
0.213980 0.000000 0.485020
0.152251 0.000000 0.465633
0.097043 0.000000 0.453356
0.048075 0.000000 0.447512
0.004943 0.000000 0.447366
0.000000 0.000000 0.452124
0.000000 0.000000 0.460932
0.000000 0.000000 0.472877
0.000000 0.000000 0.486986
0.000000 0.000000 0.502229
0.000000 0.000000 0.517513
0.000000 0.000000 0.531687
0.000000 0.000000 0.543543
0.000000 0.000000 0.551809
0.000000 0.000000 0.555159
0.000000 0.000000 0.552203
0.000000 0.000000 0.541495
0.000000 0.000000 0.521527
0.000000 0.000000 0.490733
0.000000 0.000000 0.447487
0.000000 0.000000 0.390105
0.000000 0.000000 0.316843
0.000000 0.000000 0.225896
0.000000 0.000000 0.115401
0.000000 0.000000 0.000000
0.000000 0.000000 0.000000
0.000000 0.000000 0.000000
0.000000 0.000000 0.000000
0.000000 0.000000 0.000000
0.546017 0.000000 0.699836
0.466961 0.000000 0.648984
0.394383 0.000000 0.607388
0.328477 0.000000 0.574589
0.269311 0.000000 0.550071
0.216833 0.000000 0.533257
0.170865 0.000000 0.523509
0.131107 0.000000 0.520132
0.097134 0.000000 0.522372
0.068400 0.000000 0.529414
0.044234 0.000000 0.540383
0.023840 0.000000 0.554347
0.006301 0.000000 0.570314
0.000000 0.000000 0.587230
0.000000 0.000000 0.603986
0.000000 0.000000 0.619410
0.000000 0.000000 0.632273
0.000000 0.000000 0.641284
0.000000 0.000000 0.645095
0.000000 0.000000 0.642298
0.000000 0.000000 0.631426
0.000000 0.000000 0.610951
0.000000 0.000000 0.579287
0.000000 0.000000 0.534789
0.000000 0.000000 0.475751
0.000000 0.000000 0.400409
0.000000 0.000000 0.306940
0.000000 0.000000 0.193460
0.000000 0.000000 0.058027
0.000000 0.000000 0.000000
0.000000 0.000000 0.000000
0.000000 0.000000 0.000000
0.000000 0.000000 0.000000
0.543673 0.000000 0.741536
0.473469 0.000000 0.693036
0.409783 0.000000 0.653827
0.352788 0.000000 0.623432
0.302533 0.000000 0.601313
0.258945 0.000000 0.586873
0.221828 0.000000 0.579456
0.190860 0.000000 0.578346
0.165597 0.000000 0.582768
0.145473 0.000000 0.591887
0.129796 0.000000 0.604810
0.117752 0.000000 0.620583
0.108402 0.000000 0.638193
0.100686 0.000000 0.656569
0.093419 0.000000 0.674580
0.085293 0.000000 0.691034
0.074875 0.000000 0.704681
0.060611 0.000000 0.714213
0.040822 0.000000 0.718259
0.013706 0.000000 0.715393
0.000000 0.000000 0.704125
0.000000 0.000000 0.682910
0.000000 0.000000 0.650141
0.000000 0.000000 0.604152
0.000000 0.000000 0.543219
0.000000 0.000000 0.465556
0.000000 0.000000 0.369320
0.000000 0.000000 0.252608
0.000000 0.000000 0.113457
0.000000 0.000000 0.000000
0.000000 0.000000 0.000000
0.000000 0.000000 0.000000
0.000000 0.000000 0.000000
0.521255 0.000000 0.770553
0.459682 0.000000 0.724232
0.404637 0.000000 0.687237
0.356271 0.000000 0.659069
0.314616 0.000000 0.639172
0.279578 0.000000 0.626927
0.250939 0.000000 0.621658
0.228360 0.000000 0.622629
0.211376 0.000000 0.629046
0.199400 0.000000 0.640054
0.191721 0.000000 0.654738
0.187504 0.000000 0.672125
0.185793 0.000000 0.691184
0.185505 0.000000 0.710821
0.185436 0.000000 0.729885
0.184257 0.000000 0.747166
0.180518 0.000000 0.761393
0.172642 0.000000 0.771237
0.158932 0.000000 0.775309
0.137564 0.000000 0.772160
0.106594 0.000000 0.760284
0.063952 0.000000 0.738112
0.007446 0.000000 0.704018
0.000000 0.000000 0.656318
0.000000 0.000000 0.593265
0.000000 0.000000 0.513055
0.000000 0.000000 0.413824
0.000000 0.000000 0.293649
0.000000 0.000000 0.150547
0.000000 0.000000 0.000000
0.000000 0.000000 0.000000
0.000000 0.000000 0.000000
0.000000 0.000000 0.000000
0.479984 0.000000 0.787496
0.426840 0.000000 0.743200
0.380203 0.000000 0.708262
0.340205 0.000000 0.682163
0.306857 0.000000 0.664324
0.280045 0.000000 0.654110
0.259532 0.000000 0.650823
0.244959 0.000000 0.653708
0.235840 0.000000 0.661949
0.231569 0.000000 0.674672
0.231415 0.000000 0.690942
0.234523 0.000000 0.709767
0.239917 0.000000 0.730093
0.246494 0.000000 0.750809
0.253029 0.000000 0.770743
0.258176 0.000000 0.788664
0.260461 0.000000 0.803282
0.258290 0.000000 0.813247
0.249945 0.000000 0.817151
0.233583 0.000000 0.813524
0.207238 0.000000 0.800840
0.168823 0.000000 0.777511
0.116123 0.000000 0.741890
0.046804 0.000000 0.692273
0.000000 0.000000 0.626893
0.000000 0.000000 0.543926
0.000000 0.000000 0.441488
0.000000 0.000000 0.317637
0.000000 0.000000 0.170368
0.000000 0.000000 0.000000
0.000000 0.000000 0.000000
0.000000 0.000000 0.000000
0.000000 0.000000 0.000000
0.421408 0.000000 0.793225
0.376509 0.000000 0.750817
0.338065 0.000000 0.717795
0.306190 0.000000 0.693620
0.280875 0.000000 0.677696
0.261985 0.000000 0.669365
0.249264 0.000000 0.667911
0.242332 0.000000 0.672557
0.240685 0.000000 0.682468
0.243694 0.000000 0.696749
0.250611 0.000000 0.714447
0.260560 0.000000 0.734548
0.272543 0.000000 0.755979
0.285440 0.000000 0.777607
0.298006 0.000000 0.798243
0.308873 0.000000 0.816634
0.316548 0.000000 0.831470
0.319418 0.000000 0.841381
0.315743 0.000000 0.844939
0.303661 0.005681 0.840655
0.281188 0.023390 0.826982
0.246214 0.029469 0.802311
0.196506 0.022085 0.764978
0.129709 0.000000 0.713255
0.043343 0.000000 0.645357
0.000000 0.000000 0.559441
0.000000 0.000000 0.453601
0.000000 0.000000 0.325874
0.000000 0.000000 0.174239
0.000000 0.000000 0.000000
0.000000 0.000000 0.000000
0.000000 0.000000 0.000000
0.000000 0.000000 0.000000
0.347400 0.000000 0.788850
0.310579 0.000000 0.748206
0.280133 0.000000 0.716976
0.256156 0.000000 0.694601
0.238618 0.000000 0.680462
0.227364 0.000000 0.673883
0.222120 0.000000 0.674128
0.222483 0.000000 0.680399
0.227931 0.000000 0.691842
0.237816 0.000000 0.707542
0.251367 0.000000 0.726525
0.267690 0.000000 0.747757
0.285768 0.000000 0.770145
0.304459 0.000000 0.792538
0.322499 0.000000 0.813723
0.338499 0.000000 0.832429
0.350949 0.000000 0.847327
0.358213 0.000000 0.857027
0.358532 0.011574 0.860079
0.350025 0.046310 0.854975
0.330686 0.070814 0.840147
0.298386 0.083355 0.813967
0.250873 0.082092 0.774751
0.185772 0.065076 0.720750
0.100582 0.030246 0.650160
0.000000 0.000000 0.561117
0.000000 0.000000 0.451696
0.000000 0.000000 0.319914
0.000000 0.000000 0.163728
0.000000 0.000000 0.000000
0.000000 0.000000 0.000000
0.000000 0.000000 0.000000
0.000000 0.000000 0.000000
0.260157 0.000000 0.775727
0.231268 0.000000 0.736743
0.208643 0.000000 0.707197
0.192356 0.000000 0.686510
0.182358 0.000000 0.674045
0.178474 0.000000 0.669104
0.180408 0.000000 0.670930
0.187739 0.000000 0.678708
0.199925 0.000000 0.691561
0.216297 0.000000 0.708556
0.236066 0.000000 0.728697
0.258316 0.000000 0.750932
0.282011 0.000000 0.774147
0.305989 0.000000 0.797171
0.328965 0.000000 0.818771
0.349532 0.000000 0.837656
0.366158 0.000000 0.852476
0.377188 0.000000 0.861821
0.380844 0.029439 0.864223
0.375223 0.070862 0.858152
0.358301 0.101686 0.842020
0.327928 0.120174 0.814181
0.281833 0.124475 0.772927
0.217619 0.112632 0.716493
0.132767 0.082578 0.643054
0.024634 0.032135 0.550724
0.000000 0.000000 0.437559
0.000000 0.000000 0.301556
0.000000 0.000000 0.140652
0.000000 0.000000 0.000000
0.000000 0.000000 0.000000
0.000000 0.000000 0.000000
0.000000 0.000000 0.000000
0.162203 0.000000 0.755464
0.141117 0.000000 0.718050
0.126155 0.000000 0.690097
0.117370 0.000000 0.671005
0.114693 0.000000 0.660117
0.117929 0.000000 0.656715
0.126763 0.000000 0.660023
0.140755 0.000000 0.669204
0.159340 0.000000 0.683363
0.181831 0.000000 0.701545
0.207418 0.000000 0.722736
0.235166 0.000000 0.745861
0.264018 0.000000 0.769789
0.292794 0.000000 0.793327
0.320188 0.000000 0.815222
0.344772 0.000000 0.834165
0.364995 0.000000 0.848784
0.379183 0.000000 0.857650
0.385536 0.032706 0.859273
0.382133 0.080418 0.852104
0.366928 0.117123 0.834537
0.337753 0.141074 0.804903
0.292315 0.150414 0.761476
0.228200 0.143178 0.702469
0.142866 0.117291 0.626038
0.033652 0.070568 0.530277
0.000000 0.000717 0.413222
0.000000 0.000000 0.272850
0.000000 0.000000 0.107078
0.000000 0.000000 0.000000
0.000000 0.000000 0.000000
0.000000 0.000000 0.000000
0.000000 0.000000 0.000000
0.056387 0.000000 0.729916
0.042995 0.000000 0.694000
0.035555 0.000000 0.667564
0.034102 0.000000 0.649990
0.038546 0.000000 0.640600
0.048673 0.000000 0.638656
0.064148 0.000000 0.643361
0.084508 0.000000 0.653859
0.109172 0.000000 0.669234
0.137432 0.000000 0.688513
0.168456 0.000000 0.710659
0.201293 0.000000 0.734580
0.234863 0.000000 0.759123
0.267965 0.000000 0.783075
0.299276 0.000000 0.805164
0.327347 0.000000 0.824059
0.350607 0.000000 0.838370
0.367361 0.000000 0.846647
0.375791 0.022519 0.847380
0.373955 0.076155 0.839001
0.359787 0.118333 0.819881
0.331099 0.147298 0.788334
0.285578 0.161186 0.742613
0.220790 0.158024 0.680910
0.134174 0.135729 0.601362
0.023048 0.092109 0.502043
0.000000 0.024863 0.380968
0.000000 0.000000 0.236095
0.000000 0.000000 0.065320
0.000000 0.000000 0.000000
0.000000 0.000000 0.000000
0.000000 0.000000 0.000000
0.000000 0.000000 0.000000
0.000000 0.000000 0.701187
0.000000 0.000000 0.666713
0.000000 0.000000 0.641736
0.000000 0.000000 0.625619
0.000000 0.000000 0.617663
0.000000 0.000000 0.617111
0.000000 0.000000 0.623146
0.022305 0.000000 0.634891
0.052746 0.000000 0.651411
0.086442 0.000000 0.671711
0.122543 0.000000 0.694737
0.160075 0.000000 0.719374
0.197941 0.000000 0.744450
0.234919 0.000000 0.768732
0.269665 0.000000 0.790929
0.300711 0.000000 0.809689
0.326465 0.000000 0.823601
0.345214 0.000000 0.831196
0.355118 0.000115 0.830944
0.354217 0.059344 0.821256
0.340424 0.106622 0.800485
0.311530 0.140185 0.766923
0.265205 0.158163 0.718803
0.198991 0.158574 0.654299
0.110311 0.139330 0.571525
0.000000 0.098229 0.468536
0.000000 0.032963 0.343329
0.000000 0.000000 0.193839
0.000000 0.000000 0.017943
0.000000 0.000000 0.000000
0.000000 0.000000 0.000000
0.000000 0.000000 0.000000
0.000000 0.000000 0.000000
0.000000 0.000000 0.671632
0.000000 0.000000 0.638559
0.000000 0.000000 0.615000
0.000000 0.000000 0.600295
0.000000 0.000000 0.593727
0.000000 0.000000 0.594518
0.000000 0.000000 0.601830
0.000000 0.000000 0.614769
0.000000 0.000000 0.632378
0.032529 0.000000 0.653641
0.073363 0.000000 0.677486
0.115218 0.000000 0.702777
0.156976 0.000000 0.728321
0.197396 0.000000 0.752867
0.235113 0.000000 0.775101
0.268641 0.000000 0.793654
0.296367 0.000000 0.807093
0.316557 0.000000 0.813930
0.327352 0.000000 0.812614
0.326771 0.031351 0.801537
0.312709 0.083387 0.779031
0.282937 0.121167 0.743368
0.235103 0.142810 0.692762
0.166730 0.146330 0.625366
0.075221 0.129627 0.539274
0.000000 0.090495 0.432521
0.000000 0.026617 0.303083
0.000000 0.000000 0.148877
0.000000 0.000000 0.000000
0.000000 0.000000 0.000000
0.000000 0.000000 0.000000
0.000000 0.000000 0.000000
0.000000 0.000000 0.000000
0.000000 0.000000 0.643852
0.000000 0.000000 0.612157
0.000000 0.000000 0.589989
0.000000 0.000000 0.576669
0.000000 0.000000 0.571458
0.000000 0.000000 0.573559
0.000000 0.000000 0.582116
0.000000 0.000000 0.596211
0.000000 0.000000 0.614868
0.000000 0.000000 0.637054
0.024929 0.000000 0.661673
0.070751 0.000000 0.687571
0.116017 0.000000 0.713535
0.159464 0.000000 0.738293
0.199708 0.000000 0.760512
0.235242 0.000000 0.778802
0.264435 0.000000 0.791711
0.285531 0.000000 0.797730
0.296652 0.000000 0.795288
0.295797 0.000000 0.782757
0.280841 0.050124 0.758449
0.249535 0.091771 0.720617
0.199506 0.116690 0.667453
0.128260 0.122884 0.597090
0.033177 0.108248 0.507604
0.000000 0.070567 0.397009
0.000000 0.007518 0.263261
0.000000 0.000000 0.104256
0.000000 0.000000 0.000000
0.000000 0.000000 0.000000
0.000000 0.000000 0.000000
0.000000 0.000000 0.000000
0.000000 0.000000 0.000000
0.000000 0.000000 0.620699
0.000000 0.000000 0.590375
0.000000 0.000000 0.569589
0.000000 0.000000 0.557641
0.000000 0.000000 0.553774
0.000000 0.000000 0.557170
0.000000 0.000000 0.566951
0.000000 0.000000 0.582181
0.000000 0.000000 0.601865
0.000000 0.000000 0.624947
0.000000 0.000000 0.650313
0.031031 0.000000 0.676789
0.079437 0.000000 0.703141
0.125515 0.000000 0.728076
0.167860 0.000000 0.750244
0.204944 0.000000 0.768232
0.235117 0.000000 0.780569
0.256602 0.000000 0.785726
0.267503 0.000000 0.782112
0.265798 0.000000 0.768079
0.249341 0.008421 0.741919
0.215864 0.053620 0.701864
0.162975 0.081456 0.646087
0.088158 0.089925 0.572702
0.000000 0.076915 0.479762
0.000000 0.040203 0.365263
0.000000 0.000000 0.227140
0.000000 0.000000 0.063270
0.000000 0.000000 0.000000
0.000000 0.000000 0.000000
0.000000 0.000000 0.000000
0.000000 0.000000 0.000000
0.000000 0.000000 0.000000
0.000000 0.000000 0.605274
0.000000 0.000000 0.576330
0.000000 0.000000 0.556932
0.000000 0.000000 0.546362
0.000000 0.000000 0.543841
0.000000 0.000000 0.548531
0.000000 0.000000 0.559535
0.000000 0.000000 0.575897
0.000000 0.000000 0.596600
0.000000 0.000000 0.620570
0.000000 0.000000 0.646672
0.000738 0.000000 0.673711
0.051938 0.000000 0.700435
0.100269 0.000000 0.725531
0.144307 0.000000 0.747626
0.182503 0.000000 0.765289
0.213188 0.000000 0.777030
0.234565 0.000000 0.781297
0.244718 0.000000 0.776482
0.241604 0.000000 0.760916
0.223058 0.000000 0.732870
0.186792 0.008430 0.690556
0.130395 0.038860 0.632128
0.051329 0.049239 0.555678
0.000000 0.037446 0.459242
0.000000 0.001251 0.340793
0.000000 0.000000 0.198248
0.000000 0.000000 0.029462
0.000000 0.000000 0.000000
0.000000 0.000000 0.000000
0.000000 0.000000 0.000000
0.000000 0.000000 0.000000
0.000000 0.000000 0.000000
0.000000 0.000000 0.600925
0.000000 0.000000 0.573387
0.000000 0.000000 0.555402
0.000000 0.000000 0.546230
0.000000 0.000000 0.545074
0.000000 0.000000 0.551075
0.000000 0.000000 0.563317
0.000000 0.000000 0.580822
0.000000 0.000000 0.602554
0.000000 0.000000 0.627419
0.000000 0.000000 0.654262
0.000000 0.000000 0.681868
0.038544 0.000000 0.708964
0.088769 0.000000 0.734218
0.134110 0.000000 0.756237
0.172999 0.000000 0.773569
0.203746 0.000000 0.784705
0.224536 0.000000 0.788073
0.233431 0.000000 0.782044
0.228369 0.000000 0.764928
0.207165 0.000000 0.734978
0.167511 0.000000 0.690386
0.106975 0.000000 0.629284
0.023001 0.002702 0.549745
0.000000 0.000000 0.449785
0.000000 0.000000 0.327358
0.000000 0.000000 0.180359
0.000000 0.000000 0.006624
0.000000 0.000000 0.000000
0.000000 0.000000 0.000000
0.000000 0.000000 0.000000
0.000000 0.000000 0.000000
0.000000 0.000000 0.000000
0.000000 0.000000 0.611250
0.000000 0.000000 0.585161
0.000000 0.000000 0.568628
0.000000 0.000000 0.560893
0.000000 0.000000 0.561137
0.000000 0.000000 0.568482
0.000000 0.000000 0.581991
0.000000 0.000000 0.600668
0.000000 0.000000 0.623456
0.000000 0.000000 0.649240
0.000000 0.000000 0.676845
0.000000 0.000000 0.705037
0.044606 0.000000 0.732523
0.096384 0.000000 0.757950
0.142658 0.000000 0.779905
0.181840 0.000000 0.796917
0.212219 0.000000 0.807456
0.231960 0.000000 0.809929
0.239106 0.000000 0.802689
0.231575 0.000000 0.784026
0.207162 0.000000 0.752170
0.163539 0.000000 0.705296
0.098254 0.000000 0.641514
0.008731 0.000000 0.558880
0.000000 0.000000 0.455386
0.000000 0.000000 0.328968
0.000000 0.000000 0.177500
0.000000 0.000000 0.000000
0.000000 0.000000 0.000000
0.000000 0.000000 0.000000
0.000000 0.000000 0.000000
0.000000 0.000000 0.000000
0.000000 0.000000 0.000000
0.000000 0.000000 0.640098
0.000000 0.000000 0.615515
0.000000 0.000000 0.600491
0.000000 0.000000 0.594246
0.000000 0.000000 0.595942
0.000000 0.000000 0.604681
0.000000 0.000000 0.619505
0.000000 0.000000 0.639398
0.000000 0.000000 0.663284
0.000000 0.000000 0.690027
0.000000 0.000000 0.718433
0.018121 0.000000 0.747247
0.075801 0.000000 0.775156
0.128810 0.000000 0.800787
0.175664 0.000000 0.822708
0.214756 0.000000 0.839426
0.244355 0.000000 0.849391
0.262606 0.000000 0.850993
0.267531 0.000000 0.842562
0.257029 0.000000 0.822367
0.228874 0.000000 0.788622
0.180719 0.000000 0.739479
0.110092 0.000000 0.673029
0.014397 0.000000 0.587306
0.000000 0.000000 0.480284
0.000000 0.000000 0.349878
0.000000 0.000000 0.193943
0.000000 0.000000 0.010275
0.000000 0.000000 0.000000
0.000000 0.000000 0.000000
0.000000 0.000000 0.000000
0.000000 0.000000 0.000000
0.000000 0.000000 0.000000
0.000000 0.000000 0.691563
0.000000 0.000000 0.668562
0.000000 0.000000 0.655119
0.000000 0.000000 0.650435
0.000000 0.000000 0.653651
0.000000 0.000000 0.663849
0.000000 0.000000 0.680052
0.000000 0.000000 0.701223
0.000000 0.000000 0.726266
0.000000 0.000000 0.754026
0.015644 0.000000 0.783287
0.078863 0.000000 0.812775
0.138131 0.000000 0.841157
0.192067 0.000000 0.867039
0.239169 0.000000 0.888970
0.277807 0.000000 0.905438
0.306232 0.000000 0.914871
0.322568 0.000000 0.915639
0.324818 0.000000 0.906052
0.310861 0.000000 0.884362
0.278451 0.000000 0.848758
0.225221 0.000000 0.797375
0.148677 0.000000 0.728283
0.046206 0.000000 0.639497
0.000000 0.000000 0.528970
0.000000 0.000000 0.394596
0.000000 0.000000 0.234212
0.000000 0.000000 0.045593
0.000000 0.000000 0.000000
0.000000 0.000000 0.000000
0.000000 0.000000 0.000000
0.000000 0.000000 0.000000
0.000000 0.000000 0.000000
0.000000 0.000000 0.769992
0.000000 0.000000 0.748664
0.000000 0.000000 0.736892
0.000000 0.000000 0.733855
0.000000 0.000000 0.738676
0.000000 0.000000 0.750415
0.000000 0.000000 0.768077
0.000000 0.000000 0.790604
0.000000 0.000000 0.816879
0.043533 0.000000 0.845727
0.112100 0.000000 0.875914
0.177322 0.000000 0.906145
0.237924 0.000000 0.935066
0.292503 0.000000 0.961264
0.339536 0.000000 0.983268
0.377376 0.000000 0.999544
0.404251 0.000000 1.000000
0.418268 0.000000 1.000000
0.417408 0.000000 0.997802
0.399530 0.000000 0.974665
0.362370 0.000000 0.937251
0.303538 0.000000 0.883673
0.220524 0.000000 0.811984
0.110691 0.000000 0.720175
0.000000 0.000000 0.606182
0.000000 0.000000 0.467878
0.000000 0.000000 0.303079
0.000000 0.000000 0.109540
0.000000 0.000000 0.000000
0.000000 0.000000 0.000000
0.000000 0.000000 0.000000
0.000000 0.000000 0.000000
0.000000 0.000000 0.000000
0.000000 0.000000 0.879978
0.000000 0.000000 0.860431
0.000000 0.000000 0.850434
0.000000 0.000000 0.849148
0.000000 0.000000 0.855674
0.000000 0.000000 0.869055
0.000000 0.000000 0.888271
0.032476 0.000000 0.912247
0.108174 0.000000 0.939847
0.182070 0.000000 0.969874
0.253115 0.000000 1.000000
0.320135 0.000000 1.000000
0.381833 0.000000 1.000000
0.436788 0.000000 1.000000
0.483456 0.000000 1.000000
0.520171 0.000000 1.000000
0.545140 0.000000 1.000000
0.556451 0.000000 1.000000
0.552064 0.000000 1.000000
0.529819 0.000000 1.000000
0.487431 0.000000 1.000000
0.422492 0.000000 1.000000
0.332469 0.000000 0.929086
0.214708 0.000000 0.834312
0.066431 0.000000 0.716908
0.000000 0.000000 0.574726
0.000000 0.000000 0.405563
0.000000 0.000000 0.207154
0.000000 0.000000 0.000000
0.000000 0.000000 0.000000
0.000000 0.000000 0.000000
0.000000 0.000000 0.000000
0.000000 0.000000 0.000000
0.000000 0.000000 1.000000
0.000000 0.000000 1.000000
0.000000 0.000000 1.000000
0.000000 0.000000 1.000000
0.000000 0.000000 1.000000
0.053464 0.000000 1.000000
0.135073 0.000000 1.000000
0.215979 0.000000 1.000000
0.295359 0.000000 1.000000
0.372267 0.000000 1.000000
0.445632 0.000000 1.000000
0.514261 0.000000 1.000000
0.576838 0.000000 1.000000
0.631921 0.000000 1.000000
0.677946 0.000000 1.000000
0.713227 0.000000 1.000000
0.735953 0.000000 1.000000
0.744189 0.000000 1.000000
0.735877 0.000000 1.000000
0.708837 0.000000 1.000000
0.660763 0.000000 1.000000
0.589227 0.000000 1.000000
0.491678 0.000000 1.000000
0.365441 0.000000 0.987129
0.207717 0.000000 0.866385
0.015583 0.000000 0.720395
0.000000 0.000000 0.546935
