public/luts/sony_nostalgic_neg.cube
# Generated from ColorChecker fit
LUT_3D_SIZE 33
DOMAIN_MIN 0.0 0.0 0.0
DOMAIN_MAX 1.0 1.0 1.0
0.405560 0.404699 0.000000
0.374223 0.411898 0.008001
0.344305 0.419083 0.022150
0.313899 0.423809 0.035443
0.281220 0.423807 0.047436
0.244600 0.416978 0.057687
0.202489 0.401400 0.065754
0.153456 0.375321 0.071193
0.096189 0.337166 0.073562
0.029494 0.285530 0.072418
0.000000 0.219185 0.067321
0.000000 0.137074 0.057826
0.000000 0.038314 0.043494
0.000000 0.000000 0.023881
0.000000 0.000000 0.000000
0.000000 0.000000 0.000000
0.000000 0.000000 0.000000
0.000000 0.000000 0.000000
0.000000 0.000000 0.000000
0.000000 0.000000 0.000000
0.000000 0.000000 0.000000
0.000000 0.000000 0.000000
0.000000 0.000000 0.000000
0.000000 0.000000 0.000000
0.000000 0.000000 0.000000
0.000000 0.000000 0.000000
0.000000 0.000000 0.000000
0.000000 0.000000 0.000000
0.000000 0.000000 0.000000
0.000000 0.000000 0.000000
0.000000 0.000000 0.000000
0.000000 0.000000 0.000000
0.000000 0.000000 0.000000
0.261156 0.172417 0.024867
0.232241 0.177208 0.041979
0.205521 0.183142 0.059011
0.179090 0.187760 0.075515
0.151161 0.188778 0.091042
0.120068 0.184085 0.105144
0.084259 0.171743 0.117374
0.042305 0.149988 0.127283
0.000000 0.117229 0.134424
0.000000 0.072050 0.138348
0.000000 0.013207 0.138608
0.000000 0.000000 0.134758
0.000000 0.000000 0.126349
0.000000 0.000000 0.112934
0.000000 0.000000 0.094067
0.000000 0.000000 0.069301
0.000000 0.000000 0.038189
0.000000 0.000000 0.000284
0.000000 0.000000 0.000000
0.000000 0.000000 0.000000
0.000000 0.000000 0.000000
0.000000 0.000000 0.000000
0.000000 0.000000 0.000000
0.000000 0.000000 0.000000
0.000000 0.000000 0.000000
0.000000 0.000000 0.000000
0.000000 0.000000 0.000000
0.000000 0.000000 0.000000
0.000000 0.000000 0.000000
0.000000 0.000000 0.000000
0.000000 0.000000 0.000000
0.000000 0.000000 0.000000
0.000000 0.000000 0.000000
0.130680 0.000000 0.053428
0.103834 0.000000 0.072923
0.079924 0.000000 0.092653
0.057045 0.000000 0.112165
0.033411 0.000000 0.131007
0.007353 0.000000 0.148723
0.000000 0.000000 0.164861
0.000000 0.000000 0.178968
0.000000 0.000000 0.190590
0.000000 0.000000 0.199275
0.000000 0.000000 0.204569
0.000000 0.000000 0.206019
0.000000 0.000000 0.203174
0.000000 0.000000 0.195581
0.000000 0.000000 0.182787
0.000000 0.000000 0.164341
0.000000 0.000000 0.139790
0.000000 0.000000 0.108682
0.000000 0.000000 0.070566
0.000000 0.000000 0.024990
0.000000 0.000000 0.000000
0.000000 0.000000 0.000000
0.000000 0.000000 0.000000
0.000000 0.000000 0.000000
0.000000 0.000000 0.000000
0.000000 0.000000 0.000000
0.000000 0.000000 0.000000
0.000000 0.000000 0.000000
0.000000 0.000000 0.000000
0.000000 0.000000 0.000000
0.000000 0.000000 0.000000
0.000000 0.000000 0.000000
0.000000 0.000000 0.000000
0.013146 0.000000 0.078376
0.000000 0.000000 0.100095
0.000000 0.000000 0.122348
0.000000 0.000000 0.144677
0.000000 0.000000 0.166623
0.000000 0.000000 0.187726
0.000000 0.000000 0.207527
0.000000 0.000000 0.225569
0.000000 0.000000 0.241393
0.000000 0.000000 0.254540
0.000000 0.000000 0.264553
0.000000 0.000000 0.270973
0.000000 0.000000 0.273342
0.000000 0.000000 0.271203
0.000000 0.000000 0.264097
0.000000 0.000000 0.251569
0.000000 0.000000 0.233159
0.000000 0.000000 0.208411
0.000000 0.000000 0.176868
0.000000 0.000000 0.138073
0.000000 0.000000 0.091569
0.000000 0.000000 0.036899
0.000000 0.000000 0.000000
0.000000 0.000000 0.000000
0.000000 0.000000 0.000000
0.000000 0.000000 0.000000
0.000000 0.000000 0.000000
0.000000 0.000000 0.000000
0.000000 0.000000 0.000000
0.000000 0.000000 0.000000
0.000000 0.000000 0.000000
0.000000 0.000000 0.000000
0.000000 0.000000 0.000000
0.000000 0.000000 0.099093
0.000000 0.000000 0.122889
0.000000 0.000000 0.147501
0.000000 0.000000 0.172464
0.000000 0.000000 0.197314
0.000000 0.000000 0.221586
0.000000 0.000000 0.244816
0.000000 0.000000 0.266541
0.000000 0.000000 0.286297
0.000000 0.000000 0.303619
0.000000 0.000000 0.318045
0.000000 0.000000 0.329112
0.000000 0.000000 0.336355
0.000000 0.000000 0.339313
0.000000 0.000000 0.337521
0.000000 0.000000 0.330517
0.000000 0.000000 0.317839
0.000000 0.000000 0.299024
0.000000 0.000000 0.273609
0.000000 0.000000 0.241132
0.000000 0.000000 0.201132
0.000000 0.000000 0.153145
0.000000 0.000000 0.096711
0.000000 0.000000 0.031367
0.000000 0.000000 0.000000
0.000000 0.000000 0.000000
0.000000 0.000000 0.000000
0.000000 0.000000 0.000000
0.000000 0.000000 0.000000
0.000000 0.000000 0.000000
0.000000 0.000000 0.000000
0.000000 0.000000 0.000000
0.000000 0.000000 0.000000
0.000000 0.000000 0.115096
0.000000 0.000000 0.140832
0.000000 0.000000 0.167647
0.000000 0.000000 0.195071
0.000000 0.000000 0.222635
0.000000 0.000000 0.249868
0.000000 0.000000 0.276303
0.000000 0.000000 0.301468
0.000000 0.000000 0.324895
0.000000 0.000000 0.346116
0.000000 0.000000 0.364661
0.000000 0.000000 0.380062
0.000000 0.000000 0.391850
0.000000 0.000000 0.399556
0.000000 0.000000 0.402713
0.000000 0.000000 0.400852
0.000000 0.000000 0.393506
0.000000 0.000000 0.380205
0.000000 0.000000 0.360484
0.000000 0.000000 0.333873
0.000000 0.000000 0.299906
0.000000 0.000000 0.258116
0.000000 0.000000 0.208034
0.000000 0.000000 0.149195
0.000000 0.000000 0.081130
0.000000 0.000000 0.003374
0.000000 0.000000 0.000000
0.000000 0.000000 0.000000
0.000000 0.000000 0.000000
0.000000 0.000000 0.000000
0.000000 0.000000 0.000000
0.000000 0.000000 0.000000
0.000000 0.000000 0.000000
0.000000 0.000000 0.126031
0.000000 0.000000 0.153579
0.000000 0.000000 0.182453
0.000000 0.000000 0.212176
0.000000 0.000000 0.242274
0.000000 0.000000 0.272271
0.000000 0.000000 0.301694
0.000000 0.000000 0.330067
0.000000 0.000000 0.356916
0.000000 0.000000 0.381768
0.000000 0.000000 0.404146
0.000000 0.000000 0.423579
0.000000 0.000000 0.439591
0.000000 0.000000 0.451709
0.000000 0.000000 0.459460
0.000000 0.000000 0.462370
0.000000 0.000000 0.459965
0.000000 0.000000 0.451772
0.000000 0.000000 0.437319
0.000000 0.000000 0.416132
0.000000 0.000000 0.387739
0.000000 0.000000 0.351667
0.000000 0.000000 0.307443
0.000000 0.000000 0.254596
0.000000 0.000000 0.192652
0.000000 0.000000 0.121140
0.000000 0.000000 0.039588
0.000000 0.000000 0.000000
0.000000 0.000000 0.000000
0.000000 0.000000 0.000000
0.000000 0.000000 0.000000
0.000000 0.000000 0.000000
0.000000 0.000000 0.000000
0.000000 0.000000 0.131677
0.000000 0.000000 0.160920
0.000000 0.000000 0.191717
0.000000 0.000000 0.223586
0.000000 0.000000 0.256048
0.000000 0.000000 0.288622
0.000000 0.000000 0.320828
0.000000 0.000000 0.352187
0.000000 0.000000 0.382218
0.000000 0.000000 0.410442
0.000000 0.000000 0.436380
0.000000 0.000000 0.459552
0.000000 0.000000 0.479478
0.000000 0.000000 0.495681
0.000000 0.000000 0.507680
0.000000 0.000000 0.514998
0.000000 0.000000 0.517155
0.000000 0.000000 0.513672
0.000000 0.000000 0.504073
0.000000 0.000000 0.487877
0.000000 0.000000 0.464608
0.000000 0.000000 0.433787
0.000000 0.000000 0.394936
0.000000 0.000000 0.347578
0.000000 0.000000 0.291235
0.000000 0.000000 0.225430
0.000000 0.000000 0.149685
0.000000 0.000000 0.063523
0.000000 0.000000 0.000000
0.000000 0.000000 0.000000
0.000000 0.000000 0.000000
0.000000 0.000000 0.000000
0.000000 0.000000 0.000000
0.000000 0.000000 0.131945
0.000000 0.000000 0.162775
0.000000 0.000000 0.195370
0.000000 0.000000 0.229243
0.000000 0.000000 0.263909
0.000000 0.000000 0.298882
0.000000 0.000000 0.333677
0.000000 0.000000 0.367808
0.000000 0.000000 0.400791
0.000000 0.000000 0.432140
0.000000 0.000000 0.461372
0.000000 0.000000 0.488000
0.000000 0.000000 0.511541
0.000000 0.000000 0.531510
0.000000 0.000000 0.547424
0.000000 0.000000 0.558796
0.000000 0.000000 0.565145
0.000000 0.000000 0.565986
0.000000 0.000000 0.560835
0.000000 0.000000 0.549208
0.000000 0.000000 0.530623
0.000000 0.000000 0.504595
0.000000 0.000000 0.470643
0.000000 0.000000 0.428282
0.000000 0.000000 0.377030
0.000000 0.000000 0.316404
0.000000 0.000000 0.245921
0.000000 0.000000 0.165099
0.000000 0.000000 0.073456
0.000000 0.000000 0.000000
0.000000 0.000000 0.000000
0.000000 0.000000 0.000000
0.000000 0.000000 0.000000
0.000000 0.000000 0.126876
0.000000 0.000000 0.159196
0.000000 0.000000 0.193474
0.000000 0.000000 0.229218
0.000000 0.000000 0.265937
0.000000 0.000000 0.303142
0.000000 0.000000 0.340340
0.000000 0.000000 0.377041
0.000000 0.000000 0.412756
0.000000 0.000000 0.446993
0.000000 0.000000 0.479263
0.000000 0.000000 0.509076
0.000000 0.000000 0.535941
0.000000 0.000000 0.559370
0.000000 0.000000 0.578871
0.000000 0.000000 0.593957
0.000000 0.000000 0.604138
0.000000 0.000000 0.608923
0.000000 0.000000 0.607826
0.000000 0.000000 0.600356
0.000000 0.000000 0.586024
0.000000 0.000000 0.564343
0.000000 0.000000 0.534823
0.000000 0.000000 0.496977
0.000000 0.000000 0.450316
0.000000 0.000000 0.394352
0.000000 0.000000 0.328596
0.000000 0.000000 0.252562
0.000000 0.000000 0.165762
0.000000 0.000000 0.067708
0.000000 0.000000 0.000000
0.000000 0.000000 0.000000
0.000000 0.000000 0.000000
0.000000 0.000000 0.116645
0.000000 0.000000 0.150366
0.000000 0.000000 0.186222
0.000000 0.000000 0.223714
0.000000 0.000000 0.262347
0.000000 0.000000 0.301625
0.000000 0.000000 0.341051
0.000000 0.000000 0.380131
0.000000 0.000000 0.418367
0.000000 0.000000 0.455264
0.000000 0.000000 0.490328
0.000000 0.000000 0.523062
0.000000 0.000000 0.552971
0.000000 0.000000 0.579561
0.000000 0.000000 0.602337
0.000000 0.000000 0.620803
0.000000 0.000000 0.634465
0.000000 0.000000 0.642828
0.000000 0.000000 0.645399
0.000000 0.000000 0.641683
0.000000 0.000000 0.631185
0.000000 0.000000 0.613413
0.000000 0.000000 0.587871
0.000000 0.000000 0.554067
0.000000 0.000000 0.511507
0.000000 0.000000 0.459697
0.000000 0.000000 0.398144
0.000000 0.000000 0.326355
0.000000 0.000000 0.243838
0.000000 0.000000 0.150098
0.000000 0.000000 0.044644
0.000000 0.000000 0.000000
0.000000 0.000000 0.000000
0.000000 0.000000 0.101555
0.000000 0.000000 0.136601
0.000000 0.000000 0.173939
0.000000 0.000000 0.213067
0.000000 0.000000 0.253483
0.000000 0.000000 0.294687
0.000000 0.000000 0.336176
0.000000 0.000000 0.377450
0.000000 0.000000 0.418008
0.000000 0.000000 0.457348
0.000000 0.000000 0.494970
0.000000 0.000000 0.530373
0.000000 0.000000 0.563056
0.000000 0.000000 0.592520
0.000000 0.000000 0.618264
0.000000 0.000000 0.639788
0.000000 0.000000 0.656591
0.000000 0.000000 0.668175
0.000000 0.000000 0.674039
0.000000 0.000000 0.673684
0.000000 0.000000 0.666610
0.000000 0.000000 0.652319
0.000000 0.000000 0.630310
0.000000 0.000000 0.600086
0.000000 0.000000 0.561146
0.000000 0.000000 0.512993
0.000000 0.000000 0.455128
0.000000 0.000000 0.387052
0.000000 0.000000 0.308267
0.000000 0.000000 0.218274
0.000000 0.000000 0.116577
0.000000 0.000000 0.002676
0.000000 0.000000 0.000000
0.000000 0.000000 0.082045
0.000000 0.000000 0.118347
0.000000 0.000000 0.157082
0.000000 0.000000 0.197743
0.000000 0.000000 0.239822
0.000000 0.000000 0.282814
0.000000 0.000000 0.326211
0.000000 0.000000 0.369507
0.000000 0.000000 0.412196
0.000000 0.000000 0.453771
0.000000 0.000000 0.493726
0.000000 0.000000 0.531555
0.000000 0.000000 0.566752
0.000000 0.000000 0.598812
0.000000 0.000000 0.627230
0.000000 0.000000 0.651498
0.000000 0.000000 0.671113
0.000000 0.000000 0.685570
0.000000 0.000000 0.694362
0.000000 0.000000 0.696985
0.000000 0.000000 0.692935
0.000000 0.000000 0.681707
0.000000 0.000000 0.662797
0.000000 0.000000 0.635699
0.000000 0.000000 0.599910
0.000000 0.000000 0.554927
0.000000 0.000000 0.500244
0.000000 0.000000 0.435358
0.000000 0.000000 0.359765
0.000000 0.000000 0.272963
0.000000 0.000000 0.174447
0.000000 0.000000 0.063714
0.000000 0.000000 0.000000
0.000000 0.000000 0.058682
0.000000 0.000000 0.096182
0.000000 0.000000 0.136239
0.000000 0.000000 0.178340
0.000000 0.000000 0.221972
0.000000 0.000000 0.266624
0.000000 0.000000 0.311784
0.000000 0.000000 0.356939
0.000000 0.000000 0.401579
0.000000 0.000000 0.445191
0.000000 0.000000 0.487264
0.000000 0.000000 0.527286
0.000000 0.000000 0.564747
0.000000 0.000000 0.599136
0.000000 0.000000 0.629941
0.000000 0.000000 0.656652
0.000000 0.000000 0.678759
0.000000 0.000000 0.695749
0.000000 0.000000 0.707115
0.000000 0.000000 0.712344
0.000000 0.000000 0.710928
0.000000 0.000000 0.702356
0.000000 0.000000 0.686118
0.000000 0.000000 0.661705
0.000000 0.000000 0.628607
0.000000 0.000000 0.586314
0.000000 0.000000 0.534319
0.000000 0.000000 0.472110
0.000000 0.000000 0.399180
0.000000 0.000000 0.315020
0.000000 0.000000 0.219121
0.000000 0.000000 0.110974
0.000000 0.000000 0.000000
0.000000 0.000000 0.032166
0.000000 0.000000 0.070817
0.000000 0.000000 0.112130
0.000000 0.000000 0.155588
0.000000 0.000000 0.200673
0.000000 0.000000 0.246868
0.000000 0.000000 0.293655
0.000000 0.000000 0.340517
0.000000 0.000000 0.386937
0.000000 0.000000 0.432398
0.000000 0.000000 0.476383
0.000000 0.000000 0.518376
0.000000 0.000000 0.557861
0.000000 0.000000 0.594320
0.000000 0.000000 0.627238
0.000000 0.000000 0.656099
0.000000 0.000000 0.680386
0.000000 0.000000 0.699584
0.000000 0.000000 0.713177
0.000000 0.000000 0.720650
0.000000 0.000000 0.721487
0.000000 0.000000 0.715173
0.000000 0.000000 0.701193
0.000000 0.000000 0.679031
0.000000 0.000000 0.648174
0.000000 0.000000 0.608106
0.000000 0.000000 0.558312
0.000000 0.000000 0.498279
0.000000 0.000000 0.427491
0.000000 0.000000 0.345435
0.000000 0.000000 0.251597
0.000000 0.000000 0.145463
0.000000 0.000000 0.026519
0.000000 0.000000 0.003329
0.000000 0.000000 0.043093
0.000000 0.000000 0.085607
0.000000 0.000000 0.130349
0.000000 0.000000 0.176796
0.000000 0.000000 0.224425
0.000000 0.000000 0.272714
0.000000 0.000000 0.321140
0.000000 0.000000 0.369180
0.000000 0.000000 0.416312
0.000000 0.000000 0.462015
0.000000 0.000000 0.505766
0.000000 0.000000 0.547044
0.000000 0.000000 0.585326
0.000000 0.000000 0.620092
0.000000 0.000000 0.650819
0.000000 0.000000 0.676987
0.000000 0.000000 0.698075
0.000000 0.000000 0.713560
0.000000 0.000000 0.722924
0.000000 0.000000 0.725644
0.000000 0.000000 0.721200
0.000000 0.000000 0.709072
0.000000 0.000000 0.688740
0.000000 0.000000 0.659683
0.000000 0.000000 0.621381
0.000000 0.000000 0.573314
0.000000 0.000000 0.514963
0.000000 0.000000 0.445808
0.000000 0.000000 0.365329
0.000000 0.000000 0.273007
0.000000 0.000000 0.168324
0.000000 0.000000 0.050758
0.000000 0.000000 0.000000
0.000000 0.000000 0.013982
0.000000 0.000000 0.057652
0.000000 0.000000 0.103616
0.000000 0.000000 0.151344
0.000000 0.000000 0.200310
0.000000 0.000000 0.249985
0.000000 0.000000 0.299842
0.000000 0.000000 0.349352
0.000000 0.000000 0.397988
0.000000 0.000000 0.445223
0.000000 0.000000 0.490529
0.000000 0.000000 0.533379
0.000000 0.000000 0.573247
0.000000 0.000000 0.609605
0.000000 0.000000 0.641926
0.000000 0.000000 0.669684
0.000000 0.000000 0.692353
0.000000 0.000000 0.709406
0.000000 0.000000 0.720317
0.000000 0.000000 0.724560
0.000000 0.000000 0.721609
0.000000 0.000000 0.710938
0.000000 0.000000 0.692022
0.000000 0.000000 0.664335
0.000000 0.000000 0.627352
0.000000 0.000000 0.580547
0.000000 0.000000 0.523395
0.000000 0.000000 0.455372
0.000000 0.000000 0.375953
0.000000 0.000000 0.284612
0.000000 0.000000 0.180826
0.000000 0.000000 0.064070
0.000000 0.000000 0.000000
0.000000 0.000000 0.000000
0.000000 0.000000 0.029380
0.000000 0.000000 0.076512
0.000000 0.000000 0.125452
0.000000 0.000000 0.175667
0.000000 0.000000 0.226623
0.000000 0.000000 0.277787
0.000000 0.000000 0.328627
0.000000 0.000000 0.378609
0.000000 0.000000 0.427200
0.000000 0.000000 0.473868
0.000000 0.000000 0.518081
0.000000 0.000000 0.559306
0.000000 0.000000 0.597010
0.000000 0.000000 0.630663
0.000000 0.000000 0.659731
0.000000 0.000000 0.683684
0.000000 0.000000 0.701989
0.000000 0.000000 0.714115
0.000000 0.000000 0.719530
0.000000 0.000000 0.717704
0.000000 0.000000 0.708105
0.000000 0.000000 0.690203
0.000000 0.000000 0.663465
0.000000 0.000000 0.627363
0.000000 0.000000 0.581365
0.000000 0.000000 0.524940
0.000000 0.000000 0.457559
0.000000 0.000000 0.378691
0.000000 0.000000 0.287806
0.000000 0.000000 0.184375
0.000000 0.000000 0.067867
0.000000 0.000000 0.000000
0.000000 0.000000 0.000000
0.000000 0.000000 0.002038
0.000000 0.000000 0.050296
0.000000 0.000000 0.100386
0.000000 0.000000 0.151772
0.000000 0.000000 0.203913
0.000000 0.000000 0.256273
0.000000 0.000000 0.308311
0.000000 0.000000 0.359491
0.000000 0.000000 0.409273
0.000000 0.000000 0.457120
0.000000 0.000000 0.502495
0.000000 0.000000 0.544859
0.000000 0.000000 0.583675
0.000000 0.000000 0.618406
0.000000 0.000000 0.648514
0.000000 0.000000 0.673463
0.000000 0.000000 0.692714
0.000000 0.000000 0.705732
0.000000 0.000000 0.711980
0.000000 0.000000 0.710921
0.000000 0.000000 0.702019
0.000000 0.000000 0.684737
0.000000 0.000000 0.658539
0.000000 0.000000 0.622889
0.000000 0.000000 0.577252
0.000000 0.000000 0.521091
0.000000 0.000000 0.453872
0.000000 0.000000 0.375058
0.000000 0.000000 0.284114
0.000000 0.000000 0.180505
0.000000 0.000000 0.063696
0.000000 0.000000 0.000000
0.000000 0.000000 0.000000
0.000000 0.000000 0.000000
0.000000 0.000000 0.026353
0.000000 0.000000 0.077544
0.000000 0.000000 0.130032
0.000000 0.000000 0.183274
0.000000 0.000000 0.236725
0.000000 0.000000 0.289842
0.000000 0.000000 0.342081
0.000000 0.000000 0.392899
0.000000 0.000000 0.441753
0.000000 0.000000 0.488099
0.000000 0.000000 0.531394
0.000000 0.000000 0.571097
0.000000 0.000000 0.606663
0.000000 0.000000 0.637550
0.000000 0.000000 0.663216
0.000000 0.000000 0.683119
0.000000 0.000000 0.696716
0.000000 0.000000 0.703466
0.000000 0.000000 0.702826
0.000000 0.000000 0.694255
0.000000 0.000000 0.677211
0.000000 0.000000 0.651152
0.000000 0.000000 0.615538
0.000000 0.000000 0.569827
0.000000 0.000000 0.513477
0.000000 0.000000 0.445949
0.000000 0.000000 0.366701
0.000000 0.000000 0.275192
0.000000 0.000000 0.170883
0.000000 0.000000 0.053232
0.000000 0.000000 0.000000
0.000000 0.000000 0.000000
0.000000 0.000000 0.000000
0.000000 0.000000 0.006204
0.000000 0.000000 0.058455
0.000000 0.000000 0.111988
0.000000 0.000000 0.166254
0.000000 0.000000 0.220704
0.000000 0.000000 0.274789
0.000000 0.000000 0.327959
0.000000 0.000000 0.379668
0.000000 0.000000 0.429364
0.000000 0.000000 0.476502
0.000000 0.000000 0.520531
0.000000 0.000000 0.560903
0.000000 0.000000 0.597072
0.000000 0.000000 0.628488
0.000000 0.000000 0.654604
0.000000 0.000000 0.674873
0.000000 0.000000 0.688746
0.000000 0.000000 0.695677
0.000000 0.000000 0.695119
0.000000 0.000000 0.686523
0.000000 0.000000 0.669344
0.000000 0.000000 0.643034
0.000000 0.000000 0.607047
0.000000 0.000000 0.560836
0.000000 0.000000 0.503855
0.000000 0.000000 0.435558
0.000000 0.000000 0.355398
0.000000 0.000000 0.262830
0.000000 0.000000 0.157307
0.000000 0.000000 0.038284
0.000000 0.000000 0.000000
0.000000 0.000000 0.000000
0.000000 0.000000 0.000000
0.000000 0.000000 0.000000
0.000000 0.000000 0.044780
0.000000 0.000000 0.099309
0.000000 0.000000 0.154534
0.000000 0.000000 0.209900
0.000000 0.000000 0.264852
0.000000 0.000000 0.318837
0.000000 0.000000 0.371299
0.000000 0.000000 0.421686
0.000000 0.000000 0.469444
0.000000 0.000000 0.514018
0.000000 0.000000 0.554856
0.000000 0.000000 0.591404
0.000000 0.000000 0.623108
0.000000 0.000000 0.649417
0.000000 0.000000 0.669776
0.000000 0.000000 0.683632
0.000000 0.000000 0.690434
0.000000 0.000000 0.689629
0.000000 0.000000 0.680664
0.000000 0.000000 0.662987
0.000000 0.000000 0.636045
0.000000 0.000000 0.599288
0.000000 0.000000 0.552162
0.000000 0.000000 0.494116
0.000000 0.000000 0.424600
0.000000 0.000000 0.343060
0.000000 0.000000 0.248946
0.000000 0.000000 0.141707
0.000000 0.000000 0.020791
0.000000 0.000000 0.000000
0.000000 0.000000 0.000000
0.000000 0.000000 0.000000
0.000000 0.000000 0.000000
0.000000 0.000000 0.038311
0.000000 0.000000 0.093799
0.000000 0.000000 0.149928
0.000000 0.000000 0.206136
0.000000 0.000000 0.261865
0.000000 0.000000 0.316555
0.000000 0.000000 0.369647
0.000000 0.000000 0.420581
0.000000 0.000000 0.468798
0.000000 0.000000 0.513740
0.000000 0.000000 0.554847
0.000000 0.000000 0.591561
0.000000 0.000000 0.623324
0.000000 0.000000 0.649576
0.000000 0.000000 0.669759
0.000000 0.000000 0.683316
0.000000 0.000000 0.689689
0.000000 0.000000 0.688319
0.000000 0.000000 0.678648
0.000000 0.000000 0.660120
0.000000 0.000000 0.632177
0.000000 0.000000 0.594261
0.000000 0.000000 0.545815
0.000000 0.000000 0.486282
0.000000 0.000000 0.415105
0.000000 0.000000 0.331728
0.000000 0.000000 0.235593
0.000000 0.000000 0.126145
0.000000 0.000000 0.002826
0.000000 0.000000 0.000000
0.000000 0.000000 0.000000
0.000000 0.000000 0.000000
0.000000 0.000000 0.000000
0.000000 0.000000 0.040974
0.000000 0.000000 0.097392
0.000000 0.000000 0.154378
0.000000 0.000000 0.211366
0.000000 0.000000 0.267791
0.000000 0.000000 0.323088
0.000000 0.000000 0.376693
0.000000 0.000000 0.428041
0.000000 0.000000 0.476568
0.000000 0.000000 0.521709
0.000000 0.000000 0.562900
0.000000 0.000000 0.599577
0.000000 0.000000 0.631177
0.000000 0.000000 0.657135
0.000000 0.000000 0.676888
0.000000 0.000000 0.689872
0.000000 0.000000 0.695525
0.000000 0.000000 0.693282
0.000000 0.000000 0.682581
0.000000 0.000000 0.662859
0.000000 0.000000 0.633552
0.000000 0.000000 0.594100
0.000000 0.000000 0.543938
0.000000 0.000000 0.482505
0.000000 0.000000 0.409237
0.000000 0.000000 0.323575
0.000000 0.000000 0.224954
0.000000 0.000000 0.112813
0.000000 0.000000 0.000000
0.000000 0.000000 0.000000
0.000000 0.000000 0.000000
0.000000 0.000000 0.000000
0.000000 0.000000 0.000000
0.000000 0.000000 0.054823
0.000000 0.000000 0.112153
0.000000 0.000000 0.169961
0.000000 0.000000 0.227675
0.000000 0.000000 0.284725
0.000000 0.000000 0.340542
0.000000 0.000000 0.394555
0.000000 0.000000 0.446194
0.000000 0.000000 0.494889
0.000000 0.000000 0.540071
0.000000 0.000000 0.581170
0.000000 0.000000 0.617618
0.000000 0.000000 0.648844
0.000000 0.000000 0.674280
0.000000 0.000000 0.693356
0.000000 0.000000 0.705505
0.000000 0.000000 0.710156
0.000000 0.000000 0.706743
0.000000 0.000000 0.694696
0.000000 0.000000 0.673446
0.000000 0.000000 0.642427
0.000000 0.000000 0.601070
0.000000 0.000000 0.548807
0.000000 0.000000 0.485070
0.000000 0.000000 0.409292
0.000000 0.000000 0.320906
0.000000 0.000000 0.219343
0.000000 0.000000 0.104038
0.000000 0.000000 0.000000
0.076018 0.000000 0.000000
0.012537 0.000000 0.000000
0.000000 0.000000 0.000000
0.000000 0.000000 0.024757
0.000000 0.000000 0.082046
0.000000 0.000000 0.140280
0.000000 0.000000 0.198884
0.000000 0.000000 0.257281
0.000000 0.000000 0.314896
0.000000 0.000000 0.371154
0.000000 0.000000 0.425478
0.000000 0.000000 0.477295
0.000000 0.000000 0.526028
0.000000 0.000000 0.571103
0.000000 0.000000 0.611945
0.000000 0.000000 0.647980
0.000000 0.000000 0.678632
0.000000 0.000000 0.703327
0.000000 0.000000 0.721492
0.000000 0.000000 0.732551
0.000000 0.000000 0.735931
0.000000 0.000000 0.731059
0.000000 0.000000 0.717360
0.000000 0.000000 0.694261
0.000000 0.000000 0.661188
0.000000 0.000000 0.617568
0.000000 0.000000 0.562828
0.000000 0.000000 0.496394
0.000000 0.000000 0.417695
0.000000 0.000000 0.326157
0.000000 0.000000 0.221207
0.000000 0.000000 0.102274
0.000000 0.000000 0.000000
0.232801 0.000000 0.000000
0.164636 0.000000 0.000000
0.106852 0.000000 0.009739
0.057542 0.000000 0.066647
0.014920 0.000000 0.124962
0.000000 0.000000 0.184102
0.000000 0.000000 0.243486
0.000000 0.000000 0.302533
0.000000 0.000000 0.360662
0.000000 0.000000 0.417292
0.000000 0.000000 0.471843
0.000000 0.000000 0.523734
0.000000 0.000000 0.572384
0.000000 0.000000 0.617214
0.000000 0.000000 0.657643
0.000000 0.000000 0.693091
0.000000 0.000000 0.722978
0.000000 0.000000 0.746725
0.000000 0.000000 0.763752
0.000000 0.000000 0.773479
0.000000 0.000000 0.775328
0.000000 0.000000 0.768718
0.000000 0.000000 0.753072
0.000000 0.000000 0.727809
0.000000 0.000000 0.692352
0.000000 0.000000 0.646121
0.000000 0.000000 0.588539
