public/luts/sony_nostalgic_neg.cube
# Generated from ColorChecker fit
LUT_3D_SIZE 9
DOMAIN_MIN 0.0 0.0 0.0
DOMAIN_MAX 1.0 1.0 1.0
0.405560 0.404699 0.000000
0.281220 0.423807 0.047436
0.096189 0.337166 0.073562
0.000000 0.038314 0.043494
0.000000 0.000000 0.000000
0.000000 0.000000 0.000000
0.000000 0.000000 0.000000
0.000000 0.000000 0.000000
0.000000 0.000000 0.000000
0.000000 0.000000 0.099093
0.000000 0.000000 0.197314
0.000000 0.000000 0.286297
0.000000 0.000000 0.336355
0.000000 0.000000 0.317839
0.000000 0.000000 0.201132
0.000000 0.000000 0.000000
0.000000 0.000000 0.000000
0.000000 0.000000 0.000000
0.000000 0.000000 0.131945
0.000000 0.000000 0.263909
0.000000 0.000000 0.400791
0.000000 0.000000 0.511541
0.000000 0.000000 0.565145
0.000000 0.000000 0.530623
0.000000 0.000000 0.377030
0.000000 0.000000 0.073456
0.000000 0.000000 0.000000
0.000000 0.000000 0.082045
0.000000 0.000000 0.239822
0.000000 0.000000 0.412196
0.000000 0.000000 0.566752
0.000000 0.000000 0.671113
0.000000 0.000000 0.692935
0.000000 0.000000 0.599910
0.000000 0.000000 0.359765
0.000000 0.000000 0.000000
0.000000 0.000000 0.000000
0.000000 0.000000 0.151344
0.000000 0.000000 0.349352
0.000000 0.000000 0.533379
0.000000 0.000000 0.669684
0.000000 0.000000 0.724560
0.000000 0.000000 0.664335
0.000000 0.000000 0.455372
0.000000 0.000000 0.064070
0.000000 0.000000 0.000000
0.000000 0.000000 0.058455
0.000000 0.000000 0.274789
0.000000 0.000000 0.476502
0.000000 0.000000 0.628488
0.000000 0.000000 0.695677
0.000000 0.000000 0.643034
0.000000 0.000000 0.435558
0.000000 0.000000 0.038284
0.000000 0.000000 0.000000
0.000000 0.000000 0.054823
0.000000 0.000000 0.284725
0.000000 0.000000 0.494889
0.000000 0.000000 0.648844
0.000000 0.000000 0.710156
0.000000 0.000000 0.642427
0.000000 0.000000 0.409292
0.000000 0.000000 0.000000
0.613153 0.000000 0.035075
0.353642 0.000000 0.267806
0.172380 0.000000 0.509071
0.000000 0.000000 0.721000
0.000000 0.000000 0.865761
0.000000 0.000000 0.905556
0.000000 0.000000 0.802623
0.000000 0.000000 0.519234
0.000000 0.000000 0.017695
1.000000 0.000000 0.601309
1.000000 0.000000 0.858454
1.000000 0.000000 1.000000
0.729368 0.000000 1.000000
0.330016 0.000000 1.000000
0.000000 0.000000 1.000000
0.000000 0.000000 1.000000
0.000000 0.000000 0.941731
0.000000 0.000000 0.347001
0.567527 0.655951 0.000000
0.478562 0.724673 0.010098
0.374189 0.755064 0.012710
0.164402 0.636469 0.000000
0.000000 0.302653 0.000000
0.000000 0.000000 0.000000
0.000000 0.000000 0.000000
0.000000 0.000000 0.000000
0.000000 0.000000 0.000000
0.143563 0.011080 0.116020
0.088874 0.035152 0.170198
0.061801 0.083989 0.233036
0.000000 0.043378 0.280422
0.000000 0.000000 0.288279
0.000000 0.000000 0.232565
0.000000 0.000000 0.089274
0.000000 0.000000 0.000000
0.000000 0.000000 0.000000
0.000000 0.000000 0.166253
0.000000 0.000000 0.254395
0.000000 0.000000 0.363550
0.000000 0.000000 0.468242
0.000000 0.000000 0.543032
0.000000 0.000000 0.562513
0.000000 0.000000 0.501316
0.000000 0.000000 0.334104
0.000000 0.000000 0.035577
0.000000 0.000000 0.138667
0.000000 0.000000 0.253891
0.000000 0.000000 0.398004
0.000000 0.000000 0.544166
0.000000 0.000000 0.665574
0.000000 0.000000 0.735459
0.000000 0.000000 0.727085
0.000000 0.000000 0.613755
0.000000 0.000000 0.368803
0.000000 0.000000 0.055601
0.000000 0.000000 0.193576
0.000000 0.000000 0.363838
0.000000 0.000000 0.538184
0.000000 0.000000 0.688447
0.000000 0.000000 0.786492
0.000000 0.000000 0.804223
0.000000 0.000000 0.713577
0.000000 0.000000 0.486527
0.000000 0.027903 0.000000
0.000000 0.000000 0.132031
0.000000 0.000000 0.322184
0.000000 0.036904 0.513977
0.000000 0.031308 0.677879
0.000000 0.000000 0.784394
0.000000 0.000000 0.804061
0.000000 0.000000 0.707453
0.000000 0.000000 0.465178
0.343510 0.000000 0.000000
0.181034 0.000000 0.161526
0.128745 0.000000 0.367860
0.096629 0.000000 0.568914
0.025031 0.000000 0.733792
0.000000 0.000000 0.831635
0.000000 0.000000 0.831618
0.000000 0.000000 0.702950
0.000000 0.000000 0.414877
0.975557 0.000000 0.202276
0.745924 0.000000 0.408018
0.616482 0.000000 0.629375
0.497215 0.000000 0.834054
0.328468 0.000000 0.989794
0.080950 0.000000 1.000000
0.000000 0.000000 1.000000
0.000000 0.000000 0.841330
0.000000 0.000000 0.479434
1.000000 0.000000 0.794487
1.000000 0.000000 1.000000
1.000000 0.000000 1.000000
1.000000 0.000000 1.000000
0.900585 0.000000 1.000000
0.498783 0.000000 1.000000
0.000441 0.000000 1.000000
0.000000 0.000000 1.000000
0.000000 0.000000 0.836348
0.729193 0.881318 0.026040
0.638873 0.951259 0.000000
0.571854 1.000000 0.000000
0.435898 1.000000 0.000000
0.169130 0.851141 0.000000
0.000000 0.479686 0.000000
0.000000 0.000000 0.000000
0.000000 0.000000 0.000000
0.000000 0.000000 0.000000
0.359035 0.305177 0.144944
0.291561 0.305074 0.148089
0.287079 0.382274 0.171803
0.253349 0.418370 0.197549
0.128494 0.339370 0.206824
0.000000 0.115703 0.181160
0.000000 0.000000 0.102124
0.000000 0.000000 0.000000
0.000000 0.000000 0.000000
0.157530 0.147034 0.203661
0.096577 0.081292 0.241091
0.129469 0.139413 0.309642
0.163964 0.199427 0.389411
0.138185 0.183786 0.460532
0.020614 0.059355 0.503173
0.000000 0.000000 0.497539
0.000000 0.000000 0.423867
0.000000 0.000000 0.262432
0.082752 0.243502 0.189444
0.013455 0.127085 0.255327
0.060019 0.167848 0.358402
0.130201 0.240266 0.477406
0.162122 0.263228 0.591108
0.124265 0.200042 0.678312
0.015473 0.058435 0.717859
0.000000 0.000000 0.688623
0.000000 0.000000 0.569515
0.120375 0.420457 0.123233
0.029331 0.278881 0.214285
0.067327 0.314568 0.344126
0.142119 0.398430 0.490127
0.191828 0.445798 0.629694
0.184934 0.416420 0.740268
0.120281 0.314464 0.799325
0.027072 0.188516 0.784377
0.000000 0.131577 0.672970
0.283672 0.493031 0.059657
0.158939 0.362373 0.175147
0.167589 0.415820 0.326544
0.217378 0.520725 0.489854
0.246423 0.588858 0.641121
0.223205 0.576409 0.756421
0.146565 0.483985 0.811868
0.045707 0.356613 0.783610
0.000000 0.283736 0.647828
0.613517 0.265618 0.087038
0.444616 0.192512 0.228783
0.404604 0.297113 0.399075
0.401236 0.443215 0.572557
0.372628 0.539030 0.723909
0.287259 0.537187 0.827843
0.143970 0.434735 0.859109
0.000000 0.273139 0.792492
0.000000 0.138284 0.602810
1.000000 0.000000 0.327383
0.956297 0.000000 0.499752
0.849769 0.000000 0.688830
0.766552 0.000000 0.867896
0.644764 0.132196 1.000000
0.452880 0.145194 1.000000
0.189741 0.023708 1.000000
0.000000 0.000000 0.950884
0.000000 0.000000 0.680326
1.000000 0.000000 0.936392
1.000000 0.000000 1.000000
1.000000 0.000000 1.000000
1.000000 0.000000 1.000000
1.000000 0.000000 1.000000
0.823452 0.000000 1.000000
0.388723 0.000000 1.000000
0.000000 0.000000 1.000000
0.000000 0.000000 1.000000
0.846630 1.000000 0.076140
0.733023 1.000000 0.000000
0.674851 1.000000 0.000000
0.577648 1.000000 0.000000
0.377305 1.000000 0.000000
0.040080 0.899437 0.000000
0.000000 0.509058 0.000000
0.000000 0.029406 0.000000
0.000000 0.000000 0.000000
0.517718 0.486227 0.190237
0.417587 0.438411 0.145222
0.409247 0.508856 0.126696
0.398228 0.574957 0.121698
0.320424 0.558531 0.117296
0.142088 0.425809 0.100599
0.000000 0.187444 0.058747
0.000000 0.000000 0.000000
0.000000 0.000000 0.000000
0.348983 0.377413 0.250385
0.250235 0.248526 0.240077
0.270796 0.281159 0.265007
0.316195 0.349147 0.310848
0.322325 0.370748 0.363307
0.255438 0.308635 0.408128
0.112150 0.169899 0.431086
0.000000 0.006051 0.417997
0.000000 0.000000 0.354706
0.293470 0.513092 0.242435
0.185473 0.327499 0.262051
0.215467 0.333446 0.321175
0.288980 0.401211 0.404117
0.341902 0.445488 0.495220
0.340486 0.425393 0.578863
0.281345 0.344458 0.639461
0.191456 0.250634 0.661462
0.128155 0.236288 0.629351
0.331826 0.707220 0.185929
0.205411 0.499844 0.233234
0.226831 0.500789 0.319841
0.301614 0.576773 0.428695
0.365649 0.638934 0.542775
0.385187 0.642825 0.645097
0.356841 0.588420 0.718712
0.307585 0.520108 0.746705
0.294755 0.526700 0.712197
0.472297 0.763012 0.134097
0.319756 0.579332 0.209409
0.316058 0.607516 0.319337
0.366730 0.710723 0.445463
0.407659 0.796530 0.569404
0.405097 0.816932 0.672811
0.355653 0.768341 0.737371
0.286303 0.691590 0.744807
0.254380 0.671927 0.676874
0.750729 0.472946 0.173860
0.565815 0.368998 0.280045
0.521917 0.467219 0.411683
0.524558 0.627207 0.548993
0.509627 0.752980 0.672228
0.443371 0.792973 0.761676
0.322401 0.740040 0.797660
0.173690 0.631452 0.760538
0.054571 0.548900 0.630703
1.000000 0.000000 0.425827
1.000000 0.000000 0.568301
0.910779 0.000000 0.722588
0.842932 0.139634 0.867543
0.740845 0.332250 0.982056
0.570765 0.405473 1.000000
0.329301 0.348596 1.000000
0.043425 0.195332 0.932358
0.000000 0.023812 0.714696
1.000000 0.000000 1.000000
1.000000 0.000000 1.000000
1.000000 0.000000 1.000000
1.000000 0.000000 1.000000
1.000000 0.000000 1.000000
0.885636 0.000000 1.000000
0.476172 0.000000 1.000000
0.000000 0.000000 1.000000
0.000000 0.000000 1.000000
0.897519 1.000000 0.142948
0.753494 1.000000 0.020990
0.690464 1.000000 0.000000
0.611731 1.000000 0.000000
0.450959 1.000000 0.000000
0.172172 1.000000 0.000000
0.000000 0.786911 0.000000
0.000000 0.417713 0.000000
0.000000 0.069797 0.000000
0.604848 0.529930 0.247073
0.466985 0.435165 0.166632
0.443138 0.488034 0.112613
0.436607 0.561739 0.077626
0.381055 0.573902 0.054316
0.240505 0.486562 0.035365
0.009344 0.306175 0.013488
0.000000 0.083617 0.000000
0.000000 0.000000 0.000000
0.462996 0.459228 0.303440
0.323435 0.268515 0.258229
0.322074 0.265397 0.246386
0.362211 0.319515 0.259157
0.377508 0.344932 0.287824
0.331988 0.300127 0.323703
0.220037 0.187997 0.358146
0.066400 0.055858 0.382541
0.000000 0.000000 0.388309
0.419980 0.623169 0.296499
0.272324 0.370278 0.282784
0.278213 0.331702 0.304904
0.340947 0.373525 0.352743
0.394186 0.406249 0.416217
0.401951 0.384794 0.485281
0.358626 0.308497 0.549923
0.288959 0.221114 0.600165
0.248054 0.210821 0.626066
0.451420 0.823791 0.244393
0.290731 0.553048 0.260988
0.290099 0.510102 0.311409
0.352820 0.557479 0.384175
0.412553 0.602120 0.467840
0.433320 0.595385 0.550993
0.409503 0.533053 0.622259
0.365847 0.455321 0.670298
0.357458 0.446803 0.683805
0.560535 0.852393 0.198952
0.383339 0.618680 0.247223
0.363874 0.613010 0.322833
0.405434 0.694346 0.412935
0.441677 0.766070 0.504722
0.436625 0.775984 0.585419
0.384657 0.716307 0.642287
0.310518 0.623675 0.662622
0.269314 0.579143 0.633755
0.778144 0.489534 0.245697
0.582429 0.358292 0.329559
0.533280 0.442097 0.429794
0.533993 0.596355 0.532194
0.518225 0.720887 0.622586
0.449993 0.759935 0.686831
0.323679 0.702158 0.710828
0.164025 0.580634 0.680509
0.026134 0.472857 0.581840
1.000000 0.000000 0.503837
0.947880 0.000000 0.629756
0.859662 0.000000 0.756605
0.801304 0.064997 0.868812
0.706462 0.278617 0.950841
0.539154 0.369841 0.987189
0.293759 0.323768 0.962392
0.000000 0.169915 0.861018
0.000000 0.000000 0.667669
1.000000 0.000000 1.000000
1.000000 0.000000 1.000000
1.000000 0.000000 1.000000
1.000000 0.000000 1.000000
1.000000 0.000000 1.000000
0.797436 0.000000 1.000000
0.389688 0.000000 1.000000
0.000000 0.000000 1.000000
0.000000 0.000000 1.000000
0.881151 0.902234 0.210594
0.714378 0.928465 0.076231
0.647583 1.000000 0.000000
0.581840 1.000000 0.000000
0.448581 1.000000 0.000000
0.209603 1.000000 0.000000
0.000000 0.910146 0.000000
0.000000 0.606417 0.000000
0.000000 0.319895 0.000000
0.627268 0.443936 0.301427
0.461400 0.327284 0.208156
0.425197 0.376057 0.135250
0.419730 0.459266 0.080893
0.376430 0.490335 0.043306
0.257093 0.427110 0.020743
0.053874 0.271853 0.011492
0.000000 0.071246 0.013880
0.000000 0.000000 0.026265
0.513965 0.409840 0.350644
0.345375 0.182920 0.293227
0.327300 0.158088 0.261319
0.360808 0.200792 0.251740
0.377330 0.220898 0.261345
0.338661 0.172693 0.287026
0.236954 0.054879 0.325708
0.094727 0.000000 0.374352
0.000000 0.000000 0.429954
0.484231 0.600807 0.341297
0.310756 0.306793 0.317049
0.299806 0.238289 0.318974
0.352451 0.257183 0.342530
0.400121 0.269784 0.383208
0.404608 0.226816 0.436536
0.358065 0.123423 0.498076
0.283009 0.000000 0.563425
0.232317 0.000000 0.628216
0.508660 0.806956 0.290127
0.329595 0.499579 0.298912
0.316232 0.427894 0.330057
0.369638 0.450232 0.377657
0.421242 0.469340 0.435839
0.432835 0.432385 0.498767
0.396570 0.330950 0.560641
0.334961 0.201038 0.615692
0.300885 0.123069 0.658191
0.585442 0.807670 0.247566
0.401546 0.551215 0.291798
0.377692 0.527398 0.350099
0.414944 0.590988 0.415201
0.444731 0.641175 0.479869
0.428843 0.621564 0.536901
0.359431 0.520180 0.579133
0.259008 0.369465 0.599436
0.180450 0.246281 0.590713
0.740369 0.371589 0.297736
0.553864 0.240901 0.382378
0.512902 0.326556 0.468322
0.518548 0.479765 0.546935
0.502229 0.596158 0.609618
0.425733 0.615780 0.647808
0.281211 0.523096 0.652975
0.091175 0.346990 0.616627
0.000000 0.160763 0.530304
1.000000 0.000000 0.558446
0.841401 0.000000 0.691012
0.778178 0.000000 0.807635
0.738228 0.000000 0.898319
0.652975 0.134418 0.953099
0.484207 0.225718 0.962049
0.224074 0.160942 0.915278
0.000000 0.000000 0.802926
0.000000 0.000000 0.615174
1.000000 0.000000 1.000000
1.000000 0.000000 1.000000
1.000000 0.000000 1.000000
1.000000 0.000000 1.000000
0.983808 0.000000 1.000000
0.692566 0.000000 1.000000
0.277783 0.000000 1.000000
0.000000 0.000000 1.000000
0.000000 0.000000 1.000000
0.818429 0.683939 0.254012
0.651376 0.760812 0.139601
0.596711 0.962720 0.025692
0.553277 1.000000 0.000000
0.450276 1.000000 0.000000
0.247273 1.000000 0.000000
0.000000 1.000000 0.000000
0.000000 0.795507 0.000000
0.000000 0.538110 0.000000
0.613435 0.267845 0.330074
0.444087 0.178668 0.256431
0.413479 0.261127 0.191107
0.420451 0.380037 0.137862
0.394205 0.444629 0.100489
0.294306 0.408554 0.082816
0.110679 0.269880 0.088708
0.000000 0.071095 0.122062
0.000000 0.000000 0.186813
0.537898 0.278561 0.370615
0.366863 0.065354 0.333552
0.352081 0.057145 0.308149
0.392393 0.115189 0.296801
0.416999 0.145159 0.301937
0.385463 0.097145 0.326024
0.287709 0.000000 0.371559
0.144025 0.000000 0.441080
0.005058 0.000000 0.537155
0.529785 0.505028 0.357288
0.359130 0.220368 0.355168
0.353406 0.160830 0.363570
0.411453 0.184108 0.383526
0.462469 0.192315 0.416102
0.466018 0.131984 0.462399
0.412022 0.000000 0.523553
0.320767 0.000000 0.600737
0.242902 0.000000 0.695156
0.554658 0.725450 0.305435
0.387914 0.432471 0.339170
0.385942 0.371498 0.377812
0.447581 0.396666 0.421029
0.502028 0.406529 0.468524
0.508844 0.344058 0.520034
0.457953 0.196644 0.575331
0.369639 0.000000 0.634225
0.294547 0.000000 0.696556
0.605682 0.707290 0.264088
0.447841 0.479682 0.337141
0.445777 0.477726 0.405008
0.498326 0.551997 0.465994
0.534686 0.597490 0.518437
0.514417 0.553616 0.560712
0.427439 0.404205 0.591227
0.294036 0.177507 0.608427
0.164855 0.000000 0.610791
0.703622 0.207271 0.315968
0.561139 0.129282 0.434351
0.556600 0.257352 0.532979
0.588841 0.438497 0.608791
0.587057 0.564150 0.658763
0.510808 0.570165 0.679905
0.350015 0.436812 0.669262
0.124958 0.188780 0.623915
0.000000 0.000000 0.540980
0.896842 0.000000 0.577485
0.777633 0.000000 0.749763
0.769698 0.000000 0.883236
0.771873 0.000000 0.973481
0.713353 0.094721 1.000000
0.553694 0.192475 1.000000
0.282817 0.103790 0.941147
0.000000 0.000000 0.814951
0.000000 0.000000 0.623936
1.000000 0.000000 1.000000
1.000000 0.000000 1.000000
1.000000 0.000000 1.000000
1.000000 0.000000 1.000000
0.995385 0.000000 1.000000
0.726348 0.000000 1.000000
0.310581 0.000000 1.000000
0.000000 0.000000 1.000000
0.000000 0.000000 1.000000
0.751867 0.429450 0.238935
0.621803 0.630069 0.186694
0.609961 0.953652 0.118724
0.612954 1.000000 0.045721
0.557753 1.000000 0.000000
0.401696 1.000000 0.000000
0.132479 1.000000 0.000000
0.000000 1.000000 0.000000
0.000000 0.980681 0.000000
0.613413 0.073208 0.300590
0.479911 0.085168 0.288895
0.487649 0.263393 0.267485
0.533236 0.468503 0.245694
0.543644 0.605534 0.232889
0.476209 0.623944 0.238472
0.318625 0.517606 0.271882
0.088952 0.324814 0.342590
0.000000 0.128276 0.460106
0.592415 0.146652 0.332773
0.460316 0.021377 0.358484
0.483636 0.092429 0.376018
0.558984 0.216870 0.393345
0.613332 0.296176 0.418468
0.604011 0.276244 0.459426
0.518718 0.147390 0.524293
0.375509 0.000000 0.621178
0.222803 0.000000 0.758227
0.621811 0.426807 0.315736
0.497417 0.226277 0.378265
0.533785 0.238898 0.429677
0.627522 0.318172 0.476577
0.705600 0.362017 0.525606
0.725350 0.312770 0.583439
0.674465 0.157186 0.656787
0.571003 0.000000 0.752395
0.463379 0.000000 0.877043
0.662138 0.679957 0.263422
0.553212 0.476710 0.364730
0.601554 0.490199 0.447503
0.703772 0.570367 0.516983
0.786834 0.611572 0.578447
0.808071 0.552591 0.637207
0.755175 0.376620 0.698608
0.646202 0.111273 0.768033
0.529568 0.000000 0.850900
0.701533 0.661649 0.223464
0.617301 0.538778 0.368062
0.678007 0.622991 0.482231
0.780257 0.760670 0.569847
0.851018 0.842613 0.634824
0.847621 0.804038 0.681110
0.757757 0.624581 0.712688
0.599479 0.328296 0.733577
0.421202 0.000000 0.747829
0.755733 0.116687 0.277183
0.706882 0.167845 0.472133
0.781803 0.403195 0.620280
0.877099 0.665557 0.724138
0.919738 0.842173 0.786257
0.867047 0.864700 0.809221
0.706718 0.709215 0.795650
0.456802 0.396211 0.748197
0.165714 0.000000 0.669554
0.868075 0.000000 0.539589
0.866756 0.000000 0.794503
0.959204 0.000000 0.981763
1.000000 0.050766 1.000000
1.000000 0.386547 1.000000
0.916996 0.521429 1.000000
0.654168 0.427929 1.000000
0.271743 0.122983 0.944757
0.000000 0.000000 0.751485
1.000000 0.000000 1.000000
1.000000 0.000000 1.000000
1.000000 0.000000 1.000000
1.000000 0.000000 1.000000
1.000000 0.000000 1.000000
1.000000 0.000000 1.000000
0.679815 0.000000 1.000000
0.125473 0.000000 1.000000
0.000000 0.000000 1.000000
0.745588 0.232556 0.121896
0.704581 0.654328 0.183907
0.781056 1.000000 0.207968
0.869394 1.000000 0.210350
0.894339 1.000000 0.207358
0.810995 1.000000 0.215332
0.604830 1.000000 0.250649
0.291672 1.000000 0.329718
0.000000 1.000000 0.468984
0.698879 0.000000 0.171352
0.655349 0.174586 0.273786
0.748983 0.534957 0.342484
0.874161 0.901064 0.392351
0.955624 1.000000 0.438329
0.948478 1.000000 0.495396
0.838188 1.000000 0.578562
0.640583 1.000000 0.702875
0.401851 0.901808 0.883417
0.756744 0.127327 0.197336
0.719765 0.188503 0.338104
0.830794 0.425753 0.444870
0.984211 0.691945 0.531177
1.000000 0.884361 0.610603
1.000000 0.944703 0.696761
1.000000 0.859093 0.803298
0.972009 0.658068 0.943900
0.815720 0.416586 1.000000
0.847093 0.489067 0.178702
0.827199 0.471743 0.358264
0.957322 0.644019 0.499081
1.000000 0.855201 0.613332
1.000000 0.999013 0.713232
1.000000 1.000000 0.811031
1.000000 0.881518 0.919012
1.000000 0.629750 1.000000
1.000000 0.329692 1.000000
0.925435 0.803113 0.127993
0.934624 0.789231 0.349359
1.000000 0.965234 0.522759
1.000000 1.000000 0.659010
1.000000 1.000000 0.768962
1.000000 1.000000 0.863500
1.000000 1.000000 0.953547
1.000000 0.849312 1.000000
1.000000 0.479947 1.000000
0.974881 0.813094 0.091442
1.000000 0.895151 0.360172
1.000000 1.000000 0.567238
1.000000 1.000000 0.722093
1.000000 1.000000 0.834224
1.000000 1.000000 0.913152
1.000000 1.000000 0.968436
1.000000 1.000000 1.000000
1.000000 0.695436 1.000000
1.000000 0.251897 0.148971
1.000000 0.532948 0.473175
1.000000 0.964742 0.717539
1.000000 1.000000 0.890153
1.000000 1.000000 0.999140
1.000000 1.000000 1.000000
1.000000 1.000000 1.000000
1.000000 1.000000 1.000000
0.974630 0.793502 0.962512
1.000000 0.000000 0.414190
1.000000 0.000000 0.804529
1.000000 0.140299 1.000000
1.000000 0.791649 1.000000
1.000000 1.000000 1.000000
1.000000 1.000000 1.000000
1.000000 1.000000 1.000000
1.000000 1.000000 1.000000
0.683240 0.580748 1.000000
1.000000 0.000000 1.000000
1.000000 0.000000 1.000000
1.000000 0.000000 1.000000
1.000000 0.000000 1.000000
1.000000 0.137869 1.000000
1.000000 0.569598 1.000000
1.000000 0.652512 1.000000
1.000000 0.395793 1.000000
0.373213 0.000000 1.000000
