public/luts/sony_eterna.cube
# Generated from ColorChecker fit
LUT_3D_SIZE 9
DOMAIN_MIN 0.0 0.0 0.0
DOMAIN_MAX 1.0 1.0 1.0
0.188432 0.129789 0.330250
0.000000 0.000000 0.282527
0.000000 0.000000 0.307370
0.000000 0.000000 0.376031
0.137747 0.000000 0.436053
0.388195 0.000000 0.411279
0.622684 0.000000 0.201845
0.737629 0.000000 0.000000
0.604878 0.000000 0.000000
0.214626 0.091018 0.423131
0.068964 0.101642 0.443347
0.035711 0.141385 0.524516
0.091258 0.194700 0.623026
0.187432 0.223516 0.671559
0.251501 0.167234 0.579095
0.186167 0.000000 0.230907
0.000000 0.000000 0.000000
0.000000 0.000000 0.000000
0.000000 0.000000 0.234177
0.000000 0.024398 0.330318
0.000000 0.211185 0.472676
0.000000 0.350351 0.602777
0.000000 0.385585 0.638440
0.000000 0.238050 0.473782
0.000000 0.000000 0.000000
0.000000 0.000000 0.000000
0.000000 0.000000 0.000000
0.000000 0.000000 0.000000
0.000000 0.000000 0.131014
0.000000 0.169849 0.338492
0.000000 0.384412 0.500991
0.000000 0.408562 0.521470
0.000000 0.145221 0.279182
0.000000 0.000000 0.000000
0.000000 0.000000 0.000000
0.000000 0.000000 0.000000
0.000000 0.000000 0.000000
0.000000 0.000000 0.144591
0.000000 0.205528 0.420186
0.000000 0.488484 0.614959
0.000000 0.487496 0.617006
0.000000 0.087249 0.290718
0.000000 0.000000 0.000000
0.000000 0.000000 0.000000
0.000000 0.000000 0.000000
0.000000 0.000000 0.419291
0.037689 0.000000 0.781790
0.243641 0.570523 1.000000
0.257263 0.918318 1.000000
0.000000 0.881591 1.000000
0.000000 0.326785 0.915396
0.000000 0.000000 0.000000
0.000000 0.000000 0.000000
0.000000 0.000000 0.000000
1.000000 0.000000 1.000000
1.000000 0.805874 1.000000
1.000000 1.000000 1.000000
1.000000 1.000000 1.000000
1.000000 1.000000 1.000000
0.570315 1.000000 1.000000
0.000000 0.000000 1.000000
0.000000 0.000000 0.000000
0.000000 0.000000 0.000000
1.000000 1.000000 1.000000
1.000000 1.000000 1.000000
1.000000 1.000000 1.000000
1.000000 1.000000 1.000000
1.000000 1.000000 1.000000
1.000000 1.000000 1.000000
1.000000 1.000000 1.000000
0.000000 0.000000 1.000000
0.000000 0.000000 0.000000
1.000000 1.000000 1.000000
1.000000 1.000000 1.000000
1.000000 1.000000 1.000000
1.000000 1.000000 1.000000
1.000000 1.000000 1.000000
1.000000 1.000000 1.000000
1.000000 1.000000 1.000000
1.000000 0.623268 1.000000
0.000000 0.000000 1.000000
0.273346 0.264456 0.060980
0.000000 0.000000 0.000000
0.000000 0.000000 0.000000
0.000000 0.000000 0.000000
0.176148 0.000000 0.000000
0.559898 0.000000 0.072247
1.000000 0.000000 0.085225
1.000000 0.000000 0.000000
1.000000 0.000000 0.000000
0.398683 0.335982 0.315967
0.198786 0.202798 0.236103
0.145137 0.129153 0.258575
0.226797 0.109465 0.354178
0.408267 0.115630 0.470001
0.629484 0.097015 0.529430
0.805823 0.000000 0.432146
0.828096 0.000000 0.054128
0.562551 0.000000 0.000000
0.208876 0.164073 0.241743
0.116538 0.229684 0.256750
0.126638 0.313253 0.360370
0.209967 0.390962 0.508536
0.312753 0.416465 0.633474
0.356660 0.320891 0.643709
0.238792 0.012842 0.424059
0.000000 0.000000 0.000000
0.000000 0.000000 0.000000
0.000000 0.000000 0.022454
0.000000 0.133001 0.134904
0.000000 0.369903 0.319123
0.071408 0.534076 0.516180
0.091203 0.560937 0.643440
0.000000 0.363374 0.594564
0.000000 0.000000 0.239508
0.000000 0.000000 0.000000
0.000000 0.000000 0.000000
0.000000 0.000000 0.000000
0.000000 0.097055 0.165363
0.007714 0.486855 0.428697
0.101253 0.730012 0.670040
0.039557 0.743699 0.791894
0.000000 0.422568 0.673057
0.000000 0.000000 0.168624
0.000000 0.000000 0.000000
0.000000 0.000000 0.000000
0.003963 0.000000 0.443180
0.315601 0.370300 0.754503
0.570282 0.916017 1.000000
0.683979 1.000000 1.000000
0.548102 1.000000 1.000000
0.029499 0.760731 1.000000
0.000000 0.000000 0.613116
0.000000 0.000000 0.000000
0.000000 0.000000 0.000000
1.000000 0.338396 1.000000
1.000000 1.000000 1.000000
1.000000 1.000000 1.000000
1.000000 1.000000 1.000000
1.000000 1.000000 1.000000
1.000000 1.000000 1.000000
0.031599 0.343955 1.000000
0.000000 0.000000 0.485309
0.000000 0.000000 0.000000
1.000000 1.000000 1.000000
1.000000 1.000000 1.000000
1.000000 1.000000 1.000000
1.000000 1.000000 1.000000
1.000000 1.000000 1.000000
1.000000 1.000000 1.000000
1.000000 1.000000 1.000000
0.028177 0.000000 1.000000
0.000000 0.000000 0.317286
1.000000 1.000000 1.000000
1.000000 1.000000 1.000000
1.000000 1.000000 1.000000
1.000000 1.000000 1.000000
1.000000 1.000000 1.000000
1.000000 1.000000 1.000000
1.000000 1.000000 1.000000
1.000000 1.000000 1.000000
0.000000 0.000000 1.000000
0.394439 0.403806 0.000000
0.000000 0.000000 0.000000
0.000000 0.000000 0.000000
0.000000 0.000000 0.000000
0.102046 0.000000 0.000000
0.563708 0.000000 0.000000
1.000000 0.000000 0.000000
1.000000 0.000000 0.000000
1.000000 0.000000 0.000000
0.588127 0.557875 0.347858
0.305219 0.260520 0.147922
0.195107 0.056571 0.079732
0.259525 0.000000 0.128489
0.475647 0.000000 0.255690
0.796081 0.000000 0.399127
1.000000 0.000000 0.472890
1.000000 0.000000 0.367362
1.000000 0.000000 0.000000
0.433596 0.448177 0.331635
0.273539 0.354570 0.243161
0.243679 0.314164 0.273723
0.327479 0.313106 0.393661
0.483838 0.315016 0.549608
0.647092 0.260989 0.664496
0.727016 0.069594 0.637550
0.608820 0.000000 0.344292
0.153152 0.000000 0.000000
0.105627 0.191017 0.117708
0.076926 0.303846 0.138788
0.131161 0.422622 0.263073
0.233521 0.515253 0.446040
0.324635 0.527120 0.619460
0.320566 0.381079 0.691401
0.112816 0.000000 0.546227
0.000000 0.000000 0.044598
0.000000 0.000000 0.000000
0.000000 0.000000 0.000000
0.000000 0.292256 0.125237
0.138293 0.569304 0.337282
0.264203 0.747665 0.574192
0.290398 0.754481 0.752877
0.114670 0.494367 0.766543
0.000000 0.000000 0.484689
0.000000 0.000000 0.000000
0.000000 0.000000 0.000000
0.100231 0.020294 0.373789
0.382983 0.567860 0.604523
0.640164 1.000000 0.897433
0.800419 1.000000 1.000000
0.767830 1.000000 1.000000
0.421916 0.862715 1.000000
0.000000 0.000000 0.850286
0.000000 0.000000 0.000000
0.000000 0.000000 0.000000
1.000000 0.660103 1.000000
1.000000 1.000000 1.000000
1.000000 1.000000 1.000000
1.000000 1.000000 1.000000
1.000000 1.000000 1.000000
1.000000 1.000000 1.000000
0.627635 0.611002 1.000000
0.000000 0.000000 0.892025
0.000000 0.000000 0.000000
1.000000 1.000000 1.000000
1.000000 1.000000 1.000000
1.000000 1.000000 1.000000
1.000000 1.000000 1.000000
1.000000 1.000000 1.000000
1.000000 1.000000 1.000000
1.000000 1.000000 1.000000
0.899067 0.000000 1.000000
0.000000 0.000000 0.919060
1.000000 1.000000 1.000000
1.000000 1.000000 1.000000
1.000000 1.000000 1.000000
1.000000 1.000000 1.000000
1.000000 1.000000 1.000000
1.000000 1.000000 1.000000
1.000000 1.000000 1.000000
1.000000 1.000000 1.000000
1.000000 0.000000 1.000000
0.565332 0.558406 0.047053
0.051379 0.000000 0.000000
0.000000 0.000000 0.000000
0.000000 0.000000 0.000000
0.000000 0.000000 0.000000
0.487402 0.000000 0.000000
1.000000 0.000000 0.000000
1.000000 0.000000 0.000000
1.000000 0.000000 0.006711
0.819724 0.783369 0.487276
0.439856 0.318597 0.167357
0.252046 0.000000 0.000000
0.270700 0.000000 0.000000
0.485661 0.000000 0.077423
0.862211 0.000000 0.257066
1.000000 0.000000 0.442098
1.000000 0.000000 0.537312
1.000000 0.000000 0.423793
0.687437 0.718865 0.500825
0.443174 0.458952 0.306605
0.349579 0.290930 0.249871
0.402786 0.210912 0.315369
0.574365 0.192485 0.464140
0.811325 0.186710 0.633523
1.000000 0.122120 0.737150
1.000000 0.000000 0.664950
1.000000 0.000000 0.283148
0.339672 0.480802 0.263126
0.238344 0.427958 0.188217
0.241631 0.421126 0.235975
0.327395 0.438180 0.376285
0.448935 0.434466 0.555326
0.534987 0.342807 0.695572
0.489724 0.073497 0.695795
0.192755 0.000000 0.431061
0.000000 0.000000 0.000000
0.041977 0.249244 0.061184
0.096719 0.409129 0.098265
0.205363 0.562098 0.240074
0.327499 0.667786 0.441631
0.398151 0.663300 0.634253
0.327784 0.463223 0.725553
0.002299 0.000000 0.599440
0.000000 0.000000 0.116117
0.000000 0.000000 0.000000
0.154239 0.268403 0.293587
0.383997 0.650128 0.434405
0.612282 0.964961 0.658888
0.780409 1.000000 0.907194
0.805133 1.000000 1.000000
0.578646 0.809421 1.000000
0.000000 0.045370 0.841073
0.000000 0.000000 0.112173
0.000000 0.000000 0.000000
1.000000 0.846645 1.000000
1.000000 1.000000 1.000000
1.000000 1.000000 1.000000
1.000000 1.000000 1.000000
1.000000 1.000000 1.000000
1.000000 1.000000 1.000000
0.877633 0.659848 1.000000
0.000000 0.000000 0.922867
0.000000 0.000000 0.000000
1.000000 1.000000 1.000000
1.000000 1.000000 1.000000
1.000000 1.000000 1.000000
1.000000 1.000000 1.000000
1.000000 1.000000 1.000000
1.000000 1.000000 1.000000
1.000000 1.000000 1.000000
1.000000 0.000000 1.000000
0.000000 0.000000 0.997880
1.000000 1.000000 1.000000
1.000000 1.000000 1.000000
1.000000 1.000000 1.000000
1.000000 1.000000 1.000000
1.000000 1.000000 1.000000
1.000000 1.000000 1.000000
1.000000 1.000000 1.000000
1.000000 1.000000 1.000000
1.000000 0.000000 1.000000
0.749462 0.702761 0.143865
0.128048 0.000000 0.000000
0.000000 0.000000 0.000000
0.000000 0.000000 0.000000
0.000000 0.000000 0.000000
0.368575 0.000000 0.000000
1.000000 0.000000 0.000000
1.000000 0.000000 0.000000
1.000000 0.584853 0.105523
1.000000 1.000000 0.664217
0.604109 0.384759 0.244487
0.332197 0.000000 0.000000
0.291394 0.000000 0.000000
0.484214 0.000000 0.000000
0.888610 0.000000 0.133650
1.000000 0.013928 0.390257
1.000000 0.338774 0.634544
1.000000 0.643122 0.762004
0.980120 0.982855 0.707811
0.649996 0.566664 0.425660
0.483722 0.284503 0.287472
0.490102 0.142451 0.292400
0.653380 0.124060 0.415893
0.933236 0.190357 0.609694
1.000000 0.279842 0.801844
1.000000 0.308490 0.896679
1.000000 0.169747 0.774831
0.617290 0.757612 0.445708
0.439138 0.545280 0.290270
0.379993 0.422474 0.264990
0.430387 0.377032 0.354159
0.556292 0.374269 0.518362
0.699114 0.356970 0.694482
0.775698 0.245398 0.795697
0.678327 0.000000 0.711480
0.274719 0.000000 0.307601
0.253525 0.507012 0.160553
0.239308 0.503722 0.120028
0.294592 0.538404 0.192733
0.391639 0.580659 0.348098
0.478146 0.577559 0.531845
0.477250 0.453653 0.665995
0.287521 0.110962 0.648862
0.000000 0.000000 0.355058
0.000000 0.000000 0.000000
0.245134 0.474874 0.246573
0.412621 0.689259 0.308227
0.595443 0.883014 0.463062
0.747589 1.000000 0.665644
0.798484 0.991550 0.846834
0.652991 0.741474 0.913790
0.191411 0.141053 0.749965
0.000000 0.000000 0.215107
0.000000 0.000000 0.000000
1.000000 0.969167 1.000000
1.000000 1.000000 1.000000
1.000000 1.000000 1.000000
1.000000 1.000000 1.000000
1.000000 1.000000 1.000000
1.000000 1.000000 1.000000
0.972868 0.664342 1.000000
0.000000 0.000000 0.790902
0.000000 0.000000 0.000000
1.000000 1.000000 1.000000
1.000000 1.000000 1.000000
1.000000 1.000000 1.000000
1.000000 1.000000 1.000000
1.000000 1.000000 1.000000
1.000000 1.000000 1.000000
1.000000 1.000000 1.000000
1.000000 0.081906 1.000000
0.000000 0.000000 0.815396
1.000000 1.000000 1.000000
1.000000 1.000000 1.000000
1.000000 1.000000 1.000000
1.000000 1.000000 1.000000
1.000000 1.000000 1.000000
1.000000 1.000000 1.000000
1.000000 1.000000 1.000000
1.000000 1.000000 1.000000
1.000000 0.000000 1.000000
0.860084 0.775318 0.140052
0.149465 0.000000 0.000000
0.000000 0.000000 0.000000
0.000000 0.000000 0.000000
0.000000 0.000000 0.000000
0.194637 0.000000 0.000000
1.000000 0.000000 0.000000
1.000000 0.394210 0.000000
1.000000 1.000000 0.109315
1.000000 1.000000 0.770208
0.749204 0.430675 0.290917
0.401619 0.000000 0.000000
0.302497 0.000000 0.000000
0.467027 0.000000 0.000000
0.885831 0.000000 0.020812
1.000000 0.309561 0.329380
1.000000 0.926613 0.691153
1.000000 1.000000 1.000000
1.000000 1.000000 0.872616
0.868373 0.665485 0.540432
0.635306 0.299779 0.346715
0.593459 0.129734 0.305024
0.739746 0.148869 0.405216
1.000000 0.328178 0.613440
1.000000 0.616125 0.872145
1.000000 0.938650 1.000000
1.000000 1.000000 1.000000
0.921158 1.000000 0.613976
0.676819 0.659695 0.413553
0.558588 0.447666 0.338805
0.569671 0.369928 0.388429
0.688709 0.401762 0.537418
0.869782 0.495920 0.737063
1.000000 0.582630 0.914947
1.000000 0.569592 0.974951
0.957563 0.341979 0.797252
0.513815 0.743029 0.272573
0.438732 0.596025 0.187629
0.441462 0.535329 0.212447
0.506939 0.540506 0.330861
0.595530 0.568597 0.503002
0.643044 0.554115 0.665297
0.560724 0.409049 0.730468
0.235252 0.022858 0.587533
0.000000 0.000000 0.101807
0.401879 0.658685 0.238271
0.512648 0.721348 0.251593
0.648273 0.813090 0.355641
0.775415 0.895240 0.519387
0.836170 0.906597 0.688099
0.748072 0.763436 0.783341
0.404094 0.359504 0.702974
0.000000 0.000000 0.321153
0.000000 0.000000 0.000000
1.000000 1.000000 1.000000
1.000000 1.000000 1.000000
1.000000 1.000000 1.000000
1.000000 1.000000 1.000000
1.000000 1.000000 1.000000
1.000000 1.000000 1.000000
1.000000 0.762271 1.000000
0.000000 0.000000 0.670724
0.000000 0.000000 0.000000
1.000000 1.000000 1.000000
1.000000 1.000000 1.000000
1.000000 1.000000 1.000000
1.000000 1.000000 1.000000
1.000000 1.000000 1.000000
1.000000 1.000000 1.000000
1.000000 1.000000 1.000000
1.000000 0.313106 1.000000
0.000000 0.000000 0.594783
1.000000 1.000000 1.000000
1.000000 1.000000 1.000000
1.000000 1.000000 1.000000
1.000000 1.000000 1.000000
1.000000 1.000000 1.000000
1.000000 1.000000 1.000000
1.000000 1.000000 1.000000
1.000000 1.000000 1.000000
1.000000 0.000000 1.000000
0.760268 0.678463 0.000000
0.000000 0.000000 0.000000
0.000000 0.000000 0.000000
0.000000 0.000000 0.000000
0.000000 0.000000 0.000000
0.000000 0.000000 0.000000
0.793441 0.000000 0.000000
1.000000 1.000000 0.000000
1.000000 1.000000 0.003287
1.000000 1.000000 0.658298
0.776186 0.391956 0.179780
0.376185 0.000000 0.000000
0.234715 0.000000 0.000000
0.379636 0.000000 0.000000
0.814241 0.094106 0.000000
1.000000 0.812811 0.233006
1.000000 1.000000 0.700759
1.000000 1.000000 1.000000
1.000000 1.000000 0.876791
1.000000 0.707130 0.552554
0.743350 0.305590 0.349313
0.666705 0.158712 0.295036
0.802142 0.269982 0.393985
1.000000 0.620357 0.626720
1.000000 1.000000 0.950093
1.000000 1.000000 1.000000
1.000000 1.000000 1.000000
1.000000 1.000000 0.677983
0.898712 0.739025 0.488198
0.739574 0.481641 0.407632
0.722234 0.418925 0.449389
0.838007 0.536121 0.602870
1.000000 0.795950 0.833771
1.000000 1.000000 1.000000
1.000000 1.000000 1.000000
1.000000 1.000000 1.000000
0.778483 0.924107 0.335794
0.665461 0.669966 0.259702
0.631275 0.553917 0.277929
0.673529 0.565491 0.388715
0.765265 0.671696 0.566600
0.854962 0.817009 0.762418
0.866534 0.923386 0.903296
0.699335 0.890252 0.892662
0.228155 0.594510 0.610235
0.603252 0.802754 0.235730
0.677690 0.746429 0.251637
0.779215 0.772343 0.343840
0.887161 0.851788 0.495718
0.956295 0.933531 0.666947
0.916823 0.943813 0.793498
0.674390 0.786346 0.787638
0.110076 0.342320 0.537930
0.000000 0.000000 0.000000
1.000000 1.000000 0.874875
1.000000 1.000000 0.960155
1.000000 1.000000 1.000000
1.000000 1.000000 1.000000
1.000000 1.000000 1.000000
1.000000 1.000000 1.000000
1.000000 1.000000 1.000000
0.245068 0.169279 0.698452
0.000000 0.000000 0.000000
1.000000 1.000000 1.000000
1.000000 1.000000 1.000000
1.000000 1.000000 1.000000
1.000000 1.000000 1.000000
1.000000 1.000000 1.000000
1.000000 1.000000 1.000000
1.000000 1.000000 1.000000
1.000000 0.766612 1.000000
0.000000 0.000000 0.520742
1.000000 1.000000 1.000000
1.000000 1.000000 1.000000
1.000000 1.000000 1.000000
1.000000 1.000000 1.000000
1.000000 1.000000 1.000000
1.000000 1.000000 1.000000
1.000000 1.000000 1.000000
1.000000 1.000000 1.000000
1.000000 0.000000 1.000000
0.262900 0.278524 0.000000
0.000000 0.000000 0.000000
0.000000 0.000000 0.000000
0.000000 0.000000 0.000000
0.000000 0.000000 0.000000
0.000000 0.000000 0.000000
0.333785 0.509523 0.000000
1.000000 1.000000 0.000000
1.000000 1.000000 0.000000
1.000000 0.992704 0.143063
0.535912 0.168152 0.000000
0.121586 0.000000 0.000000
0.000000 0.000000 0.000000
0.117395 0.000000 0.000000
0.584026 0.444136 0.000000
1.000000 1.000000 0.036200
1.000000 1.000000 0.618510
1.000000 1.000000 1.000000
1.000000 1.000000 0.563413
0.986349 0.607255 0.325182
0.696684 0.234711 0.178505
0.613503 0.179278 0.165756
0.759063 0.454406 0.305604
1.000000 1.000000 0.593016
1.000000 1.000000 0.999253
1.000000 1.000000 1.000000
1.000000 1.000000 1.000000
1.000000 1.000000 0.509303
1.000000 0.715034 0.405863
0.834925 0.473282 0.383212
0.814884 0.490021 0.468862
0.945824 0.760462 0.666620
1.000000 1.000000 0.956590
1.000000 1.000000 1.000000
1.000000 1.000000 1.000000
1.000000 1.000000 1.000000
0.952984 0.980997 0.250293
0.839779 0.673415 0.256404
0.799146 0.559156 0.329417
0.841358 0.637719 0.481982
0.952131 0.886076 0.703043
1.000000 1.000000 0.957841
1.000000 1.000000 1.000000
1.000000 1.000000 1.000000
0.935375 1.000000 1.000000
0.777850 0.853939 0.167527
0.851172 0.728480 0.257015
0.946526 0.741865 0.396397
1.000000 0.875355 0.583457
1.000000 1.000000 0.792281
1.000000 1.000000 0.973244
1.000000 1.000000 1.000000
0.614190 1.000000 0.934586
0.000000 1.000000 0.497200
1.000000 1.000000 0.753728
1.000000 1.000000 0.899488
1.000000 1.000000 1.000000
1.000000 1.000000 1.000000
1.000000 1.000000 1.000000
1.000000 1.000000 1.000000
1.000000 1.000000 1.000000
0.685606 1.000000 0.971734
0.000000 0.178802 0.137586
1.000000 1.000000 1.000000
1.000000 1.000000 1.000000
1.000000 1.000000 1.000000
1.000000 1.000000 1.000000
1.000000 1.000000 1.000000
1.000000 1.000000 1.000000
1.000000 1.000000 1.000000
1.000000 1.000000 1.000000
0.039700 0.000000 0.739501
1.000000 1.000000 1.000000
1.000000 1.000000 1.000000
1.000000 1.000000 1.000000
1.000000 1.000000 1.000000
1.000000 1.000000 1.000000
1.000000 1.000000 1.000000
1.000000 1.000000 1.000000
1.000000 1.000000 1.000000
1.000000 0.823834 1.000000
0.000000 0.000000 0.000000
0.000000 0.000000 0.000000
0.000000 0.000000 0.000000
0.000000 0.000000 0.000000
0.000000 0.000000 0.000000
0.000000 0.000000 0.000000
0.000000 1.000000 0.000000
0.993679 1.000000 0.000000
1.000000 1.000000 0.000000
0.383824 0.374194 0.000000
0.000000 0.000000 0.000000
0.000000 0.000000 0.000000
0.000000 0.000000 0.000000
0.000000 0.000000 0.000000
0.055187 0.836418 0.000000
0.927618 1.000000 0.000000
1.000000 1.000000 0.361078
1.000000 1.000000 1.000000
0.977267 0.844128 0.000000
0.583768 0.245460 0.000000
0.333959 0.000000 0.000000
0.287333 0.105262 0.000000
0.478820 0.633092 0.025002
0.918786 1.000000 0.417340
1.000000 1.000000 0.944715
1.000000 1.000000 1.000000
1.000000 1.000000 1.000000
1.000000 0.929500 0.000000
0.833528 0.483424 0.019732
0.706432 0.335408 0.138811
0.724241 0.513153 0.340194
0.903612 1.000000 0.642098
1.000000 1.000000 1.000000
1.000000 1.000000 1.000000
1.000000 1.000000 1.000000
1.000000 1.000000 1.000000
0.892586 0.808392 0.000000
0.831788 0.518181 0.059420
0.830007 0.479974 0.268679
0.910189 0.703234 0.532508
1.000000 1.000000 0.854258
1.000000 1.000000 1.000000
1.000000 1.000000 1.000000
1.000000 1.000000 1.000000
1.000000 1.000000 1.000000
0.804084 0.723039 0.000000
0.926339 0.595415 0.177913
1.000000 0.666690 0.443577
1.000000 0.928090 0.732953
1.000000 1.000000 1.000000
1.000000 1.000000 1.000000
1.000000 1.000000 1.000000
1.000000 1.000000 1.000000
0.595757 1.000000 1.000000
1.000000 0.979828 0.567680
1.000000 1.000000 0.862642
1.000000 1.000000 1.000000
1.000000 1.000000 1.000000
1.000000 1.000000 1.000000
1.000000 1.000000 1.000000
1.000000 1.000000 1.000000
1.000000 1.000000 1.000000
0.107234 1.000000 0.905808
1.000000 1.000000 1.000000
1.000000 1.000000 1.000000
1.000000 1.000000 1.000000
1.000000 1.000000 1.000000
1.000000 1.000000 1.000000
1.000000 1.000000 1.000000
1.000000 1.000000 1.000000
1.000000 1.000000 1.000000
0.735894 1.000000 1.000000
1.000000 1.000000 1.000000
1.000000 1.000000 1.000000
1.000000 1.000000 1.000000
1.000000 1.000000 1.000000
1.000000 1.000000 1.000000
1.000000 1.000000 1.000000
1.000000 1.000000 1.000000
1.000000 1.000000 1.000000
1.000000 1.000000 1.000000
