public/luts/sony_eterna.cube
# Generated from ColorChecker fit
LUT_3D_SIZE 33
DOMAIN_MIN 0.0 0.0 0.0
DOMAIN_MAX 1.0 1.0 1.0
0.188432 0.129789 0.330250
0.117157 0.079892 0.310835
0.054792 0.033119 0.296447
0.001686 0.000000 0.287052
0.000000 0.000000 0.282527
0.000000 0.000000 0.282652
0.000000 0.000000 0.287119
0.000000 0.000000 0.295523
0.000000 0.000000 0.307370
0.000000 0.000000 0.322071
0.000000 0.000000 0.338946
0.000000 0.000000 0.357221
0.000000 0.000000 0.376031
0.000000 0.000000 0.394416
0.032194 0.000000 0.411326
0.082443 0.000000 0.425617
0.137747 0.000000 0.436053
0.197114 0.000000 0.441305
0.259451 0.000000 0.439951
0.323572 0.000000 0.430478
0.388195 0.000000 0.411279
0.451940 0.000000 0.380654
0.513333 0.000000 0.336812
0.570803 0.000000 0.277867
0.622684 0.000000 0.201845
0.667214 0.000000 0.106673
0.702533 0.000000 0.000000
0.726689 0.000000 0.000000
0.737629 0.000000 0.000000
0.733208 0.000000 0.000000
0.711184 0.000000 0.000000
0.669219 0.000000 0.000000
0.604878 0.000000 0.000000
0.228332 0.145508 0.386006
0.162965 0.108046 0.370679
0.106120 0.073403 0.360389
0.058073 0.041944 0.355047
0.019006 0.013948 0.354468
0.000000 0.000000 0.358377
0.000000 0.000000 0.366406
0.000000 0.000000 0.378093
0.000000 0.000000 0.392886
0.000000 0.000000 0.410137
0.000000 0.000000 0.429109
0.000000 0.000000 0.448969
0.019786 0.000000 0.468794
0.053849 0.000000 0.487568
0.093425 0.000000 0.504180
0.137639 0.000000 0.517430
0.185521 0.000000 0.526023
0.236005 0.000000 0.528572
0.287929 0.000000 0.523597
0.340034 0.000000 0.509527
0.390967 0.000000 0.484697
0.439276 0.000000 0.447349
0.483418 0.000000 0.395634
0.521748 0.000000 0.327609
0.552530 0.000000 0.241239
0.573930 0.000000 0.134395
0.584017 0.000000 0.004859
0.580766 0.000000 0.000000
0.562056 0.000000 0.000000
0.525668 0.000000 0.000000
0.469290 0.000000 0.000000
0.390511 0.000000 0.000000
0.286826 0.000000 0.000000
0.245146 0.143775 0.419343
0.185726 0.118754 0.408258
0.134421 0.096216 0.402209
0.091434 0.076459 0.401047
0.056877 0.059688 0.404533
0.030764 0.046025 0.412331
0.013010 0.035500 0.424015
0.003440 0.028058 0.439066
0.001778 0.023553 0.456873
0.007654 0.021754 0.476731
0.020603 0.022340 0.497843
0.040063 0.024902 0.519321
0.065375 0.028944 0.540182
0.095786 0.033883 0.559351
0.130446 0.039045 0.575661
0.168409 0.043670 0.587853
0.208633 0.046909 0.594574
0.249982 0.047828 0.594379
0.291220 0.045400 0.585730
0.331020 0.038514 0.566998
0.367955 0.025970 0.536459
0.400503 0.006479 0.492299
0.427048 0.000000 0.432608
0.445876 0.000000 0.355388
0.455178 0.000000 0.258543
0.453049 0.000000 0.139890
0.437487 0.000000 0.000000
0.406395 0.000000 0.000000
0.357581 0.000000 0.000000
0.288754 0.000000 0.000000
0.197531 0.000000 0.000000
0.081431 0.000000 0.000000
0.000000 0.000000 0.000000
0.240060 0.125295 0.431245
0.186648 0.112730 0.424552
0.140924 0.102288 0.422881
0.103023 0.094194 0.426027
0.072982 0.088584 0.433691
0.050746 0.085506 0.445479
0.036158 0.084921 0.460907
0.028972 0.086700 0.479400
0.028839 0.090629 0.500286
0.035321 0.096403 0.522803
0.047878 0.103632 0.546098
0.065877 0.111834 0.569221
0.088590 0.120444 0.591134
0.115191 0.128804 0.610703
0.144759 0.136172 0.626703
0.176277 0.141716 0.637816
0.208632 0.144516 0.642632
0.240614 0.143565 0.639648
0.270919 0.137766 0.627269
0.298146 0.125938 0.603805
0.320797 0.106807 0.567476
0.337281 0.079015 0.516409
0.345908 0.041114 0.448638
0.344894 0.000000 0.362104
0.332358 0.000000 0.254655
0.306324 0.000000 0.124049
0.264718 0.000000 0.000000
0.205372 0.000000 0.000000
0.126023 0.000000 0.000000
0.024309 0.000000 0.000000
0.000000 0.000000 0.000000
0.000000 0.000000 0.000000
0.000000 0.000000 0.000000
0.214626 0.091018 0.423131
0.167305 0.090941 0.420977
0.127228 0.092599 0.423820
0.094459 0.096144 0.431396
0.068964 0.101642 0.443347
0.050615 0.109070 0.459223
0.039186 0.118317 0.478482
0.034357 0.129184 0.500489
0.035711 0.141385 0.524516
0.042734 0.154543 0.549742
0.054819 0.168197 0.575255
0.071260 0.181796 0.600049
0.091258 0.194700 0.623026
0.113914 0.206183 0.642995
0.138237 0.215429 0.658673
0.163138 0.221537 0.668684
0.187432 0.223516 0.671559
0.209841 0.220285 0.665738
0.228986 0.210679 0.649567
0.243395 0.193443 0.621298
0.251501 0.167234 0.579095
0.251640 0.130621 0.521024
0.242050 0.082086 0.445063
0.220877 0.020020 0.349094
0.186167 0.000000 0.230907
0.135874 0.000000 0.088202
0.067852 0.000000 0.000000
0.000000 0.000000 0.000000
0.000000 0.000000 0.000000
0.000000 0.000000 0.000000
0.000000 0.000000 0.000000
0.000000 0.000000 0.000000
0.000000 0.000000 0.000000
0.170766 0.042149 0.396858
0.129642 0.054604 0.399386
0.095300 0.068378 0.406873
0.067733 0.083552 0.418997
0.046835 0.100120 0.435343
0.032407 0.117988 0.455402
0.024152 0.136974 0.478573
0.021677 0.156808 0.504165
0.024496 0.177131 0.531390
0.032022 0.197498 0.559370
0.043577 0.217374 0.587135
0.058384 0.236137 0.613620
0.075571 0.253078 0.637670
0.094170 0.267397 0.658036
0.113117 0.278209 0.673377
0.131252 0.284540 0.682257
0.147320 0.285328 0.683152
0.159969 0.279422 0.674442
0.167751 0.265585 0.654414
0.169122 0.242490 0.621265
0.162442 0.208723 0.573098
0.145977 0.162783 0.507923
0.117895 0.103079 0.423658
0.076267 0.027934 0.318129
0.019072 0.000000 0.189067
0.000000 0.000000 0.034114
0.000000 0.000000 0.000000
0.000000 0.000000 0.000000
0.000000 0.000000 0.000000
0.000000 0.000000 0.000000
0.000000 0.000000 0.000000
0.000000 0.000000 0.000000
0.000000 0.000000 0.000000
0.110770 0.000000 0.354717
0.075971 0.005186 0.362066
0.047475 0.031106 0.374325
0.025202 0.057911 0.391112
0.008976 0.085524 0.411955
0.000000 0.113780 0.436287
0.000000 0.142425 0.463450
0.000000 0.171119 0.492692
0.000000 0.199430 0.523169
0.005678 0.226843 0.553946
0.016667 0.252751 0.583992
0.029786 0.276462 0.612187
0.044092 0.297193 0.637315
0.058544 0.314076 0.658071
0.072007 0.326154 0.673055
0.083251 0.332380 0.680774
0.090948 0.331622 0.679645
0.093675 0.322658 0.667989
0.089913 0.304179 0.644038
0.078046 0.274787 0.605928
0.056364 0.232998 0.551705
0.023060 0.177238 0.479321
0.000000 0.105845 0.386636
0.000000 0.017071 0.271417
0.000000 0.000000 0.131339
0.000000 0.000000 0.000000
0.000000 0.000000 0.000000
0.000000 0.000000 0.000000
0.000000 0.000000 0.000000
0.000000 0.000000 0.000000
0.000000 0.000000 0.000000
0.000000 0.000000 0.000000
0.000000 0.000000 0.000000
0.037296 0.000000 0.299436
0.008975 0.000000 0.311742
0.000000 0.000000 0.328896
0.000000 0.020967 0.350458
0.000000 0.059614 0.375897
0.000000 0.098219 0.404590
0.000000 0.136457 0.435818
0.000000 0.173915 0.468773
0.000000 0.210094 0.502553
0.000000 0.244403 0.536164
0.000000 0.276167 0.568518
0.000000 0.304621 0.598435
0.000000 0.328912 0.624644
0.009990 0.348100 0.645779
0.017885 0.361156 0.660383
0.022133 0.366963 0.666906
0.021338 0.364317 0.663705
0.014003 0.351926 0.649045
0.000000 0.328408 0.621099
0.000000 0.292296 0.577944
0.000000 0.242032 0.517569
0.000000 0.175972 0.437868
0.000000 0.092384 0.336643
0.000000 0.000000 0.211603
0.000000 0.000000 0.060364
0.000000 0.000000 0.000000
0.000000 0.000000 0.000000
0.000000 0.000000 0.000000
0.000000 0.000000 0.000000
0.000000 0.000000 0.000000
0.000000 0.000000 0.000000
0.000000 0.000000 0.000000
0.000000 0.000000 0.000000
0.000000 0.000000 0.234177
0.000000 0.000000 0.251573
0.000000 0.000000 0.273741
0.000000 0.000000 0.300186
0.000000 0.024398 0.330318
0.000000 0.073327 0.363453
0.000000 0.121104 0.398819
0.000000 0.167248 0.435546
0.000000 0.211185 0.472676
0.000000 0.252255 0.509155
0.000000 0.289712 0.543839
0.000000 0.322718 0.575490
0.000000 0.350351 0.602777
0.000000 0.371598 0.624277
0.000000 0.385359 0.638475
0.000000 0.390447 0.643763
0.000000 0.385585 0.638440
0.000000 0.369411 0.620713
0.000000 0.340471 0.588695
0.000000 0.297227 0.540409
0.000000 0.238050 0.473782
0.000000 0.161225 0.386652
0.000000 0.064947 0.276763
0.000000 0.000000 0.141764
0.000000 0.000000 0.000000
0.000000 0.000000 0.000000
0.000000 0.000000 0.000000
0.000000 0.000000 0.000000
0.000000 0.000000 0.000000
0.000000 0.000000 0.000000
0.000000 0.000000 0.000000
0.000000 0.000000 0.000000
0.000000 0.000000 0.000000
0.000000 0.000000 0.162541
0.000000 0.000000 0.185154
0.000000 0.000000 0.212454
0.000000 0.000000 0.243886
0.000000 0.000000 0.278801
0.000000 0.041376 0.316460
0.000000 0.098654 0.356030
0.000000 0.153415 0.396585
0.000000 0.205017 0.437107
0.000000 0.252726 0.476486
0.000000 0.295726 0.513519
0.000000 0.333108 0.546909
0.000000 0.363877 0.575268
0.000000 0.386951 0.597116
0.000000 0.401158 0.610878
0.000000 0.405239 0.614889
0.000000 0.397847 0.607389
0.000000 0.377546 0.586527
0.000000 0.342815 0.550360
0.000000 0.292042 0.496851
0.000000 0.223527 0.423870
0.000000 0.135484 0.329196
0.000000 0.026037 0.210514
0.000000 0.000000 0.065418
0.000000 0.000000 0.000000
0.000000 0.000000 0.000000
0.000000 0.000000 0.000000
0.000000 0.000000 0.000000
0.000000 0.000000 0.000000
0.000000 0.000000 0.000000
0.000000 0.000000 0.000000
0.000000 0.000000 0.000000
0.000000 0.000000 0.000000
0.000000 0.000000 0.088562
0.000000 0.000000 0.116518
0.000000 0.000000 0.149062
0.000000 0.000000 0.185580
0.000000 0.000000 0.225368
0.000000 0.004890 0.267626
0.000000 0.071643 0.311464
0.000000 0.134969 0.355899
0.000000 0.194153 0.399853
0.000000 0.248394 0.442159
0.000000 0.296800 0.481555
0.000000 0.338394 0.516688
0.000000 0.372109 0.546110
0.000000 0.396791 0.568284
0.000000 0.411197 0.581576
0.000000 0.413997 0.584264
0.000000 0.403773 0.574529
0.000000 0.379019 0.550463
0.000000 0.338139 0.510064
0.000000 0.279453 0.451237
0.000000 0.201188 0.371794
0.000000 0.101489 0.269457
0.000000 0.000000 0.141852
0.000000 0.000000 0.000000
0.000000 0.000000 0.000000
0.000000 0.000000 0.000000
0.000000 0.000000 0.000000
0.000000 0.000000 0.000000
0.000000 0.000000 0.000000
0.000000 0.000000 0.000000
0.000000 0.000000 0.000000
0.000000 0.000000 0.000000
0.000000 0.000000 0.000000
0.000000 0.000000 0.016711
0.000000 0.000000 0.050131
0.000000 0.000000 0.088028
0.000000 0.000000 0.129730
0.000000 0.000000 0.174475
0.000000 0.000000 0.221405
0.000000 0.042859 0.269571
0.000000 0.114709 0.317933
0.000000 0.181409 0.365355
0.000000 0.242085 0.410612
0.000000 0.295776 0.452383
0.000000 0.341431 0.489258
0.000000 0.377914 0.519730
0.000000 0.403999 0.542204
0.000000 0.418372 0.554990
0.000000 0.419631 0.556304
0.000000 0.406287 0.544273
0.000000 0.376763 0.516929
0.000000 0.329393 0.472212
0.000000 0.262422 0.407968
0.000000 0.174011 0.321954
0.000000 0.062229 0.211830
0.000000 0.000000 0.075167
0.000000 0.000000 0.000000
0.000000 0.000000 0.000000
0.000000 0.000000 0.000000
0.000000 0.000000 0.000000
0.000000 0.000000 0.000000
0.000000 0.000000 0.000000
0.000000 0.000000 0.000000
0.000000 0.000000 0.000000
0.000000 0.000000 0.000000
0.000000 0.000000 0.000000
0.000000 0.000000 0.000000
0.000000 0.000000 0.000000
0.000000 0.000000 0.034252
0.000000 0.000000 0.081231
0.000000 0.000000 0.131014
0.000000 0.000000 0.182684
0.000000 0.015340 0.235236
0.000000 0.095688 0.287569
0.000000 0.169849 0.338492
0.000000 0.236879 0.386719
0.000000 0.295745 0.430873
0.000000 0.345326 0.469485
0.000000 0.384412 0.500991
0.000000 0.411708 0.523737
0.000000 0.425828 0.535974
0.000000 0.425300 0.535863
0.000000 0.408562 0.521470
0.000000 0.373966 0.490770
0.000000 0.319775 0.441644
0.000000 0.244165 0.371883
0.000000 0.145221 0.279182
0.000000 0.020945 0.161146
0.000000 0.000000 0.015286
0.000000 0.000000 0.000000
0.000000 0.000000 0.000000
0.000000 0.000000 0.000000
0.000000 0.000000 0.000000
0.000000 0.000000 0.000000
0.000000 0.000000 0.000000
0.000000 0.000000 0.000000
0.000000 0.000000 0.000000
0.000000 0.000000 0.000000
0.000000 0.000000 0.000000
0.000000 0.000000 0.000000
0.000000 0.000000 0.000000
0.000000 0.000000 0.000000
0.000000 0.000000 0.045415
0.000000 0.000000 0.100313
0.000000 0.000000 0.156789
0.000000 0.000000 0.213779
0.000000 0.081207 0.270124
0.000000 0.162790 0.324575
0.000000 0.236105 0.375789
0.000000 0.300051 0.422331
0.000000 0.353433 0.462672
0.000000 0.394973 0.495191
0.000000 0.423301 0.518176
0.000000 0.436963 0.529821
0.000000 0.434414 0.528227
0.000000 0.414021 0.511403
0.000000 0.374065 0.477266
0.000000 0.312738 0.423639
0.000000 0.228143 0.348254
0.000000 0.118297 0.248749
0.000000 0.000000 0.122671
0.000000 0.000000 0.000000
0.000000 0.000000 0.000000
0.000000 0.000000 0.000000
0.000000 0.000000 0.000000
0.000000 0.000000 0.000000
0.000000 0.000000 0.000000
0.000000 0.000000 0.000000
0.000000 0.000000 0.000000
0.000000 0.000000 0.000000
0.000000 0.000000 0.000000
0.000000 0.000000 0.000000
0.000000 0.000000 0.000000
0.000000 0.000000 0.000000
0.000000 0.000000 0.000000
0.000000 0.000000 0.028050
0.000000 0.000000 0.088136
0.000000 0.000000 0.149479
0.000000 0.000000 0.210956
0.000000 0.074820 0.271351
0.000000 0.163796 0.329356
0.000000 0.243343 0.383570
0.000000 0.312286 0.432499
0.000000 0.369361 0.474557
0.000000 0.413216 0.508066
0.000000 0.442413 0.531255
0.000000 0.455423 0.542258
0.000000 0.450633 0.539121
0.000000 0.426338 0.519794
0.000000 0.380747 0.482134
0.000000 0.311981 0.423909
0.000000 0.218072 0.342791
0.000000 0.096966 0.236361
0.000000 0.000000 0.102106
0.000000 0.000000 0.000000
0.000000 0.000000 0.000000
0.000000 0.000000 0.000000
0.000000 0.000000 0.000000
0.000000 0.000000 0.000000
0.000000 0.000000 0.000000
0.000000 0.000000 0.000000
0.000000 0.000000 0.000000
0.000000 0.000000 0.000000
0.000000 0.000000 0.000000
0.000000 0.000000 0.000000
0.000000 0.000000 0.000000
0.000000 0.000000 0.000000
0.000000 0.000000 0.000000
0.000000 0.000000 0.035339
0.000000 0.000000 0.100684
0.000000 0.000000 0.166952
0.000000 0.000000 0.232962
0.000000 0.080330 0.297440
0.000000 0.176687 0.359019
0.000000 0.262424 0.416242
0.000000 0.336295 0.467555
0.000000 0.396965 0.511316
0.000000 0.443012 0.545787
0.000000 0.472926 0.569138
0.000000 0.485107 0.579449
0.000000 0.477869 0.574705
0.000000 0.449438 0.552797
0.000000 0.397951 0.511527
0.000000 0.321457 0.448603
0.000000 0.217917 0.361639
0.000000 0.085207 0.248158
0.000000 0.000000 0.105590
0.000000 0.000000 0.000000
0.000000 0.000000 0.000000
0.000000 0.000000 0.000000
0.000000 0.000000 0.000000
0.000000 0.000000 0.000000
0.000000 0.000000 0.000000
0.000000 0.000000 0.000000
0.000000 0.000000 0.000000
0.000000 0.000000 0.000000
0.000000 0.000000 0.000000
0.000000 0.000000 0.000000
0.000000 0.000000 0.000000
0.000000 0.000000 0.000000
0.000000 0.000000 0.004975
0.000000 0.000000 0.073921
0.000000 0.000000 0.144591
0.000000 0.000000 0.215839
0.000000 0.000000 0.286423
0.000000 0.101791 0.355014
0.000000 0.205528 0.420186
0.000000 0.297427 0.480422
0.000000 0.376171 0.534114
0.000000 0.440355 0.579557
0.000000 0.488484 0.614959
0.000000 0.518976 0.638431
0.000000 0.530162 0.647993
0.000000 0.520284 0.641573
0.000000 0.487496 0.617006
0.000000 0.429865 0.572033
0.000000 0.345367 0.504305
0.000000 0.231895 0.411379
0.000000 0.087249 0.290718
0.000000 0.000000 0.139696
0.000000 0.000000 0.000000
0.000000 0.000000 0.000000
0.000000 0.000000 0.000000
0.000000 0.000000 0.000000
0.000000 0.000000 0.000000
0.000000 0.000000 0.000000
0.000000 0.000000 0.000000
0.000000 0.000000 0.000000
0.000000 0.000000 0.000000
0.000000 0.000000 0.000000
0.000000 0.000000 0.000000
0.000000 0.000000 0.000000
0.000000 0.000000 0.004138
0.000000 0.000000 0.076237
0.000000 0.000000 0.150872
0.000000 0.000000 0.226930
0.000000 0.000000 0.303207
0.000000 0.020597 0.378405
0.000000 0.143508 0.451135
0.000000 0.254638 0.519913
0.000000 0.352685 0.583165
0.000000 0.436261 0.639224
0.000000 0.503889 0.686328
0.000000 0.554002 0.722625
0.000000 0.584949 0.746170
0.000000 0.594989 0.754925
0.000000 0.582291 0.746758
0.000000 0.544939 0.719447
0.000000 0.480928 0.670676
0.000000 0.388166 0.598037
0.000000 0.264470 0.499028
0.000000 0.107572 0.371055
0.000000 0.000000 0.211434
0.000000 0.000000 0.017383
0.000000 0.000000 0.000000
0.000000 0.000000 0.000000
0.000000 0.000000 0.000000
0.000000 0.000000 0.000000
0.000000 0.000000 0.000000
0.000000 0.000000 0.000000
0.000000 0.000000 0.000000
0.000000 0.000000 0.000000
0.000000 0.000000 0.000000
0.000000 0.000000 0.000000
0.000000 0.000000 0.040440
0.000000 0.000000 0.115195
0.000000 0.000000 0.193309
0.000000 0.000000 0.273703
0.000000 0.000000 0.355208
0.000000 0.000000 0.436561
0.000000 0.078503 0.516407
0.000000 0.210036 0.593298
0.000000 0.328586 0.665693
0.000000 0.432781 0.731959
0.000000 0.521160 0.790371
0.000000 0.592175 0.839110
0.000000 0.644190 0.876264
0.000000 0.675481 0.899832
0.000000 0.684235 0.907716
0.000000 0.668551 0.897727
0.000000 0.626443 0.867586
0.000000 0.555832 0.814917
0.000000 0.454555 0.737254
0.000000 0.320360 0.632038
0.000000 0.150906 0.496618
0.000000 0.000000 0.328249
0.000000 0.000000 0.124094
0.000000 0.000000 0.000000
0.000000 0.000000 0.000000
0.000000 0.000000 0.000000
0.000000 0.000000 0.000000
0.000000 0.000000 0.000000
0.000000 0.000000 0.000000
0.000000 0.000000 0.000000
0.000000 0.000000 0.000000
0.000000 0.000000 0.000000
0.000000 0.000000 0.000000
0.000000 0.000000 0.198875
0.000000 0.000000 0.279932
0.000000 0.000000 0.364139
0.000000 0.000000 0.450361
0.000000 0.000000 0.537368
0.000000 0.012880 0.623841
0.000000 0.165958 0.708366
0.000000 0.306180 0.789437
0.023189 0.432191 0.865456
0.046310 0.542545 0.934730
0.057085 0.635713 0.995477
0.053740 0.710074 1.000000
0.034403 0.763921 1.000000
0.000000 0.795458 1.000000
0.000000 0.802801 1.000000
0.000000 0.783980 1.000000
0.000000 0.736934 1.000000
0.000000 0.659516 1.000000
0.000000 0.549490 0.929849
0.000000 0.404533 0.818299
0.000000 0.222233 0.675291
0.000000 0.000092 0.498023
0.000000 0.000000 0.283599
0.000000 0.000000 0.029033
0.000000 0.000000 0.000000
0.000000 0.000000 0.000000
0.000000 0.000000 0.000000
0.000000 0.000000 0.000000
0.000000 0.000000 0.000000
0.000000 0.000000 0.000000
0.000000 0.000000 0.000000
0.000000 0.000000 0.000000
0.000000 0.000000 0.000000
0.000000 0.000000 0.419291
0.000000 0.000000 0.506738
0.000000 0.000000 0.597115
0.000000 0.000000 0.689228
0.037689 0.000000 0.781790
0.101500 0.124971 0.873422
0.158087 0.288005 0.962654
0.205987 0.436998 1.000000
0.243641 0.570523 1.000000
0.269394 0.687064 1.000000
0.281496 0.785018 1.000000
0.278100 0.862696 1.000000
0.257263 0.918318 1.000000
0.216946 0.950017 1.000000
0.155015 0.955839 1.000000
0.069240 0.933741 1.000000
0.000000 0.881591 1.000000
0.000000 0.797171 1.000000
0.000000 0.678175 1.000000
0.000000 0.522207 1.000000
0.000000 0.326785 0.915396
0.000000 0.089337 0.729073
0.000000 0.000000 0.504213
0.000000 0.000000 0.237770
0.000000 0.000000 0.000000
0.000000 0.000000 0.000000
0.000000 0.000000 0.000000
0.000000 0.000000 0.000000
0.000000 0.000000 0.000000
0.000000 0.000000 0.000000
0.000000 0.000000 0.000000
0.000000 0.000000 0.000000
0.000000 0.000000 0.000000
0.000000 0.000000 0.710517
0.050459 0.000000 0.804440
0.138352 0.000000 0.901059
0.222009 0.000000 0.999124
0.300184 0.089868 1.000000
0.371535 0.276825 1.000000
0.434622 0.449938 1.000000
0.487913 0.607796 1.000000
0.529776 0.748902 1.000000
0.558485 0.871669 1.000000
0.572219 0.974423 1.000000
0.569058 1.000000 1.000000
0.546990 1.000000 1.000000
0.503903 1.000000 1.000000
0.437593 1.000000 1.000000
0.345757 1.000000 1.000000
0.225997 1.000000 1.000000
0.075819 0.974240 1.000000
0.000000 0.846065 1.000000
0.000000 0.678850 1.000000
0.000000 0.470042 1.000000
0.000000 0.216999 1.000000
0.000000 0.000000 0.794684
0.000000 0.000000 0.516181
0.000000 0.000000 0.191446
0.000000 0.000000 0.000000
0.000000 0.000000 0.000000
0.000000 0.000000 0.000000
0.000000 0.000000 0.000000
0.000000 0.000000 0.000000
0.000000 0.000000 0.000000
0.000000 0.000000 0.000000
0.000000 0.000000 0.000000
0.253485 0.000000 1.000000
0.355935 0.000000 1.000000
0.454529 0.000000 1.000000
0.548045 0.063671 1.000000
0.635164 0.275632 1.000000
0.714473 0.473973 1.000000
0.784462 0.657300 1.000000
0.843525 0.824132 1.000000
0.889961 0.972899 1.000000
0.921973 1.000000 1.000000
0.937666 1.000000 1.000000
0.935051 1.000000 1.000000
0.912043 1.000000 1.000000
0.866460 1.000000 1.000000
0.796025 1.000000 1.000000
0.698365 1.000000 1.000000
0.571010 1.000000 1.000000
0.411396 1.000000 1.000000
0.216861 1.000000 1.000000
0.000000 0.880182 1.000000
0.000000 0.657739 1.000000
0.000000 0.388822 1.000000
0.000000 0.070631 1.000000
0.000000 0.000000 0.873447
0.000000 0.000000 0.534943
0.000000 0.000000 0.145339
0.000000 0.000000 0.000000
0.000000 0.000000 0.000000
0.000000 0.000000 0.000000
0.000000 0.000000 0.000000
0.000000 0.000000 0.000000
0.000000 0.000000 0.000000
0.000000 0.000000 0.000000
0.626669 0.000000 1.000000
0.741106 0.000000 1.000000
0.850898 0.049633 1.000000
0.954750 0.287648 1.000000
1.000000 0.512295 1.000000
1.000000 0.722195 1.000000
1.000000 0.915886 1.000000
1.000000 1.000000 1.000000
1.000000 1.000000 1.000000
1.000000 1.000000 1.000000
1.000000 1.000000 1.000000
1.000000 1.000000 1.000000
1.000000 1.000000 1.000000
1.000000 1.000000 1.000000
1.000000 1.000000 1.000000
1.000000 1.000000 1.000000
1.000000 1.000000 1.000000
0.832424 1.000000 1.000000
0.626744 1.000000 1.000000
0.381382 1.000000 1.000000
0.093415 0.895858 1.000000
0.000000 0.610804 1.000000
0.000000 0.274139 1.000000
0.000000 0.000000 1.000000
0.000000 0.000000 0.966711
0.000000 0.000000 0.561541
0.000000 0.000000 0.100181
0.000000 0.000000 0.000000
0.000000 0.000000 0.000000
0.000000 0.000000 0.000000
0.000000 0.000000 0.000000
0.000000 0.000000 0.000000
0.000000 0.000000 0.000000
1.000000 0.000000 1.000000
1.000000 0.051232 1.000000
1.000000 0.316324 1.000000
1.000000 0.568324 1.000000
1.000000 0.805874 1.000000
1.000000 1.000000 1.000000
1.000000 1.000000 1.000000
1.000000 1.000000 1.000000
1.000000 1.000000 1.000000
1.000000 1.000000 1.000000
1.000000 1.000000 1.000000
1.000000 1.000000 1.000000
1.000000 1.000000 1.000000
1.000000 1.000000 1.000000
1.000000 1.000000 1.000000
1.000000 1.000000 1.000000
1.000000 1.000000 1.000000
1.000000 1.000000 1.000000
1.000000 1.000000 1.000000
0.873314 1.000000 1.000000
0.570315 1.000000 1.000000
0.219527 0.889193 1.000000
0.000000 0.533776 1.000000
0.000000 0.121352 1.000000
0.000000 0.000000 1.000000
0.000000 0.000000 1.000000
0.000000 0.000000 0.597037
0.000000 0.000000 0.056728
0.000000 0.000000 0.000000
0.000000 0.000000 0.000000
0.000000 0.000000 0.000000
0.000000 0.000000 0.000000
0.000000 0.000000 0.000000
1.000000 0.072177 1.000000
1.000000 0.365337 1.000000
1.000000 0.645710 1.000000
1.000000 0.911955 1.000000
1.000000 1.000000 1.000000
1.000000 1.000000 1.000000
1.000000 1.000000 1.000000
1.000000 1.000000 1.000000
1.000000 1.000000 1.000000
1.000000 1.000000 1.000000
1.000000 1.000000 1.000000
1.000000 1.000000 1.000000
1.000000 1.000000 1.000000
1.000000 1.000000 1.000000
1.000000 1.000000 1.000000
1.000000 1.000000 1.000000
1.000000 1.000000 1.000000
1.000000 1.000000 1.000000
1.000000 1.000000 1.000000
1.000000 1.000000 1.000000
1.000000 1.000000 1.000000
0.784561 1.000000 1.000000
0.363541 0.856053 1.000000
0.000000 0.422149 1.000000
0.000000 0.000000 1.000000
0.000000 0.000000 1.000000
0.000000 0.000000 1.000000
0.000000 0.000000 0.642517
0.000000 0.000000 0.015759
0.000000 0.000000 0.000000
0.000000 0.000000 0.000000
0.000000 0.000000 0.000000
0.000000 0.000000 0.000000
1.000000 0.438594 1.000000
1.000000 0.748329 1.000000
1.000000 1.000000 1.000000
1.000000 1.000000 1.000000
1.000000 1.000000 1.000000
1.000000 1.000000 1.000000
1.000000 1.000000 1.000000
1.000000 1.000000 1.000000
1.000000 1.000000 1.000000
1.000000 1.000000 1.000000
1.000000 1.000000 1.000000
1.000000 1.000000 1.000000
1.000000 1.000000 1.000000
1.000000 1.000000 1.000000
1.000000 1.000000 1.000000
1.000000 1.000000 1.000000
1.000000 1.000000 1.000000
1.000000 1.000000 1.000000
1.000000 1.000000 1.000000
1.000000 1.000000 1.000000
1.000000 1.000000 1.000000
1.000000 1.000000 1.000000
1.000000 1.000000 1.000000
0.525987 0.792071 1.000000
0.000000 0.271187 1.000000
0.000000 0.000000 1.000000
0.000000 0.000000 1.000000
