public/luts/sony_standard_cl.cube
# Generated from ColorChecker fit
LUT_3D_SIZE 9
DOMAIN_MIN 0.0 0.0 0.0
DOMAIN_MAX 1.0 1.0 1.0
0.111161 0.000000 0.180422
0.000000 0.000000 0.000000
0.000000 0.000000 0.000000
0.000000 0.000000 0.000000
0.000000 0.000000 0.000000
0.000000 0.000000 0.000000
0.000000 0.000000 0.000000
0.000000 0.000000 0.000000
0.000000 0.000000 0.000000
0.487227 0.000000 0.577183
0.135896 0.000000 0.405979
0.000000 0.000000 0.357504
0.000000 0.000000 0.387902
0.000000 0.000000 0.438116
0.000000 0.000000 0.433892
0.000000 0.000000 0.285775
0.000000 0.000000 0.000000
0.000000 0.000000 0.000000
0.521255 0.000000 0.770553
0.314616 0.000000 0.639172
0.211376 0.000000 0.629046
0.185793 0.000000 0.691184
0.180518 0.000000 0.761393
0.106594 0.000000 0.760284
0.000000 0.000000 0.593265
0.000000 0.000000 0.150547
0.000000 0.000000 0.000000
0.260157 0.000000 0.775727
0.182358 0.000000 0.674045
0.199925 0.000000 0.691561
0.282011 0.000000 0.774147
0.366158 0.000000 0.852476
0.358301 0.101686 0.842020
0.132767 0.082578 0.643054
0.000000 0.000000 0.140652
0.000000 0.000000 0.000000
0.000000 0.000000 0.671632
0.000000 0.000000 0.593727
0.000000 0.000000 0.632378
0.156976 0.000000 0.728321
0.296367 0.000000 0.807093
0.312709 0.083387 0.779031
0.075221 0.129627 0.539274
0.000000 0.000000 0.000000
0.000000 0.000000 0.000000
0.000000 0.000000 0.600925
0.000000 0.000000 0.545074
0.000000 0.000000 0.602554
0.038544 0.000000 0.708964
0.203746 0.000000 0.784705
0.207165 0.000000 0.734978
0.000000 0.000000 0.449785
0.000000 0.000000 0.000000
0.000000 0.000000 0.000000
0.000000 0.000000 0.769992
0.000000 0.000000 0.738676
0.000000 0.000000 0.816879
0.237924 0.000000 0.935066
0.404251 0.000000 1.000000
0.362370 0.000000 0.937251
0.000000 0.000000 0.606182
0.000000 0.000000 0.000000
0.000000 0.000000 0.000000
0.120119 0.000000 1.000000
0.494059 0.000000 1.000000
0.854338 0.000000 1.000000
1.000000 0.000000 1.000000
1.000000 0.000000 1.000000
1.000000 0.000000 1.000000
0.659133 0.000000 1.000000
0.000000 0.000000 0.510368
0.000000 0.000000 0.000000
1.000000 0.000000 1.000000
1.000000 0.000000 1.000000
1.000000 0.000000 1.000000
1.000000 0.000000 1.000000
1.000000 0.000000 1.000000
1.000000 0.000000 1.000000
1.000000 0.000000 1.000000
1.000000 0.000000 1.000000
0.000000 0.000000 0.578486
0.169702 0.134458 0.004802
0.000000 0.000000 0.000000
0.000000 0.000000 0.000000
0.000000 0.000000 0.000000
0.000000 0.000000 0.000000
0.000000 0.000000 0.000000
0.000000 0.000000 0.000000
0.000000 0.000000 0.000000
0.000000 0.000000 0.000000
0.577811 0.162613 0.426429
0.169847 0.000000 0.198849
0.000000 0.000000 0.115846
0.000000 0.000000 0.140879
0.000000 0.000000 0.222207
0.000000 0.000000 0.292891
0.000000 0.000000 0.270792
0.000000 0.000000 0.058571
0.000000 0.000000 0.000000
0.645341 0.000000 0.645668
0.385386 0.000000 0.468955
0.252521 0.000000 0.435914
0.227935 0.044049 0.504868
0.261209 0.157120 0.618940
0.270316 0.225112 0.706055
0.141618 0.153196 0.678939
0.000000 0.000000 0.435117
0.000000 0.000000 0.000000
0.417756 0.000000 0.673852
0.290122 0.000000 0.536005
0.278769 0.000000 0.540341
0.359776 0.085996 0.640046
0.477618 0.319430 0.773109
0.545159 0.485949 0.862318
0.443655 0.488775 0.815262
0.022753 0.203120 0.524331
0.000000 0.000000 0.000000
0.023874 0.000000 0.586047
0.017619 0.000000 0.479266
0.109144 0.000000 0.512594
0.269423 0.000000 0.634082
0.437821 0.295319 0.776582
0.522094 0.538918 0.857747
0.398390 0.584282 0.780030
0.000000 0.304669 0.430685
0.000000 0.000000 0.000000
0.000000 0.000000 0.521047
0.000000 0.000000 0.441732
0.000000 0.000000 0.499869
0.183284 0.000000 0.638372
0.372970 0.165486 0.784957
0.437018 0.473279 0.852141
0.246468 0.537534 0.737242
0.000000 0.229559 0.322377
0.000000 0.000000 0.000000
0.000000 0.000000 0.681376
0.000000 0.000000 0.630130
0.152280 0.000000 0.713093
0.411117 0.000000 0.868044
0.597571 0.034897 1.000000
0.609182 0.402554 1.000000
0.311884 0.470612 0.914628
0.000000 0.108429 0.431339
0.000000 0.000000 0.000000
0.382908 0.000000 1.000000
0.722596 0.000000 1.000000
1.000000 0.000000 1.000000
1.000000 0.000000 1.000000
1.000000 0.032775 1.000000
1.000000 0.464527 1.000000
1.000000 0.529859 1.000000
0.021092 0.096179 1.000000
0.000000 0.000000 0.001067
1.000000 0.000000 1.000000
1.000000 0.000000 1.000000
1.000000 0.000000 1.000000
1.000000 0.000000 1.000000
1.000000 0.312610 1.000000
1.000000 0.821243 1.000000
1.000000 0.885878 1.000000
1.000000 0.371972 1.000000
0.000000 0.000000 1.000000
0.273549 0.501418 0.000000
0.000000 0.014520 0.000000
0.000000 0.000000 0.000000
0.000000 0.000000 0.000000
0.000000 0.000000 0.000000
0.000000 0.000000 0.000000
0.000000 0.000000 0.000000
0.000000 0.000000 0.000000
0.000000 0.000000 0.000000
0.697284 0.587655 0.362825
0.194341 0.244702 0.056491
0.000000 0.007971 0.000000
0.000000 0.000000 0.000000
0.000000 0.000000 0.000000
0.000000 0.000000 0.053113
0.000000 0.000000 0.097634
0.000000 0.000000 0.003054
0.000000 0.000000 0.000000
0.780507 0.461740 0.580428
0.430835 0.269918 0.335751
0.230472 0.175257 0.249758
0.167538 0.170993 0.288088
0.198542 0.222348 0.401180
0.248386 0.266528 0.524273
0.210364 0.212727 0.577407
0.000000 0.000000 0.465424
0.000000 0.000000 0.077967
0.567233 0.124360 0.604476
0.355311 0.099411 0.407577
0.279109 0.151805 0.368441
0.321639 0.272828 0.447571
0.434303 0.425751 0.590270
0.536896 0.545831 0.726641
0.517603 0.540309 0.771589
0.233001 0.288415 0.624819
0.000000 0.000000 0.170837
0.184830 0.000000 0.506169
0.099881 0.000000 0.347371
0.129374 0.000000 0.344830
0.251212 0.228774 0.453914
0.411690 0.475292 0.614789
0.525494 0.652538 0.752424
0.475703 0.665805 0.776586
0.113784 0.392371 0.581845
0.000000 0.000000 0.047572
0.000000 0.000000 0.420441
0.000000 0.000000 0.294266
0.001480 0.000000 0.322260
0.181215 0.113717 0.454652
0.360405 0.454413 0.626474
0.448629 0.678651 0.757558
0.323858 0.689774 0.752536
0.000000 0.363109 0.500842
0.000000 0.000000 0.000000
0.000000 0.000000 0.545955
0.000000 0.000000 0.451128
0.198993 0.000000 0.507795
0.419959 0.026801 0.661051
0.593506 0.470819 0.840791
0.624105 0.740435 0.961710
0.384617 0.737039 0.923306
0.000000 0.334010 0.609877
0.000000 0.000000 0.000000
0.546830 0.000000 1.000000
0.825599 0.000000 1.000000
1.000000 0.000000 1.000000
1.000000 0.091438 1.000000
1.000000 0.656480 1.000000
1.000000 0.978415 1.000000
1.000000 0.956685 1.000000
0.175966 0.462717 1.000000
0.000000 0.000000 0.385001
1.000000 0.000000 1.000000
1.000000 0.000000 1.000000
1.000000 0.000000 1.000000
1.000000 0.455298 1.000000
1.000000 1.000000 1.000000
1.000000 1.000000 1.000000
1.000000 1.000000 1.000000
1.000000 0.931136 1.000000
0.000000 0.000000 1.000000
0.468935 0.793316 0.020181
0.000000 0.161889 0.000000
0.000000 0.000000 0.000000
0.000000 0.000000 0.000000
0.000000 0.000000 0.000000
0.000000 0.000000 0.000000
0.000000 0.000000 0.000000
0.000000 0.000000 0.000000
0.000000 0.000000 0.000000
0.896730 0.929631 0.417553
0.274360 0.428493 0.025018
0.000000 0.065452 0.000000
0.000000 0.000000 0.000000
0.000000 0.000000 0.000000
0.000000 0.000000 0.000000
0.000000 0.000000 0.000000
0.000000 0.000000 0.000000
0.000000 0.000000 0.000000
0.982687 0.868074 0.615613
0.520797 0.507122 0.295270
0.228964 0.271376 0.141219
0.102234 0.158089 0.126415
0.104049 0.136501 0.208613
0.166240 0.147838 0.330365
0.189029 0.105313 0.419030
0.041031 0.000000 0.386762
0.000000 0.000000 0.130519
0.769370 0.612070 0.617972
0.452605 0.409763 0.354064
0.289529 0.309009 0.256097
0.270083 0.305112 0.291887
0.352597 0.365361 0.414053
0.463797 0.429032 0.560015
0.498797 0.407387 0.651991
0.321104 0.183671 0.597003
0.000000 0.000000 0.286871
0.382701 0.189310 0.491968
0.200449 0.172663 0.272942
0.147830 0.223158 0.218918
0.209675 0.334149 0.292578
0.339208 0.470974 0.441406
0.458045 0.570960 0.597684
0.456194 0.543417 0.678495
0.192055 0.269642 0.585725
0.000000 0.000000 0.206059
0.031950 0.000000 0.368674
0.000000 0.000000 0.187174
0.022629 0.082892 0.169155
0.144520 0.322828 0.272163
0.292136 0.539528 0.438544
0.381985 0.668368 0.595446
0.298967 0.616708 0.654817
0.000000 0.263895 0.513405
0.000000 0.000000 0.052760
0.009745 0.000000 0.442890
0.083672 0.000000 0.295763
0.216045 0.000000 0.310010
0.381482 0.373037 0.438043
0.522990 0.681468 0.617072
0.551970 0.840260 0.769107
0.348215 0.754823 0.800962
0.000000 0.302553 0.604249
0.000000 0.000000 0.055381
0.692066 0.000000 0.973148
0.897147 0.000000 0.861440
1.000000 0.036699 0.908417
1.000000 0.610928 1.000000
1.000000 1.000000 1.000000
1.000000 1.000000 1.000000
1.000000 1.000000 1.000000
0.191854 0.546001 1.000000
0.000000 0.000000 0.506059
1.000000 0.000000 1.000000
1.000000 0.000000 1.000000
1.000000 0.390219 1.000000
1.000000 1.000000 1.000000
1.000000 1.000000 1.000000
1.000000 1.000000 1.000000
1.000000 1.000000 1.000000
1.000000 1.000000 1.000000
0.000000 0.000000 1.000000
0.764493 1.000000 0.209774
0.000000 0.257757 0.000000
0.000000 0.000000 0.000000
0.000000 0.000000 0.000000
0.000000 0.000000 0.000000
0.000000 0.000000 0.000000
0.000000 0.000000 0.000000
0.000000 0.000000 0.000000
0.000000 0.000000 0.000000
1.000000 1.000000 0.577217
0.437289 0.550856 0.105963
0.000000 0.069339 0.000000
0.000000 0.000000 0.000000
0.000000 0.000000 0.000000
0.000000 0.000000 0.000000
0.000000 0.000000 0.000000
0.000000 0.000000 0.000000
0.000000 0.000000 0.000000
1.000000 1.000000 0.747422
0.687506 0.671030 0.358641
0.294130 0.301093 0.136358
0.092061 0.087871 0.060841
0.051668 0.004623 0.097161
0.111714 0.000000 0.195187
0.179351 0.000000 0.289590
0.130123 0.000000 0.299843
0.000000 0.000000 0.130217
1.000000 1.000000 0.720137
0.619091 0.633008 0.396194
0.361015 0.385063 0.238965
0.269993 0.264396 0.223582
0.311286 0.242316 0.309979
0.418549 0.262117 0.442889
0.493825 0.239079 0.551849
0.407551 0.060467 0.551193
0.000000 0.000000 0.340058
0.645517 0.672472 0.558838
0.361258 0.475779 0.286302
0.220348 0.368797 0.180110
0.214547 0.348897 0.210259
0.304010 0.385438 0.331547
0.417283 0.419765 0.483572
0.451303 0.365206 0.590733
0.271398 0.107076 0.562230
0.000000 0.000000 0.292064
0.272537 0.241794 0.390735
0.126579 0.262597 0.160374
0.089444 0.324105 0.095403
0.147785 0.421743 0.160684
0.256648 0.522918 0.305878
0.339471 0.567022 0.465448
0.288083 0.465437 0.558657
0.000000 0.101526 0.489569
0.000000 0.000000 0.147049
0.219586 0.000000 0.406768
0.210976 0.080975 0.213549
0.268972 0.347062 0.184184
0.375120 0.587566 0.278396
0.479358 0.767943 0.440713
0.500016 0.825638 0.600459
0.323816 0.670079 0.671764
0.000000 0.182680 0.553554
0.000000 0.000000 0.129559
0.861197 0.000000 0.861604
0.993726 0.042689 0.704699
1.000000 0.558001 0.709524
1.000000 0.975258 0.830669
1.000000 1.000000 1.000000
1.000000 1.000000 1.000000
0.961506 1.000000 1.000000
0.208643 0.513667 1.000000
0.000000 0.000000 0.527868
1.000000 0.000000 1.000000
1.000000 0.283779 1.000000
1.000000 1.000000 1.000000
1.000000 1.000000 1.000000
1.000000 1.000000 1.000000
1.000000 1.000000 1.000000
1.000000 1.000000 1.000000
1.000000 1.000000 1.000000
0.000000 0.000000 1.000000
1.000000 1.000000 0.445401
0.051786 0.320482 0.000000
0.000000 0.000000 0.000000
0.000000 0.000000 0.000000
0.000000 0.000000 0.000000
0.000000 0.000000 0.000000
0.000000 0.000000 0.000000
0.000000 0.000000 0.000000
0.000000 0.000000 0.000000
1.000000 1.000000 0.783844
0.672915 0.629162 0.256285
0.015317 0.059509 0.000000
0.000000 0.000000 0.000000
0.000000 0.000000 0.000000
0.000000 0.000000 0.000000
0.000000 0.000000 0.000000
0.000000 0.000000 0.000000
0.000000 0.000000 0.000000
1.000000 1.000000 0.927478
0.925599 0.778026 0.492418
0.434507 0.303302 0.216657
0.159454 0.021741 0.087778
0.077737 0.000000 0.078168
0.135048 0.000000 0.145011
0.245469 0.000000 0.230294
0.291474 0.000000 0.260803
0.123927 0.000000 0.148126
1.000000 1.000000 0.872189
0.854252 0.784544 0.510116
0.506951 0.417874 0.308126
0.348656 0.211097 0.248666
0.351557 0.139540 0.298986
0.456239 0.150515 0.411134
0.571675 0.163323 0.521962
0.575231 0.069246 0.553120
0.312665 0.000000 0.411061
0.963715 1.000000 0.677593
0.586643 0.690448 0.373197
0.365163 0.453517 0.229083
0.297966 0.332448 0.222563
0.352135 0.300620 0.315749
0.463146 0.303395 0.455556
0.534866 0.258121 0.573697
0.439553 0.054132 0.586688
0.017856 0.000000 0.395845
0.561064 0.700319 0.467036
0.333893 0.561734 0.209208
0.225009 0.484782 0.111276
0.227995 0.468907 0.145417
0.304828 0.485533 0.268608
0.385874 0.478073 0.422626
0.369893 0.361925 0.534049
0.124035 0.024474 0.514258
0.000000 0.000000 0.259432
0.468534 0.364864 0.427594
0.390475 0.488656 0.209426
0.385709 0.610487 0.150184
0.442710 0.727846 0.216909
0.518346 0.810209 0.361442
0.537878 0.799040 0.520425
0.394957 0.607786 0.615300
0.000000 0.121879 0.552312
0.000000 0.000000 0.222503
1.000000 0.141447 0.810077
1.000000 0.585735 0.628859
1.000000 0.953706 0.605015
1.000000 1.000000 0.700447
1.000000 1.000000 0.861862
1.000000 1.000000 1.000000
1.000000 1.000000 1.000000
0.328622 0.512217 0.981063
0.000000 0.000000 0.569474
1.000000 0.160290 1.000000
1.000000 0.991751 1.000000
1.000000 1.000000 1.000000
1.000000 1.000000 1.000000
1.000000 1.000000 1.000000
1.000000 1.000000 1.000000
1.000000 1.000000 1.000000
1.000000 1.000000 1.000000
0.140263 0.000000 1.000000
1.000000 1.000000 0.614915
0.300951 0.347285 0.000000
0.000000 0.000000 0.000000
0.000000 0.000000 0.000000
0.000000 0.000000 0.000000
0.000000 0.000000 0.000000
0.000000 0.000000 0.000000
0.000000 0.000000 0.000000
0.000000 0.000000 0.000000
1.000000 1.000000 0.934882
0.933424 0.659648 0.388361
0.185570 0.054706 0.000000
0.000000 0.000000 0.000000
0.000000 0.000000 0.000000
0.000000 0.000000 0.000000
0.000000 0.000000 0.000000
0.000000 0.146992 0.000000
0.000000 0.279375 0.000000
1.000000 1.000000 1.000000
1.000000 0.823361 0.618575
0.621034 0.295759 0.319022
0.289252 0.000000 0.159064
0.180994 0.000000 0.118401
0.248881 0.000959 0.161535
0.413923 0.176301 0.237767
0.565525 0.340547 0.281199
0.561482 0.362937 0.210734
1.000000 1.000000 0.990770
1.000000 0.858637 0.627401
0.703126 0.424214 0.410081
0.495761 0.184493 0.328571
0.477000 0.118818 0.357437
0.594357 0.178521 0.456044
0.763737 0.286921 0.568556
0.869433 0.339319 0.623940
0.764135 0.203004 0.535963
1.000000 1.000000 0.774469
0.843341 0.809950 0.474794
0.562913 0.493104 0.321935
0.454468 0.323096 0.300517
0.492020 0.277320 0.379971
0.617974 0.305159 0.514524
0.743124 0.327979 0.643207
0.746660 0.239133 0.689849
0.476161 0.000000 0.563082
0.855218 0.997105 0.533407
0.571875 0.746037 0.284439
0.414811 0.579724 0.182469
0.384539 0.501626 0.206988
0.449964 0.487189 0.322289
0.548384 0.483843 0.477465
0.585487 0.411005 0.606410
0.435352 0.160077 0.627818
0.000000 0.000000 0.445184
0.719124 0.751487 0.450799
0.598605 0.759896 0.243752
0.556592 0.785631 0.183300
0.588489 0.830199 0.243801
0.658094 0.867097 0.384411
0.697597 0.841805 0.549086
0.607577 0.671789 0.666585
0.257008 0.246502 0.650465
0.000000 0.000000 0.399088
1.000000 0.640071 0.773590
1.000000 0.968789 0.603878
1.000000 1.000000 0.579776
1.000000 1.000000 0.670504
1.000000 1.000000 0.830084
1.000000 1.000000 0.997335
1.000000 1.000000 1.000000
0.616481 0.667017 1.000000
0.000000 0.000000 0.705346
1.000000 0.795821 1.000000
1.000000 1.000000 1.000000
1.000000 1.000000 1.000000
1.000000 1.000000 1.000000
1.000000 1.000000 1.000000
1.000000 1.000000 1.000000
1.000000 1.000000 1.000000
1.000000 1.000000 1.000000
0.526129 0.253514 1.000000
1.000000 1.000000 0.561589
0.479809 0.314253 0.000000
0.000000 0.000000 0.000000
0.000000 0.000000 0.000000
0.000000 0.000000 0.000000
0.000000 0.000000 0.000000
0.000000 0.220287 0.000000
0.000000 0.829819 0.000000
0.000000 1.000000 0.000000
1.000000 1.000000 0.883200
1.000000 0.617414 0.369993
0.324979 0.052538 0.000000
0.000000 0.000000 0.000000
0.000000 0.000000 0.000000
0.000000 0.095885 0.000000
0.000000 0.553830 0.000000
0.023724 1.000000 0.000000
0.242994 1.000000 0.000000
1.000000 1.000000 1.000000
1.000000 0.781150 0.614510
0.787049 0.275088 0.335780
0.428696 0.041668 0.181955
0.322580 0.066203 0.140049
0.428253 0.305996 0.181878
0.673655 0.690331 0.264060
0.955120 1.000000 0.328012
1.000000 1.000000 0.299952
1.000000 1.000000 0.947941
1.000000 0.828415 0.635043
0.887729 0.399721 0.446753
0.663396 0.202728 0.380152
0.653604 0.220803 0.417118
0.812795 0.409294 0.524332
1.000000 0.695539 0.653274
1.000000 0.978858 0.740226
1.000000 1.000000 0.706271
1.000000 1.000000 0.731126
1.000000 0.806427 0.487683
0.756636 0.482211 0.370184
0.640995 0.337999 0.370573
0.694507 0.355205 0.465593
0.866506 0.487231 0.616788
1.000000 0.659461 0.770504
1.000000 0.769267 0.857885
1.000000 0.686006 0.794879
1.000000 1.000000 0.481106
0.774514 0.786664 0.292253
0.606739 0.602595 0.230097
0.579205 0.536074 0.281443
0.667747 0.566566 0.417899
0.816592 0.645519 0.595874
0.938356 0.696370 0.756577
0.914050 0.614539 0.826017
0.593076 0.267433 0.715005
0.896294 0.903366 0.377234
0.774204 0.864867 0.232308
0.734360 0.865174 0.214246
0.779096 0.909814 0.304716
0.879140 0.976300 0.470192
0.973611 1.000000 0.661946
0.970019 0.944798 0.816050
0.744265 0.661765 0.853379
0.140644 0.030490 0.679607
1.000000 0.880353 0.662593
1.000000 1.000000 0.555132
1.000000 1.000000 0.574116
1.000000 1.000000 0.696079
1.000000 1.000000 0.882359
1.000000 1.000000 1.000000
1.000000 1.000000 1.000000
1.000000 1.000000 1.000000
0.163498 0.155091 0.965376
1.000000 1.000000 1.000000
1.000000 1.000000 1.000000
1.000000 1.000000 1.000000
1.000000 1.000000 1.000000
1.000000 1.000000 1.000000
1.000000 1.000000 1.000000
1.000000 1.000000 1.000000
1.000000 1.000000 1.000000
1.000000 0.845409 1.000000
1.000000 0.981618 0.084120
0.460500 0.176336 0.000000
0.000000 0.000000 0.000000
0.000000 0.000000 0.000000
0.000000 0.000000 0.000000
0.000000 0.544533 0.000000
0.000000 1.000000 0.000000
0.000000 1.000000 0.000000
0.000000 1.000000 0.000000
1.000000 1.000000 0.437091
1.000000 0.456425 0.024403
0.324434 0.029478 0.000000
0.000000 0.000000 0.000000
0.000000 0.215919 0.000000
0.000000 0.783861 0.000000
0.000000 1.000000 0.000000
0.423175 1.000000 0.000000
0.867941 1.000000 0.000000
1.000000 1.000000 0.604681
1.000000 0.604372 0.313042
0.828293 0.216776 0.114682
0.487426 0.144850 0.019131
0.426037 0.377926 0.020720
0.610608 0.877326 0.098580
0.976008 1.000000 0.216644
1.000000 1.000000 0.323643
1.000000 1.000000 0.353111
1.000000 1.000000 0.571189
1.000000 0.645874 0.375455
0.961351 0.318895 0.275489
0.766054 0.262813 0.275684
0.809762 0.465011 0.365234
1.000000 0.884857 0.518136
1.000000 1.000000 0.693185
1.000000 1.000000 0.833978
1.000000 1.000000 0.868913
1.000000 1.000000 0.384644
1.000000 0.630889 0.263873
0.851774 0.394353 0.240773
0.776886 0.373180 0.314602
0.892835 0.552806 0.469418
1.000000 0.890649 0.674082
1.000000 1.000000 0.882252
1.000000 1.000000 1.000000
1.000000 1.000000 1.000000
1.000000 0.878929 0.156808
0.838198 0.633639 0.094258
0.711083 0.525927 0.130698
0.736185 0.567290 0.260250
0.896268 0.741210 0.461836
1.000000 1.000000 0.699181
1.000000 1.000000 0.920810
1.000000 1.000000 1.000000
1.000000 1.000000 1.000000
0.887383 0.747031 0.063171
0.818511 0.752607 0.046300
0.834153 0.820661 0.129154
0.943572 0.960741 0.300719
1.000000 1.000000 0.534782
1.000000 1.000000 0.789930
1.000000 1.000000 1.000000
1.000000 1.000000 1.000000
1.000000 1.000000 1.000000
1.000000 0.787838 0.342954
1.000000 1.000000 0.363422
1.000000 1.000000 0.483765
1.000000 1.000000 0.687834
1.000000 1.000000 0.944279
1.000000 1.000000 1.000000
1.000000 1.000000 1.000000
1.000000 1.000000 1.000000
1.000000 1.000000 1.000000
1.000000 1.000000 1.000000
1.000000 1.000000 1.000000
1.000000 1.000000 1.000000
1.000000 1.000000 1.000000
1.000000 1.000000 1.000000
1.000000 1.000000 1.000000
1.000000 1.000000 1.000000
1.000000 1.000000 1.000000
1.000000 1.000000 1.000000
