public/luts/tmax100_cc.cube
# Generated from ColorChecker fit
LUT_3D_SIZE 5
DOMAIN_MIN 0.0 0.0 0.0
DOMAIN_MAX 1.0 1.0 1.0
0.090388 0.134596 0.490280
0.209770 0.259151 0.494544
0.300536 0.314954 0.465324
0.374168 0.363581 0.458342
0.450716 0.424933 0.445631
0.209770 0.259151 0.494544
0.313644 0.335595 0.465805
0.391302 0.370758 0.436103
0.456368 0.415796 0.440241
0.531031 0.480194 0.429327
0.300536 0.314954 0.465324
0.391302 0.370758 0.436103
0.459679 0.405805 0.424496
0.521433 0.460834 0.444379
0.600895 0.534912 0.425939
0.374168 0.363581 0.458342
0.456368 0.415796 0.440241
0.521433 0.460834 0.444379
0.587273 0.529015 0.463710
0.680357 0.608990 0.407499
0.450716 0.424933 0.445631
0.531031 0.480194 0.429327
0.600895 0.534912 0.425939
0.680357 0.608990 0.407499
0.798029 0.680660 0.262348
0.209770 0.259151 0.494544
0.313644 0.335595 0.465805
0.391302 0.370758 0.436103
0.456368 0.415796 0.440241
0.531031 0.480194 0.429327
0.313644 0.335595 0.465805
0.402853 0.379400 0.423810
0.468959 0.405921 0.406402
0.527729 0.455896 0.427459
0.603493 0.528394 0.417168
0.391302 0.370758 0.436103
0.468959 0.405921 0.406402
0.528056 0.440852 0.412888
0.586499 0.505872 0.448516
0.670760 0.589630 0.422551
0.456368 0.415796 0.440241
0.527729 0.455896 0.427459
0.586499 0.505872 0.448516
0.652726 0.585625 0.475445
0.755021 0.673388 0.396585
0.531031 0.480194 0.429327
0.603493 0.528394 0.417168
0.670760 0.589630 0.422551
0.755021 0.673388 0.396585
0.887029 0.747482 0.206688
0.300536 0.314954 0.465324
0.391302 0.370758 0.436103
0.459679 0.405805 0.424496
0.521433 0.460834 0.444379
0.600895 0.534912 0.425939
0.391302 0.370758 0.436103
0.468959 0.405921 0.406402
0.528056 0.440852 0.412888
0.586499 0.505872 0.448516
0.670760 0.589630 0.422551
0.459679 0.405805 0.424496
0.528056 0.440852 0.412888
0.583128 0.489247 0.442094
0.644942 0.570892 0.484145
0.742112 0.664019 0.427382
0.521433 0.460834 0.444379
0.586499 0.505872 0.448516
0.644942 0.570892 0.484145
0.718952 0.665378 0.502373
0.839281 0.757146 0.370619
0.600895 0.534912 0.425939
0.670760 0.589630 0.422551
0.742112 0.664019 0.427382
0.839281 0.757146 0.370619
0.995163 0.826408 0.098757
0.374168 0.363581 0.458342
0.456368 0.415796 0.440241
0.521433 0.460834 0.444379
0.587273 0.529015 0.463710
0.680357 0.608990 0.407499
0.456368 0.415796 0.440241
0.527729 0.455896 0.427459
0.586499 0.505872 0.448516
0.652726 0.585625 0.475445
0.755021 0.673388 0.396585
0.521433 0.460834 0.444379
0.586499 0.505872 0.448516
0.644942 0.570892 0.484145
0.718952 0.665378 0.502373
0.839281 0.757146 0.370619
0.587273 0.529015 0.463710
0.652726 0.585625 0.475445
0.718952 0.665378 0.502373
0.810282 0.767342 0.474681
0.959611 0.848914 0.238865
0.680357 0.608990 0.407499
0.755021 0.673388 0.396585
0.839281 0.757146 0.370619
0.959611 0.848914 0.238865
1.000000 0.895671 0.000000
0.450716 0.424933 0.445631
0.531031 0.480194 0.429327
0.600895 0.534912 0.425939
0.680357 0.608990 0.407499
0.798029 0.680660 0.262348
0.531031 0.480194 0.429327
0.603493 0.528394 0.417168
0.670760 0.589630 0.422551
0.755021 0.673388 0.396585
0.887029 0.747482 0.206688
0.600895 0.534912 0.425939
0.670760 0.589630 0.422551
0.742112 0.664019 0.427382
0.839281 0.757146 0.370619
0.995163 0.826408 0.098757
0.680357 0.608990 0.407499
0.755021 0.673388 0.396585
0.839281 0.757146 0.370619
0.959611 0.848914 0.238865
1.000000 0.895671 0.000000
0.798029 0.680660 0.262348
0.887029 0.747482 0.206688
0.995163 0.826408 0.098757
1.000000 0.895671 0.000000
1.000000 0.891831 0.000000
