public/luts/tmax100_cc.cube
# Generated from ColorChecker fit
LUT_3D_SIZE 33
DOMAIN_MIN 0.0 0.0 0.0
DOMAIN_MAX 1.0 1.0 1.0
0.090388 0.134596 0.490280
0.107057 0.157054 0.496605
0.123222 0.177114 0.500679
0.138882 0.195005 0.502826
0.154039 0.210943 0.503349
0.168699 0.225136 0.502531
0.182868 0.237778 0.500633
0.196554 0.249058 0.497897
0.209770 0.259151 0.494544
0.222528 0.268223 0.490775
0.234842 0.276429 0.486771
0.246731 0.283917 0.482691
0.258213 0.290821 0.478675
0.269310 0.297267 0.474842
0.280046 0.303369 0.471290
0.290445 0.309233 0.468098
0.300536 0.314954 0.465324
0.310348 0.320616 0.463004
0.319913 0.326294 0.461156
0.329266 0.332052 0.459776
0.338441 0.337944 0.458840
0.347478 0.344014 0.458303
0.356416 0.350296 0.458102
0.365298 0.356814 0.458150
0.374168 0.363581 0.458342
0.383073 0.370600 0.458552
0.392061 0.377864 0.458633
0.401182 0.385356 0.458418
0.410490 0.393050 0.457720
0.420039 0.400907 0.456331
0.429887 0.408880 0.454022
0.440092 0.416912 0.450545
0.450716 0.424933 0.445631
0.107057 0.157054 0.496605
0.123475 0.178274 0.501749
0.139386 0.197175 0.504753
0.154794 0.213981 0.505937
0.169700 0.228907 0.505598
0.184109 0.242156 0.504013
0.198030 0.253923 0.501439
0.211470 0.264392 0.498112
0.224443 0.273736 0.494250
0.236961 0.282119 0.490047
0.249040 0.289693 0.485679
0.260698 0.296604 0.481300
0.271954 0.302982 0.477045
0.282831 0.308951 0.473029
0.293352 0.314624 0.469343
0.303544 0.320103 0.466062
0.313434 0.325481 0.463238
0.323054 0.330839 0.460904
0.332434 0.336249 0.459070
0.341611 0.341774 0.457729
0.350620 0.347465 0.456852
0.359499 0.353362 0.456388
0.368291 0.359498 0.456268
0.377037 0.365894 0.456402
0.385782 0.372560 0.456678
0.394574 0.379497 0.456966
0.403461 0.386696 0.457114
0.412495 0.394137 0.456949
0.421728 0.401791 0.456280
0.431217 0.409616 0.454892
0.441019 0.417564 0.452554
0.451193 0.425573 0.449010
0.461801 0.433574 0.443987
0.123222 0.177114 0.500679
0.139386 0.197175 0.504753
0.155046 0.214992 0.506796
0.170201 0.230787 0.507121
0.184856 0.244772 0.506020
0.199017 0.257150 0.503766
0.212690 0.268110 0.500610
0.225887 0.277835 0.496784
0.238619 0.286496 0.492499
0.250901 0.294253 0.487946
0.262747 0.301258 0.483294
0.274177 0.307651 0.478694
0.285211 0.313563 0.474275
0.295872 0.319113 0.470144
0.306183 0.324412 0.466392
0.316171 0.329559 0.463086
0.325866 0.334646 0.460273
0.335298 0.339750 0.457981
0.344500 0.344942 0.456215
0.353506 0.350280 0.454963
0.362355 0.355814 0.454191
0.371084 0.361583 0.453843
0.379736 0.367615 0.453844
0.388353 0.373928 0.454100
0.396982 0.380532 0.454493
0.405669 0.387424 0.454889
0.414464 0.394593 0.455129
0.423419 0.402016 0.455037
0.432588 0.409660 0.454415
0.442026 0.417484 0.453046
0.451792 0.425435 0.450690
0.461945 0.433449 0.447088
0.472549 0.441454 0.441961
0.138882 0.195005 0.502826
0.154794 0.213981 0.505937
0.170201 0.230787 0.507121
0.185105 0.245643 0.506686
0.199511 0.258758 0.504919
0.213424 0.270331 0.502088
0.226853 0.280551 0.498439
0.239809 0.289597 0.494200
0.252303 0.297638 0.489575
0.264350 0.304831 0.484750
0.275968 0.311326 0.479891
0.287174 0.317259 0.475141
0.297990 0.322760 0.470625
0.308439 0.327945 0.466447
0.318545 0.332923 0.462690
0.328336 0.337790 0.459416
0.337841 0.342635 0.456669
0.347091 0.347533 0.454470
0.356120 0.352552 0.452822
0.364963 0.357748 0.451704
0.373658 0.363169 0.451077
0.382244 0.368849 0.450883
0.390764 0.374816 0.451040
0.399261 0.381085 0.451449
0.407781 0.387663 0.451987
0.416372 0.394544 0.452514
0.425084 0.401715 0.452869
0.433970 0.409150 0.452867
0.443083 0.416815 0.452307
0.452481 0.424665 0.450966
0.462221 0.432644 0.448599
0.472365 0.440687 0.444944
0.482974 0.448719 0.439715
0.154039 0.210943 0.503349
0.169700 0.228907 0.505598
0.184856 0.244772 0.506020
0.199511 0.258758 0.504919
0.213669 0.271070 0.502577
0.227338 0.281904 0.499257
0.240525 0.291448 0.495200
0.253241 0.299877 0.490627
0.265501 0.307358 0.485739
0.277318 0.314046 0.480716
0.288711 0.320087 0.475719
0.299698 0.325617 0.470887
0.310300 0.330760 0.466338
0.320542 0.335633 0.462172
0.330448 0.340340 0.458467
0.340047 0.344975 0.455280
0.349368 0.349624 0.452648
0.358443 0.354362 0.450590
0.367306 0.359251 0.449100
0.375993 0.364348 0.448156
0.384542 0.369694 0.447712
0.392993 0.375325 0.447704
0.401389 0.381264 0.448047
0.409774 0.387524 0.448634
0.418194 0.394108 0.449341
0.426698 0.401010 0.450019
0.435337 0.408213 0.450503
0.444163 0.415689 0.450604
0.453232 0.423401 0.450115
0.462600 0.431301 0.448808
0.472325 0.439332 0.446433
0.482470 0.447425 0.442723
0.493098 0.455503 0.437386
0.168699 0.225136 0.502531
0.184109 0.242156 0.504013
0.199017 0.257150 0.503766
0.213424 0.270331 0.502088
0.227338 0.281904 0.499257
0.240764 0.292063 0.495530
0.253712 0.300992 0.491142
0.266193 0.308864 0.486312
0.278222 0.315842 0.481233
0.289813 0.322081 0.476081
0.300985 0.327723 0.471012
0.311757 0.332902 0.466158
0.322152 0.337740 0.461636
0.332192 0.342349 0.457537
0.341905 0.346832 0.453935
0.351318 0.351282 0.450882
0.360462 0.355781 0.448411
0.369369 0.360400 0.446534
0.378073 0.365201 0.445242
0.386611 0.370236 0.444506
0.395022 0.375547 0.444276
0.403347 0.381164 0.444482
0.411628 0.387108 0.445034
0.419909 0.393391 0.445822
0.428239 0.400014 0.446713
0.436666 0.406966 0.447557
0.445242 0.414228 0.448181
0.454019 0.421770 0.448392
0.463053 0.429553 0.447978
0.472402 0.437526 0.446706
0.482125 0.445629 0.444320
0.492283 0.453792 0.440548
0.502941 0.461933 0.435094
0.182868 0.237778 0.500633
0.198030 0.253923 0.501439
0.212690 0.268110 0.500610
0.226853 0.280551 0.498439
0.240525 0.291448 0.495200
0.253712 0.300992 0.491142
0.266425 0.309364 0.486499
0.278675 0.316735 0.481481
0.290477 0.323268 0.476278
0.301847 0.329111 0.471061
0.312804 0.334406 0.465979
0.323367 0.339284 0.461162
0.333558 0.343864 0.456718
0.343404 0.348257 0.452736
0.352929 0.352562 0.449284
0.362163 0.356870 0.446409
0.371137 0.361260 0.444138
0.379883 0.365801 0.442479
0.388436 0.370552 0.441417
0.396834 0.375563 0.440918
0.405116 0.380872 0.440928
0.413323 0.386509 0.441371
0.421497 0.392491 0.442153
0.429686 0.398827 0.443156
0.437935 0.405515 0.444245
0.446296 0.412543 0.445263
0.454819 0.419890 0.446033
0.463558 0.427522 0.446357
0.472569 0.435397 0.446016
0.481910 0.443463 0.444774
0.491642 0.451656 0.442369
0.501826 0.459904 0.438524
0.512527 0.468123 0.432939
0.196554 0.249058 0.497897
0.211470 0.264392 0.498112
0.225887 0.277835 0.496784
0.239809 0.289597 0.494200
0.253241 0.299877 0.490627
0.266193 0.308864 0.486312
0.278675 0.316735 0.481481
0.290699 0.323661 0.476340
0.302279 0.329800 0.471075
0.313434 0.335299 0.465851
0.324180 0.340297 0.460812
0.334540 0.344921 0.456082
0.344535 0.349290 0.451765
0.354192 0.353511 0.447945
0.363537 0.357681 0.444684
0.372599 0.361887 0.442025
0.381410 0.366207 0.439989
0.390004 0.370707 0.438579
0.398415 0.375444 0.437775
0.406681 0.380465 0.437538
0.414842 0.385806 0.437809
0.422940 0.391492 0.438506
0.431019 0.397541 0.439531
0.439124 0.403957 0.440761
0.447304 0.410737 0.442055
0.455608 0.417866 0.443251
0.464089 0.425319 0.444167
0.472802 0.433061 0.444600
0.481802 0.441047 0.444328
0.491148 0.449223 0.443105
0.500901 0.457522 0.440669
0.511124 0.465869 0.436735
0.521881 0.474178 0.430997
0.209770 0.259151 0.494544
0.224443 0.273736 0.494250
0.238619 0.286496 0.492499
0.252303 0.297638 0.489575
0.265501 0.307358 0.485739
0.278222 0.315842 0.481233
0.290477 0.323268 0.476278
0.302279 0.329800 0.471075
0.313644 0.335595 0.465805
0.324588 0.340798 0.460626
0.335130 0.345545 0.455680
0.345293 0.349962 0.451084
0.355099 0.354162 0.446938
0.364574 0.358253 0.443319
0.373746 0.362327 0.440285
0.382645 0.366471 0.437875
0.391302 0.370758 0.436103
0.399751 0.375252 0.434968
0.408028 0.380009 0.434445
0.416172 0.385071 0.434489
0.424222 0.390473 0.435036
0.432222 0.396238 0.436001
0.440214 0.402380 0.437278
0.448247 0.408901 0.438740
0.456368 0.415796 0.440241
0.464627 0.423046 0.441614
0.473079 0.430625 0.442672
0.481777 0.438496 0.443207
0.490778 0.446610 0.442990
0.500142 0.454910 0.441773
0.509930 0.463327 0.439287
0.520204 0.471785 0.435241
0.531031 0.480194 0.429327
0.222528 0.268223 0.490775
0.236961 0.282119 0.490047
0.250901 0.294253 0.487946
0.264350 0.304831 0.484750
0.277318 0.314046 0.480716
0.289813 0.322081 0.476081
0.301847 0.329111 0.471061
0.313434 0.335299 0.465851
0.324588 0.340798 0.460626
0.335328 0.345751 0.455542
0.345673 0.350292 0.450733
0.355645 0.354543 0.446313
0.365269 0.358617 0.442375
0.374571 0.362616 0.438992
0.383578 0.366633 0.436217
0.392321 0.370750 0.434083
0.400832 0.375038 0.432600
0.409146 0.379559 0.431761
0.417299 0.384366 0.431536
0.425330 0.389498 0.431876
0.433280 0.394989 0.432710
0.441191 0.400858 0.433949
0.449109 0.407117 0.435482
0.457080 0.413766 0.437176
0.465153 0.420796 0.438882
0.473380 0.428187 0.440426
0.481813 0.435909 0.441616
0.490509 0.443923 0.442239
0.499525 0.452179 0.442062
0.508920 0.460615 0.440831
0.518756 0.469162 0.438271
0.529096 0.477739 0.434088
0.540007 0.486255 0.427966
0.234842 0.276429 0.486771
0.249040 0.289693 0.485679
0.262747 0.301258 0.483294
0.275968 0.311326 0.479891
0.288711 0.320087 0.475719
0.300985 0.327723 0.471012
0.312804 0.334406 0.465979
0.324180 0.340297 0.460812
0.335130 0.345545 0.455680
0.345673 0.350292 0.450733
0.355828 0.354669 0.446101
0.365618 0.358794 0.441892
0.375068 0.362780 0.438195
0.384204 0.366725 0.435078
0.393054 0.370718 0.432588
0.401651 0.374841 0.430752
0.410025 0.379162 0.429578
0.418214 0.383740 0.429050
0.426253 0.388625 0.429136
0.434181 0.393855 0.429780
0.442041 0.399459 0.430908
0.449875 0.405455 0.432423
0.457728 0.411852 0.434211
0.465649 0.418648 0.436134
0.473687 0.425832 0.438035
0.481894 0.433380 0.439739
0.490322 0.441260 0.441046
0.499029 0.449431 0.441740
0.508072 0.457839 0.441580
0.517512 0.466422 0.440309
0.527410 0.475106 0.437648
0.537830 0.483808 0.433295
0.548840 0.492435 0.426931
0.246731 0.283917 0.482691
0.260698 0.296604 0.481300
0.274177 0.307651 0.478694
0.287174 0.317259 0.475141
0.299698 0.325617 0.470887
0.311757 0.332902 0.466158
0.323367 0.339284 0.461162
0.334540 0.344921 0.456082
0.345293 0.349962 0.451084
0.355645 0.354543 0.446313
0.365618 0.358794 0.441892
0.375234 0.362833 0.437927
0.384517 0.366765 0.434498
0.393496 0.370690 0.431671
0.402200 0.374693 0.429487
0.410659 0.378853 0.427968
0.418907 0.383236 0.427115
0.426980 0.387898 0.426910
0.434915 0.392886 0.427314
0.442752 0.398237 0.428266
0.450532 0.403977 0.429687
0.458301 0.410121 0.431476
0.466102 0.416676 0.433512
0.473985 0.423636 0.435654
0.482000 0.430988 0.437739
0.490199 0.438707 0.439585
0.498636 0.446758 0.440990
0.507367 0.455096 0.441730
0.516452 0.463665 0.441562
0.525950 0.472401 0.440222
0.535925 0.481227 0.437424
0.546441 0.490058 0.432865
0.557565 0.498799 0.426219
0.258213 0.290821 0.478675
0.271954 0.302982 0.477045
0.285211 0.313563 0.474275
0.297990 0.322760 0.470625
0.310300 0.330760 0.466338
0.322152 0.337740 0.461636
0.333558 0.343864 0.456718
0.344535 0.349290 0.451765
0.355099 0.354162 0.446938
0.365269 0.358617 0.442375
0.375068 0.362780 0.438195
0.384517 0.366765 0.434498
0.393644 0.370678 0.431362
0.402475 0.374614 0.428844
0.411041 0.378657 0.426981
0.419372 0.382882 0.425791
0.427504 0.387353 0.425269
0.435472 0.392124 0.425392
0.443314 0.397240 0.426116
0.451071 0.402733 0.427376
0.458784 0.408628 0.429086
0.466499 0.414938 0.431140
0.474261 0.421667 0.433414
0.482119 0.428806 0.435759
0.490124 0.436340 0.438009
0.498328 0.444241 0.439976
0.506787 0.452472 0.441454
0.515557 0.460985 0.442212
0.524698 0.469722 0.442003
0.534270 0.478615 0.440558
0.544337 0.487586 0.437587
0.554963 0.496548 0.432779
0.566217 0.505400 0.425805
0.269310 0.297267 0.474842
0.282831 0.308951 0.473029
0.295872 0.319113 0.470144
0.308439 0.327945 0.466447
0.320542 0.335633 0.462172
0.332192 0.342349 0.457537
0.343404 0.348257 0.452736
0.354192 0.353511 0.447945
0.364574 0.358253 0.443319
0.374571 0.362616 0.438992
0.384204 0.366725 0.435078
0.393496 0.370690 0.431671
0.402475 0.374614 0.428844
0.411168 0.378590 0.426649
0.419606 0.382700 0.425118
0.427821 0.387016 0.424264
0.435847 0.391599 0.424077
0.443721 0.396502 0.424530
0.451482 0.401765 0.425571
0.459170 0.407420 0.427131
0.466828 0.413487 0.429120
0.474502 0.419979 0.431428
0.482237 0.426895 0.433921
0.490083 0.434226 0.436450
0.498092 0.441952 0.438842
0.506316 0.450044 0.440904
0.514811 0.458461 0.442424
0.523635 0.467154 0.443167
0.532846 0.476062 0.442881
0.542507 0.485115 0.441290
0.552681 0.494232 0.438101
0.563435 0.503322 0.432998
0.574835 0.512284 0.425645
0.280046 0.303369 0.471290
0.293352 0.314624 0.469343
0.306183 0.324412 0.466392
0.318545 0.332923 0.462690
0.330448 0.340340 0.458467
0.341905 0.346832 0.453935
0.352929 0.352562 0.449284
0.363537 0.357681 0.444684
0.373746 0.362327 0.440285
0.383578 0.366633 0.436217
0.393054 0.370718 0.432588
0.402200 0.374693 0.429487
0.411041 0.378657 0.426981
0.419606 0.382700 0.425118
0.427927 0.386902 0.423925
0.436036 0.391332 0.423410
0.443968 0.396049 0.423557
0.451760 0.401103 0.424333
0.459451 0.406531 0.425684
0.467083 0.412364 0.427534
0.474699 0.418619 0.429788
0.482344 0.425304 0.432329
0.490066 0.432419 0.435022
0.497914 0.439951 0.437709
0.505940 0.447877 0.440214
0.514199 0.456166 0.442339
0.522745 0.464774 0.443866
0.531637 0.473650 0.444556
0.540935 0.482731 0.444150
0.550700 0.491943 0.442368
0.560999 0.501202 0.438912
0.571895 0.510417 0.433461
0.583459 0.519483 0.425674
0.290445 0.309233 0.468098
0.303544 0.320103 0.466062
0.316171 0.329559 0.463086
0.328336 0.337790 0.459416
0.340047 0.344975 0.455280
0.351318 0.351282 0.450882
0.362163 0.356870 0.446409
0.372599 0.361887 0.442025
0.382645 0.366471 0.437875
0.392321 0.370750 0.434083
0.401651 0.374841 0.430752
0.410659 0.378853 0.427968
0.419372 0.382882 0.425791
0.427821 0.387016 0.424264
0.436036 0.391332 0.423410
0.444050 0.395896 0.423230
0.451900 0.400766 0.423705
0.459622 0.405988 0.424795
0.467256 0.411598 0.426442
0.474845 0.417622 0.428565
0.482431 0.424076 0.431063
0.490062 0.430966 0.433815
0.497784 0.438288 0.436681
0.505649 0.446028 0.439497
0.513707 0.454160 0.442082
0.522015 0.462649 0.444232
0.530628 0.471451 0.445725
0.539604 0.480510 0.446318
0.549004 0.489762 0.445745
0.558891 0.499129 0.443723
0.569329 0.508527 0.439946
0.580386 0.517860 0.434089
0.592131 0.527021 0.425807
0.300536 0.314954 0.465324
0.313434 0.325481 0.463238
0.325866 0.334646 0.460273
0.337841 0.342635 0.456669
0.349368 0.349624 0.452648
0.360462 0.355781 0.448411
0.371137 0.361260 0.444138
0.381410 0.366207 0.439989
0.391302 0.370758 0.436103
0.400832 0.375038 0.432600
0.410025 0.379162 0.429578
0.418907 0.383236 0.427115
0.427504 0.387353 0.425269
0.435847 0.391599 0.424077
0.443968 0.396049 0.423557
0.451900 0.400766 0.423705
0.459679 0.405805 0.424496
0.467344 0.411209 0.425886
0.474934 0.417013 0.427811
0.482493 0.423240 0.430185
0.490064 0.429903 0.432903
0.497694 0.437006 0.435838
0.505432 0.444542 0.438843
0.513327 0.452494 0.441753
0.521433 0.460834 0.444379
0.529806 0.469525 0.446513
0.538500 0.478520 0.447927
0.547577 0.487760 0.448373
0.557096 0.497178 0.447582
0.567121 0.506695 0.445263
0.577717 0.516224 0.441106
0.588952 0.525666 0.434782
0.600895 0.534912 0.425939
0.310348 0.320616 0.463004
0.323054 0.330839 0.460904
0.335298 0.339750 0.457981
0.347091 0.347533 0.454470
0.358443 0.354362 0.450590
0.369369 0.360400 0.446534
0.379883 0.365801 0.442479
0.390004 0.370707 0.438579
0.399751 0.375252 0.434968
0.409146 0.379559 0.431761
0.418214 0.383740 0.429050
0.426980 0.387898 0.426910
0.435472 0.392124 0.425392
0.443721 0.396502 0.424530
0.451760 0.401103 0.424333
0.459622 0.405988 0.424795
0.467344 0.411209 0.425886
0.474965 0.416809 0.427556
0.482525 0.422817 0.429736
0.490068 0.429255 0.432335
0.497638 0.436135 0.435242
0.505282 0.443456 0.438325
0.513049 0.451209 0.441435
0.520991 0.459375 0.444397
0.529161 0.467923 0.447020
0.537613 0.476814 0.449091
0.546407 0.485998 0.450377
0.555600 0.495415 0.450622
0.565255 0.504993 0.449554
0.575436 0.514653 0.446877
0.586208 0.524302 0.442277
0.597639 0.533841 0.435417
0.609799 0.543159 0.425942
0.319913 0.326294 0.461156
0.332434 0.336249 0.459070
0.344500 0.344942 0.456215
0.356120 0.352552 0.452822
0.367306 0.359251 0.449100
0.378073 0.365201 0.445242
0.388436 0.370552 0.441417
0.398415 0.375444 0.437775
0.408028 0.380009 0.434445
0.417299 0.384366 0.431536
0.426253 0.388625 0.429136
0.434915 0.392886 0.427314
0.443314 0.397240 0.426116
0.451482 0.401765 0.425571
0.459451 0.406531 0.425684
0.467256 0.411598 0.426442
0.474934 0.417013 0.427811
0.482525 0.422817 0.429736
0.490069 0.429038 0.432142
0.497610 0.435694 0.434933
0.505194 0.442793 0.437994
0.512867 0.450335 0.441189
0.520680 0.458307 0.444360
0.528684 0.466686 0.447330
0.536933 0.475441 0.449901
0.545483 0.484528 0.451856
0.554392 0.493896 0.452957
0.563719 0.503481 0.452943
0.573528 0.513211 0.451536
0.583882 0.523001 0.448436
0.594848 0.532759 0.443322
0.606493 0.542382 0.435854
0.618890 0.551755 0.425671
0.329266 0.332052 0.459776
0.341611 0.341774 0.457729
0.353506 0.350280 0.454963
0.364963 0.357748 0.451704
0.375993 0.364348 0.448156
0.386611 0.370236 0.444506
0.396834 0.375563 0.440918
0.406681 0.380465 0.437538
0.416172 0.385071 0.434489
0.425330 0.389498 0.431876
0.434181 0.393855 0.429780
0.442752 0.398237 0.428266
0.451071 0.402733 0.427376
0.459170 0.407420 0.427131
0.467083 0.412364 0.427534
0.474845 0.417622 0.428565
0.482493 0.423240 0.430185
0.490068 0.429255 0.432335
0.497610 0.435694 0.434933
0.505165 0.442571 0.437881
0.512777 0.449893 0.441055
0.520496 0.457656 0.444316
0.528370 0.465844 0.447502
0.536453 0.474434 0.450429
0.544798 0.483390 0.452895
0.553462 0.492667 0.454677
0.562503 0.502211 0.455531
0.571983 0.511955 0.455194
0.581963 0.521824 0.453380
0.592509 0.531732 0.449786
0.603687 0.541584 0.444084
0.615567 0.551273 0.435931
0.628219 0.560682 0.424959
0.338441 0.337944 0.458840
0.350620 0.347465 0.456852
0.362355 0.355814 0.454191
0.373658 0.363169 0.451077
0.384542 0.369694 0.447712
0.395022 0.375547 0.444276
0.405116 0.380872 0.440928
0.414842 0.385806 0.437809
0.424222 0.390473 0.435036
0.433280 0.394989 0.432710
0.442041 0.399459 0.430908
0.450532 0.403977 0.429687
0.458784 0.408628 0.429086
0.466828 0.413487 0.429120
0.474699 0.418619 0.429788
0.482431 0.424076 0.431063
0.490064 0.429903 0.432903
0.497638 0.436135 0.435242
0.505194 0.442793 0.437994
0.512777 0.449893 0.441055
0.520435 0.457437 0.444299
0.528214 0.465418 0.447577
0.536166 0.473820 0.450725
0.544344 0.482614 0.453553
0.552803 0.491764 0.455855
0.561599 0.501222 0.457401
0.570791 0.510930 0.457944
0.580441 0.520821 0.457214
0.590612 0.530815 0.454921
0.601368 0.540825 0.450756
0.612779 0.550753 0.444387
0.624912 0.560489 0.435465
0.637839 0.569915 0.423617
0.347478 0.344014 0.458303
0.359499 0.353362 0.456388
0.371084 0.361583 0.453843
0.382244 0.368849 0.450883
0.392993 0.375325 0.447704
0.403347 0.381164 0.444482
0.413323 0.386509 0.441371
0.422940 0.391492 0.438506
0.432222 0.396238 0.436001
0.441191 0.400858 0.433949
0.449875 0.405455 0.432423
0.458301 0.410121 0.431476
0.466499 0.414938 0.431140
0.474502 0.419979 0.431428
0.482344 0.425304 0.432329
0.490062 0.430966 0.433815
0.497694 0.437006 0.435838
0.505282 0.443456 0.438325
0.512867 0.450335 0.441189
0.520496 0.457656 0.444316
0.528214 0.465418 0.447577
0.536071 0.473614 0.450820
0.544119 0.482221 0.453872
0.552409 0.491212 0.456541
0.560999 0.500546 0.458614
0.569945 0.510173 0.459857
0.579306 0.520033 0.460017
0.589145 0.530054 0.458820
0.599526 0.540157 0.455970
0.610513 0.550251 0.451153
0.622175 0.560234 0.444033
0.634581 0.569996 0.434254
0.647805 0.579414 0.421439
0.356416 0.350296 0.458102
0.368291 0.359498 0.456268
0.379736 0.367615 0.453844
0.390764 0.374816 0.451040
0.401389 0.381264 0.448047
0.411628 0.387108 0.445034
0.421497 0.392491 0.442153
0.431019 0.397541 0.439531
0.440214 0.402380 0.437278
0.449109 0.407117 0.435482
0.457728 0.411852 0.434211
0.466102 0.416676 0.433512
0.474261 0.421667 0.433414
0.482237 0.426895 0.433921
0.490066 0.432419 0.435022
0.497784 0.438288 0.436681
0.505432 0.444542 0.438843
0.513049 0.451209 0.441435
0.520680 0.458307 0.444360
0.528370 0.465844 0.447502
0.536166 0.473820 0.450725
0.544119 0.482221 0.453872
0.552279 0.491027 0.456766
0.560700 0.500203 0.459210
0.569439 0.509709 0.460985
0.578554 0.519491 0.461852
0.588103 0.529486 0.461554
0.598151 0.539621 0.459810
0.608760 0.549813 0.456320
0.619998 0.559970 0.450765
0.631932 0.569986 0.442803
0.644633 0.579749 0.432074
0.658174 0.589134 0.418196
0.365298 0.356814 0.458150
0.377037 0.365894 0.456402
0.388353 0.373928 0.454100
0.399261 0.381085 0.451449
0.409774 0.387524 0.448634
0.419909 0.393391 0.445822
0.429686 0.398827 0.443156
0.439124 0.403957 0.440761
0.448247 0.408901 0.438740
0.457080 0.413766 0.437176
0.465649 0.418648 0.436134
0.473985 0.423636 0.435654
0.482119 0.428806 0.435759
0.490083 0.434226 0.436450
0.497914 0.439951 0.437709
0.505649 0.446028 0.439497
0.513327 0.452494 0.441753
0.520991 0.459375 0.444397
0.528684 0.466686 0.447330
0.536453 0.474434 0.450429
0.544344 0.482614 0.453553
0.552409 0.491212 0.456541
0.560700 0.500203 0.459210
0.569271 0.509552 0.461357
0.578178 0.519214 0.462760
0.587480 0.529134 0.463174
0.597238 0.539246 0.462335
0.607513 0.549475 0.459959
0.618372 0.559735 0.455742
0.629880 0.569931 0.449357
0.642107 0.579955 0.440459
0.655124 0.589692 0.428682
0.669004 0.599015 0.413639
0.374168 0.363581 0.458342
0.385782 0.372560 0.456678
0.396982 0.380532 0.454493
0.407781 0.387663 0.451987
0.418194 0.394108 0.449341
0.428239 0.400014 0.446713
0.437935 0.405515 0.444245
0.447304 0.410737 0.442055
0.456368 0.415796 0.440241
0.465153 0.420796 0.438882
0.473687 0.425832 0.438035
0.482000 0.430988 0.437739
0.490124 0.436340 0.438009
0.498092 0.441952 0.438842
0.505940 0.447877 0.440214
0.513707 0.454160 0.442082
0.521433 0.460834 0.444379
0.529161 0.467923 0.447020
0.536933 0.475441 0.449901
0.544798 0.483390 0.452895
0.552803 0.491764 0.455855
0.560999 0.500546 0.458614
0.569439 0.509709 0.460985
0.578178 0.519214 0.462760
0.587273 0.529015 0.463710
0.596782 0.539054 0.463588
0.606768 0.549262 0.462123
0.617292 0.559562 0.459026
0.628420 0.569866 0.453988
0.640221 0.580074 0.446677
0.652762 0.590078 0.436743
0.666117 0.599760 0.423814
0.680357 0.608990 0.407499
0.383073 0.370600 0.458552
0.394574 0.379497 0.456966
0.405669 0.387424 0.454889
0.416372 0.394544 0.452514
0.426698 0.401010 0.450019
0.436666 0.406966 0.447557
0.446296 0.412543 0.445263
0.455608 0.417866 0.443251
0.464627 0.423046 0.441614
0.473380 0.428187 0.440426
0.481894 0.433380 0.439739
0.490199 0.438707 0.439585
0.498328 0.444241 0.439976
0.506316 0.450044 0.440904
0.514199 0.456166 0.442339
0.522015 0.462649 0.444232
0.529806 0.469525 0.446513
0.537613 0.476814 0.449091
0.545483 0.484528 0.451856
0.553462 0.492667 0.454677
0.561599 0.501222 0.457401
0.569945 0.510173 0.459857
0.578554 0.519491 0.461852
0.587480 0.529134 0.463174
0.596782 0.539054 0.463588
0.606519 0.549190 0.462840
0.616753 0.559471 0.460658
0.627547 0.569817 0.456745
0.638967 0.580136 0.450788
0.651080 0.590329 0.442449
0.663958 0.600283 0.431374
0.677672 0.609878 0.417185
0.692297 0.618981 0.399486
0.392061 0.377864 0.458633
0.403461 0.386696 0.457114
0.414464 0.394593 0.455129
0.425084 0.401715 0.452869
0.435337 0.408213 0.450503
0.445242 0.414228 0.448181
0.454819 0.419890 0.446033
0.464089 0.425319 0.444167
0.473079 0.430625 0.442672
0.481813 0.435909 0.441616
0.490322 0.441260 0.441046
0.498636 0.446758 0.440990
0.506787 0.452472 0.441454
0.514811 0.458461 0.442424
0.522745 0.464774 0.443866
0.530628 0.471451 0.445725
0.538500 0.478520 0.447927
0.546407 0.485998 0.450377
0.554392 0.493896 0.452957
0.562503 0.502211 0.455531
0.570791 0.510930 0.457944
0.579306 0.520033 0.460017
0.588103 0.529486 0.461554
0.597238 0.539246 0.462335
0.606768 0.549262 0.462123
0.616753 0.559471 0.460658
0.627256 0.569798 0.457661
