public/luts/tmax100_cc.cube
# Generated from ColorChecker fit
LUT_3D_SIZE 9
DOMAIN_MIN 0.0 0.0 0.0
DOMAIN_MAX 1.0 1.0 1.0
0.090388 0.134596 0.490280
0.154039 0.210943 0.503349
0.209770 0.259151 0.494544
0.258213 0.290821 0.478675
0.300536 0.314954 0.465324
0.338441 0.337944 0.458840
0.374168 0.363581 0.458342
0.410490 0.393050 0.457720
0.450716 0.424933 0.445631
0.154039 0.210943 0.503349
0.213669 0.271070 0.502577
0.265501 0.307358 0.485739
0.310300 0.330760 0.466338
0.349368 0.349624 0.452648
0.384542 0.369694 0.447712
0.418194 0.394108 0.449341
0.453232 0.423401 0.450115
0.493098 0.455503 0.437386
0.209770 0.259151 0.494544
0.265501 0.307358 0.485739
0.313644 0.335595 0.465805
0.355099 0.354162 0.446938
0.391302 0.370758 0.436103
0.424222 0.390473 0.435036
0.456368 0.415796 0.440241
0.490778 0.446610 0.442990
0.531031 0.480194 0.429327
0.258213 0.290821 0.478675
0.310300 0.330760 0.466338
0.355099 0.354162 0.446938
0.393644 0.370678 0.431362
0.427504 0.387353 0.425269
0.458784 0.408628 0.429086
0.490124 0.436340 0.438009
0.524698 0.469722 0.442003
0.566217 0.505400 0.425805
0.300536 0.314954 0.465324
0.349368 0.349624 0.452648
0.391302 0.370758 0.436103
0.427504 0.387353 0.425269
0.459679 0.405805 0.424496
0.490064 0.429903 0.432903
0.521433 0.460834 0.444379
0.557096 0.497178 0.447582
0.600895 0.534912 0.425939
0.338441 0.337944 0.458840
0.384542 0.369694 0.447712
0.424222 0.390473 0.435036
0.458784 0.408628 0.429086
0.490064 0.429903 0.432903
0.520435 0.457437 0.444299
0.552803 0.491764 0.455855
0.590612 0.530815 0.454921
0.637839 0.569915 0.423617
0.374168 0.363581 0.458342
0.418194 0.394108 0.449341
0.456368 0.415796 0.440241
0.490124 0.436340 0.438009
0.521433 0.460834 0.444379
0.552803 0.491764 0.455855
0.587273 0.529015 0.463710
0.628420 0.569866 0.453988
0.680357 0.608990 0.407499
0.410490 0.393050 0.457720
0.453232 0.423401 0.450115
0.490778 0.446610 0.442990
0.524698 0.469722 0.442003
0.557096 0.497178 0.447582
0.590612 0.530815 0.454921
0.628420 0.569866 0.453988
0.674233 0.610958 0.429516
0.732294 0.648114 0.361010
0.450716 0.424933 0.445631
0.493098 0.455503 0.437386
0.531031 0.480194 0.429327
0.566217 0.505400 0.425805
0.600895 0.534912 0.425939
0.637839 0.569915 0.423617
0.680357 0.608990 0.407499
0.732294 0.648114 0.361010
0.798029 0.680660 0.262348
0.154039 0.210943 0.503349
0.213669 0.271070 0.502577
0.265501 0.307358 0.485739
0.310300 0.330760 0.466338
0.349368 0.349624 0.452648
0.384542 0.369694 0.447712
0.418194 0.394108 0.449341
0.453232 0.423401 0.450115
0.493098 0.455503 0.437386
0.213669 0.271070 0.502577
0.269317 0.317234 0.491085
0.317333 0.343646 0.468900
0.358615 0.360605 0.448219
0.394601 0.375809 0.436006
0.427260 0.394350 0.433996
0.459099 0.418716 0.438693
0.493159 0.448790 0.441371
0.533016 0.481851 0.428073
0.265501 0.307358 0.485739
0.317333 0.343646 0.468900
0.361787 0.363832 0.445870
0.399898 0.377565 0.427537
0.433235 0.391891 0.419558
0.463903 0.411252 0.422361
0.494541 0.437483 0.431141
0.528324 0.469818 0.435866
0.568964 0.504885 0.421268
0.310300 0.330760 0.466338
0.358615 0.360605 0.448219
0.399898 0.377565 0.427537
0.435316 0.390637 0.413874
0.466572 0.406217 0.411579
0.495905 0.428095 0.419773
0.526088 0.457456 0.432343
0.560431 0.492882 0.437948
0.602777 0.530349 0.420014
0.349368 0.349624 0.452648
0.394601 0.375809 0.436006
0.433235 0.391891 0.419558
0.466572 0.406217 0.411579
0.496449 0.424532 0.415111
0.525238 0.449973 0.427966
0.555847 0.483076 0.442725
0.591717 0.521770 0.446737
0.636828 0.561382 0.422123
0.384542 0.369694 0.447712
0.427260 0.394350 0.433996
0.463903 0.411252 0.422361
0.495905 0.428095 0.419773
0.525238 0.449973 0.427966
0.554408 0.479373 0.443445
0.586455 0.516178 0.457483
0.624957 0.557669 0.456123
0.674024 0.598518 0.420175
0.418194 0.394108 0.449341
0.459099 0.418716 0.438693
0.494541 0.437483 0.431141
0.526088 0.457456 0.432343
0.555847 0.483076 0.442725
0.586455 0.516178 0.457483
0.621089 0.555997 0.466584
0.663458 0.599159 0.454762
0.717809 0.639687 0.401521
0.453232 0.423401 0.450115
0.493159 0.448790 0.441371
0.528324 0.469818 0.435866
0.560431 0.492882 0.437948
0.591717 0.521770 0.446737
0.624957 0.557669 0.456123
0.663458 0.599159 0.454762
0.711066 0.642217 0.426083
0.772160 0.680216 0.348281
0.493098 0.455503 0.437386
0.533016 0.481851 0.428073
0.568964 0.504885 0.421268
0.602777 0.530349 0.420014
0.636828 0.561382 0.422123
0.674024 0.598518 0.420175
0.717809 0.639687 0.401521
0.772160 0.680216 0.348281
0.841591 0.712826 0.237343
0.209770 0.259151 0.494544
0.265501 0.307358 0.485739
0.313644 0.335595 0.465805
0.355099 0.354162 0.446938
0.391302 0.370758 0.436103
0.424222 0.390473 0.435036
0.456368 0.415796 0.440241
0.490778 0.446610 0.442990
0.531031 0.480194 0.429327
0.265501 0.307358 0.485739
0.317333 0.343646 0.468900
0.361787 0.363832 0.445870
0.399898 0.377565 0.427537
0.433235 0.391891 0.419558
0.463903 0.411252 0.422361
0.494541 0.437483 0.431141
0.528324 0.469818 0.435866
0.568964 0.504885 0.421268
0.313644 0.335595 0.465805
0.361787 0.363832 0.445870
0.402853 0.379400 0.423810
0.438009 0.391298 0.409204
0.468959 0.405921 0.406402
0.497942 0.427059 0.414524
0.527729 0.455896 0.427459
0.561632 0.491016 0.433865
0.603493 0.528394 0.417168
0.355099 0.354162 0.446938
0.399898 0.377565 0.427537
0.438009 0.391298 0.409204
0.470734 0.403710 0.400211
0.499909 0.420544 0.403600
0.527908 0.444939 0.417185
0.557636 0.477429 0.433544
0.592537 0.515945 0.440030
0.636590 0.555813 0.418761
0.391302 0.370758 0.436103
0.433235 0.391891 0.419558
0.468959 0.405921 0.406402
0.499909 0.420544 0.403600
0.528056 0.440852 0.412888
0.555906 0.469334 0.430769
0.586499 0.505872 0.448516
0.623413 0.547746 0.452173
0.670760 0.589630 0.422551
0.424222 0.390473 0.435036
0.463903 0.411252 0.422361
0.497942 0.427059 0.414524
0.527908 0.444939 0.417185
0.555906 0.469334 0.430769
0.584576 0.502080 0.450473
0.617093 0.542410 0.466264
0.657167 0.586952 0.462875
0.709045 0.629729 0.419811
0.456368 0.415796 0.440241
0.494541 0.437483 0.431141
0.527729 0.455896 0.427459
0.557636 0.477429 0.433544
0.586499 0.505872 0.448516
0.617093 0.542410 0.466264
0.652726 0.585625 0.475445
0.697242 0.631494 0.459486
0.755021 0.673388 0.396585
0.490778 0.446610 0.442990
0.528324 0.469818 0.435866
0.561632 0.491016 0.433865
0.592537 0.515945 0.440030
0.623413 0.547746 0.452173
0.657167 0.586952 0.462875
0.697242 0.631494 0.459486
0.747615 0.676697 0.424126
0.812800 0.715283 0.333683
0.531031 0.480194 0.429327
0.568964 0.504885 0.421268
0.603493 0.528394 0.417168
0.636590 0.555813 0.418761
0.670760 0.589630 0.422551
0.709045 0.629729 0.419811
0.755021 0.673388 0.396585
0.812800 0.715283 0.333683
0.887029 0.747482 0.206688
0.258213 0.290821 0.478675
0.310300 0.330760 0.466338
0.355099 0.354162 0.446938
0.393644 0.370678 0.431362
0.427504 0.387353 0.425269
0.458784 0.408628 0.429086
0.490124 0.436340 0.438009
0.524698 0.469722 0.442003
0.566217 0.505400 0.425805
0.310300 0.330760 0.466338
0.358615 0.360605 0.448219
0.399898 0.377565 0.427537
0.435316 0.390637 0.413874
0.466572 0.406217 0.411579
0.495905 0.428095 0.419773
0.526088 0.457456 0.432343
0.560431 0.492882 0.437948
0.602777 0.530349 0.420014
0.355099 0.354162 0.446938
0.399898 0.377565 0.427537
0.438009 0.391298 0.409204
0.470734 0.403710 0.400211
0.499909 0.420544 0.403600
0.527908 0.444939 0.417185
0.557636 0.477429 0.433544
0.592537 0.515945 0.440030
0.636590 0.555813 0.418761
0.393644 0.370678 0.431362
0.435316 0.390637 0.413874
0.470734 0.403710 0.400211
0.501333 0.417593 0.397338
0.529085 0.437378 0.406990
0.556494 0.465553 0.425672
0.586603 0.502002 0.444656
0.622988 0.544004 0.449985
0.669761 0.586233 0.422471
0.427504 0.387353 0.425269
0.466572 0.406217 0.411579
0.499909 0.420544 0.403600
0.529085 0.437378 0.406990
0.556203 0.461160 0.422176
0.583904 0.493729 0.444353
0.615363 0.534315 0.463488
0.654289 0.579546 0.464316
0.704930 0.623447 0.426341
0.458784 0.408628 0.429086
0.495905 0.428095 0.419773
0.527908 0.444939 0.417185
0.556494 0.465553 0.425672
0.583904 0.493729 0.444353
0.612910 0.530651 0.467118
0.646821 0.574901 0.482623
0.689482 0.622455 0.474298
0.745272 0.666687 0.420336
0.490124 0.436340 0.438009
0.526088 0.457456 0.432343
0.557636 0.477429 0.433544
0.586603 0.502002 0.444656
0.615363 0.534315 0.463488
0.646821 0.574901 0.482623
0.684422 0.621690 0.489411
0.732143 0.670010 0.465972
0.794498 0.712580 0.389193
0.524698 0.469722 0.442003
0.560431 0.492882 0.437948
0.592537 0.515945 0.440030
0.622988 0.544004 0.449985
0.654289 0.579546 0.464316
0.689482 0.622455 0.474298
0.732143 0.670010 0.465972
0.786384 0.716885 0.420150
0.856852 0.755150 0.312414
0.566217 0.505400 0.425805
0.602777 0.530349 0.420014
0.636590 0.555813 0.418761
0.669761 0.586233 0.422471
0.704930 0.623447 0.426341
0.745272 0.666687 0.420336
0.794498 0.712580 0.389193
0.856852 0.755150 0.312414
0.937117 0.785816 0.164274
0.300536 0.314954 0.465324
0.349368 0.349624 0.452648
0.391302 0.370758 0.436103
0.427504 0.387353 0.425269
0.459679 0.405805 0.424496
0.490064 0.429903 0.432903
0.521433 0.460834 0.444379
0.557096 0.497178 0.447582
0.600895 0.534912 0.425939
0.349368 0.349624 0.452648
0.394601 0.375809 0.436006
0.433235 0.391891 0.419558
0.466572 0.406217 0.411579
0.496449 0.424532 0.415111
0.525238 0.449973 0.427966
0.555847 0.483076 0.442725
0.591717 0.521770 0.446737
0.636828 0.561382 0.422123
0.391302 0.370758 0.436103
0.433235 0.391891 0.419558
0.468959 0.405921 0.406402
0.499909 0.420544 0.403600
0.528056 0.440852 0.412888
0.555906 0.469334 0.430769
0.586499 0.505872 0.448516
0.623413 0.547746 0.452173
0.670760 0.589630 0.422551
0.427504 0.387353 0.425269
0.466572 0.406217 0.411579
0.499909 0.420544 0.403600
0.529085 0.437378 0.406990
0.556203 0.461160 0.422176
0.583904 0.493729 0.444353
0.615363 0.534315 0.463488
0.654289 0.579546 0.464316
0.704930 0.623447 0.426341
0.459679 0.405805 0.424496
0.496449 0.424532 0.415111
0.528056 0.440852 0.412888
0.556203 0.461160 0.422176
0.583128 0.489247 0.442094
0.611605 0.526297 0.466531
0.644942 0.570892 0.484145
0.686985 0.619008 0.478363
0.742112 0.664019 0.427382
0.490064 0.429903 0.432903
0.525238 0.449973 0.427966
0.555906 0.469334 0.430769
0.583904 0.493729 0.444353
0.611605 0.526297 0.466531
0.641916 0.567573 0.489882
0.678280 0.615487 0.501759
0.724675 0.665364 0.484279
0.785614 0.709926 0.414332
0.521433 0.460834 0.444379
0.555847 0.483076 0.442725
0.586499 0.505872 0.448516
0.615363 0.534315 0.463488
0.644942 0.570892 0.484145
0.678280 0.615487 0.501759
0.718952 0.665378 0.502373
0.771070 0.715241 0.466799
0.839281 0.757146 0.370619
0.557096 0.497178 0.447582
0.591717 0.521770 0.446737
0.623413 0.547746 0.452173
0.654289 0.579546 0.464316
0.686985 0.619008 0.478363
0.724675 0.665364 0.484279
0.771070 0.715241 0.466799
0.830415 0.762664 0.405428
0.907493 0.799051 0.274439
0.600895 0.534912 0.425939
0.636828 0.561382 0.422123
0.670760 0.589630 0.422551
0.704930 0.623447 0.426341
0.742112 0.664019 0.427382
0.785614 0.709926 0.414332
0.839281 0.757146 0.370619
0.907493 0.799051 0.274439
0.995163 0.826408 0.098757
0.338441 0.337944 0.458840
0.384542 0.369694 0.447712
0.424222 0.390473 0.435036
0.458784 0.408628 0.429086
0.490064 0.429903 0.432903
0.520435 0.457437 0.444299
0.552803 0.491764 0.455855
0.590612 0.530815 0.454921
0.637839 0.569915 0.423617
0.384542 0.369694 0.447712
0.427260 0.394350 0.433996
0.463903 0.411252 0.422361
0.495905 0.428095 0.419773
0.525238 0.449973 0.427966
0.554408 0.479373 0.443445
0.586455 0.516178 0.457483
0.624957 0.557669 0.456123
0.674024 0.598518 0.420175
0.424222 0.390473 0.435036
0.463903 0.411252 0.422361
0.497942 0.427059 0.414524
0.527908 0.444939 0.417185
0.555906 0.469334 0.430769
0.584576 0.502080 0.450473
0.617093 0.542410 0.466264
0.657167 0.586952 0.462875
0.709045 0.629729 0.419811
0.458784 0.408628 0.429086
0.495905 0.428095 0.419773
0.527908 0.444939 0.417185
0.556494 0.465553 0.425672
0.583904 0.493729 0.444353
0.612910 0.530651 0.467118
0.646821 0.574901 0.482623
0.689482 0.622455 0.474298
0.745272 0.666687 0.420336
0.490064 0.429903 0.432903
0.525238 0.449973 0.427966
0.555906 0.469334 0.430769
0.583904 0.493729 0.444353
0.611605 0.526297 0.466531
0.641916 0.567573 0.489882
0.678280 0.615487 0.501759
0.724675 0.665364 0.484279
0.785614 0.709926 0.414332
0.520435 0.457437 0.444299
0.554408 0.479373 0.443445
0.584576 0.502080 0.450473
0.612910 0.530651 0.467118
0.641916 0.567573 0.489882
0.674635 0.612730 0.510041
0.714644 0.663400 0.513635
0.766054 0.714260 0.481477
0.833514 0.757377 0.389149
0.552803 0.491764 0.455855
0.586455 0.516178 0.457483
0.617093 0.542410 0.466264
0.646821 0.574901 0.482623
0.678280 0.615487 0.501759
0.714644 0.663400 0.513635
0.759624 0.715270 0.502987
0.817465 0.765119 0.449320
0.892948 0.804366 0.326906
0.590612 0.530815 0.454921
0.624957 0.557669 0.456123
0.657167 0.586952 0.462875
0.689482 0.622455 0.474298
0.724675 0.665364 0.484279
0.766054 0.714260 0.481477
0.817465 0.765119 0.449320
0.883286 0.811314 0.366003
0.968432 0.843613 0.204492
0.637839 0.569915 0.423617
0.674024 0.598518 0.420175
0.709045 0.629729 0.419811
0.745272 0.666687 0.420336
0.785614 0.709926 0.414332
0.833514 0.757377 0.389149
0.892948 0.804366 0.326906
0.968432 0.843613 0.204492
1.000000 0.865236 0.000000
0.374168 0.363581 0.458342
0.418194 0.394108 0.449341
0.456368 0.415796 0.440241
0.490124 0.436340 0.438009
0.521433 0.460834 0.444379
0.552803 0.491764 0.455855
0.587273 0.529015 0.463710
0.628420 0.569866 0.453988
0.680357 0.608990 0.407499
0.418194 0.394108 0.449341
0.459099 0.418716 0.438693
0.494541 0.437483 0.431141
0.526088 0.457456 0.432343
0.555847 0.483076 0.442725
0.586455 0.516178 0.457483
0.621089 0.555997 0.466584
0.663458 0.599159 0.454762
0.717809 0.639687 0.401521
0.456368 0.415796 0.440241
0.494541 0.437483 0.431141
0.527729 0.455896 0.427459
0.557636 0.477429 0.433544
0.586499 0.505872 0.448516
0.617093 0.542410 0.466264
0.652726 0.585625 0.475445
0.697242 0.631494 0.459486
0.755021 0.673388 0.396585
0.490124 0.436340 0.438009
0.526088 0.457456 0.432343
0.557636 0.477429 0.433544
0.586603 0.502002 0.444656
0.615363 0.534315 0.463488
0.646821 0.574901 0.482623
0.684422 0.621690 0.489411
0.732143 0.670010 0.465972
0.794498 0.712580 0.389193
0.521433 0.460834 0.444379
0.555847 0.483076 0.442725
0.586499 0.505872 0.448516
0.615363 0.534315 0.463488
0.644942 0.570892 0.484145
0.678280 0.615487 0.501759
0.718952 0.665378 0.502373
0.771070 0.715241 0.466799
0.839281 0.757146 0.370619
0.552803 0.491764 0.455855
0.586455 0.516178 0.457483
0.617093 0.542410 0.466264
0.646821 0.574901 0.482623
0.678280 0.615487 0.501759
0.714644 0.663400 0.513635
0.759624 0.715270 0.502987
0.817465 0.765119 0.449320
0.892948 0.804366 0.326906
0.587273 0.529015 0.463710
0.621089 0.555997 0.466584
0.652726 0.585625 0.475445
0.684422 0.621690 0.489411
0.718952 0.665378 0.502373
0.759624 0.715270 0.502987
0.810282 0.767342 0.474681
0.875306 0.814968 0.395652
0.959611 0.848914 0.238865
0.628420 0.569866 0.453988
0.663458 0.599159 0.454762
0.697242 0.631494 0.459486
0.732143 0.670010 0.465972
0.771070 0.715241 0.466799
0.817465 0.765119 0.449320
0.875306 0.814968 0.395652
0.949107 0.857509 0.282686
1.000000 0.882860 0.082078
0.680357 0.608990 0.407499
0.717809 0.639687 0.401521
0.755021 0.673388 0.396585
0.794498 0.712580 0.389193
0.839281 0.757146 0.370619
0.892948 0.804366 0.326906
0.959611 0.848914 0.238865
1.000000 0.882860 0.082078
1.000000 0.895671 0.000000
0.410490 0.393050 0.457720
0.453232 0.423401 0.450115
0.490778 0.446610 0.442990
0.524698 0.469722 0.442003
0.557096 0.497178 0.447582
0.590612 0.530815 0.454921
0.628420 0.569866 0.453988
0.674233 0.610958 0.429516
0.732294 0.648114 0.361010
0.453232 0.423401 0.450115
0.493159 0.448790 0.441371
0.528324 0.469818 0.435866
0.560431 0.492882 0.437948
0.591717 0.521770 0.446737
0.624957 0.557669 0.456123
0.663458 0.599159 0.454762
0.711066 0.642217 0.426083
0.772160 0.680216 0.348281
0.490778 0.446610 0.442990
0.528324 0.469818 0.435866
0.561632 0.491016 0.433865
0.592537 0.515945 0.440030
0.623413 0.547746 0.452173
0.657167 0.586952 0.462875
0.697242 0.631494 0.459486
0.747615 0.676697 0.424126
0.812800 0.715283 0.333683
0.524698 0.469722 0.442003
0.560431 0.492882 0.437948
0.592537 0.515945 0.440030
0.622988 0.544004 0.449985
0.654289 0.579546 0.464316
0.689482 0.622455 0.474298
0.732143 0.670010 0.465972
0.786384 0.716885 0.420150
0.856852 0.755150 0.312414
0.557096 0.497178 0.447582
0.591717 0.521770 0.446737
0.623413 0.547746 0.452173
0.654289 0.579546 0.464316
0.686985 0.619008 0.478363
0.724675 0.665364 0.484279
0.771070 0.715241 0.466799
0.830415 0.762664 0.405428
0.907493 0.799051 0.274439
0.590612 0.530815 0.454921
0.624957 0.557669 0.456123
0.657167 0.586952 0.462875
0.689482 0.622455 0.474298
0.724675 0.665364 0.484279
0.766054 0.714260 0.481477
0.817465 0.765119 0.449320
0.883286 0.811314 0.366003
0.968432 0.843613 0.204492
0.628420 0.569866 0.453988
0.663458 0.599159 0.454762
0.697242 0.631494 0.459486
0.732143 0.670010 0.465972
0.771070 0.715241 0.466799
0.817465 0.765119 0.449320
0.875306 0.814968 0.395652
0.949107 0.857509 0.282686
1.000000 0.882860 0.082078
0.674233 0.610958 0.429516
0.711066 0.642217 0.426083
0.747615 0.676697 0.424126
0.786384 0.716885 0.420150
0.830415 0.762664 0.405428
0.883286 0.811314 0.366003
0.949107 0.857509 0.282686
1.000000 0.893320 0.131058
1.000000 0.908212 0.000000
0.732294 0.648114 0.361010
0.772160 0.680216 0.348281
0.812800 0.715283 0.333683
0.856852 0.755150 0.312414
0.907493 0.799051 0.274439
0.968432 0.843613 0.204492
1.000000 0.882860 0.082078
1.000000 0.908212 0.000000
1.000000 0.908481 0.000000
0.450716 0.424933 0.445631
0.493098 0.455503 0.437386
0.531031 0.480194 0.429327
0.566217 0.505400 0.425805
0.600895 0.534912 0.425939
0.637839 0.569915 0.423617
0.680357 0.608990 0.407499
0.732294 0.648114 0.361010
0.798029 0.680660 0.262348
0.493098 0.455503 0.437386
0.533016 0.481851 0.428073
0.568964 0.504885 0.421268
0.602777 0.530349 0.420014
0.636828 0.561382 0.422123
0.674024 0.598518 0.420175
0.717809 0.639687 0.401521
0.772160 0.680216 0.348281
0.841591 0.712826 0.237343
0.531031 0.480194 0.429327
0.568964 0.504885 0.421268
0.603493 0.528394 0.417168
0.636590 0.555813 0.418761
0.670760 0.589630 0.422551
0.709045 0.629729 0.419811
0.755021 0.673388 0.396585
0.812800 0.715283 0.333683
0.887029 0.747482 0.206688
0.566217 0.505400 0.425805
0.602777 0.530349 0.420014
0.636590 0.555813 0.418761
0.669761 0.586233 0.422471
0.704930 0.623447 0.426341
0.745272 0.666687 0.420336
0.794498 0.712580 0.389193
0.856852 0.755150 0.312414
0.937117 0.785816 0.164274
0.600895 0.534912 0.425939
0.636828 0.561382 0.422123
0.670760 0.589630 0.422551
0.704930 0.623447 0.426341
0.742112 0.664019 0.427382
0.785614 0.709926 0.414332
0.839281 0.757146 0.370619
0.907493 0.799051 0.274439
0.995163 0.826408 0.098757
0.637839 0.569915 0.423617
0.674024 0.598518 0.420175
0.709045 0.629729 0.419811
0.745272 0.666687 0.420336
0.785614 0.709926 0.414332
0.833514 0.757377 0.389149
0.892948 0.804366 0.326906
0.968432 0.843613 0.204492
1.000000 0.865236 0.000000
0.680357 0.608990 0.407499
0.717809 0.639687 0.401521
0.755021 0.673388 0.396585
0.794498 0.712580 0.389193
0.839281 0.757146 0.370619
0.892948 0.804366 0.326906
0.959611 0.848914 0.238865
1.000000 0.882860 0.082078
1.000000 0.895671 0.000000
0.732294 0.648114 0.361010
0.772160 0.680216 0.348281
0.812800 0.715283 0.333683
0.856852 0.755150 0.312414
0.907493 0.799051 0.274439
0.968432 0.843613 0.204492
1.000000 0.882860 0.082078
1.000000 0.908212 0.000000
1.000000 0.908481 0.000000
0.798029 0.680660 0.262348
0.841591 0.712826 0.237343
0.887029 0.747482 0.206688
0.937117 0.785816 0.164274
0.995163 0.826408 0.098757
1.000000 0.865236 0.000000
1.000000 0.895671 0.000000
1.000000 0.908481 0.000000
1.000000 0.891831 0.000000
