public/luts/vision3_50d.cube
# Generated from ColorChecker fit
LUT_3D_SIZE 33
DOMAIN_MIN 0.0 0.0 0.0
DOMAIN_MAX 1.0 1.0 1.0
0.178296 0.000000 0.088832
0.164267 0.000000 0.084777
0.152904 0.000000 0.082423
0.143497 0.002856 0.081169
0.135420 0.015274 0.080518
0.128135 0.028608 0.080076
0.121188 0.043047 0.079552
0.114213 0.058735 0.078763
0.106930 0.075770 0.077624
0.099143 0.094202 0.076157
0.090744 0.114037 0.074488
0.081711 0.135234 0.072845
0.072106 0.157706 0.071561
0.062081 0.181320 0.071073
0.051870 0.205896 0.071920
0.041795 0.231209 0.074747
0.032264 0.256987 0.080301
0.023771 0.282912 0.089433
0.016896 0.308621 0.103098
0.012305 0.333702 0.122356
0.010750 0.357701 0.148368
0.013069 0.380113 0.182402
0.020186 0.400392 0.225826
0.033113 0.417942 0.280116
0.052944 0.432122 0.346848
0.080863 0.442245 0.427703
0.118139 0.447579 0.524468
0.166125 0.447343 0.639029
0.226262 0.440713 0.773381
0.300077 0.426816 0.929619
0.389183 0.404736 1.000000
0.495279 0.373507 1.000000
0.620150 0.332121 1.000000
0.134068 0.002095 0.095614
0.122818 0.009810 0.092962
0.114022 0.017694 0.091716
0.106968 0.026072 0.091269
0.101035 0.035224 0.091114
0.095685 0.045384 0.090852
0.090465 0.056739 0.090185
0.085011 0.069431 0.088920
0.079043 0.083556 0.086967
0.072369 0.099161 0.084340
0.064881 0.116250 0.081156
0.056557 0.134781 0.077638
0.047464 0.154663 0.074110
0.037751 0.175762 0.071002
0.027657 0.197896 0.068847
0.017504 0.220836 0.068279
0.007701 0.244309 0.070041
0.000000 0.267996 0.074976
0.000000 0.291529 0.084031
0.000000 0.314497 0.098258
0.000000 0.336441 0.118812
0.000000 0.356856 0.146952
0.000000 0.375192 0.184041
0.001348 0.390851 0.231545
0.019410 0.403192 0.291034
0.045379 0.411523 0.364182
0.080525 0.415111 0.452766
0.126204 0.413173 0.558669
0.183858 0.404883 0.683874
0.255014 0.389365 0.830471
0.341288 0.365701 1.000000
0.444379 0.332923 1.000000
0.566073 0.290021 1.000000
0.095310 0.035624 0.100830
0.086977 0.040035 0.099848
0.080877 0.044708 0.099980
0.076300 0.049968 0.100611
0.072625 0.056092 0.101228
0.069315 0.063311 0.101424
0.065920 0.071812 0.100893
0.062077 0.081733 0.099434
0.057507 0.093167 0.096951
0.052019 0.106162 0.093451
0.045508 0.120718 0.089043
0.037952 0.136789 0.083941
0.029419 0.154285 0.078464
0.020062 0.173068 0.073033
0.010118 0.192953 0.068174
0.000000 0.213711 0.064515
0.000000 0.235065 0.062789
0.000000 0.256694 0.063833
0.000000 0.278230 0.068587
0.000000 0.299257 0.078096
0.000000 0.319314 0.093506
0.000000 0.337896 0.116069
0.000000 0.354449 0.147142
0.000000 0.368373 0.188181
0.000000 0.379025 0.240751
0.016414 0.385711 0.306518
0.049369 0.387696 0.387252
0.092670 0.384194 0.484827
0.147762 0.374376 0.601220
0.216173 0.357366 0.738513
0.299520 0.332243 0.898891
0.399503 0.298037 1.000000
0.517912 0.253734 1.000000
0.062228 0.069605 0.104721
0.056934 0.070950 0.105684
0.053643 0.072647 0.107472
0.051648 0.075019 0.109462
0.050327 0.078341 0.111134
0.049147 0.082842 0.112072
0.047659 0.088705 0.111964
0.045499 0.096068 0.110602
0.042393 0.105022 0.107883
0.038149 0.115610 0.103803
0.032662 0.127832 0.098468
0.025916 0.141640 0.092083
0.017977 0.156940 0.084960
0.008999 0.173593 0.077511
0.000000 0.191413 0.070255
0.000000 0.210167 0.063815
0.000000 0.229576 0.058914
0.000000 0.249318 0.056382
0.000000 0.269020 0.057153
0.000000 0.288266 0.062262
0.000000 0.306594 0.072851
0.000000 0.323494 0.090163
0.000000 0.338412 0.115546
0.000000 0.350745 0.150451
0.000000 0.359846 0.196434
0.000000 0.365022 0.255155
0.024436 0.365533 0.328375
0.065273 0.360593 0.417962
0.117707 0.349370 0.525885
0.183270 0.330986 0.654219
0.263579 0.304516 0.805141
0.360336 0.268989 0.980933
0.475332 0.223390 1.000000
0.034972 0.104492 0.107498
0.032821 0.102997 0.110690
0.032435 0.101942 0.114419
0.033109 0.101644 0.118056
0.034224 0.102378 0.121073
0.035246 0.104370 0.123047
0.035728 0.107802 0.123658
0.035309 0.112808 0.122692
0.033713 0.119477 0.120036
0.030753 0.127851 0.115682
0.026324 0.137927 0.109725
0.020411 0.149655 0.102365
0.013082 0.162940 0.093905
0.004492 0.177638 0.084751
0.000000 0.193562 0.075415
0.000000 0.210478 0.066510
0.000000 0.228105 0.058755
0.000000 0.246116 0.052971
0.000000 0.264138 0.050084
0.000000 0.281753 0.051122
0.000000 0.298495 0.057219
0.000000 0.313854 0.069612
0.000000 0.327272 0.089641
0.000000 0.338144 0.118750
0.000000 0.345823 0.158487
0.000000 0.349611 0.210504
0.005435 0.348767 0.276556
0.043704 0.342502 0.358502
0.093369 0.329983 0.458305
0.155964 0.310329 0.578032
0.233107 0.282614 0.719854
0.326502 0.245864 0.886043
0.437940 0.199061 1.000000
0.013630 0.140680 0.109342
0.014709 0.136562 0.115054
0.017308 0.132964 0.121019
0.020724 0.130203 0.126599
0.024337 0.128551 0.131260
0.027616 0.128233 0.134571
0.030116 0.129426 0.136206
0.031476 0.132264 0.135941
0.031423 0.136833 0.133657
0.029770 0.143174 0.129339
0.026414 0.151280 0.123074
0.021341 0.161100 0.115055
0.014621 0.172535 0.105578
0.006411 0.185442 0.095041
0.000000 0.199630 0.083947
0.000000 0.214861 0.072905
0.000000 0.230855 0.062623
0.000000 0.247281 0.053918
0.000000 0.263765 0.047705
0.000000 0.279885 0.045009
0.000000 0.295174 0.046953
0.000000 0.309119 0.054768
0.000000 0.321161 0.069786
0.000000 0.330693 0.093445
0.000000 0.337063 0.127284
0.000000 0.339574 0.172947
0.000000 0.337481 0.232184
0.027597 0.329994 0.306846
0.074365 0.316277 0.398888
0.133855 0.295446 0.510369
0.207686 0.266574 0.643452
0.297566 0.228685 0.800404
0.405286 0.180758 0.983596
0.000000 0.178508 0.110406
0.002614 0.171969 0.118938
0.008260 0.166028 0.127440
0.014471 0.160999 0.135268
0.020629 0.157151 0.141880
0.026204 0.154707 0.146837
0.030752 0.153843 0.149807
0.033914 0.154690 0.150557
0.035418 0.157332 0.148963
0.035078 0.161808 0.145000
0.032794 0.168108 0.138749
0.028552 0.176179 0.130395
0.022424 0.185921 0.120227
0.014567 0.197187 0.108635
0.005227 0.209785 0.096116
0.000000 0.223475 0.083270
0.000000 0.237973 0.070799
0.000000 0.252948 0.059511
0.000000 0.268022 0.050315
0.000000 0.282772 0.044228
0.000000 0.296729 0.042366
0.000000 0.309377 0.045951
0.000000 0.320154 0.056310
0.000000 0.328452 0.074872
0.000000 0.333617 0.103169
0.000000 0.334950 0.142839
0.000000 0.331702 0.195622
0.016528 0.323083 0.263363
0.060251 0.308253 0.348009
0.116482 0.286327 0.451613
0.186841 0.256375 0.576329
0.273036 0.217419 0.724418
0.376860 0.168436 0.898243
0.000000 0.218254 0.110812
0.000000 0.209486 0.122470
0.005229 0.201388 0.133820
0.014273 0.194273 0.144208
0.023006 0.188408 0.153086
0.030898 0.184013 0.160007
0.037507 0.181261 0.164631
0.042477 0.180283 0.166720
0.045535 0.181159 0.166139
0.046498 0.183925 0.162859
0.045267 0.188571 0.156952
0.041829 0.195042 0.148595
0.036258 0.203233 0.138070
0.028713 0.212998 0.125761
0.019440 0.224140 0.112157
0.008770 0.236418 0.097849
0.000000 0.249547 0.083533
0.000000 0.263191 0.070009
0.000000 0.276973 0.058180
0.000000 0.290466 0.049054
0.000000 0.303199 0.043740
0.000000 0.314654 0.043453
0.000000 0.324266 0.049512
0.000000 0.331426 0.063339
0.000000 0.335478 0.086459
0.000000 0.335718 0.120501
0.000000 0.331398 0.167200
0.010011 0.321725 0.228392
0.050528 0.305855 0.306017
0.103330 0.282904 0.402120
0.170037 0.251937 0.518849
0.252360 0.211975 0.658456
0.352093 0.161992 0.823297
0.000000 0.260141 0.110652
0.000000 0.249323 0.125753
0.008096 0.239243 0.140268
0.019993 0.230213 0.153537
0.031313 0.222496 0.165003
0.041527 0.216311 0.174214
0.050195 0.211830 0.180821
0.056960 0.209178 0.184578
0.061554 0.208437 0.185344
0.063792 0.209638 0.183081
0.063579 0.212771 0.177855
0.060902 0.217776 0.169837
0.055836 0.224549 0.159298
0.048543 0.232938 0.146617
0.039269 0.242747 0.132275
0.028348 0.253733 0.116855
0.016198 0.265606 0.101047
0.003325 0.278030 0.085643
0.000000 0.290625 0.071538
0.000000 0.302962 0.059732
0.000000 0.314567 0.051329
0.000000 0.324920 0.047535
0.000000 0.333456 0.049662
0.000000 0.339561 0.059123
0.000000 0.342577 0.077438
0.000000 0.341800 0.106229
0.000000 0.336479 0.147220
0.007505 0.325817 0.202243
0.044637 0.308970 0.273229
0.093820 0.285050 0.362216
0.156681 0.253121 0.471345
0.234928 0.212201 0.602860
0.330359 0.161263 0.759110
0.000000 0.304330 0.109990
0.001686 0.291630 0.128857
0.016681 0.279732 0.146863
0.031436 0.268944 0.163341
0.045338 0.259530 0.177727
0.057862 0.251705 0.189561
0.068568 0.245640 0.198486
0.077101 0.241457 0.204250
0.083193 0.239234 0.206704
0.086663 0.239004 0.205802
0.087415 0.240751 0.201604
0.085438 0.244414 0.194271
0.080810 0.249887 0.184070
0.073692 0.257017 0.171370
0.064334 0.265604 0.156645
0.053068 0.275402 0.140472
0.040317 0.286122 0.123532
0.026586 0.297423 0.106611
0.012469 0.308924 0.090595
0.000000 0.320193 0.076479
0.000000 0.330755 0.065356
0.000000 0.340088 0.058429
0.000000 0.347622 0.056998
0.000000 0.352744 0.062473
0.000000 0.354793 0.076364
0.000000 0.353061 0.100285
0.000000 0.346796 0.135955
0.008409 0.335199 0.185196
0.041958 0.317425 0.249933
0.087320 0.292581 0.332198
0.146121 0.259731 0.434122
0.220072 0.217890 0.557943
0.310972 0.166029 0.706002
0.000000 0.350928 0.108859
0.012625 0.336500 0.131823
0.030748 0.322934 0.153655
0.048347 0.310536 0.173679
0.064811 0.299567 0.191324
0.079615 0.290240 0.206122
0.092322 0.282723 0.217709
0.102577 0.277138 0.225827
0.110115 0.273560 0.230317
0.114755 0.272018 0.231128
0.116403 0.272495 0.228311
0.115050 0.274928 0.222020
0.110774 0.279209 0.212515
0.103738 0.285182 0.200157
0.094193 0.292645 0.185414
0.082474 0.301352 0.168854
0.069004 0.311007 0.151151
0.054290 0.321271 0.133084
0.038927 0.331759 0.115531
0.023595 0.342038 0.099480
0.009059 0.351629 0.086018
0.000000 0.360009 0.076337
0.000000 0.366606 0.071733
0.000000 0.370804 0.073607
0.000000 0.371940 0.083462
0.000000 0.369305 0.102904
0.000000 0.362143 0.133646
0.012063 0.349653 0.177501
0.041816 0.330989 0.236389
0.083135 0.305255 0.312331
0.137646 0.271513 0.407454
0.207064 0.228775 0.523987
0.293187 0.176011 0.664263
0.007421 0.399980 0.107263
0.028771 0.383967 0.134665
0.050000 0.368873 0.160664
0.070413 0.355000 0.184578
0.089401 0.342606 0.205829
0.106440 0.331903 0.223941
0.121093 0.323056 0.238543
0.133009 0.316186 0.249368
0.141923 0.311364 0.256252
0.147655 0.308619 0.259134
0.150112 0.307930 0.258060
0.149288 0.309234 0.253176
0.145262 0.312418 0.244734
0.138199 0.317325 0.233088
0.128349 0.323751 0.218698
0.116051 0.331447 0.202125
0.101728 0.340117 0.184037
0.085889 0.349418 0.165202
0.069130 0.358962 0.146495
0.052132 0.368315 0.128893
0.035663 0.376996 0.113477
0.020576 0.384479 0.101432
0.007813 0.390191 0.094047
0.000000 0.393513 0.092713
0.000000 0.393779 0.098929
0.000000 0.390278 0.114292
0.001791 0.382254 0.140507
0.017748 0.368902 0.179381
0.043475 0.349373 0.232825
0.080512 0.322770 0.302854
0.130489 0.288153 0.391586
0.195119 0.244532 0.501245
0.276203 0.190873 0.634155
0.025069 0.451474 0.105176
0.049787 0.434009 0.137363
0.074084 0.417512 0.167880
0.097264 0.402286 0.196037
0.118721 0.388586 0.221249
0.137932 0.376620 0.243032
0.154460 0.366554 0.261009
0.167958 0.358503 0.274904
0.178160 0.352539 0.284546
0.184889 0.348687 0.289869
0.188053 0.346926 0.290907
0.187647 0.347187 0.287803
0.183752 0.349357 0.280798
0.176533 0.353278 0.270241
0.166245 0.358742 0.256584
0.153224 0.365498 0.240381
0.137897 0.373248 0.222291
0.120773 0.381647 0.203076
0.102451 0.390304 0.183604
0.083613 0.398785 0.164843
0.065027 0.406605 0.147868
0.047550 0.413235 0.133857
0.032122 0.418101 0.124090
0.019770 0.420582 0.119952
0.011609 0.420010 0.122932
0.008837 0.415671 0.134623
0.012740 0.406806 0.156721
0.024689 0.392610 0.191025
0.046142 0.372230 0.239440
0.078643 0.344768 0.303973
0.123821 0.309280 0.386734
0.183392 0.264776 0.489940
0.259158 0.210219 0.615908
0.047238 0.505340 0.102543
0.075278 0.486542 0.139871
0.102586 0.468759 0.175264
0.128470 0.452290 0.208025
0.152323 0.437389 0.237560
0.173626 0.424264 0.263381
0.191942 0.413075 0.285100
0.206925 0.403937 0.302436
0.218312 0.396920 0.315210
0.225926 0.392046 0.323347
0.229677 0.389291 0.326877
0.229562 0.388585 0.325932
0.225661 0.389814 0.320748
0.218144 0.392815 0.311666
0.207264 0.397379 0.299129
0.193361 0.403254 0.283686
0.176861 0.410138 0.265987
0.158278 0.417684 0.246789
0.138208 0.425501 0.226948
0.117337 0.433150 0.207430
0.096435 0.440145 0.189299
0.076359 0.445955 0.173725
0.058051 0.450003 0.161984
0.042539 0.451666 0.155451
0.030940 0.450275 0.155609
0.024452 0.445113 0.164043
0.024364 0.435418 0.182441
0.032049 0.420384 0.212596
0.048964 0.399155 0.256404
0.076656 0.370831 0.315866
0.116755 0.334466 0.393084
0.170980 0.289067 0.490267
0.241132 0.233596 0.609726
0.073492 0.561451 0.099279
0.104788 0.541426 0.142112
0.135034 0.522459 0.182747
0.163541 0.504847 0.220480
0.189703 0.488840 0.254711
0.213000 0.474644 0.284942
0.233000 0.462419 0.310780
0.249356 0.452276 0.331935
0.261806 0.444282 0.348222
0.270177 0.438457 0.359558
0.274378 0.434777 0.365964
0.274408 0.433169 0.367567
0.270350 0.433515 0.364595
0.262373 0.435651 0.357381
0.250732 0.439367 0.346361
0.235770 0.444407 0.332076
0.217914 0.450467 0.315170
0.197677 0.457199 0.296390
0.175659 0.464208 0.276588
0.152547 0.471054 0.256720
0.129112 0.477248 0.237843
0.106211 0.482259 0.221121
0.084790 0.485505 0.207821
0.065877 0.486363 0.199312
0.050590 0.484159 0.197069
0.040131 0.478176 0.202668
0.035787 0.467650 0.217792
0.038934 0.451771 0.244226
0.051031 0.429683 0.283858
0.073625 0.400483 0.338681
0.108348 0.363221 0.410792
0.156920 0.316905 0.502390
0.221146 0.260492 0.615779
0.103334 0.619619 0.095270
0.137804 0.598464 0.143979
0.170900 0.578404 0.190230
0.201931 0.559734 0.233312
0.230296 0.542704 0.272618
0.255474 0.527516 0.307641
0.277036 0.514327 0.337982
0.294635 0.503247 0.363343
0.308011 0.494342 0.383532
0.316992 0.487628 0.398458
0.321490 0.483079 0.408135
0.321504 0.480620 0.412683
0.317118 0.480131 0.412321
0.308503 0.481446 0.407377
0.295917 0.484352 0.398278
0.279702 0.488591 0.385557
0.260286 0.493857 0.369852
0.238187 0.499800 0.351903
0.214003 0.506023 0.332553
0.188424 0.512083 0.312751
0.162221 0.517490 0.293548
0.136255 0.521708 0.276099
0.111471 0.524157 0.261664
0.088900 0.524208 0.251605
0.069659 0.521187 0.247388
0.054954 0.514375 0.250585
0.046073 0.503004 0.262868
0.044391 0.486263 0.286017
0.051372 0.463293 0.321911
0.068562 0.433189 0.372537
0.097596 0.395001 0.439983
0.140194 0.347732 0.526443
0.198162 0.290338 0.634212
0.136208 0.679599 0.090371
0.173754 0.657397 0.145336
0.209592 0.636323 0.197586
0.243035 0.616671 0.246402
0.273479 0.598688 0.291169
0.300408 0.582573 0.331374
0.323393 0.568483 0.366611
0.342088 0.556524 0.396573
0.356236 0.546760 0.421060
0.365665 0.539206 0.439976
0.370289 0.533832 0.453326
0.370108 0.530562 0.461223
0.365208 0.529273 0.463879
0.355761 0.529798 0.461613
0.342026 0.531921 0.454847
0.324347 0.535381 0.444106
0.303155 0.539872 0.430019
0.278965 0.545040 0.413320
0.252381 0.550486 0.394844
0.224092 0.555764 0.375532
0.194871 0.560384 0.356429
0.165581 0.563807 0.338683
0.137167 0.565450 0.323544
0.110662 0.564682 0.312369
0.087186 0.560828 0.306617
0.067944 0.553164 0.307850
0.054226 0.540923 0.317734
0.047410 0.523290 0.338042
0.048960 0.499405 0.370645
0.060424 0.468359 0.417523
0.083437 0.429201 0.480757
0.119723 0.380931 0.562531
0.171087 0.322504 0.665136
0.171501 0.741089 0.084409
0.212008 0.717911 0.146017
0.250466 0.695890 0.204656
0.286187 0.675319 0.259599
0.318572 0.656441 0.310223
0.347105 0.639454 0.356008
0.371356 0.624511 0.396540
0.390985 0.611719 0.431505
0.405733 0.601137 0.460697
0.415431 0.592779 0.484010
0.419993 0.586612 0.501444
0.419421 0.582559 0.513102
0.413803 0.580495 0.519191
0.403313 0.580248 0.520022
0.388210 0.581602 0.516009
0.368840 0.584295 0.507669
0.345634 0.588016 0.495625
0.319112 0.592410 0.480603
0.289876 0.597077 0.463431
0.258617 0.601568 0.445043
0.226111 0.605389 0.426475
0.193220 0.608001 0.408868
0.160892 0.608818 0.393466
0.130163 0.607207 0.381617
0.102151 0.602490 0.374773
0.078064 0.593942 0.374490
0.059195 0.580794 0.382425
0.046921 0.562227 0.400344
0.042707 0.537379 0.430111
0.048105 0.505342 0.473698
0.064751 0.465159 0.533179
0.094367 0.415829 0.610731
0.138764 0.356305 0.708636
0.208541 0.803727 0.077179
0.251876 0.779632 0.145827
0.292813 0.756720 0.211254
0.330665 0.735280 0.272724
0.364834 0.715553 0.329609
0.394806 0.697736 0.381380
0.420153 0.681980 0.427615
0.440534 0.668387 0.467994
0.455694 0.657016 0.502303
0.465464 0.647878 0.530429
0.469760 0.640939 0.552365
0.468585 0.636119 0.568206
0.462029 0.633290 0.578151
0.450267 0.632279 0.582503
0.433559 0.632868 0.581671
0.412253 0.634791 0.576164
0.386782 0.637737 0.566596
0.357666 0.641347 0.553686
0.325510 0.645220 0.538256
0.291005 0.648904 0.521232
0.254928 0.651904 0.503642
0.218145 0.653677 0.486620
0.181604 0.653635 0.471402
0.146340 0.651145 0.459330
0.113477 0.645525 0.451848
0.084221 0.636048 0.450503
0.059867 0.621942 0.456947
0.041794 0.602388 0.472937
0.031469 0.576520 0.500331
0.030444 0.543428 0.541092
0.040357 0.502153 0.597287
0.062932 0.451692 0.671087
0.099981 0.390996 0.764765
0.246597 0.867094 0.068449
0.292611 0.842130 0.144541
0.335870 0.818369 0.217162
0.375688 0.796099 0.285569
0.411468 0.775558 0.349125
0.442697 0.756941 0.407296
0.468950 0.740395 0.459651
0.489886 0.726024 0.505863
0.505253 0.713881 0.545711
0.514881 0.703976 0.579074
0.518690 0.696273 0.605937
0.516683 0.690690 0.626388
0.508952 0.687096 0.640621
0.495672 0.685316 0.648929
0.477106 0.685130 0.651714
0.453603 0.686270 0.649477
0.425598 0.688423 0.642827
0.393610 0.691228 0.632473
0.358248 0.694279 0.619231
0.320204 0.697125 0.604019
0.280256 0.699268 0.587858
0.239271 0.700163 0.571874
0.198198 0.699220 0.557297
0.158076 0.695801 0.545460
0.120026 0.689225 0.537799
0.085260 0.678762 0.535857
0.055072 0.663637 0.541276
0.030843 0.643030 0.555805
0.014041 0.616072 0.581296
0.006220 0.581850 0.619704
0.009019 0.539405 0.673090
0.024163 0.487730 0.743615
0.053466 0.425774 0.833547
0.284880 0.930710 0.057957
0.333407 0.904913 0.141905
0.378813 0.880335 0.222134
0.420414 0.857261 0.297894
0.457615 0.835929 0.368541
0.489904 0.816530 0.433533
0.516856 0.799209 0.492433
0.538134 0.784068 0.544905
0.553485 0.771158 0.590720
0.562742 0.760487 0.629752
0.565825 0.752017 0.661977
0.562740 0.745662 0.687477
0.553579 0.741290 0.706435
0.538520 0.738725 0.719141
0.517826 0.737744 0.725986
0.491847 0.738075 0.727467
0.461021 0.739404 0.724183
0.425868 0.741369 0.716838
0.386998 0.743561 0.706237
0.345104 0.745527 0.693294
0.300966 0.746766 0.679020
0.255452 0.746730 0.664537
0.209514 0.744829 0.651064
0.164190 0.740422 0.639928
0.120605 0.732825 0.632559
0.079970 0.721307 0.630490
0.043581 0.705090 0.635357
0.012822 0.683352 0.648902
0.000000 0.655221 0.672969
0.000000 0.619784 0.709506
0.000000 0.576077 0.760566
0.000000 0.523093 0.828303
0.000000 0.459778 0.914977
0.322540 0.994041 0.045410
0.373398 0.967434 0.137634
0.420760 0.942058 0.225893
0.463946 0.918196 0.309432
0.502361 0.896082 0.387598
0.535494 0.875907 0.459841
0.562923 0.857813 0.525717
0.584311 0.841899 0.584884
0.599407 0.828216 0.637105
0.608046 0.816768 0.682245
0.610148 0.807514 0.720274
0.605722 0.800367 0.751266
0.594860 0.795194 0.775398
0.577742 0.791815 0.792951
0.554633 0.790004 0.804310
0.525884 0.789490 0.809963
0.491933 0.789954 0.810502
0.453304 0.791032 0.806624
0.410606 0.792315 0.799128
0.364535 0.793345 0.788917
0.315873 0.793620 0.776999
0.265487 0.792591 0.764484
0.214332 0.789663 0.752588
0.163448 0.784196 0.742628
0.113960 0.775502 0.736027
0.067081 0.762847 0.734311
0.024108 0.745453 0.739108
0.000000 0.722494 0.752154
0.000000 0.693097 0.775283
0.000000 0.656345 0.810438
0.000000 0.611274 0.859664
0.000000 0.556874 0.925107
0.000000 0.492088 1.000000
0.358673 1.000000 0.030486
0.411661 1.000000 0.131413
0.460772 1.000000 0.228134
0.505326 0.978272 0.319885
0.544731 0.955375 0.406004
0.578476 0.934418 0.485937
0.606142 0.915541 0.559230
0.627393 0.898840 0.625535
0.641978 0.884364 0.684606
0.649734 0.872115 0.736302
0.650584 0.862050 0.780586
0.644536 0.854080 0.817523
0.631685 0.848068 0.847284
0.612212 0.843834 0.870142
0.586384 0.841150 0.886475
0.554552 0.839740 0.896762
0.517157 0.839285 0.901590
0.474724 0.839419 0.901647
0.427862 0.839729 0.897725
0.377270 0.839757 0.890720
0.323731 0.838997 0.881632
0.268114 0.836899 0.871564
0.211374 0.832866 0.861724
0.154553 0.826253 0.853423
0.098777 0.816373 0.848075
0.045262 0.802489 0.847199
0.000000 0.783820 0.852416
0.000000 0.759538 0.865454
0.000000 0.728769 0.888142
0.000000 0.690593 0.922412
0.000000 0.644043 0.970303
0.000000 0.588107 1.000000
0.000000 0.521726 1.000000
0.392312 1.000000 0.012833
0.447213 1.000000 0.122901
0.497848 1.000000 0.228522
0.543538 1.000000 0.328925
0.583692 1.000000 0.423442
0.617801 0.991350 0.511510
0.645447 0.971668 0.592669
0.666295 0.954154 0.666562
0.680096 0.938854 0.732937
0.686689 0.925768 0.791646
0.685997 0.914853 0.842642
0.678031 0.906015 0.885986
0.662887 0.899117 0.921839
0.640746 0.893975 0.950467
0.611877 0.890360 0.972241
0.576634 0.887993 0.987635
0.535458 0.886554 0.997225
0.488875 0.885673 1.000000
0.437497 0.884937 1.000000
0.382023 0.883883 0.998504
0.323238 0.882005 0.992729
0.262012 0.878750 0.985594
0.199302 0.873519 0.978298
0.136151 0.865666 0.972145
0.073688 0.854499 0.968543
0.013127 0.839281 0.969003
0.000000 0.819227 0.975139
0.000000 0.793509 0.988670
0.000000 0.761249 1.000000
0.000000 0.721526 1.000000
0.000000 0.673370 1.000000
0.000000 0.615767 1.000000
0.000000 0.547657 1.000000
0.422434 1.000000 0.000000
0.479015 1.000000 0.111723
0.530932 1.000000 0.226691
0.577508 1.000000 0.336195
0.618152 1.000000 0.439561
0.652360 1.000000 0.536219
0.679712 1.000000 0.625700
0.699875 1.000000 0.707640
0.712603 0.990878 0.781781
0.717735 0.976910 0.847966
0.715196 0.965092 0.906142
0.704998 0.955330 0.956360
0.687237 0.947486 0.998777
0.662099 0.941372 1.000000
0.629852 0.936755 1.000000
0.590852 0.933359 1.000000
0.545541 0.930857 1.000000
0.494446 0.928880 1.000000
0.438182 0.927010 1.000000
0.377449 0.924784 1.000000
0.313031 0.921693 1.000000
0.245803 0.917182 1.000000
0.176721 0.910649 1.000000
0.106830 0.901446 1.000000
0.037261 0.888880 1.000000
0.000000 0.872211 1.000000
0.000000 0.850652 1.000000
0.000000 0.823372 1.000000
0.000000 0.789491 1.000000
0.000000 0.748086 1.000000
0.000000 0.698186 1.000000
0.000000 0.638773 1.000000
0.000000 0.568786 1.000000
0.447956 1.000000 0.000000
0.505965 1.000000 0.097478
0.558906 1.000000 0.222246
0.606102 1.000000 0.341309
0.646963 1.000000 0.453984
0.680986 1.000000 0.559693
0.707753 1.000000 0.657961
0.726933 1.000000 0.748416
0.738281 1.000000 0.830792
0.741637 1.000000 0.904924
0.736928 1.000000 0.970754
0.724167 1.000000 1.000000
0.703452 0.992261 1.000000
0.674970 0.985098 1.000000
0.638990 0.979400 1.000000
0.595870 0.974888 1.000000
0.546053 0.971235 1.000000
0.490068 0.968066 1.000000
0.428531 0.964965 1.000000
0.362143 0.961464 1.000000
0.291691 0.957053 1.000000
0.218049 0.951174 1.000000
0.142176 0.943223 1.000000
0.065119 0.932550 1.000000
0.000000 0.918461 1.000000
0.000000 0.900211 1.000000
0.000000 0.877013 1.000000
0.000000 0.848033 1.000000
0.000000 0.812390 1.000000
0.000000 0.769157 1.000000
0.000000 0.717362 1.000000
0.000000 0.655985 1.000000
0.000000 0.583960 1.000000
0.467737 1.000000 0.000000
0.526908 1.000000 0.079732
0.580596 1.000000 0.214764
0.628128 1.000000 0.343851
0.668914 1.000000 0.466302
0.702453 1.000000 0.581533
0.728328 1.000000 0.689059
0.746209 1.000000 0.788504
0.755853 1.000000 0.879593
0.757102 1.000000 0.962153
0.749884 1.000000 1.000000
0.734212 1.000000 1.000000
0.710188 1.000000 1.000000
0.677997 1.000000 1.000000
0.637913 1.000000 1.000000
0.590293 1.000000 1.000000
0.535583 1.000000 1.000000
0.474312 1.000000 1.000000
0.407098 0.997757 1.000000
0.334644 0.992867 1.000000
0.257738 0.987016 1.000000
0.177254 0.979646 1.000000
0.094155 0.970150 1.000000
0.009488 0.957875 1.000000
0.000000 0.942125 1.000000
0.000000 0.922154 1.000000
0.000000 0.897173 1.000000
