public/luts/vision3_50d.cube
# Generated from ColorChecker fit
LUT_3D_SIZE 9
DOMAIN_MIN 0.0 0.0 0.0
DOMAIN_MAX 1.0 1.0 1.0
0.178296 0.000000 0.088832
0.135420 0.015274 0.080518
0.106930 0.075770 0.077624
0.072106 0.157706 0.071561
0.032264 0.256987 0.080301
0.010750 0.357701 0.148368
0.052944 0.432122 0.346848
0.226262 0.440713 0.773381
0.620150 0.332121 1.000000
0.034972 0.104492 0.107498
0.034224 0.102378 0.121073
0.033713 0.119477 0.120036
0.013082 0.162940 0.093905
0.000000 0.228105 0.058755
0.000000 0.298495 0.057219
0.000000 0.345823 0.158487
0.093369 0.329983 0.458305
0.437940 0.199061 1.000000
0.000000 0.260141 0.110652
0.031313 0.222496 0.165003
0.061554 0.208437 0.185344
0.055836 0.224549 0.159298
0.016198 0.265606 0.101047
0.000000 0.314567 0.051329
0.000000 0.342577 0.077438
0.044637 0.308970 0.273229
0.330359 0.161263 0.759110
0.025069 0.451474 0.105176
0.118721 0.388586 0.221249
0.178160 0.352539 0.284546
0.183752 0.349357 0.280798
0.137897 0.373248 0.222291
0.065027 0.406605 0.147868
0.011609 0.420010 0.122932
0.046142 0.372230 0.239440
0.259158 0.210219 0.615908
0.136208 0.679599 0.090371
0.273479 0.598688 0.291169
0.356236 0.546760 0.421060
0.365208 0.529273 0.463879
0.303155 0.539872 0.430019
0.194871 0.560384 0.356429
0.087186 0.560828 0.306617
0.048960 0.499405 0.370645
0.171087 0.322504 0.665136
0.284880 0.930710 0.057957
0.457615 0.835929 0.368541
0.553485 0.771158 0.590720
0.553579 0.741290 0.706435
0.461021 0.739404 0.724183
0.300966 0.746766 0.679020
0.120605 0.732825 0.632559
0.000000 0.655221 0.672969
0.000000 0.459778 0.914977
0.422434 1.000000 0.000000
0.618152 1.000000 0.439561
0.712603 0.990878 0.781781
0.687237 0.947486 0.998777
0.545541 0.930857 1.000000
0.313031 0.921693 1.000000
0.037261 0.888880 1.000000
0.000000 0.789491 1.000000
0.000000 0.568786 1.000000
0.485217 1.000000 0.000000
0.687111 1.000000 0.482843
0.761284 1.000000 0.974914
0.689551 1.000000 1.000000
0.475757 1.000000 1.000000
0.145782 1.000000 1.000000
0.000000 0.966955 1.000000
0.000000 0.837111 1.000000
0.000000 0.581357 1.000000
0.394572 1.000000 0.000000
0.581508 1.000000 0.469419
0.612220 1.000000 1.000000
0.468883 1.000000 1.000000
0.155707 1.000000 1.000000
0.000000 0.986391 1.000000
0.000000 0.890099 1.000000
0.000000 0.718061 1.000000
0.000000 0.414407 1.000000
0.432179 0.172542 0.234025
0.335085 0.172660 0.203400
0.274787 0.199071 0.192514
0.224516 0.255458 0.189012
0.179534 0.333692 0.207092
0.157137 0.413826 0.287514
0.196657 0.464105 0.497592
0.359456 0.440955 0.931199
0.728930 0.288992 1.000000
0.309267 0.301272 0.240827
0.253885 0.255371 0.236033
0.221044 0.241958 0.228972
0.184338 0.264149 0.205393
0.139390 0.313251 0.177601
0.103860 0.368753 0.184460
0.117439 0.398333 0.291392
0.241851 0.357855 0.590373
0.560856 0.191368 1.000000
0.275757 0.437622 0.238880
0.269064 0.361265 0.278341
0.268609 0.322473 0.294161
0.248344 0.323799 0.270194
0.204258 0.355983 0.216853
0.154369 0.397952 0.171106
0.138732 0.416819 0.196480
0.219432 0.367882 0.383058
0.480591 0.194626 0.847483
0.331126 0.597202 0.234495
0.375775 0.502881 0.338692
0.408306 0.450089 0.398507
0.403035 0.440814 0.395900
0.356309 0.465230 0.339389
0.286512 0.501700 0.264050
0.234057 0.516772 0.231513
0.261395 0.465178 0.329970
0.453005 0.289842 0.674166
0.459848 0.780702 0.226400
0.554165 0.677847 0.417871
0.615958 0.619367 0.544853
0.619904 0.606687 0.587411
0.562714 0.629418 0.552170
0.463131 0.665355 0.472310
0.361933 0.680483 0.407569
0.321929 0.628970 0.444241
0.427964 0.453173 0.695180
0.631393 0.973901 0.205742
0.769378 0.868872 0.509084
0.852382 0.809950 0.728462
0.855445 0.797997 0.842050
0.775638 0.822057 0.854575
0.632068 0.859362 0.797324
0.465872 0.875331 0.728140
0.340224 0.823569 0.731425
0.340328 0.645866 0.918137
0.800228 1.000000 0.156086
0.971555 1.000000 0.597953
1.000000 0.986568 0.937016
1.000000 0.976404 1.000000
0.932245 1.000000 1.000000
0.726158 1.000000 1.000000
0.474386 1.000000 1.000000
0.240463 0.998369 1.000000
0.109956 0.814249 1.000000
0.905816 1.000000 0.053414
1.000000 1.000000 0.662520
1.000000 1.000000 1.000000
1.000000 1.000000 1.000000
0.954692 1.000000 1.000000
0.663234 1.000000 1.000000
0.300980 1.000000 1.000000
0.000000 1.000000 1.000000
0.000000 0.889736 1.000000
0.872617 1.000000 0.000000
1.000000 1.000000 0.673244
1.000000 1.000000 1.000000
1.000000 1.000000 1.000000
0.750135 1.000000 1.000000
0.346125 1.000000 1.000000
0.000000 1.000000 1.000000
0.000000 1.000000 1.000000
0.000000 0.788825 1.000000
0.585103 0.274571 0.300880
0.429075 0.227092 0.251203
0.336704 0.217699 0.236509
0.275169 0.246042 0.240673
0.233684 0.299959 0.274126
0.223493 0.355471 0.373858
0.277876 0.376788 0.603413
0.452145 0.316305 1.000000
0.823645 0.114604 1.000000
0.474225 0.402097 0.292841
0.356471 0.309609 0.272125
0.288014 0.262107 0.262409
0.236397 0.258677 0.245674
0.191193 0.286589 0.230456
0.164009 0.321302 0.251852
0.188488 0.326461 0.371512
0.320302 0.253894 0.677645
0.637158 0.043620 1.000000
0.439435 0.518454 0.279938
0.369087 0.398726 0.306140
0.331628 0.329768 0.319994
0.294960 0.310101 0.301584
0.249018 0.326432 0.257555
0.205774 0.353653 0.221105
0.199228 0.354845 0.251994
0.285416 0.281272 0.436535
0.542409 0.072388 0.887600
0.483327 0.638833 0.267907
0.465193 0.506566 0.361044
0.461488 0.429740 0.419117
0.440474 0.406308 0.420316
0.392452 0.422412 0.369390
0.329750 0.452383 0.297645
0.286734 0.458733 0.262945
0.319801 0.392165 0.349710
0.507383 0.191565 0.668917
0.593491 0.763511 0.254904
0.628053 0.630342 0.437051
0.656532 0.556165 0.562049
0.647554 0.538372 0.606197
0.591778 0.562541 0.572349
0.501899 0.602434 0.489916
0.412641 0.620003 0.414868
0.380764 0.565382 0.429730
0.485061 0.376896 0.643586
0.742514 0.877850 0.231504
0.825927 0.752346 0.526791
0.880695 0.688273 0.743481
0.875806 0.682458 0.855977
0.802282 0.719913 0.865238
0.673177 0.773837 0.798782
0.523579 0.805615 0.710684
0.410610 0.764820 0.681575
0.413423 0.589209 0.818644
0.887981 0.952296 0.180698
1.000000 0.839959 0.615316
1.000000 0.790376 0.950521
1.000000 0.799810 1.000000
0.964241 0.852707 1.000000
0.779537 0.921703 1.000000
0.551175 0.967618 1.000000
0.336639 0.939458 1.000000
0.215444 0.774418 1.000000
0.972471 0.942380 0.077897
1.000000 0.845645 0.680094
1.000000 0.811872 1.000000
1.000000 0.836760 1.000000
1.000000 0.904190 1.000000
0.741929 0.986232 1.000000
0.412054 1.000000 1.000000
0.071149 1.000000 1.000000
0.000000 0.863520 1.000000
0.923561 0.788717 0.000000
1.000000 0.706953 0.691011
1.000000 0.687245 1.000000
1.000000 0.724724 1.000000
0.828625 0.802709 1.000000
0.466300 0.892705 1.000000
0.007834 0.954403 1.000000
0.000000 0.935680 1.000000
0.000000 0.772600 1.000000
0.671662 0.311307 0.316689
0.466222 0.227059 0.255347
0.355751 0.191916 0.245157
0.301378 0.201496 0.266223
0.286264 0.239601 0.325207
0.315604 0.278222 0.455331
0.416626 0.277533 0.716370
0.638591 0.185897 1.000000
1.000000 0.000000 1.000000
0.575797 0.450006 0.294698
0.402171 0.319903 0.264632
0.309050 0.246511 0.259758
0.257924 0.224882 0.258288
0.232317 0.238255 0.264990
0.237785 0.258053 0.311190
0.301918 0.243889 0.454770
0.474340 0.143559 0.780171
0.826706 0.000000 1.000000
0.533450 0.551995 0.268846
0.402927 0.396013 0.287548
0.336394 0.303232 0.306118
0.295703 0.268139 0.300872
0.264740 0.273409 0.274685
0.249422 0.289900 0.256987
0.277702 0.276659 0.303768
0.399564 0.180920 0.497573
0.687026 0.000000 0.947505
0.550333 0.632049 0.244296
0.469876 0.467097 0.331318
0.434843 0.370721 0.393517
0.407449 0.336844 0.405313
0.371939 0.347573 0.367688
0.334596 0.373206 0.308178
0.323731 0.372222 0.280877
0.389692 0.291290 0.366438
0.604859 0.065266 0.672068
0.617154 0.690031 0.218632
0.589399 0.529951 0.395584
0.586452 0.442707 0.523653
0.570889 0.421656 0.575368
0.527319 0.448343 0.549814
0.462383 0.492498 0.472634
0.404757 0.512037 0.396028
0.405150 0.453065 0.398752
0.536304 0.249870 0.586122
0.709617 0.710884 0.181854
0.732874 0.566453 0.472403
0.758273 0.498002 0.690644
0.748750 0.498323 0.807211
0.689277 0.548397 0.819296
0.586857 0.617389 0.750646
0.470528 0.662652 0.651568
0.391359 0.629723 0.598924
0.422455 0.452328 0.696134
0.788423 0.664641 0.116383
0.856676 0.543567 0.546254
0.902354 0.500502 0.881025
0.888755 0.527675 1.000000
0.801211 0.605499 1.000000
0.647089 0.702577 1.000000
0.455787 0.775696 1.000000
0.278738 0.769829 0.963776
0.189406 0.618136 1.000000
0.799267 0.506416 0.000000
0.902175 0.413342 0.594032
0.955739 0.399191 1.000000
0.923621 0.455627 1.000000
0.791513 0.562499 1.000000
0.567145 0.687845 1.000000
0.280275 0.787886 1.000000
0.000000 0.807032 1.000000
0.000000 0.677878 1.000000
0.672843 0.176409 0.000000
0.795738 0.112911 0.585051
0.840471 0.128135 1.000000
0.771063 0.213179 1.000000
0.573572 0.347330 1.000000
0.256086 0.498058 1.000000
0.000000 0.621022 1.000000
0.000000 0.660065 1.000000
0.000000 0.547220 1.000000
0.713410 0.306160 0.301988
0.482318 0.207747 0.240497
0.381958 0.168683 0.247249
0.367408 0.180553 0.298579
0.415778 0.223127 0.397382
0.526212 0.264360 0.573108
0.719889 0.260396 0.881765
1.000000 0.155563 1.000000
1.000000 0.000000 1.000000
0.646889 0.474732 0.270797
0.438131 0.327762 0.242081
0.345536 0.248452 0.253674
0.324543 0.227822 0.280018
0.352624 0.245078 0.322111
0.429287 0.267610 0.407511
0.576068 0.250997 0.590332
0.836541 0.139003 0.951244
1.000000 0.000000 1.000000
0.602064 0.574302 0.233866
0.429084 0.400958 0.254955
0.355647 0.302470 0.289051
0.337554 0.269293 0.308703
0.352639 0.280067 0.313016
0.400770 0.301620 0.327652
0.503847 0.288965 0.404831
0.705805 0.185302 0.623329
1.000000 0.000000 1.000000
0.587764 0.619231 0.195788
0.459680 0.438628 0.285767
0.412468 0.338963 0.362087
0.402291 0.310125 0.395402
0.407345 0.330189 0.382921
0.427860 0.365419 0.348413
0.486097 0.370263 0.342203
0.626354 0.287354 0.441174
0.914960 0.047516 0.748765
0.597813 0.608963 0.153572
0.519416 0.437152 0.333587
0.501170 0.351244 0.473909
0.499599 0.340564 0.543296
0.493262 0.382623 0.537066
0.482750 0.443118 0.477092
0.490687 0.475934 0.411804
0.561731 0.423140 0.416192
0.762572 0.214992 0.591801
0.611032 0.528029 0.096646
0.582787 0.377993 0.389900
0.591922 0.317710 0.618059
0.595323 0.335941 0.747989
0.571908 0.409631 0.773112
0.522632 0.503914 0.713407
0.470480 0.572109 0.615411
0.460472 0.555721 0.552219
0.559661 0.384442 0.623480
0.591238 0.346043 0.006858
0.609286 0.227698 0.438611
0.639890 0.201842 0.780501
0.640299 0.256669 0.997501
0.589795 0.368563 1.000000
0.489691 0.502089 1.000000
0.363337 0.610004 0.947218
0.256113 0.633247 0.845505
0.235434 0.500946 0.842112
0.487244 0.017705 0.000000
0.543398 0.000000 0.456042
0.585235 0.000000 0.939616
0.570365 0.048250 1.000000
0.478432 0.201851 1.000000
0.311112 0.377010 1.000000
0.092116 0.525918 1.000000
0.000000 0.588951 1.000000
0.000000 0.494671 1.000000
0.232862 0.000000 0.000000
0.314608 0.000000 0.410936
0.353114 0.000000 1.000000
0.306351 0.000000 1.000000
0.154325 0.000000 1.000000
0.000000 0.053127 1.000000
0.000000 0.241237 1.000000
0.000000 0.341152 1.000000
0.000000 0.280870 1.000000
0.718854 0.269240 0.270553
0.500109 0.191039 0.224556
0.452310 0.181658 0.264816
0.524483 0.228646 0.363901
0.687689 0.307741 0.520936
0.935020 0.382866 0.761603
1.000000 0.406130 1.000000
1.000000 0.317829 1.000000
1.000000 0.046447 1.000000
0.707366 0.492708 0.238777
0.498454 0.361391 0.226241
0.445813 0.307910 0.270053
0.498832 0.319251 0.340886
0.628933 0.370587 0.435971
0.829570 0.425275 0.579095
1.000000 0.434861 0.820603
1.000000 0.339076 1.000000
1.000000 0.065837 1.000000
0.676498 0.608131 0.196503
0.493018 0.448088 0.233992
0.449084 0.373783 0.298553
0.494446 0.371638 0.358965
0.600889 0.416258 0.410563
0.762228 0.470440 0.475242
0.994314 0.485162 0.601452
1.000000 0.399591 0.864201
1.000000 0.141080 1.000000
0.638195 0.629455 0.147750
0.491419 0.462010 0.253886
0.465414 0.387089 0.358452
0.510292 0.390550 0.428331
0.598197 0.446434 0.456965
0.723309 0.516971 0.464355
0.901839 0.552577 0.497055
1.000000 0.491852 0.628179
1.000000 0.261586 0.957399
0.589398 0.555709 0.088955
0.486274 0.399118 0.284419
0.483093 0.340724 0.450302
0.530331 0.365817 0.551595
0.600495 0.447876 0.579846
0.688123 0.548566 0.553158
0.809791 0.617736 0.516194
1.000000 0.593425 0.540174
1.000000 0.401854 0.722874
0.512045 0.371006 0.008974
0.455192 0.240461 0.316503
0.475407 0.212668 0.567076
0.523525 0.272354 0.723787
0.572415 0.392434 0.776291
0.616979 0.534005 0.740798
0.674152 0.646355 0.660075
0.782902 0.666955 0.603448
1.000000 0.521464 0.666798
0.373069 0.044547 0.000000
0.360783 0.000000 0.333471
0.400637 0.000000 0.694162
0.443829 0.070161 0.932354
0.463588 0.237038 1.000000
0.455178 0.427155 1.000000
0.435898 0.589232 0.922318
0.445077 0.660176 0.813679
0.544079 0.565083 0.786909
0.124402 0.000000 0.000000
0.150651 0.000000 0.311073
0.202062 0.000000 0.809369
0.230194 0.000000 1.000000
0.208639 0.000000 1.000000
0.133023 0.166966 1.000000
0.021005 0.382251 1.000000
0.000000 0.505906 1.000000
0.000000 0.462461 1.000000
0.000000 0.000000 0.000000
0.000000 0.000000 0.217477
0.000000 0.000000 0.882923
0.000000 0.000000 1.000000
0.000000 0.000000 1.000000
0.000000 0.000000 1.000000
0.000000 0.000000 1.000000
0.000000 0.122047 1.000000
0.000000 0.128434 1.000000
0.683461 0.197352 0.229402
0.529300 0.185516 0.218668
0.590750 0.251194 0.313132
0.810785 0.377903 0.481590
1.000000 0.537346 0.719399
1.000000 0.689415 1.000000
1.000000 0.782186 1.000000
1.000000 0.751922 1.000000
1.000000 0.523071 1.000000
0.764051 0.507061 0.209520
0.604200 0.435693 0.232119
0.645181 0.451562 0.328029
0.830329 0.537620 0.464156
1.000000 0.665007 0.633960
1.000000 0.793048 0.857460
1.000000 0.869255 1.000000
1.000000 0.829326 1.000000
1.000000 0.597145 1.000000
0.774930 0.662932 0.171500
0.627144 0.558630 0.243531
0.663358 0.550172 0.357622
0.827273 0.619948 0.478783
1.000000 0.738530 0.598581
1.000000 0.864679 0.735140
1.000000 0.945344 0.933143
1.000000 0.915656 1.000000
1.000000 0.698937 1.000000
0.731160 0.678495 0.118789
0.608866 0.564790 0.258410
0.651692 0.554422 0.409473
0.803700 0.629214 0.535092
1.000000 0.759177 0.624941
1.000000 0.902506 0.695250
1.000000 1.000000 0.788807
1.000000 1.000000 0.974955
1.000000 0.817444 1.000000
0.632798 0.552363 0.047252
0.545099 0.449719 0.274678
0.601588 0.456790 0.483560
0.746689 0.554834 0.635120
0.946857 0.713296 0.717135
1.000000 0.889808 0.743943
1.000000 1.000000 0.756436
1.000000 1.000000 0.822063
1.000000 0.926746 1.000000
0.464900 0.268235 0.000000
0.416571 0.194050 0.282675
0.489449 0.234843 0.572284
0.628317 0.371306 0.773324
0.799995 0.572320 0.871679
0.993334 0.794951 0.879791
1.000000 0.984452 0.836660
1.000000 1.000000 0.807840
1.000000 0.986009 0.885445
0.197517 0.000000 0.000000
0.189008 0.000000 0.265161
0.276672 0.000000 0.660461
0.405658 0.038213 0.936579
0.543143 0.292764 1.000000
0.678341 0.571385 1.000000
0.822500 0.818765 1.000000
1.000000 0.967777 0.927390
1.000000 0.939483 0.898594
0.000000 0.000000 0.000000
0.000000 0.000000 0.197314
0.000000 0.000000 0.725326
0.020779 0.000000 1.000000
0.114043 0.000000 1.000000
0.179023 0.157646 1.000000
0.227326 0.468593 1.000000
0.292594 0.681380 1.000000
0.430502 0.716504 1.000000
0.000000 0.000000 0.000000
0.000000 0.000000 0.046728
0.000000 0.000000 0.736534
0.000000 0.000000 1.000000
0.000000 0.000000 1.000000
0.000000 0.000000 1.000000
0.000000 0.000000 1.000000
0.000000 0.132558 1.000000
0.000000 0.231492 1.000000
0.589655 0.074001 0.178793
0.566553 0.186455 0.227221
0.808177 0.384342 0.400710
1.000000 0.647148 0.664287
1.000000 0.942543 1.000000
1.000000 1.000000 1.000000
1.000000 1.000000 1.000000
1.000000 1.000000 1.000000
1.000000 1.000000 1.000000
0.810722 0.507618 0.187146
0.763387 0.552268 0.267965
0.965893 0.692781 0.439982
1.000000 0.908076 0.666334
1.000000 1.000000 0.936712
1.000000 1.000000 1.000000
1.000000 1.000000 1.000000
1.000000 1.000000 1.000000
1.000000 1.000000 1.000000
0.902493 0.734854 0.166843
0.850834 0.740505 0.295686
1.000000 0.851334 0.482501
1.000000 1.000000 0.688528
1.000000 1.000000 0.901566
1.000000 1.000000 1.000000
1.000000 1.000000 1.000000
1.000000 1.000000 1.000000
1.000000 1.000000 1.000000
0.883147 0.768821 0.120756
0.842748 0.761213 0.315316
1.000000 0.866980 0.535255
1.000000 1.000000 0.739917
1.000000 1.000000 0.915208
1.000000 1.000000 1.000000
1.000000 1.000000 1.000000
1.000000 1.000000 1.000000
1.000000 1.000000 1.000000
0.755859 0.607719 0.044177
0.737975 0.609523 0.324205
0.912976 0.731785 0.597651
1.000000 0.951731 0.821966
1.000000 1.000000 0.981159
1.000000 1.000000 1.000000
1.000000 1.000000 1.000000
1.000000 1.000000 1.000000
1.000000 1.000000 1.000000
0.508800 0.234830 0.000000
0.520363 0.265651 0.312121
0.701724 0.422898 0.661516
0.991615 0.683233 0.928558
1.000000 1.000000 1.000000
1.000000 1.000000 1.000000
1.000000 1.000000 1.000000
1.000000 1.000000 1.000000
1.000000 1.000000 1.000000
0.115137 0.000000 0.000000
0.158753 0.000000 0.261250
0.347028 0.000000 0.711094
0.619058 0.217586 1.000000
0.935971 0.604275 1.000000
1.000000 1.000000 1.000000
1.000000 1.000000 1.000000
1.000000 1.000000 1.000000
1.000000 1.000000 1.000000
0.000000 0.000000 0.000000
0.000000 0.000000 0.146196
0.000000 0.000000 0.723047
0.046746 0.000000 1.000000
0.313510 0.000000 1.000000
0.582217 0.435684 1.000000
0.858424 0.883350 1.000000
1.000000 1.000000 1.000000
1.000000 1.000000 1.000000
0.000000 0.000000 0.000000
0.000000 0.000000 0.000000
0.000000 0.000000 0.666456
0.000000 0.000000 1.000000
0.000000 0.000000 1.000000
0.000000 0.000000 1.000000
0.000000 0.070286 1.000000
0.000000 0.489186 1.000000
0.134191 0.718320 1.000000
0.406814 0.000000 0.112225
0.595486 0.175829 0.247842
1.000000 0.574852 0.529305
1.000000 1.000000 0.917875
1.000000 1.000000 1.000000
1.000000 1.000000 1.000000
1.000000 1.000000 1.000000
1.000000 1.000000 1.000000
1.000000 1.000000 1.000000
0.828114 0.470900 0.169021
0.970988 0.699412 0.335270
1.000000 1.000000 0.611530
1.000000 1.000000 0.957166
1.000000 1.000000 1.000000
1.000000 1.000000 1.000000
1.000000 1.000000 1.000000
1.000000 1.000000 1.000000
1.000000 1.000000 1.000000
1.000000 0.806740 0.183759
1.000000 0.988333 0.395811
1.000000 1.000000 0.682670
1.000000 1.000000 1.000000
1.000000 1.000000 1.000000
1.000000 1.000000 1.000000
1.000000 1.000000 1.000000
1.000000 1.000000 1.000000
1.000000 1.000000 1.000000
1.000000 0.889602 0.158739
1.000000 1.000000 0.433823
1.000000 1.000000 0.749143
1.000000 1.000000 1.000000
1.000000 1.000000 1.000000
1.000000 1.000000 1.000000
1.000000 1.000000 1.000000
1.000000 1.000000 1.000000
1.000000 1.000000 1.000000
0.973382 0.717268 0.088682
1.000000 0.885794 0.446082
1.000000 1.000000 0.809784
1.000000 1.000000 1.000000
1.000000 1.000000 1.000000
1.000000 1.000000 1.000000
1.000000 1.000000 1.000000
1.000000 1.000000 1.000000
1.000000 1.000000 1.000000
0.669901 0.272606 0.000000
0.806966 0.468850 0.421785
1.000000 0.802196 0.855844
1.000000 1.000000 1.000000
1.000000 1.000000 1.000000
1.000000 1.000000 1.000000
1.000000 1.000000 1.000000
1.000000 1.000000 1.000000
1.000000 1.000000 1.000000
0.163444 0.000000 0.000000
0.321772 0.000000 0.342544
0.677695 0.151645 0.870996
1.000000 0.651738 1.000000
1.000000 1.000000 1.000000
1.000000 1.000000 1.000000
1.000000 1.000000 1.000000
1.000000 1.000000 1.000000
1.000000 1.000000 1.000000
0.000000 0.000000 0.000000
0.000000 0.000000 0.182392
0.000000 0.000000 0.831330
0.399680 0.000000 1.000000
0.912863 0.399403 1.000000
1.000000 1.000000 1.000000
1.000000 1.000000 1.000000
1.000000 1.000000 1.000000
1.000000 1.000000 1.000000
0.000000 0.000000 0.000000
0.000000 0.000000 0.000000
0.000000 0.000000 0.705354
0.000000 0.000000 1.000000
0.000000 0.000000 1.000000
0.218302 0.000000 1.000000
0.678935 0.685200 1.000000
1.000000 1.000000 1.000000
1.000000 1.000000 1.000000
