public/luts/vision3_50d.cube
# Generated from ColorChecker fit
LUT_3D_SIZE 5
DOMAIN_MIN 0.0 0.0 0.0
DOMAIN_MAX 1.0 1.0 1.0
0.178296 0.000000 0.088832
0.106930 0.075770 0.077624
0.032264 0.256987 0.080301
0.052944 0.432122 0.346848
0.620150 0.332121 1.000000
0.000000 0.260141 0.110652
0.061554 0.208437 0.185344
0.016198 0.265606 0.101047
0.000000 0.342577 0.077438
0.330359 0.161263 0.759110
0.136208 0.679599 0.090371
0.356236 0.546760 0.421060
0.303155 0.539872 0.430019
0.087186 0.560828 0.306617
0.171087 0.322504 0.665136
0.422434 1.000000 0.000000
0.712603 0.990878 0.781781
0.545541 0.930857 1.000000
0.037261 0.888880 1.000000
0.000000 0.568786 1.000000
0.394572 1.000000 0.000000
0.612220 1.000000 1.000000
0.155707 1.000000 1.000000
0.000000 0.890099 1.000000
0.000000 0.414407 1.000000
0.585103 0.274571 0.300880
0.336704 0.217699 0.236509
0.233684 0.299959 0.274126
0.277876 0.376788 0.603413
0.823645 0.114604 1.000000
0.439435 0.518454 0.279938
0.331628 0.329768 0.319994
0.249018 0.326432 0.257555
0.199228 0.354845 0.251994
0.542409 0.072388 0.887600
0.593491 0.763511 0.254904
0.656532 0.556165 0.562049
0.591778 0.562541 0.572349
0.412641 0.620003 0.414868
0.485061 0.376896 0.643586
0.887981 0.952296 0.180698
1.000000 0.790376 0.950521
0.964241 0.852707 1.000000
0.551175 0.967618 1.000000
0.215444 0.774418 1.000000
0.923561 0.788717 0.000000
1.000000 0.687245 1.000000
0.828625 0.802709 1.000000
0.007834 0.954403 1.000000
0.000000 0.772600 1.000000
0.713410 0.306160 0.301988
0.381958 0.168683 0.247249
0.415778 0.223127 0.397382
0.719889 0.260396 0.881765
1.000000 0.000000 1.000000
0.602064 0.574302 0.233866
0.355647 0.302470 0.289051
0.352639 0.280067 0.313016
0.503847 0.288965 0.404831
1.000000 0.000000 1.000000
0.597813 0.608963 0.153572
0.501170 0.351244 0.473909
0.493262 0.382623 0.537066
0.490687 0.475934 0.411804
0.762572 0.214992 0.591801
0.591238 0.346043 0.006858
0.639890 0.201842 0.780501
0.589795 0.368563 1.000000
0.363337 0.610004 0.947218
0.235434 0.500946 0.842112
0.232862 0.000000 0.000000
0.353114 0.000000 1.000000
0.154325 0.000000 1.000000
0.000000 0.241237 1.000000
0.000000 0.280870 1.000000
0.683461 0.197352 0.229402
0.590750 0.251194 0.313132
1.000000 0.537346 0.719399
1.000000 0.782186 1.000000
1.000000 0.523071 1.000000
0.774930 0.662932 0.171500
0.663358 0.550172 0.357622
1.000000 0.738530 0.598581
1.000000 0.945344 0.933143
1.000000 0.698937 1.000000
0.632798 0.552363 0.047252
0.601588 0.456790 0.483560
0.946857 0.713296 0.717135
1.000000 1.000000 0.756436
1.000000 0.926746 1.000000
0.197517 0.000000 0.000000
0.276672 0.000000 0.660461
0.543143 0.292764 1.000000
0.822500 0.818765 1.000000
1.000000 0.939483 0.898594
0.000000 0.000000 0.000000
0.000000 0.000000 0.736534
0.000000 0.000000 1.000000
0.000000 0.000000 1.000000
0.000000 0.231492 1.000000
0.406814 0.000000 0.112225
1.000000 0.574852 0.529305
1.000000 1.000000 1.000000
1.000000 1.000000 1.000000
1.000000 1.000000 1.000000
1.000000 0.806740 0.183759
1.000000 1.000000 0.682670
1.000000 1.000000 1.000000
1.000000 1.000000 1.000000
1.000000 1.000000 1.000000
0.973382 0.717268 0.088682
1.000000 1.000000 0.809784
1.000000 1.000000 1.000000
1.000000 1.000000 1.000000
1.000000 1.000000 1.000000
0.163444 0.000000 0.000000
0.677695 0.151645 0.870996
1.000000 1.000000 1.000000
1.000000 1.000000 1.000000
1.000000 1.000000 1.000000
0.000000 0.000000 0.000000
0.000000 0.000000 0.705354
0.000000 0.000000 1.000000
0.678935 0.685200 1.000000
1.000000 1.000000 1.000000
