public/luts/x_tarr.cube
# Generated from ColorChecker fit
LUT_3D_SIZE 5
DOMAIN_MIN 0.0 0.0 0.0
DOMAIN_MAX 1.0 1.0 1.0
0.259782 0.287102 0.453514
0.326518 0.307593 0.435401
0.429902 0.392304 0.406181
0.490763 0.450906 0.420378
0.582596 0.546615 0.485228
0.326518 0.307593 0.435401
0.437495 0.388044 0.398707
0.533286 0.477015 0.376961
0.572886 0.522563 0.412867
0.667956 0.626289 0.501837
0.429902 0.392304 0.406181
0.533286 0.477015 0.376961
0.595094 0.540136 0.380865
0.612486 0.568110 0.448773
0.735290 0.700926 0.564274
0.490763 0.450906 0.420378
0.572886 0.522563 0.412867
0.612486 0.568110 0.448773
0.644891 0.612378 0.547154
0.858095 0.833741 0.679776
0.582596 0.546615 0.485228
0.667956 0.626289 0.501837
0.735290 0.700926 0.564274
0.858095 0.833741 0.679776
1.000000 1.000000 0.808285
0.326518 0.307593 0.435401
0.437495 0.388044 0.398707
0.533286 0.477015 0.376961
0.572886 0.522563 0.412867
0.667956 0.626289 0.501837
0.437495 0.388044 0.398707
0.560436 0.494208 0.358429
0.629077 0.565986 0.355215
0.640581 0.589822 0.419947
0.744776 0.705704 0.536213
0.533286 0.477015 0.376961
0.629077 0.565986 0.355215
0.656901 0.603257 0.384769
0.652086 0.613658 0.484679
0.802625 0.775563 0.626712
0.572886 0.522563 0.412867
0.640581 0.589822 0.419947
0.652086 0.613658 0.484679
0.680893 0.657286 0.614297
0.953165 0.937468 0.768745
0.667956 0.626289 0.501837
0.744776 0.705704 0.536213
0.802625 0.775563 0.626712
0.953165 0.937468 0.768745
1.000000 1.000000 0.910434
0.429902 0.392304 0.406181
0.533286 0.477015 0.376961
0.595094 0.540136 0.380865
0.612486 0.568110 0.448773
0.735290 0.700926 0.564274
0.533286 0.477015 0.376961
0.629077 0.565986 0.355215
0.656901 0.603257 0.384769
0.652086 0.613658 0.484679
0.802625 0.775563 0.626712
0.595094 0.540136 0.380865
0.656901 0.603257 0.384769
0.649795 0.610159 0.450265
0.647270 0.624058 0.584589
0.875487 0.861715 0.747684
0.612486 0.568110 0.448773
0.652086 0.613658 0.484679
0.647270 0.624058 0.584589
0.709701 0.700914 0.743915
1.000000 1.000000 0.910779
0.735290 0.700926 0.564274
0.802625 0.775563 0.626712
0.875487 0.861715 0.747684
1.000000 1.000000 0.910779
1.000000 1.000000 1.000000
0.490763 0.450906 0.420378
0.572886 0.522563 0.412867
0.612486 0.568110 0.448773
0.644891 0.612378 0.547154
0.858095 0.833741 0.679776
0.572886 0.522563 0.412867
0.640581 0.589822 0.419947
0.652086 0.613658 0.484679
0.680893 0.657286 0.614297
0.953165 0.937468 0.768745
0.612486 0.568110 0.448773
0.652086 0.613658 0.484679
0.647270 0.624058 0.584589
0.709701 0.700914 0.743915
1.000000 1.000000 0.910779
0.644891 0.612378 0.547154
0.680893 0.657286 0.614297
0.709701 0.700914 0.743915
0.881141 0.883251 0.919597
1.000000 1.000000 1.000000
0.858095 0.833741 0.679776
0.953165 0.937468 0.768745
1.000000 1.000000 0.910779
1.000000 1.000000 1.000000
1.000000 1.000000 1.000000
0.582596 0.546615 0.485228
0.667956 0.626289 0.501837
0.735290 0.700926 0.564274
0.858095 0.833741 0.679776
1.000000 1.000000 0.808285
0.667956 0.626289 0.501837
0.744776 0.705704 0.536213
0.802625 0.775563 0.626712
0.953165 0.937468 0.768745
1.000000 1.000000 0.910434
0.735290 0.700926 0.564274
0.802625 0.775563 0.626712
0.875487 0.861715 0.747684
1.000000 1.000000 0.910779
1.000000 1.000000 1.000000
0.858095 0.833741 0.679776
0.953165 0.937468 0.768745
1.000000 1.000000 0.910779
1.000000 1.000000 1.000000
1.000000 1.000000 1.000000
1.000000 1.000000 0.808285
1.000000 1.000000 0.910434
1.000000 1.000000 1.000000
1.000000 1.000000 1.000000
1.000000 1.000000 1.000000
