public/luts/x_tarr.cube
# Generated from ColorChecker fit
LUT_3D_SIZE 33
DOMAIN_MIN 0.0 0.0 0.0
DOMAIN_MAX 1.0 1.0 1.0
0.259782 0.287102 0.453514
0.259663 0.279291 0.454882
0.262961 0.275491 0.454787
0.269128 0.275130 0.453454
0.277657 0.277676 0.451101
0.288076 0.282634 0.447932
0.299951 0.289547 0.444140
0.312885 0.297994 0.439906
0.326518 0.307593 0.435401
0.340528 0.317998 0.430783
0.354630 0.328902 0.426200
0.368576 0.340036 0.421785
0.382155 0.351165 0.417663
0.395195 0.362096 0.413947
0.407559 0.372669 0.410737
0.419148 0.382766 0.408123
0.429902 0.392304 0.406181
0.439795 0.401237 0.404978
0.448842 0.409557 0.404569
0.457092 0.417294 0.404997
0.464633 0.424516 0.406292
0.471589 0.431328 0.408475
0.478124 0.437870 0.411555
0.484437 0.444324 0.415527
0.490763 0.450906 0.420378
0.497378 0.457871 0.426081
0.504592 0.465511 0.432599
0.512755 0.474156 0.439881
0.522251 0.484173 0.447867
0.533505 0.495967 0.456484
0.546975 0.509979 0.465649
0.563161 0.526689 0.475266
0.582596 0.546615 0.485228
0.259663 0.279291 0.454882
0.261347 0.273584 0.455480
0.266258 0.271690 0.454691
0.273861 0.273049 0.452740
0.283655 0.277138 0.449841
0.295179 0.283470 0.446194
0.308008 0.291598 0.441991
0.321755 0.301111 0.437410
0.336068 0.311636 0.432618
0.350636 0.322836 0.427771
0.365181 0.334415 0.423013
0.379467 0.346110 0.418475
0.393291 0.357699 0.414280
0.406489 0.368996 0.410536
0.418935 0.379852 0.407342
0.430540 0.390158 0.404783
0.441251 0.399838 0.402934
0.451054 0.408858 0.401859
0.459970 0.417220 0.401610
0.468060 0.424961 0.402225
0.475420 0.432160 0.403735
0.482186 0.438929 0.406155
0.488527 0.445422 0.409492
0.494654 0.451825 0.413739
0.500811 0.458368 0.418878
0.507283 0.465312 0.424881
0.514390 0.472960 0.431707
0.522489 0.481651 0.439304
0.531977 0.491761 0.447607
0.543285 0.503705 0.456541
0.556882 0.517934 0.466020
0.573277 0.534936 0.475946
0.593013 0.555238 0.486207
0.262961 0.275491 0.454787
0.266258 0.271690 0.454691
0.272601 0.271513 0.453285
0.281463 0.274408 0.450789
0.292354 0.279861 0.447415
0.304820 0.287397 0.443362
0.318446 0.296575 0.438816
0.332854 0.306995 0.433954
0.347703 0.318293 0.428939
0.362690 0.330143 0.423925
0.377547 0.342255 0.419053
0.392046 0.354379 0.414451
0.405994 0.366300 0.410239
0.419237 0.377842 0.406522
0.431658 0.388866 0.403396
0.443177 0.399270 0.400944
0.453751 0.408992 0.399237
0.463373 0.418003 0.398337
0.472077 0.426315 0.398292
0.479931 0.433977 0.399139
0.487041 0.441075 0.400904
0.493550 0.447731 0.403600
0.499641 0.454108 0.407232
0.505530 0.460403 0.411789
0.511473 0.466853 0.417250
0.517762 0.473730 0.423585
0.524728 0.481346 0.430750
0.532738 0.490050 0.438688
0.542197 0.500226 0.447334
0.553545 0.512298 0.456610
0.567262 0.526728 0.466425
0.583864 0.544013 0.476678
0.603905 0.564690 0.487257
0.269128 0.275130 0.453454
0.273861 0.273049 0.452740
0.281463 0.274408 0.450789
0.291418 0.278665 0.447820
0.303244 0.285315 0.444041
0.316498 0.293891 0.439648
0.330774 0.303964 0.434825
0.345702 0.315142 0.429745
0.360951 0.327070 0.424569
0.376227 0.339432 0.419448
0.391273 0.351948 0.414519
0.405868 0.364375 0.409909
0.419831 0.376510 0.405733
0.433015 0.388185 0.402095
0.445313 0.399271 0.399087
0.456653 0.409676 0.396790
0.467004 0.419344 0.395272
0.476367 0.428260 0.394591
0.484785 0.436442 0.394792
0.492335 0.443950 0.395911
0.499133 0.450879 0.397969
0.505333 0.457360 0.400979
0.511124 0.463566 0.404939
0.516733 0.469703 0.409838
0.522425 0.476017 0.415653
0.528503 0.482790 0.422349
0.535305 0.490344 0.429878
0.543208 0.499035 0.438184
0.552626 0.509258 0.447196
0.564010 0.521448 0.456834
0.577847 0.536073 0.467004
0.594664 0.553642 0.477603
0.615024 0.574700 0.488515
0.277657 0.277676 0.451101
0.283655 0.277138 0.449841
0.292354 0.279861 0.447415
0.303244 0.285315 0.444041
0.315855 0.293002 0.439924
0.329752 0.302467 0.435255
0.344538 0.313289 0.430217
0.359855 0.325084 0.424980
0.375378 0.337509 0.419701
0.390824 0.350256 0.414529
0.405945 0.363053 0.409598
0.420529 0.375670 0.405033
0.434404 0.387910 0.400945
0.447434 0.399615 0.397435
0.459519 0.410667 0.394592
0.470600 0.420981 0.392494
0.480650 0.430513 0.391208
0.489684 0.439255 0.390787
0.497752 0.447237 0.391275
0.504941 0.454526 0.392702
0.511376 0.461226 0.395090
0.517220 0.467481 0.398446
0.522672 0.473469 0.402767
0.527969 0.479408 0.408038
0.533384 0.485552 0.414234
0.539230 0.492194 0.421316
0.545853 0.499663 0.429235
0.553642 0.508327 0.437929
0.563017 0.518589 0.447328
0.574440 0.530893 0.457346
0.588409 0.545718 0.467887
0.605458 0.563580 0.478846
0.626159 0.585035 0.490103
0.288076 0.282634 0.447932
0.295179 0.283470 0.446194
0.304820 0.287397 0.443362
0.316498 0.293891 0.439648
0.329752 0.302467 0.435255
0.344157 0.312677 0.430372
0.359325 0.324110 0.425179
0.374906 0.336393 0.419842
0.390587 0.349190 0.414517
0.406092 0.362203 0.409348
0.421183 0.375171 0.404467
0.435658 0.387870 0.399996
0.449354 0.400116 0.396043
0.462144 0.411759 0.392707
0.473938 0.422689 0.390074
0.484684 0.432833 0.388218
0.494368 0.442154 0.387204
0.503012 0.450654 0.387081
0.510675 0.458373 0.387891
0.517454 0.465387 0.389663
0.523485 0.471810 0.392412
0.528937 0.477794 0.396145
0.534021 0.483528 0.400856
0.538981 0.489238 0.406526
0.544102 0.495188 0.413128
0.549704 0.501680 0.420619
0.556144 0.509053 0.428948
0.563818 0.517684 0.438051
0.573159 0.527986 0.447853
0.584636 0.540411 0.458266
0.598755 0.555448 0.469193
0.616062 0.573623 0.480523
0.637137 0.595500 0.492134
0.299951 0.289547 0.444140
0.308008 0.291598 0.441991
0.318446 0.296575 0.438816
0.330774 0.303964 0.434825
0.344538 0.313289 0.430217
0.359325 0.324110 0.425179
0.374755 0.336027 0.419887
0.390487 0.348676 0.414505
0.406218 0.361730 0.409186
0.421681 0.374900 0.404071
0.436648 0.387936 0.399289
0.450925 0.400622 0.394959
0.464359 0.412783 0.391187
0.476832 0.424280 0.388068
0.488265 0.435011 0.385686
0.498613 0.444913 0.384112
0.507872 0.453958 0.383406
0.516074 0.462158 0.383618
0.523287 0.469562 0.384784
0.529618 0.476255 0.386931
0.535210 0.482360 0.390072
0.540245 0.488040 0.394210
0.544939 0.493491 0.399336
0.549549 0.498951 0.405429
0.554367 0.504692 0.412458
0.559724 0.511026 0.420379
0.565985 0.518301 0.429136
0.573556 0.526902 0.438664
0.582879 0.537253 0.448883
0.594432 0.549815 0.459705
0.608731 0.565087 0.471027
0.626331 0.583603 0.482736
0.647822 0.605938 0.494710
0.312885 0.297994 0.439906
0.321755 0.301111 0.437410
0.332854 0.306995 0.433954
0.345702 0.315142 0.429745
0.359855 0.325084 0.424980
0.374906 0.336393 0.419842
0.390487 0.348676 0.414505
0.406266 0.361578 0.409130
0.421949 0.374784 0.403867
0.437278 0.388012 0.398854
0.452035 0.401022 0.394217
0.466035 0.413609 0.390073
0.479134 0.425605 0.386524
0.491223 0.436881 0.383662
0.502233 0.447345 0.381569
0.512129 0.456942 0.380312
0.520915 0.465656 0.379951
0.528633 0.473507 0.380529
0.535360 0.480552 0.382082
0.541213 0.486886 0.384633
0.546343 0.492644 0.388192
0.550942 0.497994 0.392760
0.555236 0.503146 0.398324
0.559491 0.508343 0.404862
0.564007 0.513870 0.412338
0.569126 0.520046 0.420705
0.575222 0.527228 0.429906
0.582710 0.535813 0.439872
0.592040 0.546233 0.450520
0.603702 0.558958 0.461759
0.618220 0.574496 0.473484
0.636158 0.593392 0.485579
0.658115 0.616229 0.497918
0.326518 0.307593 0.435401
0.336068 0.311636 0.432618
0.347703 0.318293 0.428939
0.360951 0.327070 0.424569
0.375378 0.337509 0.419701
0.390587 0.349190 0.414517
0.406218 0.361730 0.409186
0.421949 0.374784 0.403867
0.437495 0.388044 0.398707
0.452608 0.401241 0.393841
0.467077 0.414141 0.389392
0.480730 0.426550 0.385475
0.493430 0.438310 0.382188
0.505078 0.449300 0.379621
0.515614 0.459438 0.377852
0.525012 0.468679 0.376948
0.533286 0.477015 0.376961
0.540487 0.484476 0.377936
0.546701 0.491128 0.379904
0.552055 0.497077 0.382884
0.556709 0.502465 0.386886
0.560864 0.507472 0.391906
0.564756 0.512314 0.397928
0.568660 0.517247 0.404928
0.572886 0.522563 0.412867
0.577783 0.528590 0.421696
0.583737 0.535697 0.431353
0.591171 0.544288 0.441767
0.600545 0.554805 0.452853
0.612357 0.567728 0.464516
0.627142 0.583574 0.476648
0.645471 0.602897 0.489132
0.667956 0.626289 0.501837
0.340528 0.317998 0.430783
0.350636 0.322836 0.427771
0.362690 0.330143 0.423925
0.376227 0.339432 0.419448
0.390824 0.350256 0.414529
0.406092 0.362203 0.409348
0.421681 0.374900 0.404071
0.437278 0.388012 0.398854
0.452608 0.401241 0.393841
0.467431 0.414325 0.389164
0.481547 0.427042 0.384944
0.494791 0.439205 0.381292
0.507037 0.450666 0.378304
0.518196 0.461315 0.376066
0.528215 0.471078 0.374655
0.537079 0.479919 0.374132
0.544812 0.487840 0.374550
0.551472 0.494880 0.375948
0.557156 0.501116 0.378355
0.561999 0.506661 0.381789
0.566173 0.511668 0.386254
0.569886 0.516325 0.391744
0.573383 0.520859 0.398243
0.576949 0.525533 0.405720
0.580904 0.530651 0.414135
0.585606 0.536550 0.423437
0.591450 0.543607 0.433560
0.598869 0.552235 0.444429
0.608331 0.562888 0.455959
0.620344 0.576053 0.468050
0.635453 0.592256 0.480592
0.654238 0.612063 0.493464
0.677319 0.636074 0.506532
0.354630 0.328902 0.426200
0.365181 0.334415 0.423013
0.377547 0.342255 0.419053
0.391273 0.351948 0.414519
0.405945 0.363053 0.409598
0.421183 0.375171 0.404467
0.436648 0.387936 0.399289
0.452035 0.401022 0.394217
0.467077 0.414141 0.389392
0.481547 0.427042 0.384944
0.495251 0.439509 0.380991
0.508035 0.451368 0.377639
0.519782 0.462479 0.374983
0.530412 0.472740 0.373107
0.539882 0.482087 0.372082
0.548186 0.490495 0.371970
0.555356 0.497973 0.372817
0.561461 0.504571 0.374663
0.566607 0.510375 0.377532
0.570939 0.515508 0.381438
0.574636 0.520130 0.386385
0.577916 0.524441 0.392362
0.581036 0.528677 0.399351
0.584288 0.533110 0.407318
0.588001 0.538051 0.416221
0.592544 0.543850 0.426003
0.598319 0.550892 0.436598
0.605770 0.559600 0.447928
0.615374 0.570435 0.459904
0.627649 0.583895 0.472424
0.643148 0.600517 0.485374
0.662461 0.620873 0.498631
0.686217 0.645575 0.512059
0.368576 0.340036 0.421785
0.379467 0.346110 0.418475
0.392046 0.354379 0.414451
0.405868 0.364375 0.409909
0.420529 0.375670 0.405033
0.435658 0.387870 0.399996
0.450925 0.400622 0.394959
0.466035 0.413609 0.390073
0.480730 0.426550 0.385475
0.494791 0.439205 0.381292
0.508035 0.451368 0.377639
0.520317 0.462873 0.374620
0.531529 0.473589 0.372328
0.541600 0.483425 0.370841
0.550497 0.492327 0.370230
0.558223 0.500276 0.370552
0.564820 0.507294 0.371853
0.570365 0.513439 0.374167
0.574975 0.518805 0.377516
0.578802 0.523525 0.381913
0.582036 0.527771 0.387356
0.584905 0.531749 0.393835
0.587673 0.535705 0.401325
0.590643 0.539922 0.409792
0.594153 0.544719 0.419188
0.598580 0.550456 0.429457
0.604338 0.557527 0.440529
0.611878 0.566364 0.452322
0.621689 0.577439 0.464743
0.634295 0.591258 0.477689
0.650259 0.608367 0.491044
0.670183 0.629349 0.504681
0.694702 0.654823 0.518460
0.382155 0.351165 0.417663
0.393291 0.357699 0.414280
0.405994 0.366300 0.410239
0.419831 0.376510 0.405733
0.434404 0.387910 0.400945
0.449354 0.400116 0.396043
0.464359 0.412783 0.391187
0.479134 0.425605 0.386524
0.493430 0.438310 0.382188
0.507037 0.450666 0.378304
0.519782 0.462479 0.374983
0.531529 0.473589 0.372328
0.542180 0.483878 0.370425
0.551672 0.493261 0.369355
0.559981 0.501696 0.369182
0.567121 0.509172 0.369960
0.573142 0.515720 0.371734
0.578132 0.521408 0.374534
0.582216 0.526340 0.378381
0.585555 0.530659 0.383282
0.588349 0.534543 0.389235
0.590835 0.538211 0.396225
0.593287 0.541916 0.404225
0.596016 0.545952 0.413197
0.599371 0.550647 0.423093
0.603738 0.556369 0.433852
0.609539 0.563522 0.445400
0.617235 0.572549 0.457654
0.627323 0.583929 0.470519
0.640340 0.598180 0.483887
0.656855 0.615855 0.497640
0.677480 0.637547 0.511647
0.702861 0.663885 0.525766
0.395195 0.362096 0.413947
0.406489 0.368996 0.410536
0.419237 0.377842 0.406522
0.433015 0.388185 0.402095
0.447434 0.399615 0.397435
0.462144 0.411759 0.392707
0.476832 0.424280 0.388068
0.491223 0.436881 0.383662
0.505078 0.449300 0.379621
0.518196 0.461315 0.376066
0.530412 0.472740 0.373107
0.541600 0.483425 0.370841
0.551672 0.493261 0.369355
0.560573 0.502175 0.368723
0.568291 0.510130 0.369008
0.574846 0.517127 0.370263
0.580299 0.523207 0.372527
0.584747 0.528445 0.375829
0.588324 0.532956 0.380186
0.591202 0.536892 0.385603
0.593589 0.540441 0.392075
0.595731 0.543829 0.399583
0.597911 0.547322 0.408099
0.600451 0.551221 0.417582
0.603708 0.555864 0.427979
0.608077 0.561628 0.439227
0.613990 0.568927 0.451250
0.621918 0.578213 0.463962
0.632367 0.589974 0.477263
0.645881 0.604737 0.491045
0.663043 0.623066 0.505186
0.684469 0.645562 0.519552
0.710818 0.672865 0.533999
0.407559 0.372669 0.410737
0.418935 0.379852 0.407342
0.431658 0.388866 0.403396
0.445313 0.399271 0.399087
0.459519 0.410667 0.394592
0.473938 0.422689 0.390074
0.488265 0.435011 0.385686
0.502233 0.447345 0.381569
0.515614 0.459438 0.377852
0.528215 0.471078 0.374655
0.539882 0.482087 0.372082
0.550497 0.492327 0.370230
0.559981 0.501696 0.369182
0.568291 0.510130 0.369008
0.575420 0.517602 0.369771
0.581402 0.524125 0.371518
0.586304 0.529745 0.374287
0.590233 0.534550 0.378103
0.593333 0.538663 0.382981
0.595784 0.542244 0.388922
0.597805 0.545492 0.395919
0.599651 0.548644 0.403951
0.601614 0.551971 0.412985
0.604024 0.555786 0.422979
0.607249 0.560437 0.433876
0.611694 0.566310 0.445610
0.617799 0.573827 0.458103
0.626043 0.583450 0.471266
0.636944 0.595677 0.484996
0.651054 0.611044 0.499181
0.668965 0.630125 0.513697
0.691304 0.653529 0.528407
0.718736 0.681906 0.543165
0.419148 0.382766 0.408123
0.430540 0.390158 0.404783
0.443177 0.399270 0.400944
0.456653 0.409676 0.396790
0.470600 0.420981 0.392494
0.484684 0.432833 0.388218
0.498613 0.444913 0.384112
0.512129 0.456942 0.380312
0.525012 0.468679 0.376948
0.537079 0.479919 0.374132
0.548186 0.490495 0.371970
0.558223 0.500276 0.370552
0.567121 0.509172 0.369960
0.574846 0.517127 0.370263
0.581402 0.524125 0.371518
0.586829 0.530185 0.373771
0.591206 0.535366 0.377055
0.594649 0.539763 0.381395
0.597310 0.543509 0.386801
0.599380 0.546774 0.393274
0.601086 0.549766 0.400800
0.602692 0.552730 0.409357
0.604501 0.555950 0.418909
0.606852 0.559744 0.429411
0.610121 0.564472 0.440804
0.614723 0.570528 0.453019
0.621107 0.578345 0.465975
0.629763 0.588394 0.479578
0.641216 0.601181 0.493725
0.656029 0.617253 0.508300
0.674802 0.637191 0.523176
0.698172 0.661617 0.538213
0.726815 0.691187 0.553262
0.429902 0.392304 0.406181
0.441251 0.399838 0.402934
0.453751 0.408992 0.399237
0.467004 0.419344 0.395272
0.480650 0.430513 0.391208
0.494368 0.442154 0.387204
0.507872 0.453958 0.383406
0.520915 0.465656 0.379951
0.533286 0.477015 0.376961
0.544812 0.487840 0.374550
0.555356 0.497973 0.372817
0.564820 0.507294 0.371853
0.573142 0.515720 0.371734
0.580299 0.523207 0.372527
0.586304 0.529745 0.374287
0.591206 0.535366 0.377055
0.595094 0.540136 0.380865
0.598092 0.544160 0.385735
0.600362 0.547580 0.391674
0.602104 0.550577 0.398680
0.603555 0.553366 0.406736
0.604989 0.556203 0.415817
0.606717 0.559380 0.425885
0.609087 0.563227 0.436891
0.612486 0.568110 0.448773
0.617336 0.574435 0.461460
0.624097 0.582643 0.474867
0.633269 0.593214 0.488898
0.645384 0.606666 0.503447
0.661016 0.623552 0.518396
0.680773 0.644464 0.533613
0.705304 0.670033 0.548957
0.735290 0.700926 0.564274
0.439795 0.401237 0.404978
0.451054 0.408858 0.401859
0.463373 0.418003 0.398337
0.476367 0.428260 0.394591
0.489684 0.439255 0.390787
0.503012 0.450654 0.387081
0.516074 0.462158 0.383618
0.528633 0.473507 0.380529
0.540487 0.484476 0.377936
0.551472 0.494880 0.375948
0.561461 0.504571 0.374663
0.570365 0.513439 0.374167
0.578132 0.521408 0.374534
0.584747 0.528445 0.375829
0.590233 0.534550 0.378103
0.594649 0.539763 0.381395
0.598092 0.544160 0.385735
0.600696 0.547856 0.391140
0.602632 0.551001 0.397614
0.604111 0.553785 0.405152
0.605377 0.556435 0.413736
0.606714 0.559214 0.423337
0.608442 0.562424 0.433915
0.610920 0.566405 0.445416
0.614542 0.571532 0.457778
0.619741 0.578219 0.470925
0.626987 0.586919 0.484770
0.636786 0.598120 0.499215
0.649683 0.612348 0.514149
0.666259 0.630168 0.529451
0.687133 0.652180 0.544988
0.712962 0.679024 0.560615
0.744437 0.711377 0.576177
0.448842 0.409557 0.404569
0.459970 0.417220 0.401610
0.472077 0.426315 0.398292
0.484785 0.436442 0.394792
0.497752 0.447237 0.391275
0.510675 0.458373 0.387891
0.523287 0.469562 0.384784
0.535360 0.480552 0.382082
0.546701 0.491128 0.379904
0.557156 0.501116 0.378355
0.566607 0.510375 0.377532
0.574975 0.518805 0.377516
0.582216 0.526340 0.378381
0.588324 0.532956 0.380186
0.593333 0.538663 0.382981
0.597310 0.543509 0.386801
0.600362 0.547580 0.391674
0.602632 0.551001 0.397614
0.604302 0.553931 0.404622
0.605589 0.556569 0.412690
0.606749 0.559151 0.421797
0.608074 0.561951 0.431912
0.609895 0.565280 0.442990
0.612577 0.569485 0.454977
0.616527 0.574953 0.467806
0.622185 0.582108 0.481398
0.630031 0.591409 0.495665
0.640581 0.603355 0.510504
0.654388 0.618483 0.525802
0.672044 0.637365 0.541436
0.694175 0.660612 0.557269
0.721448 0.688872 0.573154
0.754566 0.722832 0.588932
0.457092 0.417294 0.404997
0.468060 0.424961 0.402225
0.479931 0.433977 0.399139
0.492335 0.443950 0.395911
0.504941 0.454526 0.392702
0.517454 0.465387 0.389663
0.529618 0.476255 0.386931
0.541213 0.486886 0.384633
0.552055 0.497077 0.382884
0.561999 0.506661 0.381789
0.570939 0.515508 0.381438
0.578802 0.523525 0.381913
0.585555 0.530659 0.383282
0.591202 0.536892 0.385603
0.595784 0.542244 0.388922
0.599380 0.546774 0.393274
0.602104 0.550577 0.398680
0.604111 0.553785 0.405152
0.605589 0.556569 0.412690
0.606767 0.559137 0.421282
0.607909 0.561734 0.430904
0.609317 0.564643 0.441523
0.611330 0.568184 0.453090
0.614324 0.572714 0.465549
0.618715 0.578630 0.478829
0.624951 0.586364 0.492850
0.633523 0.596386 0.507518
0.644955 0.609203 0.522730
0.659810 0.625362 0.538370
0.678689 0.645444 0.554311
0.702228 0.670070 0.570413
0.731103 0.699898 0.586526
0.766026 0.735622 0.602489
0.464633 0.424516 0.406292
0.475420 0.432160 0.403735
0.487041 0.441075 0.400904
0.499133 0.450879 0.397969
0.511376 0.461226 0.395090
0.523485 0.471810 0.392412
0.535210 0.482360 0.390072
0.546343 0.492644 0.388192
0.556709 0.502465 0.386886
0.566173 0.511668 0.386254
0.574636 0.520130 0.386385
0.582036 0.527771 0.387356
0.588349 0.534543 0.389235
0.593589 0.540441 0.392075
0.597805 0.545492 0.395919
0.601086 0.549766 0.400800
0.603555 0.553366 0.406736
0.605377 0.556435 0.413736
0.606749 0.559151 0.421797
0.607909 0.561734 0.430904
0.609130 0.564437 0.441032
0.610724 0.567551 0.452141
0.613040 0.571408 0.464183
0.616463 0.576375 0.477097
0.621416 0.582854 0.490810
0.628360 0.591290 0.505239
0.637792 0.602161 0.520287
0.650247 0.615985 0.535848
0.666298 0.633315 0.551803
0.686553 0.654745 0.568022
0.711660 0.680904 0.584363
0.742303 0.712458 0.600673
0.779202 0.750112 0.616787
0.471589 0.431328 0.408475
0.482186 0.438929 0.406155
0.493550 0.447731 0.403600
0.505333 0.457360 0.400979
0.517220 0.467481 0.398446
0.528937 0.477794 0.396145
0.540245 0.488040 0.394210
0.550942 0.497994 0.392760
0.560864 0.507472 0.391906
0.569886 0.516325 0.391744
0.577916 0.524441 0.392362
0.584905 0.531749 0.393835
0.590835 0.538211 0.396225
0.595731 0.543829 0.399583
0.599651 0.548644 0.403951
0.602692 0.552730 0.409357
0.604989 0.556203 0.415817
0.606714 0.559214 0.423337
0.608074 0.561951 0.431912
0.609317 0.564643 0.441523
0.610724 0.567551 0.452141
0.612618 0.570979 0.463726
0.615356 0.575265 0.476225
0.619332 0.580786 0.489575
0.624980 0.587955 0.503700
0.632769 0.597225 0.518513
0.643206 0.609083 0.533916
0.656835 0.624057 0.549799
0.674237 0.642710 0.566041
0.696032 0.665645 0.582507
0.722875 0.693499 0.599055
0.755461 0.726949 0.615527
0.794518 0.766709 0.631755
0.478124 0.437870 0.411555
0.488527 0.445422 0.409492
0.499641 0.454108 0.407232
0.511124 0.463566 0.404939
0.522672 0.473469 0.402767
0.534021 0.483528 0.400856
0.544939 0.493491 0.399336
0.555236 0.503146 0.398324
0.564756 0.512314 0.397928
0.573383 0.520859 0.398243
0.581036 0.528677 0.399351
0.587673 0.535705 0.401325
0.593287 0.541916 0.404225
0.597911 0.547322 0.408099
0.601614 0.551971 0.412985
0.604501 0.555950 0.418909
0.606717 0.559380 0.425885
0.608442 0.562424 0.433915
0.609895 0.565280 0.442990
0.611330 0.568184 0.453090
0.613040 0.571408 0.464183
0.615356 0.575265 0.476225
0.618644 0.580103 0.489161
0.623309 0.586307 0.502925
0.629792 0.594300 0.517437
0.638573 0.604544 0.532609
0.650168 0.617537 0.548339
0.665130 0.633815 0.564514
0.684051 0.653951 0.581010
0.707557 0.678556 0.597691
0.736315 0.708278 0.614408
0.771028 0.743802 0.631004
0.812434 0.785853 0.647308
0.484437 0.444324 0.415527
0.494654 0.451825 0.413739
0.505530 0.460403 0.411789
0.516733 0.469703 0.409838
0.527969 0.479408 0.408038
0.538981 0.489238 0.406526
0.549549 0.498951 0.405429
0.559491 0.508343 0.404862
0.568660 0.517247 0.404928
0.576949 0.525533 0.405720
0.584288 0.533110 0.407318
0.590643 0.539922 0.409792
0.596016 0.545952 0.413197
0.600451 0.551221 0.417582
0.604024 0.555786 0.422979
0.606852 0.559744 0.429411
0.609087 0.563227 0.436891
0.610920 0.566405 0.445416
0.612577 0.569485 0.454977
0.614324 0.572714 0.465549
0.616463 0.576375 0.477097
0.619332 0.580786 0.489575
0.623309 0.586307 0.502925
0.628806 0.593332 0.517077
0.636276 0.602294 0.531950
0.646205 0.613663 0.547452
0.659121 0.627948 0.563477
0.675586 0.645692 0.579912
0.696199 0.667480 0.596627
0.721599 0.693931 0.613485
0.752459 0.725702 0.630335
0.789493 0.763489 0.647014
0.833448 0.808025 0.663351
0.490763 0.450906 0.420378
0.500811 0.458368 0.418878
0.511473 0.466853 0.417250
0.522425 0.476017 0.415653
0.533384 0.485552 0.414234
0.544102 0.495188 0.413128
0.554367 0.504692 0.412458
0.564007 0.513870 0.412338
0.572886 0.522563 0.412867
0.580904 0.530651 0.414135
0.588001 0.538051 0.416221
0.594153 0.544719 0.419188
0.599371 0.550647 0.423093
0.603708 0.555864 0.427979
0.607249 0.560437 0.433876
0.610121 0.564472 0.440804
0.612486 0.568110 0.448773
0.614542 0.571532 0.457778
0.616527 0.574953 0.467806
0.618715 0.578630 0.478829
0.621416 0.582854 0.490810
0.624980 0.587955 0.503700
0.629792 0.594300 0.517437
0.636276 0.602294 0.531950
0.644891 0.612378 0.547154
0.656135 0.625033 0.562953
0.670544 0.640775 0.579241
0.688689 0.660159 0.595899
0.711180 0.683777 0.612796
0.738663 0.712258 0.629792
0.771823 0.746270 0.646732
0.811381 0.786517 0.663452
0.858095 0.833741 0.679776
0.497378 0.457871 0.426081
0.507283 0.465312 0.424881
0.517762 0.473730 0.423585
0.528503 0.482790 0.422349
0.539230 0.492194 0.421316
0.549704 0.501680 0.420619
0.559724 0.511026 0.420379
0.569126 0.520046 0.420705
0.577783 0.528590 0.421696
0.585606 0.536550 0.423437
0.592544 0.543850 0.426003
0.598580 0.550456 0.429457
0.603738 0.556369 0.433852
0.608077 0.561628 0.439227
0.611694 0.566310 0.445610
0.614723 0.570528 0.453019
0.617336 0.574435 0.461460
0.619741 0.578219 0.470925
0.622185 0.582108 0.481398
0.624951 0.586364 0.492850
0.628360 0.591290 0.505239
0.632769 0.597225 0.518513
0.638573 0.604544 0.532609
0.646205 0.613663 0.547452
0.656135 0.625033 0.562953
0.668870 0.639142 0.579016
0.684953 0.656517 0.595529
0.704966 0.677722 0.612372
0.729528 0.703358 0.629411
0.759295 0.734064 0.646502
0.794961 0.770518 0.663488
0.837255 0.813431 0.680202
0.886946 0.863557 0.696465
0.504592 0.465511 0.432599
0.514390 0.472960 0.431707
0.524728 0.481346 0.430750
0.535305 0.490344 0.429878
0.545853 0.499663 0.429235
0.556144 0.509053 0.428948
0.565985 0.518301 0.429136
0.575222 0.527228 0.429906
0.583737 0.535697 0.431353
0.591450 0.543607 0.433560
0.598319 0.550892 0.436598
0.604338 0.557527 0.440529
0.609539 0.563522 0.445400
0.613990 0.568927 0.451250
0.617799 0.573827 0.458103
0.621107 0.578345 0.465975
0.624097 0.582643 0.474867
0.626987 0.586919 0.484770
0.630031 0.591409 0.495665
0.633523 0.596386 0.507518
0.637792 0.602161 0.520287
0.643206 0.609083 0.533916
0.650168 0.617537 0.548339
0.659121 0.627948 0.563477
0.670544 0.640775 0.579241
0.684953 0.656517 0.595529
0.702901 0.675709 0.612228
