public/luts/x_tarr.cube
# Generated from ColorChecker fit
LUT_3D_SIZE 9
DOMAIN_MIN 0.0 0.0 0.0
DOMAIN_MAX 1.0 1.0 1.0
0.259782 0.287102 0.453514
0.277657 0.277676 0.451101
0.326518 0.307593 0.435401
0.382155 0.351165 0.417663
0.429902 0.392304 0.406181
0.464633 0.424516 0.406292
0.490763 0.450906 0.420378
0.522251 0.484173 0.447867
0.582596 0.546615 0.485228
0.277657 0.277676 0.451101
0.315855 0.293002 0.439924
0.375378 0.337509 0.419701
0.434404 0.387910 0.400945
0.480650 0.430513 0.391208
0.511376 0.461226 0.395090
0.533384 0.485552 0.414234
0.563017 0.518589 0.447328
0.626159 0.585035 0.490103
0.326518 0.307593 0.435401
0.375378 0.337509 0.419701
0.437495 0.388044 0.398707
0.493430 0.438310 0.382188
0.533286 0.477015 0.376961
0.556709 0.502465 0.386886
0.572886 0.522563 0.412867
0.600545 0.554805 0.452853
0.667956 0.626289 0.501837
0.382155 0.351165 0.417663
0.434404 0.387910 0.400945
0.493430 0.438310 0.382188
0.542180 0.483878 0.370425
0.573142 0.515720 0.371734
0.588349 0.534543 0.389235
0.599371 0.550647 0.423093
0.627323 0.583929 0.470519
0.702861 0.663885 0.525766
0.429902 0.392304 0.406181
0.480650 0.430513 0.391208
0.533286 0.477015 0.376961
0.573142 0.515720 0.371734
0.595094 0.540136 0.380865
0.603555 0.553366 0.406736
0.612486 0.568110 0.448773
0.645384 0.606666 0.503447
0.735290 0.700926 0.564274
0.464633 0.424516 0.406292
0.511376 0.461226 0.395090
0.556709 0.502465 0.386886
0.588349 0.534543 0.389235
0.603555 0.553366 0.406736
0.609130 0.564437 0.441032
0.621416 0.582854 0.490810
0.666298 0.633315 0.551803
0.779202 0.750112 0.616787
0.490763 0.450906 0.420378
0.533384 0.485552 0.414234
0.572886 0.522563 0.412867
0.599371 0.550647 0.423093
0.612486 0.568110 0.448773
0.621416 0.582854 0.490810
0.644891 0.612378 0.547154
0.711180 0.683777 0.612796
0.858095 0.833741 0.679776
0.522251 0.484173 0.447867
0.563017 0.518589 0.447328
0.600545 0.554805 0.452853
0.627323 0.583929 0.470519
0.645384 0.606666 0.503447
0.666298 0.633315 0.551803
0.711180 0.683777 0.612796
0.810685 0.787543 0.680681
1.000000 0.983706 0.746755
0.582596 0.546615 0.485228
0.626159 0.585035 0.490103
0.667956 0.626289 0.501837
0.702861 0.663885 0.525766
0.735290 0.700926 0.564274
0.779202 0.750112 0.616787
0.858095 0.833741 0.679776
1.000000 0.983706 0.746755
1.000000 1.000000 0.808285
0.277657 0.277676 0.451101
0.315855 0.293002 0.439924
0.375378 0.337509 0.419701
0.434404 0.387910 0.400945
0.480650 0.430513 0.391208
0.511376 0.461226 0.395090
0.533384 0.485552 0.414234
0.563017 0.518589 0.447328
0.626159 0.585035 0.490103
0.315855 0.293002 0.439924
0.369148 0.327600 0.422226
0.434902 0.382016 0.399479
0.493679 0.435363 0.381455
0.535582 0.476350 0.374969
0.560257 0.503282 0.383881
0.576890 0.524062 0.409096
0.604211 0.556187 0.448562
0.670488 0.626754 0.497272
0.375378 0.337509 0.419701
0.434902 0.382016 0.399479
0.499612 0.438579 0.377712
0.552455 0.488710 0.363431
0.585922 0.523517 0.362714
0.602042 0.543705 0.378682
0.612387 0.559573 0.411500
0.638072 0.591021 0.458378
0.709752 0.667543 0.513570
0.434404 0.387910 0.400945
0.493679 0.435363 0.381455
0.552455 0.488710 0.363431
0.596067 0.531862 0.355166
0.619389 0.558324 0.361997
0.626835 0.571202 0.386308
0.632365 0.583194 0.427523
0.659477 0.616599 0.482115
0.741212 0.703310 0.543598
0.480650 0.430513 0.391208
0.535582 0.476350 0.374969
0.585922 0.523517 0.362714
0.619389 0.558324 0.361997
0.633241 0.576677 0.377417
0.634282 0.584079 0.410618
0.638853 0.595630 0.460286
0.672839 0.636024 0.522154
0.771668 0.739556 0.588998
0.511376 0.461226 0.395090
0.560257 0.503282 0.383881
0.602042 0.543705 0.378682
0.626835 0.571202 0.386308
0.634282 0.584079 0.410618
0.633569 0.590239 0.452517
0.643424 0.607180 0.509954
0.692118 0.661997 0.577922
0.817463 0.791382 0.648458
0.533384 0.485552 0.414234
0.576890 0.524062 0.409096
0.612387 0.559573 0.411500
0.632365 0.583194 0.427523
0.638853 0.595630 0.460286
0.643424 0.607180 0.509954
0.667192 0.637743 0.573738
0.740812 0.716814 0.645890
0.904482 0.883483 0.717710
0.563017 0.518589 0.447328
0.604211 0.556187 0.448562
0.638072 0.591022 0.458378
0.659477 0.616599 0.482115
0.672839 0.636024 0.522154
0.692118 0.661997 0.577922
0.740812 0.716814 0.645890
0.851963 0.832369 0.719573
1.000000 1.000000 0.789531
0.626159 0.585035 0.490103
0.670488 0.626754 0.497272
0.709752 0.667543 0.513570
0.741212 0.703310 0.543598
0.771668 0.739556 0.588998
0.817463 0.791382 0.648458
0.904482 0.883483 0.717710
1.000000 1.000000 0.789531
1.000000 1.000000 0.853740
0.326518 0.307593 0.435401
0.375378 0.337509 0.419701
0.437495 0.388044 0.398707
0.493430 0.438310 0.382188
0.533286 0.477015 0.376961
0.556709 0.502465 0.386886
0.572886 0.522563 0.412867
0.600545 0.554805 0.452853
0.667956 0.626289 0.501837
0.375378 0.337509 0.419701
0.434902 0.382016 0.399479
0.499612 0.438579 0.377712
0.552455 0.488710 0.363431
0.585922 0.523517 0.362714
0.602042 0.543705 0.378682
0.612387 0.559573 0.411500
0.638072 0.591021 0.458378
0.709752 0.667543 0.513570
0.437495 0.388044 0.398707
0.499612 0.438579 0.377712
0.560436 0.494208 0.358429
0.605299 0.538841 0.349150
0.629077 0.565986 0.355215
0.636185 0.578746 0.379005
0.640581 0.589822 0.419947
0.665765 0.621510 0.474511
0.744776 0.705704 0.536213
0.493430 0.438310 0.382188
0.552455 0.488710 0.363431
0.605299 0.538841 0.349150
0.639679 0.575013 0.346901
0.652855 0.593131 0.361280
0.651628 0.598699 0.393933
0.652342 0.606815 0.443546
0.680881 0.642177 0.505852
0.772671 0.739076 0.573626
0.533286 0.477015 0.376961
0.585922 0.523517 0.362714
0.629077 0.565986 0.355215
0.652855 0.593131 0.361280
0.656901 0.603257 0.384769
0.650402 0.604266 0.426586
0.652086 0.613658 0.484679
0.690223 0.658526 0.554042
0.802625 0.775563 0.626712
0.556709 0.502465 0.386886
0.602042 0.543705 0.378682
0.636185 0.578746 0.379005
0.651628 0.598699 0.393933
0.650402 0.604266 0.426586
0.644078 0.605751 0.477129
0.653770 0.623049 0.542772
0.710133 0.685655 0.617770
0.853366 0.832661 0.693421
0.572886 0.522563 0.412867
0.612387 0.559573 0.411500
0.640581 0.589822 0.419947
0.652342 0.606815 0.443546
0.652086 0.613658 0.484679
0.653770 0.623049 0.542772
0.680893 0.657286 0.614297
0.766497 0.748262 0.692768
0.953165 0.937468 0.768745
0.600545 0.554805 0.452853
0.638072 0.591022 0.458378
0.665765 0.621510 0.474511
0.680881 0.642177 0.505852
0.690223 0.658526 0.554042
0.710133 0.685655 0.617770
0.766497 0.748262 0.692768
0.894741 0.880638 0.771812
1.000000 1.000000 0.844723
0.667956 0.626289 0.501837
0.709752 0.667543 0.513570
0.744776 0.705704 0.536213
0.772671 0.739076 0.573626
0.802625 0.775563 0.626712
0.853366 0.832661 0.693421
0.953165 0.937468 0.768745
1.000000 1.000000 0.844723
1.000000 1.000000 0.910434
0.382155 0.351165 0.417663
0.434404 0.387910 0.400945
0.493430 0.438310 0.382188
0.542180 0.483878 0.370425
0.573142 0.515720 0.371734
0.588349 0.534543 0.389235
0.599371 0.550647 0.423093
0.627323 0.583929 0.470519
0.702861 0.663885 0.525766
0.434404 0.387910 0.400945
0.493679 0.435363 0.381455
0.552455 0.488710 0.363431
0.596067 0.531862 0.355166
0.619389 0.558324 0.361997
0.626835 0.571202 0.386308
0.632365 0.583194 0.427523
0.659477 0.616599 0.482115
0.741212 0.703310 0.543598
0.493430 0.438310 0.382188
0.552455 0.488710 0.363431
0.605299 0.538841 0.349150
0.639679 0.575013 0.346901
0.652855 0.593131 0.361280
0.651628 0.598699 0.393933
0.652342 0.606815 0.443546
0.680881 0.642177 0.505852
0.772671 0.739076 0.573626
0.542180 0.483878 0.370425
0.596067 0.531862 0.355166
0.639679 0.575013 0.346901
0.663119 0.602040 0.352445
0.666031 0.611249 0.375660
0.657603 0.610542 0.417449
0.656563 0.617416 0.475761
0.691181 0.658968 0.545589
0.799270 0.771889 0.618971
0.573142 0.515720 0.371734
0.619389 0.558324 0.361997
0.652855 0.593131 0.361280
0.666031 0.611249 0.375660
0.660947 0.613383 0.408258
0.649175 0.609834 0.459238
0.651829 0.620500 0.525812
0.699565 0.674874 0.602232
0.832579 0.812049 0.679799
0.588349 0.534543 0.389235
0.626835 0.571202 0.386308
0.651628 0.598699 0.393933
0.657603 0.610542 0.417449
0.649175 0.609834 0.459238
0.640302 0.609276 0.518727
0.654483 0.631165 0.592385
0.724760 0.707395 0.673730
0.893714 0.879454 0.753319
0.599371 0.550647 0.423093
0.632365 0.583194 0.427523
0.652342 0.606815 0.443546
0.656563 0.617416 0.475761
0.651829 0.620500 0.525812
0.654483 0.631165 0.592385
0.690410 0.674109 0.671214
0.795036 0.783624 0.755074
1.000000 1.000000 0.833785
0.627323 0.583929 0.470519
0.659477 0.616599 0.482115
0.680881 0.642177 0.505852
0.691181 0.658968 0.545589
0.699565 0.674874 0.602232
0.724760 0.707395 0.673730
0.795036 0.783624 0.755074
0.948206 0.940254 0.838302
1.000000 1.000000 0.912497
0.702861 0.663885 0.525766
0.741212 0.703310 0.543598
0.772671 0.739076 0.573626
0.799270 0.771889 0.618971
0.832579 0.812049 0.679799
0.893714 0.879454 0.753319
1.000000 1.000000 0.833785
1.000000 1.000000 0.912497
1.000000 1.000000 0.977796
0.429902 0.392304 0.406181
0.480650 0.430513 0.391208
0.533286 0.477015 0.376961
0.573142 0.515720 0.371734
0.595094 0.540136 0.380865
0.603556 0.553366 0.406736
0.612486 0.568110 0.448773
0.645384 0.606666 0.503447
0.735290 0.700926 0.564274
0.480650 0.430513 0.391208
0.535582 0.476350 0.374969
0.585922 0.523517 0.362714
0.619389 0.558324 0.361997
0.633241 0.576677 0.377417
0.634282 0.584079 0.410618
0.638853 0.595630 0.460286
0.672839 0.636024 0.522154
0.771668 0.739556 0.588998
0.533286 0.477015 0.376961
0.585922 0.523517 0.362714
0.629077 0.565986 0.355215
0.652855 0.593131 0.361280
0.656901 0.603257 0.384769
0.650402 0.604266 0.426586
0.652086 0.613658 0.484679
0.690223 0.658526 0.554042
0.802625 0.775563 0.626712
0.573142 0.515720 0.371734
0.619389 0.558324 0.361997
0.652855 0.593131 0.361280
0.666031 0.611249 0.375660
0.660947 0.613383 0.408258
0.649175 0.609834 0.459238
0.651829 0.620500 0.525812
0.699565 0.674874 0.602232
0.832579 0.812049 0.679799
0.595094 0.540136 0.380865
0.633241 0.576677 0.377417
0.656901 0.603257 0.384769
0.660947 0.613383 0.408258
0.649795 0.610159 0.450265
0.637403 0.606285 0.510219
0.647270 0.624058 0.584589
0.712437 0.695372 0.666891
0.875487 0.861715 0.747684
0.603556 0.553366 0.406736
0.634282 0.584079 0.410618
0.650402 0.604266 0.426586
0.649175 0.609834 0.459238
0.637403 0.606285 0.510219
0.631429 0.608719 0.578215
0.657138 0.641831 0.658959
0.749955 0.739915 0.745227
0.954848 0.946859 0.826839
0.612486 0.568110 0.448773
0.638853 0.595630 0.460286
0.652086 0.613658 0.484679
0.651829 0.620500 0.525812
0.647270 0.624058 0.584589
0.657138 0.641831 0.658959
0.709701 0.700914 0.743915
0.842772 0.837998 0.831494
1.000000 1.000000 0.910779
0.645384 0.606666 0.503447
0.672839 0.636024 0.522154
0.690223 0.658526 0.554042
0.699565 0.674874 0.602232
0.712438 0.695372 0.666891
0.749955 0.739915 0.745227
0.842772 0.837998 0.831494
1.000000 1.000000 0.916992
1.000000 1.000000 0.990063
0.735290 0.700926 0.564274
0.771668 0.739556 0.588998
0.802625 0.775563 0.626712
0.832579 0.812049 0.679799
0.875487 0.861715 0.747684
0.954848 0.946859 0.826839
1.000000 1.000000 0.910779
1.000000 1.000000 0.990063
1.000000 1.000000 1.000000
0.464633 0.424516 0.406292
0.511376 0.461226 0.395090
0.556709 0.502465 0.386886
0.588349 0.534543 0.389235
0.603556 0.553366 0.406736
0.609130 0.564437 0.441032
0.621416 0.582854 0.490810
0.666298 0.633315 0.551803
0.779202 0.750112 0.616787
0.511376 0.461226 0.395090
0.560257 0.503282 0.383881
0.602042 0.543705 0.378682
0.626835 0.571202 0.386308
0.634282 0.584079 0.410618
0.633569 0.590239 0.452517
0.643424 0.607180 0.509954
0.692118 0.661997 0.577922
0.817463 0.791382 0.648458
0.556709 0.502465 0.386886
0.602042 0.543705 0.378682
0.636185 0.578746 0.379005
0.651628 0.598699 0.393933
0.650402 0.604266 0.426586
0.644078 0.605751 0.477129
0.653770 0.623049 0.542772
0.710134 0.685655 0.617770
0.853366 0.832661 0.693421
0.588349 0.534543 0.389235
0.626835 0.571202 0.386308
0.651628 0.598699 0.393933
0.657603 0.610542 0.417449
0.649175 0.609834 0.459238
0.640302 0.609276 0.518727
0.654483 0.631165 0.592385
0.724760 0.707395 0.673730
0.893714 0.879454 0.753319
0.603556 0.553366 0.406736
0.634282 0.584079 0.410618
0.650402 0.604266 0.426586
0.649175 0.609834 0.459238
0.637403 0.606285 0.510219
0.631429 0.608719 0.578215
0.657138 0.641831 0.658959
0.749955 0.739915 0.745227
0.954848 0.946859 0.826839
0.609130 0.564437 0.441032
0.633569 0.590239 0.452517
0.644078 0.605751 0.477129
0.640302 0.609276 0.518727
0.631429 0.608719 0.578215
0.636187 0.621576 0.653543
0.682846 0.674944 0.739703
0.809217 0.805513 0.828732
1.000000 1.000000 0.909713
0.621416 0.582854 0.490810
0.643424 0.607180 0.509954
0.653770 0.623049 0.542772
0.654483 0.631165 0.592385
0.657138 0.641831 0.658959
0.682846 0.674944 0.739703
0.762264 0.759997 0.828871
0.935589 0.936082 0.917762
1.000000 1.000000 0.994719
0.666298 0.633315 0.551803
0.692118 0.661997 0.577922
0.710134 0.685655 0.617770
0.724760 0.707395 0.673730
0.749955 0.739915 0.745227
0.809217 0.805513 0.828732
0.935589 0.936082 0.917762
1.000000 1.000000 1.000000
1.000000 1.000000 1.000000
0.779202 0.750112 0.616787
0.817463 0.791382 0.648458
0.853366 0.832661 0.693421
0.893714 0.879454 0.753319
0.954848 0.946859 0.826839
1.000000 1.000000 0.909713
1.000000 1.000000 0.994719
1.000000 1.000000 1.000000
1.000000 1.000000 1.000000
0.490763 0.450906 0.420378
0.533384 0.485552 0.414234
0.572886 0.522563 0.412867
0.599371 0.550647 0.423093
0.612486 0.568110 0.448773
0.621416 0.582854 0.490810
0.644891 0.612378 0.547154
0.711180 0.683777 0.612796
0.858095 0.833741 0.679776
0.533384 0.485552 0.414234
0.576890 0.524062 0.409096
0.612387 0.559573 0.411500
0.632365 0.583194 0.427523
0.638853 0.595630 0.460286
0.643424 0.607180 0.509954
0.667192 0.637743 0.573738
0.740812 0.716814 0.645890
0.904482 0.883483 0.717710
0.572886 0.522563 0.412867
0.612387 0.559573 0.411500
0.640581 0.589822 0.419947
0.652342 0.606815 0.443546
0.652086 0.613658 0.484679
0.653770 0.623049 0.542772
0.680893 0.657286 0.614297
0.766497 0.748262 0.692768
0.953165 0.937468 0.768745
0.599371 0.550647 0.423093
0.632365 0.583194 0.427523
0.652342 0.606815 0.443546
0.656563 0.617416 0.475761
0.651829 0.620500 0.525812
0.654483 0.631165 0.592385
0.690410 0.674109 0.671214
0.795036 0.783624 0.755074
1.000000 1.000000 0.833785
0.612486 0.568110 0.448773
0.638853 0.595630 0.460286
0.652086 0.613658 0.484679
0.651829 0.620500 0.525812
0.647270 0.624058 0.584589
0.657138 0.641831 0.658959
0.709701 0.700914 0.743915
0.842772 0.837998 0.831494
1.000000 1.000000 0.910779
0.621416 0.582854 0.490810
0.643424 0.607180 0.509954
0.653770 0.623049 0.542772
0.654483 0.631165 0.592385
0.657138 0.641831 0.658959
0.682846 0.674944 0.739703
0.762264 0.759997 0.828871
0.935589 0.936082 0.917762
1.000000 1.000000 0.994719
0.644891 0.612378 0.547154
0.667192 0.637743 0.573738
0.680893 0.657286 0.614297
0.690410 0.674109 0.671214
0.709701 0.700914 0.743915
0.762264 0.759997 0.828871
0.881141 0.883251 0.919597
1.000000 1.000000 1.000000
1.000000 1.000000 1.000000
0.711180 0.683777 0.612796
0.740812 0.716814 0.645890
0.766497 0.748262 0.692768
0.795036 0.783624 0.755074
0.842772 0.837998 0.831494
0.935589 0.936082 0.917762
1.000000 1.000000 1.000000
1.000000 1.000000 1.000000
1.000000 1.000000 1.000000
0.858095 0.833741 0.679776
0.904482 0.883483 0.717710
0.953165 0.937468 0.768745
1.000000 1.000000 0.833785
1.000000 1.000000 0.910779
1.000000 1.000000 0.994719
1.000000 1.000000 1.000000
1.000000 1.000000 1.000000
1.000000 1.000000 1.000000
0.522251 0.484173 0.447867
0.563017 0.518589 0.447328
0.600545 0.554805 0.452853
0.627323 0.583929 0.470519
0.645384 0.606666 0.503447
0.666298 0.633315 0.551803
0.711180 0.683777 0.612796
0.810685 0.787543 0.680681
1.000000 0.983706 0.746755
0.563017 0.518589 0.447328
0.604211 0.556187 0.448562
0.638072 0.591022 0.458378
0.659477 0.616599 0.482115
0.672839 0.636024 0.522154
0.692118 0.661997 0.577922
0.740812 0.716814 0.645890
0.851963 0.832369 0.719573
1.000000 1.000000 0.789531
0.600545 0.554805 0.452853
0.638072 0.591022 0.458378
0.665765 0.621510 0.474511
0.680881 0.642177 0.505852
0.690223 0.658526 0.554042
0.710134 0.685655 0.617770
0.766497 0.748262 0.692768
0.894741 0.880638 0.771812
1.000000 1.000000 0.844723
0.627323 0.583929 0.470519
0.659477 0.616599 0.482115
0.680881 0.642177 0.505852
0.691181 0.658968 0.545589
0.699565 0.674874 0.602232
0.724760 0.707395 0.673730
0.795036 0.783624 0.755074
0.948206 0.940254 0.838302
1.000000 1.000000 0.912497
0.645384 0.606666 0.503447
0.672839 0.636024 0.522154
0.690223 0.658526 0.554042
0.699565 0.674874 0.602232
0.712438 0.695372 0.666891
0.749955 0.739915 0.745227
0.842772 0.837998 0.831494
1.000000 1.000000 0.916992
1.000000 1.000000 0.990063
0.666298 0.633315 0.551803
0.692118 0.661997 0.577922
0.710134 0.685655 0.617770
0.724760 0.707395 0.673730
0.749955 0.739915 0.745227
0.809217 0.805513 0.828732
0.935589 0.936082 0.917762
1.000000 1.000000 1.000000
1.000000 1.000000 1.000000
0.711180 0.683777 0.612796
0.740812 0.716814 0.645890
0.766497 0.748262 0.692768
0.795036 0.783624 0.755074
0.842772 0.837998 0.831494
0.935589 0.936082 0.917762
1.000000 1.000000 1.000000
1.000000 1.000000 1.000000
1.000000 1.000000 1.000000
0.810685 0.787543 0.680681
0.851963 0.832369 0.719573
0.894741 0.880638 0.771812
0.948206 0.940254 0.838302
1.000000 1.000000 0.916992
1.000000 1.000000 1.000000
1.000000 1.000000 1.000000
1.000000 1.000000 1.000000
1.000000 1.000000 1.000000
1.000000 0.983706 0.746755
1.000000 1.000000 0.789531
1.000000 1.000000 0.844723
1.000000 1.000000 0.912497
1.000000 1.000000 0.990063
1.000000 1.000000 1.000000
1.000000 1.000000 1.000000
1.000000 1.000000 1.000000
1.000000 1.000000 1.000000
0.582596 0.546615 0.485228
0.626159 0.585035 0.490103
0.667956 0.626289 0.501837
0.702861 0.663885 0.525766
0.735290 0.700926 0.564274
0.779202 0.750112 0.616787
0.858095 0.833741 0.679776
1.000000 0.983706 0.746755
1.000000 1.000000 0.808285
0.626159 0.585035 0.490103
0.670488 0.626754 0.497272
0.709752 0.667543 0.513570
0.741212 0.703310 0.543598
0.771668 0.739556 0.588998
0.817463 0.791382 0.648458
0.904482 0.883483 0.717710
1.000000 1.000000 0.789531
1.000000 1.000000 0.853740
0.667956 0.626289 0.501837
0.709752 0.667543 0.513570
0.744776 0.705704 0.536213
0.772671 0.739076 0.573626
0.802625 0.775563 0.626712
0.853366 0.832661 0.693421
0.953165 0.937468 0.768745
1.000000 1.000000 0.844723
1.000000 1.000000 0.910434
0.702861 0.663885 0.525766
0.741212 0.703310 0.543598
0.772671 0.739076 0.573626
0.799270 0.771889 0.618971
0.832579 0.812049 0.679799
0.893714 0.879454 0.753319
1.000000 1.000000 0.833785
1.000000 1.000000 0.912497
1.000000 1.000000 0.977796
0.735290 0.700926 0.564274
0.771668 0.739556 0.588998
0.802625 0.775563 0.626712
0.832579 0.812049 0.679799
0.875487 0.861715 0.747684
0.954848 0.946859 0.826839
1.000000 1.000000 0.910779
1.000000 1.000000 0.990063
1.000000 1.000000 1.000000
0.779202 0.750112 0.616787
0.817463 0.791382 0.648458
0.853366 0.832661 0.693421
0.893714 0.879454 0.753319
0.954848 0.946859 0.826839
1.000000 1.000000 0.909713
1.000000 1.000000 0.994719
1.000000 1.000000 1.000000
1.000000 1.000000 1.000000
0.858095 0.833741 0.679776
0.904482 0.883483 0.717710
0.953165 0.937468 0.768745
1.000000 1.000000 0.833785
1.000000 1.000000 0.910779
1.000000 1.000000 0.994719
1.000000 1.000000 1.000000
1.000000 1.000000 1.000000
1.000000 1.000000 1.000000
1.000000 0.983706 0.746755
1.000000 1.000000 0.789531
1.000000 1.000000 0.844723
1.000000 1.000000 0.912497
1.000000 1.000000 0.990063
1.000000 1.000000 1.000000
1.000000 1.000000 1.000000
1.000000 1.000000 1.000000
1.000000 1.000000 1.000000
1.000000 1.000000 0.808285
1.000000 1.000000 0.853740
1.000000 1.000000 0.910434
1.000000 1.000000 0.977796
1.000000 1.000000 1.000000
1.000000 1.000000 1.000000
1.000000 1.000000 1.000000
1.000000 1.000000 1.000000
1.000000 1.000000 1.000000
