public/luts/zero_mute.cube
# Generated from ColorChecker fit
LUT_3D_SIZE 33
DOMAIN_MIN 0.0 0.0 0.0
DOMAIN_MAX 1.0 1.0 1.0
0.442407 0.267524 0.558684
0.379948 0.224626 0.571852
0.326705 0.186197 0.588950
0.282430 0.152108 0.609339
0.246798 0.122141 0.632360
0.219401 0.095995 0.657334
0.199755 0.073278 0.683564
0.187296 0.053517 0.710334
0.181381 0.036147 0.736909
0.181286 0.020522 0.762536
0.186212 0.005905 0.786440
0.195278 0.000000 0.807831
0.207523 0.000000 0.825899
0.221911 0.000000 0.839813
0.237323 0.000000 0.848725
0.252562 0.000000 0.851768
0.266353 0.000000 0.848056
0.277342 0.000000 0.836684
0.284094 0.000000 0.816728
0.285096 0.000000 0.787244
0.278757 0.000000 0.747272
0.263406 0.000000 0.695830
0.237293 0.000000 0.631920
0.198588 0.000000 0.554521
0.145383 0.000000 0.462598
0.075691 0.000000 0.355094
0.000000 0.000000 0.230933
0.000000 0.000000 0.089022
0.000000 0.000000 0.000000
0.000000 0.000000 0.000000
0.000000 0.000000 0.000000
0.000000 0.000000 0.000000
0.000000 0.000000 0.000000
0.413382 0.216526 0.542856
0.355593 0.186601 0.556232
0.306771 0.160902 0.573527
0.266613 0.139241 0.594071
0.234737 0.121345 0.617176
0.210681 0.106854 0.642136
0.193904 0.095322 0.668225
0.183789 0.086217 0.694699
0.179635 0.078919 0.720794
0.180666 0.072724 0.745728
0.186025 0.066840 0.768699
0.194776 0.060388 0.788889
0.205905 0.052404 0.805456
0.218318 0.041837 0.817545
0.230842 0.027549 0.824278
0.242226 0.008317 0.824758
0.251137 0.000000 0.818073
0.256167 0.000000 0.803288
0.255825 0.000000 0.779450
0.248545 0.000000 0.745589
0.232679 0.000000 0.700714
0.206500 0.000000 0.643817
0.168203 0.000000 0.573868
0.115904 0.000000 0.489822
0.047639 0.000000 0.390613
0.000000 0.000000 0.275155
0.000000 0.000000 0.142346
0.000000 0.000000 0.000000
0.000000 0.000000 0.000000
0.000000 0.000000 0.000000
0.000000 0.000000 0.000000
0.000000 0.000000 0.000000
0.000000 0.000000 0.000000
0.373873 0.151701 0.517023
0.321016 0.134963 0.531124
0.276841 0.122162 0.549105
0.240989 0.113053 0.570270
0.213022 0.107308 0.593902
0.192424 0.104510 0.619266
0.178600 0.104156 0.645608
0.170874 0.105656 0.672156
0.168493 0.108336 0.698117
0.170624 0.111433 0.722680
0.176355 0.114099 0.745017
0.184696 0.115398 0.764278
0.194576 0.114310 0.779596
0.204846 0.109726 0.790085
0.214278 0.100453 0.794840
0.221566 0.085210 0.792936
0.225322 0.062630 0.783430
0.224081 0.031259 0.765362
0.216300 0.000000 0.737748
0.200354 0.000000 0.699591
0.174541 0.000000 0.649871
0.137080 0.000000 0.587551
0.086110 0.000000 0.511575
0.019691 0.000000 0.420867
0.000000 0.000000 0.314332
0.000000 0.000000 0.190858
0.000000 0.000000 0.049314
0.000000 0.000000 0.000000
0.000000 0.000000 0.000000
0.000000 0.000000 0.000000
0.000000 0.000000 0.000000
0.000000 0.000000 0.000000
0.000000 0.000000 0.000000
0.323743 0.072833 0.480301
0.276106 0.069538 0.495698
0.236830 0.069847 0.514915
0.205499 0.073460 0.537226
0.181623 0.079991 0.561886
0.164628 0.088966 0.588131
0.153865 0.099826 0.615180
0.148602 0.111925 0.642230
0.148031 0.124531 0.668462
0.151264 0.136824 0.693036
0.157334 0.147901 0.715095
0.165194 0.156768 0.733761
0.173719 0.162349 0.748139
0.181706 0.163478 0.757313
0.187869 0.158905 0.760351
0.190848 0.147292 0.756299
0.189200 0.127216 0.744186
0.181405 0.097167 0.723022
0.165864 0.055548 0.691798
0.140896 0.000676 0.649485
0.104746 0.000000 0.595037
0.055575 0.000000 0.527387
0.000000 0.000000 0.445451
0.000000 0.000000 0.348125
0.000000 0.000000 0.234286
0.000000 0.000000 0.102793
0.000000 0.000000 0.000000
0.000000 0.000000 0.000000
0.000000 0.000000 0.000000
0.000000 0.000000 0.000000
0.000000 0.000000 0.000000
0.000000 0.000000 0.000000
0.000000 0.000000 0.000000
0.263054 0.000000 0.431959
0.220952 0.000000 0.449286
0.186854 0.003958 0.470347
0.160289 0.020505 0.494388
0.140711 0.039479 0.520636
0.127491 0.060352 0.548299
0.119924 0.082507 0.576567
0.117225 0.105241 0.604608
0.118529 0.127765 0.631575
0.122893 0.149204 0.656600
0.129294 0.168596 0.678797
0.136631 0.184893 0.697259
0.143723 0.196959 0.711064
0.149311 0.203574 0.719268
0.152056 0.203429 0.720908
0.150540 0.195132 0.715004
0.143267 0.177202 0.700556
0.128660 0.148071 0.676545
0.105064 0.106087 0.641934
0.070747 0.049510 0.595665
0.023893 0.000000 0.536664
0.000000 0.000000 0.463836
0.000000 0.000000 0.376068
0.000000 0.000000 0.272227
0.000000 0.000000 0.151163
0.000000 0.000000 0.011706
0.000000 0.000000 0.000000
0.000000 0.000000 0.000000
0.000000 0.000000 0.000000
0.000000 0.000000 0.000000
0.000000 0.000000 0.000000
0.000000 0.000000 0.000000
0.000000 0.000000 0.000000
0.192072 0.000000 0.371429
0.155847 0.000000 0.391378
0.127232 0.000000 0.414950
0.105704 0.000000 0.441365
0.090658 0.000000 0.469821
0.081412 0.018931 0.499497
0.077205 0.052504 0.529554
0.077196 0.085953 0.559133
0.080466 0.118431 0.587358
0.086017 0.149008 0.613333
0.092769 0.176664 0.636143
0.099567 0.200293 0.654854
0.105174 0.218705 0.668513
0.108276 0.230622 0.676149
0.107479 0.234680 0.676771
0.101310 0.229427 0.669370
0.088216 0.213326 0.652917
0.066567 0.184755 0.626366
0.034652 0.142003 0.588650
0.000000 0.083273 0.538684
0.000000 0.006684 0.475365
0.000000 0.000000 0.397569
0.000000 0.000000 0.304155
0.000000 0.000000 0.193963
0.000000 0.000000 0.065812
0.000000 0.000000 0.000000
0.000000 0.000000 0.000000
0.000000 0.000000 0.000000
0.000000 0.000000 0.000000
0.000000 0.000000 0.000000
0.000000 0.000000 0.000000
0.000000 0.000000 0.000000
0.000000 0.000000 0.000000
0.111263 0.000000 0.298303
0.081283 0.000000 0.321622
0.058485 0.000000 0.348433
0.042290 0.000000 0.377924
0.032038 0.000000 0.409266
0.026991 0.000000 0.441609
0.026334 0.010250 0.474086
0.029170 0.054538 0.505810
0.034525 0.097051 0.535876
0.041344 0.136800 0.563359
0.048494 0.172711 0.587315
0.054764 0.203622 0.606784
0.058862 0.228284 0.620783
0.059418 0.245364 0.628313
0.054983 0.253439 0.628355
0.044028 0.251002 0.619870
0.024946 0.236460 0.601803
0.000000 0.208133 0.573077
0.000000 0.164253 0.532599
0.000000 0.102968 0.479253
0.000000 0.022338 0.411910
0.000000 0.000000 0.329416
0.000000 0.000000 0.230602
0.000000 0.000000 0.114279
0.000000 0.000000 0.000000
0.000000 0.000000 0.000000
0.000000 0.000000 0.000000
0.000000 0.000000 0.000000
0.000000 0.000000 0.000000
0.000000 0.000000 0.000000
0.000000 0.000000 0.000000
0.000000 0.000000 0.000000
0.000000 0.000000 0.000000
0.021293 0.000000 0.212329
0.000000 0.000000 0.239829
0.000000 0.000000 0.270664
0.000000 0.000000 0.303993
0.000000 0.000000 0.338957
0.000000 0.000000 0.374681
0.000000 0.000000 0.410267
0.000000 0.011603 0.444801
0.000000 0.064273 0.477348
0.000000 0.113276 0.506956
0.000000 0.157478 0.532654
0.003187 0.195661 0.553449
0.005778 0.226521 0.568334
0.003754 0.248666 0.576279
0.000000 0.260619 0.576237
0.000000 0.260815 0.567143
0.000000 0.247603 0.547909
0.000000 0.219247 0.517434
0.000000 0.173924 0.474593
0.000000 0.109723 0.418245
0.000000 0.024649 0.347230
0.000000 0.000000 0.260367
0.000000 0.000000 0.156458
0.000000 0.000000 0.034285
0.000000 0.000000 0.000000
0.000000 0.000000 0.000000
0.000000 0.000000 0.000000
0.000000 0.000000 0.000000
0.000000 0.000000 0.000000
0.000000 0.000000 0.000000
0.000000 0.000000 0.000000
0.000000 0.000000 0.000000
0.000000 0.000000 0.000000
0.000000 0.000000 0.113417
0.000000 0.000000 0.145967
0.000000 0.000000 0.181669
0.000000 0.000000 0.219656
0.000000 0.000000 0.259041
0.000000 0.000000 0.298917
0.000000 0.000000 0.338361
0.000000 0.000000 0.376429
0.000000 0.020880 0.412158
0.000000 0.079258 0.444568
0.000000 0.131830 0.472658
0.000000 0.177322 0.495408
0.000000 0.214370 0.511783
0.000000 0.241529 0.520723
0.000000 0.257262 0.521154
0.000000 0.259949 0.511980
0.000000 0.247884 0.492089
0.000000 0.219272 0.460348
0.000000 0.172233 0.415605
0.000000 0.104800 0.356691
0.000000 0.014921 0.282415
0.000000 0.000000 0.191570
0.000000 0.000000 0.082930
0.000000 0.000000 0.000000
0.000000 0.000000 0.000000
0.000000 0.000000 0.000000
0.000000 0.000000 0.000000
0.000000 0.000000 0.000000
0.000000 0.000000 0.000000
0.000000 0.000000 0.000000
0.000000 0.000000 0.000000
0.000000 0.000000 0.000000
0.000000 0.000000 0.000000
0.000000 0.000000 0.001635
0.000000 0.000000 0.040162
0.000000 0.000000 0.081636
0.000000 0.000000 0.125160
0.000000 0.000000 0.169820
0.000000 0.000000 0.214681
0.000000 0.000000 0.258790
0.000000 0.000000 0.301175
0.000000 0.000000 0.340846
0.000000 0.035701 0.376792
0.000000 0.096765 0.407986
0.000000 0.149643 0.433379
0.000000 0.192916 0.451906
0.000000 0.225078 0.462480
0.000000 0.244539 0.463999
0.000000 0.249622 0.455338
0.000000 0.238561 0.435356
0.000000 0.209508 0.402892
0.000000 0.160524 0.356766
0.000000 0.089587 0.295779
0.000000 0.000000 0.218715
0.000000 0.000000 0.124335
0.000000 0.000000 0.011386
0.000000 0.000000 0.000000
0.000000 0.000000 0.000000
0.000000 0.000000 0.000000
0.000000 0.000000 0.000000
0.000000 0.000000 0.000000
0.000000 0.000000 0.000000
0.000000 0.000000 0.000000
0.000000 0.000000 0.000000
0.000000 0.000000 0.000000
0.000000 0.000000 0.000000
0.000000 0.000000 0.000000
0.000000 0.000000 0.000000
0.000000 0.000000 0.000000
0.000000 0.000000 0.020910
0.000000 0.000000 0.071760
0.000000 0.000000 0.122495
0.000000 0.000000 0.172136
0.000000 0.000000 0.219681
0.000000 0.000000 0.264111
0.000000 0.000000 0.304388
0.000000 0.053410 0.339456
0.000000 0.113797 0.368238
0.000000 0.163371 0.389639
0.000000 0.200572 0.402547
0.000000 0.223752 0.405827
0.000000 0.231176 0.398329
0.000000 0.221023 0.378882
0.000000 0.191387 0.346297
0.000000 0.140274 0.299366
0.000000 0.065604 0.236861
0.000000 0.000000 0.157537
0.000000 0.000000 0.060129
0.000000 0.000000 0.000000
0.000000 0.000000 0.000000
0.000000 0.000000 0.000000
0.000000 0.000000 0.000000
0.000000 0.000000 0.000000
0.000000 0.000000 0.000000
0.000000 0.000000 0.000000
0.000000 0.000000 0.000000
0.000000 0.000000 0.000000
0.000000 0.000000 0.000000
0.000000 0.000000 0.000000
0.000000 0.000000 0.000000
0.000000 0.000000 0.000000
0.000000 0.000000 0.000000
0.000000 0.000000 0.000000
0.000000 0.000000 0.000000
0.000000 0.000000 0.023043
0.000000 0.000000 0.079140
0.000000 0.000000 0.132746
0.000000 0.000000 0.182813
0.000000 0.000000 0.228275
0.000000 0.003019 0.268046
0.000000 0.071081 0.301022
0.000000 0.127080 0.326080
0.000000 0.169398 0.342076
0.000000 0.196330 0.347852
0.000000 0.206085 0.342225
0.000000 0.196787 0.323999
0.000000 0.166471 0.291954
0.000000 0.113087 0.244854
0.000000 0.034498 0.181444
0.000000 0.000000 0.100450
0.000000 0.000000 0.000577
0.000000 0.000000 0.000000
0.000000 0.000000 0.000000
0.000000 0.000000 0.000000
0.000000 0.000000 0.000000
0.000000 0.000000 0.000000
0.000000 0.000000 0.000000
0.000000 0.000000 0.000000
0.000000 0.000000 0.000000
0.000000 0.000000 0.000000
0.000000 0.000000 0.000000
0.000000 0.000000 0.000000
0.000000 0.000000 0.000000
0.000000 0.000000 0.000000
0.000000 0.000000 0.000000
0.000000 0.000000 0.000000
0.000000 0.000000 0.000000
0.000000 0.000000 0.000000
0.000000 0.000000 0.000000
0.000000 0.000000 0.041331
0.000000 0.000000 0.097972
0.000000 0.000000 0.149530
0.000000 0.000000 0.194893
0.000000 0.022926 0.232927
0.000000 0.085514 0.262481
0.000000 0.133070 0.282384
0.000000 0.163833 0.291446
0.000000 0.175954 0.288459
0.000000 0.167500 0.272197
0.000000 0.136450 0.241412
0.000000 0.080697 0.194841
0.000000 0.000000 0.131198
0.000000 0.000000 0.049181
0.000000 0.000000 0.000000
0.000000 0.000000 0.000000
0.000000 0.000000 0.000000
0.000000 0.000000 0.000000
0.000000 0.000000 0.000000
0.000000 0.000000 0.000000
0.000000 0.000000 0.000000
0.000000 0.000000 0.000000
0.000000 0.000000 0.000000
0.000000 0.000000 0.000000
0.000000 0.000000 0.000000
0.000000 0.000000 0.000000
0.000000 0.000000 0.000000
0.000000 0.000000 0.000000
0.000000 0.000000 0.000000
0.000000 0.000000 0.000000
0.000000 0.000000 0.000000
0.000000 0.000000 0.000000
0.000000 0.000000 0.000000
0.000000 0.000000 0.000000
0.000000 0.000000 0.010764
0.000000 0.000000 0.069391
0.000000 0.000000 0.121293
0.000000 0.000000 0.165308
0.000000 0.040276 0.200257
0.000000 0.093236 0.224941
0.000000 0.127951 0.238142
0.000000 0.142515 0.238623
0.000000 0.134939 0.225128
0.000000 0.103144 0.196382
0.000000 0.044968 0.151093
0.000000 0.000000 0.087948
0.000000 0.000000 0.005615
0.000000 0.000000 0.000000
0.000000 0.000000 0.000000
0.000000 0.000000 0.000000
0.000000 0.000000 0.000000
0.000000 0.000000 0.000000
0.000000 0.000000 0.000000
0.000000 0.000000 0.000000
0.000000 0.000000 0.000000
0.000000 0.000000 0.000000
0.000000 0.000000 0.000000
0.000000 0.000000 0.000000
0.000000 0.000000 0.000000
0.000000 0.000000 0.000000
0.000000 0.000000 0.000000
0.000000 0.000000 0.000000
0.000000 0.000000 0.000000
0.000000 0.000000 0.000000
0.000000 0.000000 0.000000
0.000000 0.000000 0.000000
0.000000 0.000000 0.000000
0.000000 0.000000 0.000000
0.000000 0.000000 0.000000
0.000000 0.000000 0.048700
0.000000 0.000000 0.099679
0.000000 0.000000 0.140982
0.000000 0.051670 0.171382
0.000000 0.090501 0.189631
0.000000 0.107630 0.194465
0.000000 0.101009 0.184600
0.000000 0.068503 0.158732
0.000000 0.007893 0.115540
0.000000 0.000000 0.053682
0.000000 0.000000 0.000000
0.000000 0.000000 0.000000
0.000000 0.000000 0.000000
0.000000 0.000000 0.000000
0.000000 0.000000 0.000000
0.000000 0.000000 0.000000
0.000000 0.000000 0.000000
0.000000 0.000000 0.000000
0.000000 0.000000 0.000000
0.000000 0.000000 0.000000
0.000000 0.000000 0.000000
0.000000 0.000000 0.000000
0.000000 0.000000 0.000000
0.000000 0.000000 0.000000
0.000000 0.000000 0.000000
0.000000 0.000000 0.000000
0.000000 0.000000 0.000000
0.000000 0.000000 0.000000
0.000000 0.000000 0.000000
0.000000 0.000000 0.000000
0.000000 0.000000 0.000000
0.000000 0.000000 0.000000
0.000000 0.000000 0.000000
0.000000 0.000000 0.000000
0.000000 0.000000 0.037715
0.000000 0.000000 0.086389
0.000000 0.010277 0.123497
0.000000 0.053434 0.147764
0.000000 0.073291 0.157897
0.000000 0.067746 0.152582
0.000000 0.034606 0.130489
0.000000 0.000000 0.090267
0.000000 0.000000 0.030546
0.000000 0.000000 0.000000
0.000000 0.000000 0.000000
0.000000 0.000000 0.000000
0.000000 0.000000 0.000000
0.000000 0.000000 0.000000
0.000000 0.000000 0.000000
0.000000 0.000000 0.000000
0.000000 0.000000 0.000000
0.000000 0.000000 0.000000
0.000000 0.000000 0.000000
0.000000 0.000000 0.000000
0.000000 0.000000 0.000000
0.000000 0.000000 0.000000
0.000000 0.000000 0.000000
0.000000 0.000000 0.000000
0.000000 0.000000 0.000000
0.000000 0.000000 0.000000
0.000000 0.000000 0.000000
0.000000 0.000000 0.000000
0.000000 0.000000 0.000000
0.000000 0.000000 0.000000
0.000000 0.000000 0.000000
0.000000 0.000000 0.000000
0.000000 0.000000 0.000000
0.000000 0.000000 0.000000
0.000000 0.000000 0.038369
0.000000 0.000000 0.083238
0.000000 0.018825 0.114551
0.000000 0.041620 0.130987
0.000000 0.037315 0.131203
0.000000 0.003661 0.113841
0.000000 0.000000 0.077521
0.000000 0.000000 0.020846
0.000000 0.000000 0.000000
0.000000 0.000000 0.000000
0.000000 0.000000 0.000000
0.000000 0.000000 0.000000
0.000000 0.000000 0.000000
0.000000 0.000000 0.000000
0.000000 0.000000 0.000000
0.000000 0.000000 0.000000
0.000000 0.000000 0.000000
0.000000 0.000000 0.000000
0.000000 0.000000 0.000000
0.000000 0.000000 0.000000
0.000000 0.000000 0.000000
0.000000 0.000000 0.000000
0.000000 0.000000 0.000000
0.000000 0.000000 0.000000
0.000000 0.000000 0.000000
0.000000 0.000000 0.000000
0.000000 0.000000 0.000000
0.000000 0.000000 0.000000
0.000000 0.000000 0.000000
0.000000 0.000000 0.000000
0.000000 0.000000 0.000000
0.000000 0.000000 0.000000
0.000000 0.000000 0.000000
0.000000 0.000000 0.000000
0.000000 0.000000 0.052715
0.000000 0.000000 0.092162
0.000000 0.014867 0.115964
0.000000 0.012010 0.122750
0.000000 0.000000 0.111134
0.000000 0.000000 0.079708
0.000000 0.000000 0.027045
0.000000 0.000000 0.000000
0.000000 0.000000 0.000000
0.000000 0.000000 0.000000
0.000000 0.000000 0.000000
0.000000 0.000000 0.000000
0.000000 0.000000 0.000000
0.000000 0.000000 0.000000
0.000000 0.000000 0.000000
0.000000 0.000000 0.000000
0.000000 0.000000 0.000000
0.000000 0.000000 0.000000
0.000000 0.000000 0.000000
0.000000 0.000000 0.000000
0.000000 0.000000 0.000000
0.000000 0.000000 0.000000
0.000000 0.000000 0.000000
0.000000 0.000000 0.000000
0.000000 0.000000 0.000000
0.000000 0.000000 0.000000
0.000000 0.000000 0.000000
0.000000 0.000000 0.000000
0.000000 0.000000 0.000000
0.000000 0.000000 0.000000
0.000000 0.000000 0.000000
0.000000 0.000000 0.000000
0.000000 0.000000 0.000000
0.000000 0.000000 0.034198
0.000000 0.000000 0.082925
0.000000 0.000000 0.115215
0.000000 0.000000 0.129670
0.000000 0.000000 0.124875
0.000000 0.000000 0.099392
0.000000 0.000000 0.051767
0.000000 0.000000 0.000000
0.000000 0.000000 0.000000
0.000000 0.000000 0.000000
0.000000 0.000000 0.000000
0.000000 0.000000 0.000000
0.000000 0.000000 0.000000
0.000000 0.000000 0.000000
0.000000 0.000000 0.000000
0.000000 0.000000 0.000000
0.000000 0.000000 0.000000
0.000000 0.000000 0.000000
0.000000 0.000000 0.000000
0.000000 0.000000 0.000000
0.000000 0.000000 0.000000
0.000000 0.000000 0.000000
0.000000 0.000000 0.000000
0.000000 0.000000 0.000000
0.000000 0.000000 0.000000
0.000000 0.000000 0.000000
0.000000 0.000000 0.000000
0.000000 0.000000 0.000000
0.000000 0.000000 0.000000
0.000000 0.000000 0.000000
0.000000 0.000000 0.000000
0.000000 0.000000 0.000000
0.000000 0.000000 0.000000
0.000000 0.000000 0.030115
0.000000 0.000000 0.089328
0.000000 0.000000 0.131288
0.000000 0.000000 0.154570
0.000000 0.000000 0.157727
0.000000 0.000000 0.139297
0.000000 0.000000 0.097797
0.000000 0.000000 0.031724
0.000000 0.000000 0.000000
0.000000 0.000000 0.000000
0.000000 0.000000 0.000000
0.000000 0.000000 0.000000
0.000000 0.000000 0.000000
0.000000 0.000000 0.000000
0.000000 0.000000 0.000000
0.000000 0.000000 0.000000
0.000000 0.000000 0.000000
0.000000 0.000000 0.000000
0.000000 0.000000 0.000000
0.000000 0.000000 0.000000
0.000000 0.000000 0.000000
0.000000 0.000000 0.000000
0.000000 0.000000 0.000000
0.000000 0.000000 0.000000
0.000000 0.000000 0.000000
0.000000 0.000000 0.000000
0.000000 0.000000 0.000000
0.000000 0.000000 0.000000
0.000000 0.000000 0.000000
0.000000 0.000000 0.000000
0.000000 0.000000 0.000000
0.000000 0.000000 0.000000
0.000000 0.000000 0.000000
0.000000 0.000000 0.043056
0.000000 0.000000 0.114018
0.000000 0.000000 0.166889
0.000000 0.000000 0.200213
0.000000 0.000000 0.212517
0.000000 0.000000 0.202308
0.000000 0.000000 0.168076
0.000000 0.000000 0.108289
0.000000 0.000000 0.021399
0.000000 0.000000 0.000000
0.000000 0.000000 0.000000
0.000000 0.000000 0.000000
0.000000 0.000000 0.000000
0.000000 0.000000 0.000000
0.000000 0.000000 0.000000
0.000000 0.000000 0.000000
0.000000 0.000000 0.000000
0.000000 0.000000 0.000000
0.000000 0.000000 0.000000
0.000000 0.000000 0.000000
0.000000 0.000000 0.000000
0.000000 0.000000 0.000000
0.000000 0.000000 0.000000
0.000000 0.000000 0.000000
0.000000 0.000000 0.000000
0.000000 0.000000 0.000000
0.000000 0.000000 0.000000
0.000000 0.000000 0.000000
0.000000 0.000000 0.000000
0.000000 0.000000 0.000000
0.000000 0.000000 0.000000
0.000000 0.000000 0.000000
0.000000 0.000000 0.000000
0.000000 0.000000 0.075767
0.000000 0.000000 0.159803
0.000000 0.006585 0.224884
0.000000 0.012473 0.269526
0.000000 0.000000 0.292227
0.000000 0.000000 0.291467
0.000000 0.000000 0.265706
0.000000 0.000000 0.213385
0.000000 0.000000 0.132926
0.000000 0.000000 0.022734
0.000000 0.000000 0.000000
0.000000 0.000000 0.000000
0.000000 0.000000 0.000000
0.000000 0.000000 0.000000
0.000000 0.000000 0.000000
0.000000 0.000000 0.000000
0.000000 0.000000 0.000000
0.000000 0.000000 0.000000
0.000000 0.000000 0.000000
0.000000 0.000000 0.000000
0.000000 0.000000 0.000000
0.000000 0.000000 0.000000
0.000000 0.000000 0.000000
0.000000 0.000000 0.000000
0.000000 0.000000 0.000000
0.000000 0.000000 0.000000
0.000000 0.000000 0.000000
0.000000 0.000000 0.000000
0.000000 0.000000 0.000000
0.000000 0.000000 0.000000
0.000000 0.000000 0.000000
0.000000 0.000000 0.000000
0.000000 0.000000 0.014313
0.000000 0.000000 0.131156
0.000000 0.000000 0.229648
0.000000 0.042717 0.308297
0.000000 0.051747 0.365591
0.000000 0.019984 0.400001
0.000000 0.000000 0.409976
0.000000 0.000000 0.393948
0.000000 0.000000 0.350331
0.000000 0.000000 0.277518
0.000000 0.000000 0.173885
0.000000 0.000000 0.037788
0.000000 0.000000 0.000000
0.000000 0.000000 0.000000
0.000000 0.000000 0.000000
0.000000 0.000000 0.000000
0.000000 0.000000 0.000000
0.000000 0.000000 0.000000
0.000000 0.000000 0.000000
0.000000 0.000000 0.000000
0.000000 0.000000 0.000000
0.000000 0.000000 0.000000
0.000000 0.000000 0.000000
0.000000 0.000000 0.000000
0.000000 0.000000 0.000000
0.000000 0.000000 0.000000
0.000000 0.000000 0.000000
0.000000 0.000000 0.000000
0.000000 0.000000 0.000000
0.000000 0.000000 0.000000
0.000000 0.000000 0.000000
0.000000 0.000000 0.000000
0.000000 0.000000 0.000000
0.000000 0.000000 0.078664
0.000000 0.000000 0.212288
0.000000 0.047139 0.326678
0.000000 0.099991 0.420313
0.000000 0.112633 0.491653
0.000000 0.082421 0.539140
0.000000 0.006623 0.561196
0.000000 0.000000 0.556223
0.000000 0.000000 0.522608
0.000000 0.000000 0.458714
0.000000 0.000000 0.362889
0.000000 0.000000 0.233461
0.000000 0.000000 0.068739
0.000000 0.000000 0.000000
0.000000 0.000000 0.000000
0.000000 0.000000 0.000000
0.000000 0.000000 0.000000
0.000000 0.000000 0.000000
0.000000 0.000000 0.000000
0.000000 0.000000 0.000000
0.000000 0.000000 0.000000
0.000000 0.000000 0.000000
0.000000 0.000000 0.000000
0.000000 0.000000 0.000000
0.000000 0.000000 0.000000
0.000000 0.000000 0.000000
0.000000 0.000000 0.000000
0.000000 0.000000 0.000000
0.000000 0.000000 0.000000
0.000000 0.000000 0.000000
0.000000 0.000000 0.000000
0.000000 0.000000 0.000000
0.000000 0.000000 0.000000
0.002853 0.000000 0.170460
0.000000 0.023868 0.322389
0.000000 0.122538 0.454178
0.000000 0.181565 0.564275
0.000000 0.198332 0.651114
0.000000 0.170139 0.713107
0.000000 0.094199 0.748648
0.000000 0.000000 0.756111
0.000000 0.000000 0.733853
0.000000 0.000000 0.680211
0.000000 0.000000 0.593503
0.000000 0.000000 0.472029
0.000000 0.000000 0.314069
0.000000 0.000000 0.117884
0.000000 0.000000 0.000000
0.000000 0.000000 0.000000
0.000000 0.000000 0.000000
0.000000 0.000000 0.000000
0.000000 0.000000 0.000000
0.000000 0.000000 0.000000
0.000000 0.000000 0.000000
0.000000 0.000000 0.000000
0.000000 0.000000 0.000000
0.000000 0.000000 0.000000
0.000000 0.000000 0.000000
0.000000 0.000000 0.000000
0.000000 0.000000 0.000000
0.000000 0.000000 0.000000
0.000000 0.000000 0.000000
0.044335 0.000000 0.000000
0.126766 0.000000 0.000000
0.186186 0.000000 0.000000
0.220331 0.000000 0.101694
0.226860 0.000000 0.293026
0.203353 0.117442 0.464845
0.147309 0.224923 0.615591
0.056150 0.290724 0.743687
0.000000 0.312173 0.847536
0.000000 0.286514 0.925522
0.000000 0.210901 0.976012
0.000000 0.082404 0.997350
0.000000 0.000000 0.987865
0.000000 0.000000 0.945866
0.000000 0.000000 0.869643
0.000000 0.000000 0.757465
0.000000 0.000000 0.607587
0.000000 0.000000 0.418239
0.000000 0.000000 0.187638
0.000000 0.000000 0.000000
0.000000 0.000000 0.000000
0.000000 0.000000 0.000000
0.000000 0.000000 0.000000
0.000000 0.000000 0.000000
0.000000 0.000000 0.000000
0.000000 0.000000 0.000000
0.000000 0.000000 0.000000
0.000000 0.000000 0.000000
0.000000 0.000000 0.000000
0.000000 0.000000 0.000000
0.000000 0.000000 0.000000
0.047166 0.000000 0.000000
0.180731 0.000000 0.000000
0.294097 0.000000 0.000000
0.385103 0.000000 0.000000
0.451511 0.000000 0.003393
0.491004 0.000000 0.236056
0.501183 0.082589 0.449847
0.479574 0.240686 0.643198
0.423620 0.357665 0.814521
0.330689 0.430885 0.962210
0.198066 0.457617 1.000000
0.022961 0.435047 1.000000
0.000000 0.360274 1.000000
0.000000 0.230311 1.000000
0.000000 0.042084 1.000000
0.000000 0.000000 1.000000
0.000000 0.000000 1.000000
0.000000 0.000000 1.000000
0.000000 0.000000 0.953487
0.000000 0.000000 0.772331
0.000000 0.000000 0.548625
