public/luts/zero_mute.cube
# Generated from ColorChecker fit
LUT_3D_SIZE 5
DOMAIN_MIN 0.0 0.0 0.0
DOMAIN_MAX 1.0 1.0 1.0
0.442407 0.267524 0.558684
0.181381 0.036147 0.736909
0.266353 0.000000 0.848056
0.145383 0.000000 0.462598
0.000000 0.000000 0.000000
0.000000 0.000000 0.113417
0.000000 0.020880 0.412158
0.000000 0.247884 0.492089
0.000000 0.000000 0.000000
0.000000 0.000000 0.000000
0.000000 0.000000 0.000000
0.000000 0.000000 0.000000
0.000000 0.037315 0.131203
0.000000 0.000000 0.000000
0.000000 0.000000 0.000000
0.000000 0.000000 0.000000
0.000000 0.000000 0.000000
0.000000 0.198332 0.651114
0.000000 0.000000 0.314069
0.000000 0.000000 0.000000
0.871337 0.000000 0.000000
1.000000 0.095540 0.636204
1.000000 1.000000 1.000000
0.000000 0.226907 1.000000
0.000000 0.000000 1.000000
0.657514 0.561659 0.138795
0.042078 0.000000 0.000000
0.315455 0.000000 0.377864
1.000000 0.000000 1.000000
1.000000 0.000000 1.000000
0.441055 0.305244 0.241234
0.185012 0.248211 0.247896
0.394117 0.330945 0.551732
0.562400 0.027500 0.792354
0.000000 0.000000 0.531960
0.000000 0.000000 0.000000
0.000000 0.196764 0.107206
0.150021 0.604973 0.617220
0.000000 0.000000 0.620083
0.000000 0.000000 0.000000
0.000000 0.000000 0.000000
0.484304 0.309897 0.026682
0.697617 1.000000 1.000000
0.000000 0.000000 1.000000
0.000000 0.000000 0.000000
1.000000 0.000000 0.000000
1.000000 1.000000 1.000000
1.000000 1.000000 1.000000
1.000000 1.000000 1.000000
0.000000 0.000000 1.000000
1.000000 1.000000 0.559368
0.176780 0.000000 0.000000
0.334446 0.000000 0.289428
1.000000 0.007143 1.000000
1.000000 1.000000 1.000000
1.000000 1.000000 0.749321
0.405580 0.272688 0.237955
0.566616 0.107117 0.445503
1.000000 0.408363 1.000000
1.000000 0.534057 1.000000
0.382333 0.460666 0.246950
0.211766 0.427309 0.206878
0.371612 0.490481 0.480904
0.401870 0.129501 0.777779
0.000000 0.000000 0.728840
0.000000 0.000000 0.000000
0.481343 0.693612 0.081704
0.745722 1.000000 0.900623
0.000000 0.188665 1.000000
0.000000 0.000000 0.262774
1.000000 0.000000 0.000000
1.000000 1.000000 0.778113
1.000000 1.000000 1.000000
1.000000 1.000000 1.000000
0.000000 0.000000 1.000000
1.000000 1.000000 0.998218
0.457273 0.000000 0.082483
0.398818 0.000000 0.596803
1.000000 1.000000 1.000000
1.000000 1.000000 1.000000
1.000000 1.000000 1.000000
0.707058 0.384036 0.318518
0.722159 0.143584 0.527706
1.000000 1.000000 1.000000
1.000000 1.000000 1.000000
1.000000 1.000000 0.796597
0.451357 0.542080 0.324555
0.523404 0.393838 0.416803
1.000000 0.789741 0.967655
1.000000 1.000000 1.000000
0.177136 0.524620 0.000000
0.458011 0.727814 0.173398
0.680677 0.883857 0.578727
0.431104 0.477334 0.745641
0.000000 0.000000 0.374615
0.753999 0.128367 0.000000
1.000000 1.000000 0.590364
1.000000 1.000000 1.000000
1.000000 1.000000 1.000000
0.000000 0.000000 1.000000
1.000000 1.000000 0.000000
0.630333 0.000000 0.000000
0.459050 0.080641 0.677176
1.000000 1.000000 1.000000
1.000000 1.000000 1.000000
1.000000 1.000000 0.341682
1.000000 0.555239 0.000000
1.000000 0.690794 0.515770
1.000000 1.000000 1.000000
1.000000 1.000000 1.000000
1.000000 1.000000 0.437230
0.964904 0.646875 0.099793
1.000000 0.698303 0.482592
1.000000 1.000000 1.000000
1.000000 1.000000 1.000000
0.884901 1.000000 0.000000
0.913570 0.651114 0.281565
1.000000 0.839447 0.701916
1.000000 1.000000 1.000000
1.000000 1.000000 1.000000
1.000000 0.639807 0.000000
1.000000 1.000000 0.869167
1.000000 1.000000 1.000000
1.000000 1.000000 1.000000
0.558565 0.562247 1.000000
