public/luts/zero_mute.cube
# Generated from ColorChecker fit
LUT_3D_SIZE 9
DOMAIN_MIN 0.0 0.0 0.0
DOMAIN_MAX 1.0 1.0 1.0
0.442407 0.267524 0.558684
0.246798 0.122141 0.632360
0.181381 0.036147 0.736909
0.207523 0.000000 0.825899
0.266353 0.000000 0.848056
0.278757 0.000000 0.747272
0.145383 0.000000 0.462598
0.000000 0.000000 0.000000
0.000000 0.000000 0.000000
0.263054 0.000000 0.431959
0.140711 0.039479 0.520636
0.118529 0.127765 0.631575
0.143723 0.196959 0.711064
0.143267 0.177202 0.700556
0.023893 0.000000 0.536664
0.000000 0.000000 0.151163
0.000000 0.000000 0.000000
0.000000 0.000000 0.000000
0.000000 0.000000 0.113417
0.000000 0.000000 0.259041
0.000000 0.020880 0.412158
0.000000 0.214370 0.511783
0.000000 0.247884 0.492089
0.000000 0.014921 0.282415
0.000000 0.000000 0.000000
0.000000 0.000000 0.000000
0.000000 0.000000 0.000000
0.000000 0.000000 0.000000
0.000000 0.000000 0.000000
0.000000 0.000000 0.097972
0.000000 0.085514 0.262481
0.000000 0.167500 0.272197
0.000000 0.000000 0.049181
0.000000 0.000000 0.000000
0.000000 0.000000 0.000000
0.000000 0.000000 0.000000
0.000000 0.000000 0.000000
0.000000 0.000000 0.000000
0.000000 0.000000 0.000000
0.000000 0.000000 0.038369
0.000000 0.037315 0.131203
0.000000 0.000000 0.000000
0.000000 0.000000 0.000000
0.000000 0.000000 0.000000
0.000000 0.000000 0.000000
0.000000 0.000000 0.000000
0.000000 0.000000 0.000000
0.000000 0.000000 0.000000
0.000000 0.000000 0.000000
0.000000 0.000000 0.200213
0.000000 0.000000 0.108289
0.000000 0.000000 0.000000
0.000000 0.000000 0.000000
0.000000 0.000000 0.000000
0.000000 0.000000 0.000000
0.000000 0.000000 0.000000
0.000000 0.000000 0.000000
0.002853 0.000000 0.170460
0.000000 0.198332 0.651114
0.000000 0.000000 0.733853
0.000000 0.000000 0.314069
0.000000 0.000000 0.000000
0.000000 0.000000 0.000000
0.000000 0.000000 0.000000
0.284116 0.000000 0.000000
0.957606 0.000000 0.000000
1.000000 0.406632 0.880992
0.916512 0.857799 1.000000
0.000000 0.446117 1.000000
0.000000 0.000000 1.000000
0.000000 0.000000 0.899238
0.000000 0.000000 0.000000
0.871337 0.000000 0.000000
1.000000 0.000000 0.000000
1.000000 0.095540 0.636204
1.000000 1.000000 1.000000
1.000000 1.000000 1.000000
1.000000 1.000000 1.000000
0.000000 0.226907 1.000000
0.000000 0.000000 1.000000
0.000000 0.000000 1.000000
0.466864 0.379818 0.217173
0.179469 0.090463 0.202102
0.074349 0.000000 0.283412
0.129898 0.000000 0.426268
0.304270 0.000000 0.590997
0.535379 0.000000 0.733086
0.740899 0.000000 0.803184
0.818265 0.000000 0.747103
0.644668 0.000000 0.505816
0.393038 0.244853 0.262662
0.192587 0.158854 0.271601
0.142283 0.142203 0.363477
0.206367 0.162014 0.496180
0.328838 0.163275 0.622757
0.433458 0.068852 0.691420
0.423746 0.000000 0.645543
0.182983 0.000000 0.423659
0.000000 0.000000 0.000000
0.154406 0.000000 0.124548
0.058590 0.029580 0.196417
0.071635 0.190382 0.331626
0.143629 0.328898 0.480784
0.204417 0.375597 0.589666
0.163607 0.238828 0.599205
0.000000 0.000000 0.445498
0.000000 0.000000 0.059803
0.000000 0.000000 0.000000
0.000000 0.000000 0.000000
0.000000 0.000000 0.000000
0.000000 0.090546 0.195273
0.004143 0.354772 0.402612
0.000358 0.442671 0.529368
0.000000 0.248074 0.509199
0.000000 0.000000 0.270923
0.000000 0.000000 0.000000
0.000000 0.000000 0.000000
0.000000 0.000000 0.000000
0.000000 0.000000 0.000000
0.000000 0.000000 0.002616
0.000000 0.326510 0.324975
0.000000 0.462535 0.520290
0.000000 0.205791 0.514941
0.000000 0.000000 0.230472
0.000000 0.000000 0.000000
0.000000 0.000000 0.000000
0.000000 0.000000 0.000000
0.000000 0.000000 0.000000
0.000000 0.000000 0.000000
0.002562 0.364136 0.351967
0.000000 0.566375 0.681638
0.000000 0.254330 0.750754
0.000000 0.000000 0.473581
0.000000 0.000000 0.000000
0.000000 0.000000 0.000000
0.000000 0.000000 0.000000
0.000000 0.000000 0.000000
0.287943 0.000000 0.000000
0.523186 0.620818 0.628463
0.377273 0.918524 1.000000
0.000000 0.569188 1.000000
0.000000 0.000000 1.000000
0.000000 0.000000 0.471731
0.000000 0.000000 0.000000
0.000000 0.000000 0.000000
0.690037 0.000000 0.000000
1.000000 0.222485 0.180528
1.000000 1.000000 1.000000
1.000000 1.000000 1.000000
0.768565 1.000000 1.000000
0.000000 0.024143 1.000000
0.000000 0.000000 1.000000
0.000000 0.000000 0.606203
1.000000 0.000000 0.000000
1.000000 0.000000 0.000000
1.000000 1.000000 1.000000
1.000000 1.000000 1.000000
1.000000 1.000000 1.000000
1.000000 1.000000 1.000000
0.979784 1.000000 1.000000
0.000000 0.000000 1.000000
0.000000 0.000000 1.000000
0.657514 0.561659 0.138795
0.233875 0.079344 0.000000
0.042078 0.000000 0.000000
0.077544 0.000000 0.134201
0.315455 0.000000 0.377864
0.710751 0.000000 0.693299
1.000000 0.000000 1.000000
1.000000 0.000000 1.000000
1.000000 0.000000 1.000000
0.633460 0.539018 0.274859
0.310603 0.255901 0.155361
0.185362 0.092285 0.173587
0.239005 0.030131 0.299023
0.432559 0.029275 0.496316
0.706813 0.027430 0.725276
0.982312 0.000000 0.940872
1.000000 0.000000 1.000000
1.000000 0.000000 1.000000
0.441055 0.305244 0.241234
0.235917 0.240212 0.187918
0.185012 0.248211 0.247896
0.255454 0.296682 0.383377
0.394117 0.330945 0.551732
0.527635 0.274194 0.705493
0.562400 0.027500 0.792354
0.384566 0.000000 0.755170
0.000000 0.000000 0.531960
0.114695 0.000000 0.003208
0.051107 0.060454 0.067084
0.089211 0.258875 0.213668
0.181967 0.425537 0.397895
0.262096 0.491240 0.569857
0.242076 0.364660 0.674810
0.014149 0.000000 0.653172
0.000000 0.000000 0.440521
0.000000 0.000000 0.000000
0.000000 0.000000 0.000000
0.000000 0.000000 0.000000
0.000000 0.196764 0.107206
0.125176 0.500345 0.393991
0.150021 0.604973 0.617220
0.000000 0.404806 0.714870
0.000000 0.000000 0.620083
0.000000 0.000000 0.261161
0.000000 0.000000 0.000000
0.000000 0.000000 0.000000
0.000000 0.000000 0.000000
0.061776 0.167511 0.005589
0.243277 0.637903 0.463862
0.222979 0.800104 0.801131
0.000000 0.533756 0.948097
0.000000 0.000000 0.830626
0.000000 0.000000 0.369743
0.000000 0.000000 0.000000
0.000000 0.000000 0.000000
0.022209 0.000000 0.000000
0.484304 0.309897 0.026682
0.746020 0.988155 0.740486
0.697617 1.000000 1.000000
0.209114 0.923781 1.000000
0.000000 0.000000 1.000000
0.000000 0.000000 0.959702
0.000000 0.000000 0.000000
0.000000 0.000000 0.000000
0.840979 0.000000 0.000000
1.000000 0.795847 0.329132
1.000000 1.000000 1.000000
1.000000 1.000000 1.000000
1.000000 1.000000 1.000000
0.000000 0.567149 1.000000
0.000000 0.000000 1.000000
0.000000 0.000000 1.000000
1.000000 0.000000 0.000000
1.000000 0.007052 0.000000
1.000000 1.000000 1.000000
1.000000 1.000000 1.000000
1.000000 1.000000 1.000000
1.000000 1.000000 1.000000
1.000000 1.000000 1.000000
0.000000 0.000000 1.000000
0.000000 0.000000 1.000000
0.984589 0.827671 0.280484
0.392978 0.120750 0.000000
0.080262 0.000000 0.000000
0.058889 0.000000 0.000000
0.321066 0.000000 0.270121
0.838763 0.000000 0.715507
1.000000 0.000000 1.000000
1.000000 0.049248 1.000000
1.000000 0.321822 1.000000
0.970228 0.885256 0.446751
0.493395 0.370887 0.176249
0.259134 0.035619 0.092368
0.265739 0.000000 0.176191
0.491264 0.000000 0.403964
0.893523 0.000000 0.747092
1.000000 0.089857 1.000000
1.000000 0.159736 1.000000
1.000000 0.057706 1.000000
0.784566 0.734624 0.462938
0.438695 0.432254 0.259138
0.289916 0.260275 0.212697
0.322367 0.200975 0.297422
0.499951 0.214520 0.482281
0.766328 0.238952 0.731404
1.000000 0.190190 1.000000
1.000000 0.000000 1.000000
1.000000 0.000000 1.000000
0.454612 0.389562 0.282439
0.262781 0.329803 0.193325
0.213403 0.340479 0.226154
0.276464 0.389362 0.347456
0.401711 0.422100 0.518922
0.518650 0.362215 0.697406
0.536549 0.111109 0.834923
0.344432 0.000000 0.878650
0.000000 0.000000 0.770925
0.058937 0.000000 0.000000
0.051117 0.121630 0.000000
0.121952 0.345493 0.157141
0.227277 0.521848 0.365809
0.302683 0.581822 0.568517
0.263525 0.434422 0.714843
0.004915 0.000000 0.749524
0.000000 0.000000 0.612460
0.000000 0.000000 0.238714
0.000000 0.000000 0.000000
0.000000 0.000000 0.000000
0.159478 0.377725 0.070842
0.325614 0.712003 0.432781
0.360570 0.818423 0.726480
0.165546 0.591473 0.894241
0.000000 0.000000 0.873526
0.000000 0.000000 0.596957
0.000000 0.000000 0.000000
0.000000 0.000000 0.000000
0.120185 0.000000 0.000000
0.521457 0.572729 0.073225
0.773844 1.000000 0.669451
0.784632 1.000000 1.000000
0.440867 1.000000 1.000000
0.000000 0.102277 1.000000
0.000000 0.000000 1.000000
0.000000 0.000000 0.228397
0.036682 0.000000 0.000000
0.829642 0.000000 0.000000
1.000000 1.000000 0.311036
1.000000 1.000000 1.000000
1.000000 1.000000 1.000000
1.000000 1.000000 1.000000
0.243081 0.776168 1.000000
0.000000 0.000000 1.000000
0.000000 0.000000 1.000000
1.000000 0.000000 0.000000
1.000000 0.553806 0.000000
1.000000 1.000000 0.971806
1.000000 1.000000 1.000000
1.000000 1.000000 1.000000
1.000000 1.000000 1.000000
1.000000 1.000000 1.000000
0.000000 0.000000 1.000000
0.000000 0.000000 1.000000
1.000000 1.000000 0.559368
0.631926 0.226853 0.106787
0.176780 0.000000 0.000000
0.074542 0.000000 0.000000
0.334446 0.000000 0.289428
0.945488 0.000000 0.847501
1.000000 0.007143 1.000000
1.000000 0.738570 1.000000
1.000000 1.000000 1.000000
1.000000 1.000000 0.716730
0.731790 0.524285 0.298792
0.367157 0.010019 0.110480
0.302857 0.000000 0.144476
0.533971 0.000000 0.388624
1.000000 0.000000 0.825926
1.000000 0.335679 1.000000
1.000000 0.794502 1.000000
1.000000 1.000000 1.000000
1.000000 1.000000 0.749321
0.673427 0.634480 0.395872
0.405580 0.272688 0.237955
0.376334 0.105230 0.260977
0.566616 0.107117 0.445503
0.937114 0.231240 0.767262
1.000000 0.408363 1.000000
1.000000 0.547130 1.000000
1.000000 0.534057 1.000000
0.821945 0.903554 0.598636
0.483353 0.579163 0.354635
0.325459 0.389773 0.265920
0.335276 0.318003 0.310618
0.479578 0.324347 0.462019
0.704898 0.347177 0.688575
0.937529 0.302741 0.953897
1.000000 0.085161 1.000000
1.000000 0.000000 1.000000
0.382333 0.460666 0.246950
0.239648 0.413206 0.172473
0.211766 0.427309 0.206878
0.271548 0.471075 0.321017
0.371612 0.490481 0.480904
0.444340 0.409380 0.647712
0.401870 0.129501 0.777779
0.136102 0.000000 0.822602
0.000000 0.000000 0.728840
0.000000 0.000000 0.000000
0.071948 0.224628 0.000000
0.201030 0.484479 0.114116
0.328571 0.674793 0.360576
0.393035 0.727029 0.585673
0.312649 0.550521 0.743304
0.000000 0.032481 0.782530
0.000000 0.000000 0.647572
0.000000 0.000000 0.277812
0.000000 0.000000 0.000000
0.161450 0.134595 0.000000
0.481343 0.693612 0.081704
0.701329 1.000000 0.538478
0.745722 1.000000 0.900623
0.518595 0.936421 1.000000
0.000000 0.188665 1.000000
0.000000 0.000000 0.861311
0.000000 0.000000 0.262774
0.051647 0.000000 0.000000
0.740913 0.297419 0.000000
1.000000 1.000000 0.244492
1.000000 1.000000 1.000000
1.000000 1.000000 1.000000
1.000000 1.000000 1.000000
0.424230 0.808185 1.000000
0.000000 0.000000 1.000000
0.000000 0.000000 0.909261
1.000000 0.000000 0.000000
1.000000 0.900560 0.000000
1.000000 1.000000 0.778113
1.000000 1.000000 1.000000
1.000000 1.000000 1.000000
1.000000 1.000000 1.000000
1.000000 1.000000 1.000000
0.000000 0.000000 1.000000
0.000000 0.000000 1.000000
1.000000 1.000000 0.852773
0.918054 0.390026 0.284374
0.311699 0.000000 0.015488
0.117302 0.000000 0.057670
0.361125 0.000000 0.417638
1.000000 0.000000 1.000000
1.000000 0.498898 1.000000
1.000000 1.000000 1.000000
1.000000 1.000000 1.000000
1.000000 1.000000 0.983388
1.000000 0.716768 0.447712
0.505174 0.033501 0.178778
0.358835 0.000000 0.180866
0.581888 0.000000 0.453416
1.000000 0.097950 0.991030
1.000000 0.765032 1.000000
1.000000 1.000000 1.000000
1.000000 1.000000 1.000000
1.000000 1.000000 1.000000
0.938801 0.855863 0.544106
0.543425 0.311768 0.295790
0.441505 0.053106 0.272296
0.630995 0.069737 0.465785
1.000000 0.329399 0.863584
1.000000 0.777703 1.000000
1.000000 1.000000 1.000000
1.000000 1.000000 1.000000
1.000000 1.000000 0.892920
0.727189 0.825810 0.518267
0.452476 0.441374 0.326351
0.398232 0.263418 0.306899
0.548257 0.267283 0.444799
0.866110 0.406189 0.720099
1.000000 0.611229 1.000000
1.000000 0.791375 1.000000
1.000000 0.833474 1.000000
0.727835 1.000000 0.571813
0.444657 0.678255 0.355688
0.309914 0.485130 0.271067
0.313495 0.408287 0.300399
0.425044 0.408551 0.421295
0.593970 0.424621 0.606528
0.749438 0.373075 0.824031
0.800375 0.148364 1.000000
0.635467 0.000000 1.000000
0.253317 0.503404 0.068078
0.213457 0.497992 0.082645
0.244883 0.538993 0.171327
0.323329 0.594835 0.309297
0.404288 0.611825 0.466890
0.423012 0.514144 0.609600
0.294514 0.203852 0.698085
0.000000 0.000000 0.688165
0.000000 0.000000 0.530820
0.000000 0.022104 0.000000
0.207402 0.402962 0.000000
0.438089 0.732066 0.109303
0.615335 0.963328 0.430880
0.680478 1.000000 0.693983
0.554619 0.837353 0.856830
0.138616 0.277321 0.872803
0.000000 0.000000 0.690443
0.000000 0.000000 0.253456
0.071445 0.000000 0.000000
0.651863 0.544250 0.000000
1.000000 1.000000 0.207948
1.000000 1.000000 0.803214
1.000000 1.000000 1.000000
1.000000 1.000000 1.000000
0.541579 0.800386 1.000000
0.000000 0.000000 1.000000
0.000000 0.000000 0.584938
0.852608 0.000000 0.000000
1.000000 1.000000 0.000000
1.000000 1.000000 0.630996
1.000000 1.000000 1.000000
1.000000 1.000000 1.000000
1.000000 1.000000 1.000000
1.000000 1.000000 1.000000
0.089590 0.146582 1.000000
0.000000 0.000000 1.000000
1.000000 1.000000 0.998218
1.000000 0.582848 0.372566
0.457273 0.000000 0.082483
0.172155 0.000000 0.151124
0.398818 0.000000 0.596803
1.000000 0.029803 1.000000
1.000000 1.000000 1.000000
1.000000 1.000000 1.000000
1.000000 1.000000 1.000000
1.000000 1.000000 1.000000
1.000000 0.929218 0.507927
0.661117 0.104285 0.208312
0.434334 0.000000 0.222543
0.648409 0.000000 0.561656
1.000000 0.419853 1.000000
1.000000 1.000000 1.000000
1.000000 1.000000 1.000000
1.000000 1.000000 1.000000
1.000000 1.000000 1.000000
1.000000 1.000000 0.610024
0.707058 0.384036 0.318518
0.534220 0.068466 0.289825
0.722159 0.143584 0.527706
1.000000 0.591974 1.000000
1.000000 1.000000 1.000000
1.000000 1.000000 1.000000
1.000000 1.000000 1.000000
1.000000 1.000000 1.000000
1.000000 1.000000 0.611669
0.613738 0.510106 0.361029
0.497348 0.257772 0.316014
0.652495 0.300413 0.473109
1.000000 0.606096 0.823959
1.000000 1.000000 1.000000
1.000000 1.000000 1.000000
1.000000 1.000000 1.000000
1.000000 1.000000 0.796597
0.688372 0.922559 0.486458
0.451357 0.542080 0.324555
0.400810 0.373949 0.304933
0.523404 0.393838 0.416803
0.785572 0.555294 0.644533
1.000000 0.789741 0.967655
1.000000 1.000000 1.000000
1.000000 1.000000 1.000000
0.564947 1.000000 0.344967
0.403158 0.733154 0.248769
0.341675 0.572690 0.238587
0.373259 0.520893 0.301189
0.470429 0.538917 0.418508
0.585466 0.565791 0.567638
0.650408 0.518420 0.720834
0.577056 0.291588 0.845512
0.256967 0.000000 0.904252
0.177136 0.524620 0.000000
0.311623 0.613725 0.000000
0.458011 0.727814 0.173398
0.594907 0.835647 0.390168
0.680677 0.883857 0.578727
0.653448 0.796957 0.708892
0.431104 0.477334 0.745641
0.000000 0.000000 0.649115
0.000000 0.000000 0.374615
0.152602 0.171124 0.000000
0.631754 0.712134 0.000000
1.000000 1.000000 0.240045
1.000000 1.000000 0.698041
1.000000 1.000000 1.000000
1.000000 1.000000 1.000000
0.728047 0.870162 1.000000
0.000000 0.000000 0.958297
0.000000 0.000000 0.406844
0.753999 0.128367 0.000000
1.000000 1.000000 0.000000
1.000000 1.000000 0.590364
1.000000 1.000000 1.000000
1.000000 1.000000 1.000000
1.000000 1.000000 1.000000
1.000000 1.000000 1.000000
0.419737 0.410770 1.000000
0.000000 0.000000 1.000000
1.000000 1.000000 0.793421
1.000000 0.758100 0.195211
0.577942 0.000000 0.000000
0.216272 0.000000 0.130753
0.437430 0.000000 0.729169
1.000000 0.638694 1.000000
1.000000 1.000000 1.000000
1.000000 1.000000 1.000000
1.000000 1.000000 1.000000
1.000000 1.000000 0.902078
1.000000 1.000000 0.324552
0.815101 0.200796 0.070330
0.522202 0.000000 0.166886
0.739112 0.095526 0.636856
1.000000 0.958198 1.000000
1.000000 1.000000 1.000000
1.000000 1.000000 1.000000
1.000000 1.000000 1.000000
1.000000 1.000000 0.996074
1.000000 1.000000 0.460005
0.892273 0.476217 0.198651
0.663004 0.155377 0.232211
0.861364 0.350066 0.576043
1.000000 1.000000 1.000000
1.000000 1.000000 1.000000
1.000000 1.000000 1.000000
1.000000 1.000000 1.000000
1.000000 1.000000 0.981213
1.000000 1.000000 0.522486
0.820716 0.590993 0.283732
0.656825 0.313431 0.277872
0.829227 0.453445 0.512989
1.000000 0.993948 0.992328
1.000000 1.000000 1.000000
1.000000 1.000000 1.000000
1.000000 1.000000 1.000000
1.000000 1.000000 0.804078
0.985210 1.000000 0.473693
0.663243 0.601484 0.302384
0.573373 0.388728 0.295796
0.719301 0.484350 0.454734
1.000000 0.856748 0.775167
1.000000 1.000000 1.000000
1.000000 1.000000 1.000000
1.000000 1.000000 1.000000
0.934866 1.000000 0.452034
0.671141 0.924399 0.316106
0.534229 0.597198 0.272202
0.533915 0.481937 0.318691
0.659746 0.554616 0.449101
0.881030 0.769112 0.652124
1.000000 1.000000 0.911613
1.000000 1.000000 1.000000
1.000000 1.000000 1.000000
0.476464 0.949326 0.000000
0.519881 0.769472 0.092987
0.599608 0.700786 0.251563
0.711278 0.726876 0.420047
0.830284 0.809223 0.584694
0.911778 0.887185 0.726917
0.890673 0.877999 0.823294
0.681642 0.676774 0.845561
0.179116 0.156499 0.760620
0.343834 0.553146 0.000000
0.742030 0.811958 0.000000
1.000000 1.000000 0.339622
1.000000 1.000000 0.714137
1.000000 1.000000 0.990898
1.000000 1.000000 1.000000
1.000000 1.000000 1.000000
0.444218 0.451438 0.951861
0.000000 0.000000 0.530612
0.792246 0.443494 0.000000
1.000000 1.000000 0.000000
1.000000 1.000000 0.676322
1.000000 1.000000 1.000000
1.000000 1.000000 1.000000
1.000000 1.000000 1.000000
1.000000 1.000000 1.000000
0.977225 0.897201 1.000000
0.000000 0.000000 1.000000
1.000000 1.000000 0.000000
1.000000 0.848770 0.000000
0.630333 0.000000 0.000000
0.219011 0.000000 0.000000
0.459050 0.080641 0.677176
1.000000 1.000000 1.000000
1.000000 1.000000 1.000000
1.000000 1.000000 1.000000
1.000000 1.000000 1.000000
1.000000 1.000000 0.152267
1.000000 1.000000 0.000000
0.939429 0.281662 0.000000
0.607476 0.014622 0.000000
0.851765 0.486349 0.562723
1.000000 1.000000 1.000000
1.000000 1.000000 1.000000
1.000000 1.000000 1.000000
1.000000 1.000000 1.000000
1.000000 1.000000 0.341682
1.000000 1.000000 0.000000
1.000000 0.555239 0.000000
0.828569 0.298108 0.000000
1.000000 0.690794 0.515770
1.000000 1.000000 1.000000
1.000000 1.000000 1.000000
1.000000 1.000000 1.000000
1.000000 1.000000 1.000000
1.000000 1.000000 0.458441
1.000000 1.000000 0.098558
1.000000 0.659266 0.000000
0.893052 0.422967 0.092577
1.000000 0.736292 0.490679
1.000000 1.000000 1.000000
1.000000 1.000000 1.000000
1.000000 1.000000 1.000000
1.000000 1.000000 1.000000
1.000000 1.000000 0.437230
1.000000 1.000000 0.186498
0.964904 0.646875 0.099793
0.863248 0.453496 0.194356
1.000000 0.698303 0.482592
1.000000 1.000000 0.972067
1.000000 1.000000 1.000000
1.000000 1.000000 1.000000
1.000000 1.000000 1.000000
1.000000 1.000000 0.253517
1.000000 1.000000 0.175026
0.857556 0.604349 0.188678
0.853040 0.487139 0.304439
1.000000 0.685436 0.527436
1.000000 1.000000 0.857959
1.000000 1.000000 1.000000
1.000000 1.000000 1.000000
1.000000 1.000000 1.000000
0.884901 1.000000 0.000000
0.870134 0.852993 0.095506
0.913570 0.651114 0.281565
1.000000 0.654489 0.484418
1.000000 0.839447 0.701916
1.000000 1.000000 0.927072
1.000000 1.000000 1.000000
1.000000 1.000000 1.000000
1.000000 1.000000 1.000000
0.686041 0.820552 0.000000
1.000000 0.834815 0.020085
1.000000 0.939747 0.465714
1.000000 1.000000 0.836668
1.000000 1.000000 1.000000
1.000000 1.000000 1.000000
1.000000 1.000000 1.000000
1.000000 1.000000 1.000000
0.768307 1.000000 1.000000
1.000000 0.639807 0.000000
1.000000 1.000000 0.061690
1.000000 1.000000 0.869167
1.000000 1.000000 1.000000
1.000000 1.000000 1.000000
1.000000 1.000000 1.000000
1.000000 1.000000 1.000000
1.000000 1.000000 1.000000
0.558565 0.562247 1.000000
