lrplugin/MindfulLensFilmEngine.lrplugin/profiles/modular/color_systems/vision3/5.ML_Vision3_200T+.xmp
<x:xmpmeta xmlns:x="adobe:ns:meta/" x:xmptk="Adobe XMP Core 7.0-c000 1.000000, 0000/00/00-00:00:00        ">
 <rdf:RDF xmlns:rdf="http://www.w3.org/1999/02/22-rdf-syntax-ns#">
  <rdf:Description rdf:about=""
    xmlns:crs="http://ns.adobe.com/camera-raw-settings/1.0/"
   crs:PresetType="Normal"
   crs:Cluster=""
   crs:UUID="F71E353A08234494A50EEBE68FF75800"
   crs:SupportsAmount2="True"
   crs:SupportsAmount="True"
   crs:SupportsColor="True"
   crs:SupportsMonochrome="True"
   crs:SupportsHighDynamicRange="True"
   crs:SupportsNormalDynamicRange="True"
   crs:SupportsSceneReferred="True"
   crs:SupportsOutputReferred="True"
   crs:RequiresRGBTables="False"
   crs:ShowInPresets="True"
   crs:ShowInQuickActions="False"
   crs:CameraModelRestriction=""
   crs:Copyright=""
   crs:ContactInfo=""
   crs:Version="18.2.2"
   crs:ProcessVersion="11.0"
   crs:WhiteBalance="Custom"
   crs:Temperature="4900"
   crs:Tint="-2"
   crs:Exposure2012="+0.10"
   crs:Contrast2012="-4"
   crs:Highlights2012="-50"
   crs:Shadows2012="+38"
   crs:Whites2012="-22"
   crs:Blacks2012="-6"
   crs:Texture="+6"
   crs:Clarity2012="+2"
   crs:Dehaze="-2"
   crs:Vibrance="-10"
   crs:Saturation="+4"
   crs:HueAdjustmentRed="+2"
   crs:HueAdjustmentOrange="-2"
   crs:HueAdjustmentYellow="-6"
   crs:HueAdjustmentGreen="-10"
   crs:HueAdjustmentAqua="-6"
   crs:HueAdjustmentBlue="-4"
   crs:SaturationAdjustmentRed="+4"
   crs:SaturationAdjustmentOrange="-4"
   crs:SaturationAdjustmentYellow="-6"
   crs:SaturationAdjustmentGreen="-2"
   crs:SaturationAdjustmentAqua="+4"
   crs:SaturationAdjustmentBlue="+6"
   crs:LuminanceAdjustmentRed="0"
   crs:LuminanceAdjustmentOrange="+4"
   crs:LuminanceAdjustmentYellow="-2"
   crs:LuminanceAdjustmentGreen="-6"
   crs:LuminanceAdjustmentAqua="-7"
   crs:LuminanceAdjustmentBlue="-8"
   crs:ColorGradeMidtoneHue="32"
   crs:ColorGradeMidtoneSat="2"
   crs:ColorGradeBlending="45"
   crs:GrainAmount="36"
   crs:GrainSize="30"
   crs:GrainFrequency="70"
   crs:RedHue="+4"
   crs:RedSaturation="+2"
   crs:GreenHue="-8"
   crs:GreenSaturation="0"
   crs:BlueHue="-10"
   crs:BlueSaturation="+6"
   crs:ToneCurveName2012="Custom"
   crs:HasSettings="True">
   <crs:Name>
    <rdf:Alt>
     <rdf:li xml:lang="x-default">5.ML_Vision3_200T+</rdf:li>
    </rdf:Alt>
   </crs:Name>
   <crs:ShortName>
    <rdf:Alt>
     <rdf:li xml:lang="x-default"/>
    </rdf:Alt>
   </crs:ShortName>
   <crs:SortName>
    <rdf:Alt>
     <rdf:li xml:lang="x-default"/>
    </rdf:Alt>
   </crs:SortName>
   <crs:Group>
    <rdf:Alt>
     <rdf:li xml:lang="x-default">[01] The Foundation</rdf:li>
    </rdf:Alt>
   </crs:Group>
   <crs:Description>
    <rdf:Alt>
     <rdf:li xml:lang="x-default"/>
    </rdf:Alt>
   </crs:Description>
   <crs:ToneCurvePV2012>
    <rdf:Seq>
     <rdf:li>0, 8</rdf:li>
     <rdf:li>32, 30</rdf:li>
     <rdf:li>64, 62</rdf:li>
     <rdf:li>128, 134</rdf:li>
     <rdf:li>192, 204</rdf:li>
     <rdf:li>224, 218</rdf:li>
     <rdf:li>255, 238</rdf:li>
    </rdf:Seq>
   </crs:ToneCurvePV2012>
   <crs:ToneCurvePV2012Red>
    <rdf:Seq>
     <rdf:li>0, 6</rdf:li>
     <rdf:li>128, 134</rdf:li>
     <rdf:li>255, 250</rdf:li>
    </rdf:Seq>
   </crs:ToneCurvePV2012Red>
   <crs:ToneCurvePV2012Green>
    <rdf:Seq>
     <rdf:li>0, 0</rdf:li>
     <rdf:li>128, 126</rdf:li>
     <rdf:li>255, 244</rdf:li>
    </rdf:Seq>
   </crs:ToneCurvePV2012Green>
   <crs:ToneCurvePV2012Blue>
    <rdf:Seq>
     <rdf:li>0, 4</rdf:li>
     <rdf:li>128, 120</rdf:li>
     <rdf:li>255, 232</rdf:li>
    </rdf:Seq>
   </crs:ToneCurvePV2012Blue>
  </rdf:Description>
 </rdf:RDF>
</x:xmpmeta>
