lrplugin/MindfulLensFilmEngine.lrplugin/profiles/modular/color_systems/vision3/[02] Natural.xmp
<x:xmpmeta xmlns:x="adobe:ns:meta/">
 <rdf:RDF xmlns:rdf="http://www.w3.org/1999/02/22-rdf-syntax-ns#">
  <rdf:Description crs:Group="MindfulLens" rdf:about=""
    xmlns:crs="http://ns.adobe.com/camera-raw-settings/1.0/"
    crs:PresetType="Normal"
    crs:Cluster=""
    crs:UUID="7D0C3BE131FC50B08918DED1E5C15D2C"
    crs:Version="16.0"
    crs:ProcessVersion="11.0"
    crs:HasSettings="True"
    crs:Temperature="5100"
    crs:Saturation="-6" crs:Name="[02] Natural">
   <crs:Name>[02] Natural</crs:Name>
   <crs:Group>MindfulLens</crs:Group>
  </rdf:Description>
 </rdf:RDF>
</x:xmpmeta>
