lrplugin/MindfulLensFilmEngine.lrplugin/profiles/modular/color_systems/vision3/[02] Highlight Soft.xmp
<x:xmpmeta xmlns:x="adobe:ns:meta/">
 <rdf:RDF xmlns:rdf="http://www.w3.org/1999/02/22-rdf-syntax-ns#">
  <rdf:Description crs:Group="MindfulLens" rdf:about=""
    xmlns:crs="http://ns.adobe.com/camera-raw-settings/1.0/"
    crs:PresetType="Normal"
    crs:Cluster=""
    crs:UUID="EF4025C426975C9992FFC8DE9548FF08"
    crs:Version="16.0"
    crs:ProcessVersion="11.0"
    crs:HasSettings="True"
    crs:Contrast2012="-10"
    crs:Highlights2012="-45" crs:Name="[02] Highlight Soft">
   <crs:Name>[02] Highlight Soft</crs:Name>
   <crs:Group>MindfulLens</crs:Group>
  </rdf:Description>
 </rdf:RDF>
</x:xmpmeta>
